/* XPM */
static char * so_door11_tex_xpm[] = {
"132 132 1464 2",
"  	c #2C353E",
". 	c #2C3640",
"+ 	c #2D3741",
"@ 	c #2E3841",
"# 	c #2D3640",
"$ 	c #2D3641",
"% 	c #2D3842",
"& 	c #2E3944",
"* 	c #2E3943",
"= 	c #2F3A45",
"- 	c #2E3842",
"; 	c #2F3B46",
"> 	c #2F3944",
", 	c #2F3A46",
"' 	c #303C46",
") 	c #303B46",
"! 	c #303C47",
"~ 	c #303A45",
"{ 	c #313D4A",
"] 	c #313E4A",
"^ 	c #323E4A",
"/ 	c #323F4A",
"( 	c #313D48",
"_ 	c #35393C",
": 	c #393939",
"< 	c #303B45",
"[ 	c #323F4B",
"} 	c #313D49",
"| 	c #303C48",
"1 	c #2E3843",
"2 	c #2E3A44",
"3 	c #2E3942",
"4 	c #2C363F",
"5 	c #2E3741",
"6 	c #233341",
"7 	c #243342",
"8 	c #233240",
"9 	c #243543",
"0 	c #243443",
"a 	c #253544",
"b 	c #253646",
"c 	c #253645",
"d 	c #243544",
"e 	c #253545",
"f 	c #263746",
"g 	c #273847",
"h 	c #263645",
"i 	c #273645",
"j 	c #283847",
"k 	c #283948",
"l 	c #293A49",
"m 	c #283949",
"n 	c #273848",
"o 	c #293B4A",
"p 	c #293949",
"q 	c #293B4B",
"r 	c #293A4A",
"s 	c #2A3B4B",
"t 	c #2A3B4A",
"u 	c #2B3D4C",
"v 	c #2C3F4F",
"w 	c #2D3F4F",
"x 	c #2C3F50",
"y 	c #2D4151",
"z 	c #2C3D4C",
"A 	c #33393E",
"B 	c #2B3C4B",
"C 	c #2A3C4B",
"D 	c #293C4B",
"E 	c #2D4050",
"F 	c #283848",
"G 	c #283A49",
"H 	c #273948",
"I 	c #273947",
"J 	c #263846",
"K 	c #253746",
"L 	c #243341",
"M 	c #253543",
"N 	c #17222D",
"O 	c #17222C",
"P 	c #17232D",
"Q 	c #18222D",
"R 	c #18242D",
"S 	c #18242E",
"T 	c #17242D",
"U 	c #192530",
"V 	c #19242F",
"W 	c #1A2630",
"X 	c #1A2732",
"Y 	c #1A2631",
"Z 	c #1A2833",
"` 	c #18252F",
" .	c #1B2833",
"..	c #1B2834",
"+.	c #1A2733",
"@.	c #1B2934",
"#.	c #1C2934",
"$.	c #1C2A35",
"%.	c #1C2A36",
"&.	c #1D2A36",
"*.	c #1D2B38",
"=.	c #1E2D39",
"-.	c #1F2F3C",
";.	c #1F2E3B",
">.	c #1F2E3A",
",.	c #1F2C39",
"'.	c #313437",
").	c #303337",
"!.	c #1F2C38",
"~.	c #1E2C38",
"{.	c #1C2B37",
"].	c #1D2D3A",
"^.	c #1D2B37",
"/.	c #1C2935",
"(.	c #1B2733",
"_.	c #1B2933",
":.	c #1A2632",
"<.	c #1A2731",
"[.	c #192631",
"}.	c #192630",
"|.	c #19252F",
"1.	c #18232D",
"2.	c #070C11",
"3.	c #070B10",
"4.	c #070C10",
"5.	c #070D11",
"6.	c #070D12",
"7.	c #080D12",
"8.	c #070D13",
"9.	c #080E12",
"0.	c #080E13",
"a.	c #080F14",
"b.	c #080D13",
"c.	c #080E14",
"d.	c #090E14",
"e.	c #091015",
"f.	c #09131B",
"g.	c #091C2B",
"h.	c #0F1E29",
"i.	c #131F27",
"j.	c #131E27",
"k.	c #131C24",
"l.	c #2F3031",
"m.	c #2E2F31",
"n.	c #131E26",
"o.	c #141F28",
"p.	c #121E27",
"q.	c #091C29",
"r.	c #08151F",
"s.	c #081015",
"t.	c #090F14",
"u.	c #090F15",
"v.	c #060C10",
"w.	c #0B1219",
"x.	c #0B1218",
"y.	c #0C131A",
"z.	c #0C141A",
"A.	c #0B1319",
"B.	c #0D151B",
"C.	c #0C141B",
"D.	c #0B131A",
"E.	c #0D151C",
"F.	c #0E171E",
"G.	c #0C151B",
"H.	c #0A1117",
"I.	c #0A1116",
"J.	c #0C1319",
"K.	c #0E1821",
"L.	c #0F1E2A",
"M.	c #192733",
"N.	c #20303E",
"O.	c #223341",
"P.	c #303336",
"Q.	c #2F3236",
"R.	c #21313F",
"S.	c #223340",
"T.	c #101E28",
"U.	c #0E1A23",
"V.	c #0B151B",
"W.	c #0A1218",
"X.	c #0F161E",
"Y.	c #0E161D",
"Z.	c #0D161C",
"`.	c #0E171D",
" +	c #0F181F",
".+	c #0B141A",
"++	c #121C24",
"@+	c #111B23",
"#+	c #121D25",
"$+	c #121C25",
"%+	c #131D26",
"&+	c #121D26",
"*+	c #131D27",
"=+	c #142028",
"-+	c #14202A",
";+	c #142029",
">+	c #16212B",
",+	c #15222C",
"'+	c #15212B",
")+	c #16222B",
"!+	c #182530",
"~+	c #192732",
"{+	c #21313E",
"]+	c #21323F",
"^+	c #1C2B36",
"/+	c #233644",
"(+	c #1E303F",
"_+	c #293C4C",
":+	c #233340",
"<+	c #313438",
"[+	c #2F3337",
"}+	c #263947",
"|+	c #283B4A",
"1+	c #192834",
"2+	c #263B4B",
"3+	c #1F2F3B",
"4+	c #1D2C38",
"5+	c #20313E",
"6+	c #22333F",
"7+	c #1E2E3A",
"8+	c #192731",
"9+	c #16222C",
"0+	c #15212C",
"a+	c #16232D",
"b+	c #15202A",
"c+	c #131F28",
"d+	c #111B24",
"e+	c #1B2A35",
"f+	c #1B2A36",
"g+	c #1A2934",
"h+	c #182631",
"i+	c #1B2935",
"j+	c #1F303C",
"k+	c #243644",
"l+	c #273949",
"m+	c #283B4B",
"n+	c #2A3E4E",
"o+	c #2C4253",
"p+	c #243847",
"q+	c #1E2E3B",
"r+	c #283C4C",
"s+	c #2A3F4F",
"t+	c #243442",
"u+	c #313538",
"v+	c #303438",
"w+	c #283A4B",
"x+	c #293D4D",
"y+	c #273B4C",
"z+	c #2D4253",
"A+	c #2B4050",
"B+	c #2B3F4F",
"C+	c #2B4051",
"D+	c #2A3E4D",
"E+	c #263948",
"F+	c #20303D",
"G+	c #202F3B",
"H+	c #21303E",
"I+	c #20303C",
"J+	c #1C2B38",
"K+	c #1D2C39",
"L+	c #192632",
"M+	c #1E2C39",
"N+	c #263744",
"O+	c #2C4151",
"P+	c #2C4152",
"Q+	c #2A3F4E",
"R+	c #2E4354",
"S+	c #2E4455",
"T+	c #2D4353",
"U+	c #2F4456",
"V+	c #2D4354",
"W+	c #2D4454",
"X+	c #32485A",
"Y+	c #324A5C",
"Z+	c #32495B",
"`+	c #32495C",
" @	c #31485B",
".@	c #31485A",
"+@	c #2C4354",
"@@	c #1E303E",
"#@	c #1E2D3A",
"$@	c #293E4E",
"%@	c #2A3E4F",
"&@	c #2E4557",
"*@	c #263C4C",
"=@	c #2A3F50",
"-@	c #323639",
";@	c #303539",
">@	c #2B4153",
",@	c #203240",
"'@	c #2D4355",
")@	c #293D4E",
"!@	c #2B3F51",
"~@	c #1F2F3D",
"{@	c #293D4B",
"]@	c #344B5E",
"^@	c #314658",
"/@	c #314859",
"(@	c #2F4557",
"_@	c #304658",
":@	c #2D4252",
"<@	c #2B4151",
"[@	c #2B3F50",
"}@	c #2C4051",
"|@	c #243746",
"1@	c #233544",
"2@	c #233342",
"3@	c #223442",
"4@	c #233543",
"5@	c #2E4355",
"6@	c #2E4353",
"7@	c #2B4152",
"8@	c #304759",
"9@	c #344C5F",
"0@	c #2D4457",
"a@	c #1E313F",
"b@	c #243745",
"c@	c #233443",
"d@	c #2A3D4E",
"e@	c #2E4558",
"f@	c #2E4659",
"g@	c #294052",
"h@	c #293E4F",
"i@	c #2B4052",
"j@	c #273745",
"k@	c #32363A",
"l@	c #30353A",
"m@	c #293D4C",
"n@	c #2C4355",
"o@	c #213443",
"p@	c #2F4558",
"q@	c #223240",
"r@	c #374F62",
"s@	c #2E4456",
"t@	c #2F4457",
"u@	c #2D4455",
"v@	c #2B3E4F",
"w@	c #253846",
"x@	c #223441",
"y@	c #233444",
"z@	c #243645",
"A@	c #253745",
"B@	c #253847",
"C@	c #273A49",
"D@	c #304558",
"E@	c #2E4457",
"F@	c #2D4152",
"G@	c #30485B",
"H@	c #31495D",
"I@	c #2D4659",
"J@	c #1F3342",
"K@	c #223543",
"L@	c #223542",
"M@	c #2D4557",
"N@	c #30475A",
"O@	c #2B4254",
"P@	c #2C4254",
"Q@	c #273846",
"R@	c #33373B",
"S@	c #30363B",
"T@	c #213343",
"U@	c #2F4659",
"V@	c #2A4052",
"W@	c #2C4153",
"X@	c #213240",
"Y@	c #223645",
"Z@	c #31485C",
"`@	c #30485A",
" #	c #31495C",
".#	c #31475A",
"+#	c #2E4658",
"@#	c #273A4A",
"##	c #233645",
"$#	c #334A5C",
"%#	c #304557",
"&#	c #2D4254",
"*#	c #304659",
"=#	c #32495D",
"-#	c #324A5E",
";#	c #1B2F3D",
">#	c #2A3F51",
",#	c #293E50",
"'#	c #30373C",
")#	c #203341",
"!#	c #32495E",
"~#	c #1A2B38",
"{#	c #30495C",
"]#	c #324A5D",
"^#	c #334B5E",
"/#	c #2F4658",
"(#	c #374E62",
"_#	c #253848",
":#	c #233646",
"<#	c #243646",
"[#	c #273A4B",
"}#	c #344A5D",
"|#	c #304657",
"1#	c #314759",
"2#	c #334A5E",
"3#	c #344C60",
"4#	c #324B5F",
"5#	c #334C61",
"6#	c #2E485B",
"7#	c #1D3140",
"8#	c #263A49",
"9#	c #253949",
"0#	c #2D4356",
"a#	c #33373C",
"b#	c #30373D",
"c#	c #1F303F",
"d#	c #1D2E3B",
"e#	c #334A5D",
"f#	c #344D61",
"g#	c #375063",
"h#	c #273B4B",
"i#	c #263A4A",
"j#	c #283B4C",
"k#	c #293C4D",
"l#	c #314758",
"m#	c #334B5F",
"n#	c #334C60",
"o#	c #344D62",
"p#	c #314A5F",
"q#	c #1F3241",
"r#	c #2D4357",
"s#	c #34383D",
"t#	c #31383F",
"u#	c #1F303E",
"v#	c #1E2F3D",
"w#	c #324A5F",
"x#	c #30475B",
"y#	c #344D60",
"z#	c #354E61",
"A#	c #354D61",
"B#	c #344E62",
"C#	c #354D62",
"D#	c #385164",
"E#	c #233442",
"F#	c #283D4C",
"G#	c #293B4C",
"H#	c #283A4A",
"I#	c #344C5E",
"J#	c #324C5F",
"K#	c #2F485C",
"L#	c #1F3140",
"M#	c #1A2834",
"N#	c #2E4458",
"O#	c #34393D",
"P#	c #31393F",
"Q#	c #1E303D",
"R#	c #2D4558",
"S#	c #2C4052",
"T#	c #314A5E",
"U#	c #344C61",
"V#	c #354E62",
"W#	c #354E63",
"X#	c #385165",
"Y#	c #253948",
"Z#	c #263848",
"`#	c #273B4A",
" $	c #334B5D",
".$	c #334D61",
"+$	c #2F495D",
"@$	c #203140",
"#$	c #35393D",
"$$	c #313940",
"%$	c #2A4051",
"&$	c #233746",
"*$	c #3A5368",
"=$	c #2A3D4D",
"-$	c #2C4252",
";$	c #334B60",
">$	c #2F475B",
",$	c #253947",
"'$	c #233545",
")$	c #1C2B39",
"!$	c #2B4154",
"~$	c #2D4456",
"{$	c #243846",
"]$	c #395367",
"^$	c #344B60",
"/$	c #1E3140",
"($	c #253747",
"_$	c #283E4F",
":$	c #35393E",
"<$	c #313A41",
"[$	c #293D4F",
"}$	c #1B2C39",
"|$	c #30465A",
"1$	c #375064",
"2$	c #33495B",
"3$	c #17242E",
"4$	c #203444",
"5$	c #2F475A",
"6$	c #353A3E",
"7$	c #313A42",
"8$	c #182734",
"9$	c #223544",
"0$	c #18242F",
"a$	c #283C4B",
"b$	c #1D2D39",
"c$	c #1C2C39",
"d$	c #314C60",
"e$	c #2B475C",
"f$	c #213D51",
"g$	c #243E50",
"h$	c #17242F",
"i$	c #1D2E3C",
"j$	c #253B4D",
"k$	c #253E52",
"l$	c #2A465A",
"m$	c #1E2F3B",
"n$	c #1D2E39",
"o$	c #1F303D",
"p$	c #1C2C38",
"q$	c #2E4352",
"r$	c #2B3E4E",
"s$	c #30485C",
"t$	c #37546B",
"u$	c #1F4965",
"v$	c #1A74A2",
"w$	c #2A495E",
"x$	c #2A4153",
"y$	c #1A2935",
"z$	c #323B43",
"A$	c #1A2A36",
"B$	c #1C2D3A",
"C$	c #2C4659",
"D$	c #2A5B7B",
"E$	c #265F82",
"F$	c #305069",
"G$	c #365064",
"H$	c #233542",
"I$	c #22323F",
"J$	c #1F2E39",
"K$	c #1E2D38",
"L$	c #20313D",
"M$	c #20303B",
"N$	c #1D2C37",
"O$	c #355065",
"P$	c #1D4864",
"Q$	c #127BB7",
"R$	c #2A4A61",
"S$	c #2C4356",
"T$	c #283E4E",
"U$	c #1B2B38",
"V$	c #2E4A5E",
"W$	c #286388",
"X$	c #246287",
"Y$	c #2F4E66",
"Z$	c #202F3A",
"`$	c #1B2A34",
" %	c #202F3C",
".%	c #233440",
"+%	c #1D2C36",
"@%	c #21303B",
"#%	c #21313D",
"$%	c #21333F",
"%%	c #385268",
"&%	c #1E4864",
"*%	c #137BB9",
"=%	c #2B4B61",
"-%	c #273C4C",
";%	c #303941",
">%	c #2F4A5E",
",%	c #296489",
"'%	c #236389",
")%	c #2F4F66",
"!%	c #30485D",
"~%	c #233441",
"{%	c #21303D",
"]%	c #1F2D39",
"^%	c #243542",
"/%	c #21303C",
"(%	c #1E4966",
"_%	c #0F7CC1",
":%	c #2B4A61",
"<%	c #283D4D",
"[%	c #2B404F",
"}%	c #363A3D",
"|%	c #313B43",
"1%	c #28658A",
"2%	c #23668D",
"3%	c #2F5067",
"4%	c #2E475A",
"5%	c #334C5F",
"6%	c #233643",
"7%	c #223440",
"8%	c #263745",
"9%	c #2E4253",
"0%	c #385368",
"a%	c #1F4966",
"b%	c #0E7DC4",
"c%	c #2C4B62",
"d%	c #36393D",
"e%	c #313A43",
"f%	c #2A6488",
"g%	c #22668F",
"h%	c #2F5069",
"i%	c #2A3E50",
"j%	c #365267",
"k%	c #1E4765",
"l%	c #1279C2",
"m%	c #2D4A61",
"n%	c #303A44",
"o%	c #2A668B",
"p%	c #216690",
"q%	c #2F526B",
"r%	c #2C4456",
"s%	c #32485B",
"t%	c #365167",
"u%	c #1277C2",
"v%	c #2F485D",
"w%	c #2B658A",
"x%	c #206692",
"y%	c #30526B",
"z%	c #31495E",
"A%	c #293F4F",
"B%	c #293F50",
"C%	c #233745",
"D%	c #354F65",
"E%	c #1E4967",
"F%	c #107AC4",
"G%	c #2E4C63",
"H%	c #363A3E",
"I%	c #313B45",
"J%	c #293E4D",
"K%	c #1B2B36",
"L%	c #2F495E",
"M%	c #2B658C",
"N%	c #1F6693",
"O%	c #30536D",
"P%	c #2C4457",
"Q%	c #344F64",
"R%	c #0F7BC7",
"S%	c #2D4C63",
"T%	c #2F3A43",
"U%	c #2C658B",
"V%	c #1F6692",
"W%	c #30526C",
"X%	c #2D4458",
"Y%	c #283C4D",
"Z%	c #26394A",
"`%	c #1E4763",
" &	c #0F7AC6",
".&	c #2C4C63",
"+&	c #2F4A5F",
"@&	c #21668F",
"#&	c #2F5169",
"$&	c #2C4255",
"%&	c #2A4050",
"&&	c #283D4E",
"*&	c #204763",
"=&	c #0F7CC6",
"-&	c #303B44",
";&	c #216790",
">&	c #2A4152",
",&	c #1F4763",
"'&	c #0E7DC5",
")&	c #2C4D64",
"!&	c #2F3B45",
"~&	c #2B4253",
"{&	c #304A5F",
"]&	c #22658F",
"^&	c #2F4759",
"/&	c #1F4864",
"(&	c #0D7EC7",
"_&	c #2D4E65",
":&	c #2B6386",
"<&	c #23648C",
"[&	c #1D445F",
"}&	c #127CBC",
"|&	c #2B4B62",
"1&	c #18252E",
"2&	c #36393C",
"3&	c #2F3A44",
"4&	c #2E4559",
"5&	c #2D475B",
"6&	c #2B6081",
"7&	c #266083",
"8&	c #2B4A60",
"9&	c #253A4A",
"0&	c #2A3F52",
"a&	c #1F3A4E",
"b&	c #2A5875",
"c&	c #253F53",
"d&	c #254A62",
"e&	c #224862",
"f&	c #1C3040",
"g&	c #263949",
"h&	c #253A49",
"i&	c #2C4759",
"j&	c #244055",
"k&	c #254F69",
"l&	c #243C4E",
"m&	c #2E3A43",
"n&	c #273E50",
"o&	c #25485E",
"p&	c #254962",
"q&	c #294458",
"r&	c #304758",
"s&	c #1D4561",
"t&	c #1B73A7",
"u&	c #28485F",
"v&	c #37393C",
"w&	c #293F51",
"x&	c #294356",
"y&	c #2A5F80",
"z&	c #255F83",
"A&	c #2C4960",
"B&	c #1D4764",
"C&	c #127BBD",
"D&	c #2A4B62",
"E&	c #2E3A45",
"F&	c #2C475B",
"G&	c #236289",
"H&	c #2E4D65",
"I&	c #1E4A67",
"J&	c #107CC4",
"K&	c #2A4A62",
"L&	c #293E4C",
"M&	c #2E3A46",
"N&	c #2C485D",
"O&	c #29668C",
"P&	c #216590",
"Q&	c #1E4866",
"R&	c #107BC4",
"S&	c #2D3A44",
"T&	c #29668A",
"U&	c #206792",
"V&	c #2D4F68",
"W&	c #304859",
"X&	c #1E4A68",
"Y&	c #107BC3",
"Z&	c #2A4961",
"`&	c #37393B",
" *	c #2D3943",
".*	c #2B475B",
"+*	c #1D4966",
"@*	c #1279BD",
"#*	c #2A485F",
"$*	c #2D3A45",
"%*	c #2B4559",
"&*	c #296386",
"**	c #236489",
"=*	c #2D4F67",
"-*	c #2B4252",
";*	c #1579B5",
">*	c #29485E",
",*	c #2B4558",
"'*	c #296082",
")*	c #256083",
"!*	c #2A3D4C",
"~*	c #263B4C",
"{*	c #1D2F3B",
"]*	c #1A384C",
"^*	c #21526E",
"/*	c #253E51",
"(*	c #2C3842",
"_*	c #214962",
":*	c #204962",
"<*	c #2B4457",
"[*	c #1A2A37",
"}*	c #1A3040",
"|*	c #2C3742",
"1*	c #1D303F",
"2*	c #1C2E3D",
"3*	c #263845",
"4*	c #17232E",
"5*	c #2C3944",
"6*	c #253A48",
"7*	c #38393B",
"8*	c #2D3B45",
"9*	c #15212A",
"0*	c #37393A",
"a*	c #2B3944",
"b*	c #152029",
"c*	c #1F303B",
"d*	c #213442",
"e*	c #213340",
"f*	c #273C4A",
"g*	c #273A48",
"h*	c #38393A",
"i*	c #2C3945",
"j*	c #20313F",
"k*	c #172B39",
"l*	c #182833",
"m*	c #2B3844",
"n*	c #172936",
"o*	c #213647",
"p*	c #253845",
"q*	c #284155",
"r*	c #1B3F56",
"s*	c #255A77",
"t*	c #1F394B",
"u*	c #273B49",
"v*	c #293F4E",
"w*	c #2A3843",
"x*	c #223746",
"y*	c #285773",
"z*	c #1B445D",
"A*	c #223E53",
"B*	c #294357",
"C*	c #1D4159",
"D*	c #1973A8",
"E*	c #24648A",
"F*	c #2B495F",
"G*	c #293642",
"H*	c #275471",
"I*	c #0F7DC0",
"J*	c #1E4964",
"K*	c #264257",
"L*	c #294153",
"M*	c #1D3F56",
"N*	c #1C6F9F",
"O*	c #1E6D9C",
"P*	c #2D536D",
"Q*	c #293743",
"R*	c #304D64",
"S*	c #285E81",
"T*	c #0980C9",
"U*	c #1E4863",
"V*	c #264055",
"W*	c #273C4D",
"X*	c #1B3648",
"Y*	c #1A72A5",
"Z*	c #2D5570",
"`*	c #192833",
" =	c #2A3844",
".=	c #24638A",
"+=	c #147AB2",
"@=	c #1C3E54",
"#=	c #273C4B",
"$=	c #1A3141",
"%=	c #1D3B4F",
"&=	c #285D7C",
"*=	c #2B536D",
"==	c #293844",
"-=	c #2F4D65",
";=	c #285A78",
">=	c #1F425A",
",=	c #1A3346",
"'=	c #253C4E",
")=	c #1B394F",
"!=	c #275876",
"~=	c #285A77",
"{=	c #2A4C62",
"]=	c #293845",
"^=	c #2D4A60",
"/=	c #224D68",
"(=	c #206A96",
"_=	c #1C4057",
":=	c #253F52",
"<=	c #253946",
"[=	c #263B4A",
"}=	c #1D3C53",
"|=	c #275777",
"1=	c #127DBD",
"2=	c #2C4E65",
"3=	c #1971A8",
"4=	c #216692",
"5=	c #1B3E56",
"6=	c #263E51",
"7=	c #283E51",
"8=	c #1E3D54",
"9=	c #265474",
"0=	c #2D5774",
"a=	c #2B465B",
"b=	c #182630",
"c=	c #21323E",
"d=	c #383939",
"e=	c #263641",
"f=	c #2C4559",
"g=	c #2E526D",
"h=	c #1474B3",
"i=	c #236189",
"j=	c #1B3D56",
"k=	c #263C4F",
"l=	c #283F50",
"m=	c #1D3C54",
"n=	c #234E6C",
"o=	c #0782D3",
"p=	c #2B5B7B",
"q=	c #2C485E",
"r=	c #15222A",
"s=	c #263440",
"t=	c #141F27",
"u=	c #2C4458",
"v=	c #2D5470",
"w=	c #0E7ABF",
"x=	c #265B7D",
"y=	c #1A3A4F",
"z=	c #243A4B",
"A=	c #243948",
"B=	c #1E3B50",
"C=	c #1F4C6A",
"D=	c #0382DA",
"E=	c #2A5C7E",
"F=	c #2C4A60",
"G=	c #24323F",
"H=	c #233642",
"I=	c #141E26",
"J=	c #0E7CC3",
"K=	c #275676",
"L=	c #193549",
"M=	c #25394B",
"N=	c #1E3241",
"O=	c #193950",
"P=	c #295F82",
"Q=	c #2C4A62",
"R=	c #1E2E39",
"S=	c #1C2933",
"T=	c #151F27",
"U=	c #2B5471",
"V=	c #1A2C3A",
"W=	c #213341",
"X=	c #253A4B",
"Y=	c #162936",
"Z=	c #1A3447",
"`=	c #2B516C",
" -	c #2D4B61",
".-	c #1C2C37",
"+-	c #333537",
"@-	c #282D32",
"#-	c #284F69",
"$-	c #1E4256",
"%-	c #162733",
"&-	c #162835",
"*-	c #283C4A",
"=-	c #101C25",
"--	c #141D26",
";-	c #353738",
">-	c #252E35",
",-	c #24394A",
"'-	c #1A2D3A",
")-	c #172430",
"!-	c #213342",
"~-	c #223443",
"{-	c #203340",
"]-	c #16242E",
"^-	c #182732",
"/-	c #152531",
"(-	c #122C3E",
"_-	c #103C55",
":-	c #383839",
"<-	c #212F3A",
"[-	c #2E4556",
"}-	c #2B4354",
"|-	c #17252F",
"1-	c #273D4C",
"2-	c #1C303D",
"3-	c #162C3B",
"4-	c #124361",
"5-	c #11688D",
"6-	c #103447",
"7-	c #35383A",
"8-	c #29343E",
"9-	c #1A2933",
"0-	c #1B3140",
"a-	c #153143",
"b-	c #134B6C",
"c-	c #0B729B",
"d-	c #10394F",
"e-	c #35383B",
"f-	c #293640",
"g-	c #2C4558",
"h-	c #273D4E",
"i-	c #213645",
"j-	c #245570",
"k-	c #27455C",
"l-	c #263C4D",
"m-	c #163449",
"n-	c #144D6E",
"o-	c #0A749E",
"p-	c #103B52",
"q-	c #283641",
"r-	c #284255",
"s-	c #263F52",
"t-	c #205371",
"u-	c #233B4D",
"v-	c #233B4C",
"w-	c #127CA8",
"x-	c #274F6C",
"y-	c #263D4F",
"z-	c #153449",
"A-	c #154D6F",
"B-	c #0774A3",
"C-	c #103B53",
"D-	c #29495F",
"E-	c #0E7BAD",
"F-	c #234358",
"G-	c #1B2B37",
"H-	c #243E4F",
"I-	c #0A84B7",
"J-	c #28516F",
"K-	c #273E51",
"L-	c #294051",
"M-	c #1B303F",
"N-	c #153247",
"O-	c #144C6E",
"P-	c #0675A5",
"Q-	c #0F3A52",
"R-	c #284256",
"S-	c #283E4D",
"T-	c #2A4B61",
"U-	c #0783B8",
"V-	c #24455B",
"W-	c #0E81B0",
"X-	c #28506C",
"Y-	c #153347",
"Z-	c #144C6D",
"`-	c #0973A0",
" ;	c #28343F",
".;	c #274053",
"+;	c #2A495F",
"@;	c #0C7EAC",
"#;	c #283A48",
"$;	c #233848",
"%;	c #275E7C",
"&;	c #29475D",
"*;	c #1C3141",
"=;	c #153043",
"-;	c #144A6B",
";;	c #0975A1",
">;	c #103B51",
",;	c #284154",
"';	c #275B77",
");	c #243C4F",
"!;	c #263F51",
"~;	c #1D3241",
"{;	c #152D3D",
"];	c #144764",
"^;	c #0D7299",
"/;	c #11384D",
"(;	c #35373A",
"_;	c #28323C",
":;	c #283F51",
"<;	c #273F51",
"[;	c #16222D",
"};	c #15364A",
"|;	c #124D69",
"1;	c #212F3B",
"2;	c #1B2D3A",
"3;	c #172A3A",
"4;	c #2D373F",
"5;	c #1E2C37",
"6;	c #1C2D39",
"7;	c #2F3439",
"8;	c #333639",
"9;	c #1E3749",
"0;	c #27526E",
"a;	c #27455B",
"b;	c #2F363C",
"c;	c #204A63",
"d;	c #214A60",
"e;	c #1B2E3C",
"f;	c #263847",
"g;	c #2E4759",
"h;	c #224259",
"i;	c #0880D0",
"j;	c #285C7E",
"k;	c #254259",
"l;	c #33363A",
"m;	c #2E343A",
"n;	c #24526F",
"o;	c #088ACD",
"p;	c #254E68",
"q;	c #2A4254",
"r;	c #2F4C62",
"s;	c #285372",
"t;	c #008AE3",
"u;	c #275675",
"v;	c #254156",
"w;	c #2E3439",
"x;	c #283F53",
"y;	c #244E69",
"z;	c #0683D2",
"A;	c #276083",
"B;	c #2F5168",
"C;	c #295979",
"D;	c #0087E2",
"E;	c #265270",
"F;	c #253F54",
"G;	c #17252E",
"H;	c #33373A",
"I;	c #2E353B",
"J;	c #273D4F",
"K;	c #254A63",
"L;	c #0A7ECC",
"M;	c #216997",
"N;	c #294E68",
"O;	c #2B4356",
"P;	c #2B4E66",
"Q;	c #266088",
"R;	c #0188DB",
"S;	c #25516E",
"T;	c #263F53",
"U;	c #34373B",
"V;	c #2F353C",
"W;	c #1479B7",
"X;	c #1B71A7",
"Y;	c #284E68",
"Z;	c #2D475C",
"`;	c #2B4F67",
" >	c #236692",
".>	c #117EBB",
"+>	c #234C66",
"@>	c #274052",
"#>	c #34373A",
"$>	c #2E353C",
"%>	c #26475D",
"&>	c #1D6F9E",
"*>	c #1577B4",
"=>	c #28506B",
"->	c #2D485D",
";>	c #213441",
">>	c #223342",
",>	c #2D485B",
"'>	c #2B4F68",
")>	c #226994",
"!>	c #256487",
"~>	c #213E51",
"{>	c #2B3F4E",
"]>	c #213A4C",
"^>	c #205571",
"/>	c #137AB1",
"(>	c #274F69",
"_>	c #304D63",
":>	c #2E495D",
"<>	c #27465C",
"[>	c #224358",
"}>	c #224A66",
"|>	c #234258",
"1>	c #1B2B35",
"2>	c #264256",
"3>	c #1E4B64",
"4>	c #204157",
"5>	c #24465C",
"6>	c #2E4C61",
"7>	c #244155",
"8>	c #0C7EC5",
"9>	c #23648E",
"0>	c #24435A",
"a>	c #16212A",
"b>	c #34383B",
"c>	c #2E363C",
"d>	c #274357",
"e>	c #235572",
"f>	c #0886C7",
"g>	c #23475E",
"h>	c #2F4B60",
"i>	c #26516F",
"j>	c #0083DD",
"k>	c #265C82",
"l>	c #234157",
"m>	c #152129",
"n>	c #2D353C",
"o>	c #264054",
"p>	c #224F6C",
"q>	c #0588D4",
"r>	c #265471",
"s>	c #2F4D63",
"t>	c #0181DA",
"u>	c #255372",
"v>	c #0882CF",
"w>	c #27597A",
"x>	c #2C4C64",
"y>	c #2E516A",
"z>	c #245170",
"A>	c #1774AD",
"B>	c #1E3C51",
"C>	c #2D343B",
"D>	c #1E3546",
"E>	c #206A99",
"F>	c #294D66",
"G>	c #1D2D38",
"H>	c #2A485C",
"I>	c #203E52",
"J>	c #192A38",
"K>	c #172733",
"L>	c #1F3C4F",
"M>	c #28455A",
"N>	c #1F313E",
"O>	c #2C353B",
"P>	c #2C333B",
"Q>	c #213241",
"R>	c #343739",
"S>	c #2C333A",
"T>	c #15222D",
"U>	c #1D2E3A",
"V>	c #182834",
"W>	c #1E2F3C",
"X>	c #353739",
"Y>	c #182632",
"Z>	c #162D3D",
"`>	c #17455B",
" ,	c #1D3342",
".,	c #18384B",
"+,	c #16394E",
"@,	c #23394A",
"#,	c #163E57",
"$,	c #1A7198",
"%,	c #204054",
"&,	c #2B3239",
"*,	c #253D4F",
"=,	c #255673",
"-,	c #1F5978",
";,	c #244257",
">,	c #17425D",
",,	c #147AAD",
"',	c #204359",
"),	c #295D7D",
"!,	c #235E7F",
"~,	c #25455B",
"{,	c #184461",
"],	c #107CB7",
"^,	c #22445B",
"/,	c #2A3239",
"(,	c #2A5E7F",
"_,	c #225F82",
":,	c #18435F",
"<,	c #107CB8",
"[,	c #21445B",
"},	c #2A323A",
"|,	c #2A5F7F",
"1,	c #235F83",
"2,	c #24445B",
"3,	c #18425E",
"4,	c #0F7DBB",
"5,	c #21445C",
"6,	c #14212B",
"7,	c #243F53",
"8,	c #295F7F",
"9,	c #236084",
"0,	c #20323F",
"a,	c #17415D",
"b,	c #117CB9",
"c,	c #243E52",
"d,	c #2A5F7E",
"e,	c #226084",
"f,	c #25394A",
"g,	c #17405B",
"h,	c #147AB1",
"i,	c #204257",
"j,	c #293138",
"k,	c #223C4E",
"l,	c #2A5E7C",
"m,	c #234359",
"n,	c #173D57",
"o,	c #1677AA",
"p,	c #204155",
"q,	c #2A3139",
"r,	c #2A5C79",
"s,	c #255D7D",
"t,	c #214055",
"u,	c #1D2F3D",
"v,	c #17354A",
"w,	c #21607E",
"x,	c #1D394C",
"y,	c #293139",
"z,	c #203646",
"A,	c #204F6A",
"B,	c #1E506B",
"C,	c #1A3345",
"D,	c #182D3B",
"E,	c #1F3E52",
"F,	c #1C2F3D",
"G,	c #1F3340",
"H,	c #1E384B",
"I,	c #1F394D",
"J,	c #1A2B39",
"K,	c #1A3F57",
"L,	c #1C6A8D",
"M,	c #1D3C4F",
"N,	c #293038",
"O,	c #21394A",
"P,	c #23536F",
"Q,	c #1F5471",
"R,	c #27455A",
"S,	c #153F59",
"T,	c #1578A7",
"U,	c #1F4055",
"V,	c #283038",
"W,	c #2A5C7A",
"X,	c #225978",
"Y,	c #224258",
"Z,	c #263A4B",
"`,	c #16415C",
" '	c #137AB0",
".'	c #363739",
"+'	c #233C4E",
"@'	c #2A5E7E",
"#'	c #235A7A",
"$'	c #253849",
"%'	c #127BB1",
"&'	c #223B4D",
"*'	c #225B7C",
"='	c #234257",
"-'	c #17425E",
";'	c #117CB4",
">'	c #20445A",
",'	c #273037",
"''	c #2B5F7F",
")'	c #235D7E",
"!'	c #107DB7",
"~'	c #272F37",
"{'	c #223A4C",
"]'	c #245C7E",
"^'	c #244359",
"/'	c #107DB9",
"('	c #20435A",
"_'	c #223C4D",
":'	c #24445A",
"<'	c #192730",
"['	c #17405C",
"}'	c #363738",
"|'	c #272F36",
"1'	c #111C23",
"2'	c #233C4D",
"3'	c #2B607F",
"4'	c #235C7F",
"5'	c #163F5B",
"6'	c #127AB7",
"7'	c #204258",
"8'	c #262E35",
"9'	c #235B7E",
"0'	c #224157",
"a'	c #152028",
"b'	c #1B2832",
"c'	c #18232C",
"d'	c #153E59",
"e'	c #1379AF",
"f'	c #1E4156",
"g'	c #225C7E",
"h'	c #17222B",
"i'	c #17232C",
"j'	c #19252E",
"k'	c #142129",
"l'	c #143D57",
"m'	c #1279A9",
"n'	c #1D4056",
"o'	c #242C33",
"p'	c #223A4B",
"q'	c #2B5E7B",
"r'	c #225B7D",
"s'	c #223F54",
"t'	c #162129",
"u'	c #19262F",
"v'	c #273946",
"w'	c #133A51",
"x'	c #167198",
"y'	c #1C3D51",
"z'	c #232B32",
"A'	c #21384A",
"B'	c #205978",
"C'	c #213C4F",
"D'	c #293B49",
"E'	c #202F3D",
"F'	c #142B3C",
"G'	c #184057",
"H'	c #1B2E3D",
"I'	c #17384E",
"J'	c #294050",
"K'	c #1F2E3C",
"L'	c #243848",
"M'	c #253C4C",
"N'	c #142430",
"O'	c #232C33",
"P'	c #172835",
"Q'	c #1F3749",
"R'	c #182F3E",
"S'	c #263D4E",
"T'	c #263D4D",
"U'	c #233846",
"V'	c #111F2A",
"W'	c #0F1A23",
"X'	c #242C34",
"Y'	c #1B2A37",
"Z'	c #131F29",
"`'	c #15232D",
" )	c #12202A",
".)	c #111C25",
"+)	c #373738",
"@)	c #232B34",
"#)	c #14212A",
"$)	c #111D25",
"%)	c #232B33",
"&)	c #22313F",
"*)	c #222B33",
"=)	c #373838",
"-)	c #16232E",
";)	c #222A32",
">)	c #202A32",
",)	c #21303F",
"')	c #23333F",
"))	c #202931",
"!)	c #1F272E",
"~)	c #202E3B",
"{)	c #111C24",
"])	c #0E181F",
"^)	c #0F1820",
"/)	c #0F1920",
"()	c #101920",
"_)	c #101A20",
":)	c #0E161C",
"<)	c #0F171F",
"[)	c #0F1921",
"})	c #111E28",
"|)	c #1E262D",
"1)	c #121F28",
"2)	c #111C26",
"3)	c #0D161E",
"4)	c #101A21",
"5)	c #101B23",
"6)	c #101B22",
"7)	c #0D181F",
"8)	c #141F29",
"9)	c #131E28",
"0)	c #132029",
"a)	c #13222D",
"b)	c #132939",
"c)	c #162530",
"d)	c #1B2229",
"e)	c #142938",
"f)	c #132431",
"g)	c #14222C",
"h)	c #13212A",
"i)	c #132028",
"j)	c #121D27",
"k)	c #25323D",
"l)	c #2B3E4D",
"m)	c #273746",
"n)	c #253644",
"o)	c #24343F",
"p)	c #24333F",
"q)	c #24313E",
"r)	c #253440",
"s)	c #23313D",
"t)	c #23313C",
"u)	c #22303C",
"v)	c #23303C",
"w)	c #23313E",
"x)	c #243440",
"y)	c #283845",
"z)	c #253441",
"A)	c #24313F",
"B)	c #263442",
"C)	c #283744",
"D)	c #273643",
"E)	c #263542",
"F)	c #253542",
"G)	c #263643",
"H)	c #263543",
"I)	c #23323E",
"J)	c #25343F",
"K)	c #242F38",
"L)	c #273543",
"M)	c #253541",
"N)	c #243441",
"O)	c #253442",
"P)	c #25333F",
"Q)	c #222F3B",
"R)	c #212C39",
"S)	c #232F3B",
"    . + @ # # + $ + @ + % & * & = - @ * = = = ; = > > > , , ' = ) ! ' ; ; = = , ; = ; ) ! ~ ! ! ! { ] ^ ^ / ( _ : : : : : : : : : : : : : : : : : : : : : _ < ! ! ^ ^ ^ [ ^ ] } ) ! ! | ! ) = = 1 = ! = = = = , = = = = ; = = = = = 2 * * % 3 * 2 1 - * @ - # # 4 # 5 @ ",
"6 7 8 9 0 7 0 a a b c a d e c f g f h i j k k l m k j j m m m f n o o m m k m p q r l r s t s t u v w v x y z A : : : : : : : : : : : : : : : : : : : : : A B C D x y E w u u o l t C t m k k n g m C r p m k l F F m p o m F G G H I J K c c c K h f f c a e 0 L 7 0 M ",
"N N O P N Q N R R S S T N N P U U V V V U U W X X Y Y Y X Z X ` U  ...X X +.Z  ... .@.#.$.%.&.%.*.=.-.;.>.>.,.'.: : : : : : : : : : : : : : : : : : : : : ).!.~.{.].=.~.~.^.%./. .$.&.$.(.(. . . ._.@. .X X Y :.Y (.X  . .(.<.Z Z [.}.U U V ` S ` |.U |.S R S S N 1.N R ",
"2.3.4.2.3.2.2.5.5.6.5.2.3.4.2.7.7.6.7.7.7.8.9.0.0.7.0.0.0.0.a.8.b.c.a.c.c.c.a.a.c.0.0.0.c.c.d.a.e.f.g.h.i.j.k.l.: : : : : : : : : : : : : : : : : : : : : m.n.o.p.q.r.s.t.t.t.d.c.d.t.t.c.a.a.a.a.t.u.c.0.c.7.b.0.c.c.d.d.c.0.c.c.0.0.0.0.0.b.6.6.0.0.b.6.5.6.6.2.2.v.4.",
"w.x.y.z.x.A.z.z.z.z.z.z.z.B.C.D.z.C.z.z.E.F.C.x.x.A.D.z.A.z.B.z.A.z.E.B.G.z.C.z.A.H.I.t.u.I.J.z.z.K.L.M.N.O.,.P.: : : : : : : : : : : : : : : : : : : : : Q.R.S.=.T.U.V.W.A.A.x.I.I.W.z.E.F.X.Y.G.E.Y.F.C.z.C.z.C.Z.Y.E.C.C.C.B.`. + +F.Y.B.G.z.C.C.z.D..+z.D.D.A.w.w.H.",
"++@+@+#+$+$+$+%+%+&+%+n.n.n.j.*+*+*+o.o.=+-+;+;+;+>+,+,+,+'+'+;+;+)+P P S !+[.~+!+U $.^.>.{+]+>.^+/+(+{.H _+:+<+: : : : : : : : : : : : : : : : : : : : : [+}+|+/+1+2+3+4+5+6+7+=.>.~+Z @.@. ...Z 8+Z N >+9+>+'+0+,+P a+)+b+;+=+;+;+;+i.c+o.c+o.=+*+&+#+p.*+*+&+&+#+$+d+",
"$.Z Z e+f+e+g+@.@.Z +. .@. .[.` ` ` h+[.Z g+i+%.%.{.%.^+%.i+i+Z Z %.=.=.=.>.j+3+7+>.k+H l+m+_+n+_+o+p+q+r+s+t+u+: : : : : : : : : : : : : : : : : : : : : v+w+x+y+].z+A+B+C+D+m+E+|+F+G+F+]+H+I+>.=.>.^+f+{.{.J+4+4+K+J+^+i+..Z M.L+M.h+[.L+{.J+{.g+Z g+i+i+i+g+..Z Z Z ",
"=.M+*.*.{.*.4+4+%...Z ..e+N+m+D+O+D+P+Q+n+A+R+S+T+U+V+W+V+P+T+P+T+X+Y+Z+`+ @.@+@@@#@$.l+$@%@x+P+S+&@*@S.$@=@N+-@: : : : : : : : : : : : : : : : : : : : : ;@m+%@>@,@V+T+R+'@)@!@x+>.;.~@{@.@]@Z+^@/@(@S+T+U+_@U+(@R+S+:@<@A+C+P+[@B+:@:@}@n+D+3+%.{.i+i+g+g+f+%.{.i+i+@.",
"|@K 1@2@d c c |@k+3@2@4@3@M+l D+D+m+n+x+s+P+V+V+P+5@V+6@o+P+7@P+P+'@8@8@8@ @9@0@a@b@c@_+s+d@_+s+e@f@g@k+h@i@j@k@: : : : : : : : : : : : : : : : : : : : : l@m@i@n@o@f@&@p@o+n+o+P+q@}+,@_+r@ @_@p@s@t@S+u@(@8@_@&@s@V+P+A+[@[@!@s+v@P+:@C+D I+4@w@b@x@N.,@R.y@z@d k+c 4@",
"A@B@w@w@E+l+l+l+C@B@E+H B@N.$.}@[@s+C+C+C+P+D@p@U+(@8@(@p@E@'@V+F@(@.@`+G@G@H@I@J@K@L@r+%@%@$@h@M@N@O@z@=@P@Q@R@: : : : : : : : : : : : : : : : : : : : : S@d@o+P@T@U@N@f@V@_+W@i@X@B@Y@r+Z@U@`@ #_@_@(@s@8@.#8@ @8@+#s@o+P@o+P+7@i@V+V+_@I+5+l+_+@#|@O.3@##|@H E+B@E+E+",
"H H C@C@@#m+m+@#m+@#l+m+@#k+-.$#%#s+P+P+C+&#_@.# @*#=#N@ @N@+#+#p@N@`+-#H@Z@-#I@;#;+L@y+7@i@>#,#'@Z@n@z@i@s@I R@: : : : : : : : : : : : : : : : : : : : : '#!@&#i@)#N@!#*#>#$@&@!@R.K+~#y+{#e@ @-# @]# @_@`+ @.#^#-#H@ @_@/#(@t@o+i@'@U+(#F+z@r+s+_+_#|@:#<#K [#l+l+l+E+",
"m+r+_+_+|+|+m+@#r+_+r+r+@#K R.}#|#P+S+&#P+u@(@1#2#3#2#=#-#H@ @ @ @ @]#2#2#4#5#6#7#h+8#9#i@P@i@i@0#N@O@w@o+'@I a#: : : : : : : : : : : : : : : : : : : : : b#i@'@i@c#N@Z@(@o+o+*#=@##,@d#h@-#8@H@!#-#^#^#e#2# @ @f#f#3#2#-#]# @.#(@o+S+(@g#]+|@_+n+h#[#i#8#@#E+j#m+m+r+m+",
"@#@#r+_+m+@#|+m+m+r+_+k#m+B@q@]@l#V+'@(@(@_@ @ @^#f#2#=#-#m#-#-#=#H@!#2#m#n#o#p#q#1+@#l+i@e@p@P@'@G@n@E+r#'@G s#: : : : : : : : : : : : : : : : : : : : : t#i@E@o+u#f@e@&@P@'@.#P+|@X@v#s+m#w#x#H@m#y#f#z#A#H@ @2#B#C#A#3#3#^#`+p@&#'@_@D#E#K F#F#@#m+@#@#m+l+j#_+m+m+G#",
"C@C@@#_+_+m+m+H#@#@#r+n+%@j#2@I#.@V+(@.# @2#9@^#^#2#-#p@ @-#f#4#=#-#4#m#n#m#J#K#L#M#C@K !@e@U@e@+#N@>@K N#E@D O#: : : : : : : : : : : : : : : : : : : : : P#o+E@i@Q#R#0@n@0@U@N@S#p+3@@@$@4#2#G@T#B#U#3#V#W#n#H@4#m#B#C#C#f#f#2#(@&#S+_@X#1@H _+r+r+Y#B@Y#E+Z#@#r+m+m@r+",
"l+C@`#m@n+D+_+_+G#l+w+[@C+x+4@ $/@&#V+/#8@]#2#]@2#2#`@E@0@U@2#-#Z@2#m#=#w#n#.$+$@$M#Y#|@)@0#*#E@e@e@V@z@0@e@D #$: : : : : : : : : : : : : : : : : : : : : $$V++#%$].n@n@>@e@Z@8@C+&$3@@@s+f#U#H@H@n#3#V#3#C#9@Z@Z@ @^#m#m#n#B#^#e@P@&#8@*$c m+n+s+n+x+@#@#@#Y#8#r+_+_+_+",
"B@B@E+_+n+x+[@s+=$_+_+s+s+r+6 Z+1#-$i@o+P@e@`+]#]#^#8@s@e@N@-#`+=#4#m#-#4#;$o#>$L#e+,$'$)@W@p@G@e@0@h@z@&@0#q O#: : : : : : : : : : : : : : : : : : : : : t#s@(@=@)$!$n@~$N@N@E@=@{$K@,@%@B#B#5#n#m#n#3# @^#2#N@`+N@ @]#-#=#H@=#U@&#P@8@]$|@_+P+z+[@s+n+F#C@h#r+n+_+_+r+",
"E+B@l+_+n+x+[@[@s+s+x+h#m+l+2@/@p@P+=@7@7@=@~$ @Z+`+ @p@e@8@`+8@Z@=#-#^$U#5#n#x#/$f+($K V@W@N@H@ @+#_$4@P@'@C :$: : : : : : : : : : : : : : : : : : : : : <$'@~$[$}$R#0@e@N@+#/#i@:#c@u#)@m#C#f#3#4#4#-# @3#9@.#N@`@U@ # @N@|$ @Z@0#&#e@1$z@_+C+S#P+=@[@_+h#x+n+s+s+x+x+",
"r+m+n+s+x+x+n+[@s+[@x+h#`#}+E#2$/@=@)@x+K+9+3$[.[.U ` P P S ` ` [.@.w@Z@n#-#m#+$4$1@r+B@i@0@5$`@-#G@%$3$K 7@C 6$: : : : : : : : : : : : : : : : : : : : : 7$W@=@Z 8$N@U@U@E@'@&@i@Y#@#9$[@;$f#f#4#C+K+Z M.Z Z ` 3$3$0$[.[.h+!+e+'@'@x+&#3#1@a$=@-$i@s+n+m@x+C+[@C+s+n+n+",
"n+x+C+[@[@x+!@[@v@[@%@_+`#l+z@J F+f+f+f+f+7+>.b${.b$M+b$c$K+>.q+;.k+;._@^#4#4#d$e$f$g$y+e@U@N@N@Z@G@V@h$` 7@=$6$: : : : : : : : : : : : : : : : : : : : : <$o+z@3$i${#N@U@0#S#'@P@j$k$l$-#2#2#m#n#F+S.R.c$m$3+b$b$n$].c$7+5+o$].R.;.p$I+E+|@n+i@o+P+=@C+[@[@}@C+P+[@n+_+",
"n+n+x+r+n+%@[@A+D+D+s+_+r+l+B@l#m@@#b@]+o$G+q$z@R.I+R.R.7+O.H+N.w@r$q (@ @-#s$m#t$u$v$w$0@U@*#G@*#e@x$y$e+7@D+6$: : : : : : : : : : : : : : : : : : : : : z$C+r+A$B$G@+#0@0#o+0#C$D$E$F$G$3#H@Z@^#H$R+}+;.5+R.H+E#;.-.]+z@}@6+5+|@K m+B+/@_+$@7@P@-$C+P+C+P+[@v@v@s+x+_+",
"D+r+r+l+m+=$C+[@[@s+=@_+r+i#3@|#_+[#B@6 S.I$J$3@c K$L$_.M$N$X I$=.x+@#(@x#x#5$4#O$P$Q$R$S$0@e@0#0#n@T$A$e+=@r$#$: : : : : : : : : : : : : : : : : : : : : 7$=@$@p$U$/#0@n@P@n@e@V$W$X$Y$4#N@+#s$^#|@-$3+I$}.G+J$_.Z$X 3@|@H$]+E#A@l+G#B+(@C@n+!@P@P+P+P+P+C+n+n+m@_+r+m+",
"F#m+r+`#m+n+C+i@!@[@C+)@r+8#3@/@s+a$z@`$H$S. %>.A@=.K$.%+%@%#%#.$%=@B@s@N@x#f@{#%%&%*%=%0#s@P@i@'@i@-%y$Z C+A+#$: : : : : : : : : : : : : : : : : : : : : ;%i@n+p$g++#R#0#P@S$+#>%,%'%)%!%f@f@G@n#z@P+/+`$G+=.Z$6+_.I$S.E#I$w@w@G+9 _+n+_@H x+%$o+7@P+o+P+i@s+}@n+r+@#m+",
"x+x+_+x+_+%@x+=@=@i@C+P+=@r+/+]@P+r+[#A@G+H$~%{%5+E#H+]%^%G+/%^%4+F#@#u@G@s$f@G@%%(%_%:%n@'@W@W@P@P@<%y$~+<@[%}%: : : : : : : : : : : : : : : : : : : : : |%i@n+c$@.e@+#e@R#e@e@+$1%2%3%p#4%f@{#5%|@o+7+6%b$F+N+J$7%{+|@R.H m+7%H$x+_+-$/@l+$@C+i@i@i@P+-$V+o+z+[@m@@#m+",
"_+_+n+n+m+x+_+x+x+s+i@i@7@x+|@ $P+r+r+F#A@>.z@8%I$z@j#P+9%R+_@T+x+7@r+u@G@s$5$s$0%a%b%c%0#0@n@>@P@&#r+y$}.A+r$d%: : : : : : : : : : : : : : : : : : : : : e%C+x+J+Z M@+#e@~$+#U@>%f%g%h%p#5$5$G@-#K u@s+7@%$P+z+B+s+j#6 m+r+9 k+s+x+x+V+.@l+r+=@i@i@i@i@i@-$C+S+-$s+x+n+",
"n+%@P+s+m+x+!@C+%@n+i%h@!@$@|@Y+z+)@x+x+=@w@@#H#Z#<#i%P@P@P@&@0@>@>@8#S+H@H@x#K#j%k%l%m%e@U@0#n@n@7@r+y$` [@B+d%: : : : : : : : : : : : : : : : : : : : : n%i@x+{.Z M@f@f@0@e@N@+$o%p%q%p#G@5$K#]#3@7@'@r%n@V+~$&#i@=@|@x+!@m+i@>#=@!@n@s%B@@#)@%@=@%$C+C+s+r+P+!@n+n+s+",
"_+[@7@7@x+$@!@%$%@x+x+h@h@x+B@.@V+s+=@=@P+7@F#r+@#($=@P@'@&#W@S$>@7@_#s@N@Z@|$s$t%(%u%m%*#8@+#~$7@7@r+g+3$n+v@d%: : : : : : : : : : : : : : : : : : : : : n%P+x+{.Z M@0@0@n@0@{#v%w%x%y%4#z%5$U@ #|@n@0#0@n@~$~$E@7@=@K s+%$i@o+i@[$7@E@.#l+<%h@=@=@A%%$=@)@x+s+=@x+_+s+",
"a$[@7@-$i@%@%$%$[$<%$@$@<%<%h#m+P+i@>@P@'@0@7@!@$@@#i@'@R#/#0@n@B%B%C%P+E@p@/#G@D%E%F%G%`@ @p@e@0#r%F#i+!+n+n+H%: : : : : : : : : : : : : : : : : : : : : I%+@J%K% .M@0#0@0@N@x#L%M%N%O%4#T#5$5$H@|@n@+#+#e@e@0#0#7@i@B@i@i@i@o+P@%$i@'@s+8#)@=@=@h@h@h@%$=@s+=@n+$@n+n+",
"@#x+$@!@7@)@<%<%h@=@7@%$-%y+[#x@7@=@i@P@n@n@0#&@=@_#7@P@r%R#P%S$V@>#:#P+0#r#*#G@Q%E%R%S%U@Z@ @U@+#0#)@f+` n+D+d%: : : : : : : : : : : : : : : : : : : : : T%7@F#f+_.M@e@e@U@5$5$>%U%V%W%4#!%X%5$]###n@+#f@+#M@0#P@o+i@E+7@P+P@'@'@i@o+S+4@2+h@Y%%@)@h@=@=@%$$@$@m+r+r+r+",
"_#@#y+<%h@)@r+x+[$>#%@7@<%i#y+B@o+=@i%7@P@P@0@e@>#Z%i@P@P@S$n@S$V@V@1@=@'@r#N#N@B#`% &.&f@N@N@8@M@P@x+i+S s+n+d%: : : : : : : : : : : : : : : : : : : : : T%i@m+i+Z O@r%r%+#5$K#+&U%@&#&T#f@0@f@]#'$$&5$5$e@n@n@o+i@=@l+o+P@n@'@o+%$i@s@Y#Y%)@<%[$)@h@%@h@B%)@r+Y#E+l+C@",
"B@8#2+F#%@[$Y%h@i%[$,#%&<%i#&&y+o+=@=@7@P@e@p@8@%$i#>#P@n@S$>@>@B%V@:#n+W@'@'@U@f#*&=&.&+#8@.#p@~$n@x+i+3$s+s+}%: : : : : : : : : : : : : : : : : : : : : -&%$h#g+8+o+>@>@e@N@s$L%U%;&#&T#X%f@U@]#|@0#x#5$+#n@O@7@V@,#H#!@i@n@'@7@=@=@s@i#<%<%)@&&&&h@>#>#h@h@h#B@,$@#@#",
"@#@#y+x+!@)@<%)@)@)@i%h@F#9#&&y+P+C+%$P@P@~$+#U@7@i#%$P@O@O@O@>&B%B%|@!@P@>@>@U@f#,&'&)&|$.#8@&@0@n@m@i+` s+s+}%: : : : : : : : : : : : : : : : : : : : : !&i@|+g+}.~&7@i@0@f@G@{&w%]&3%H@0@+#5$-#w@~$U@^&5$X%O@>@V@>#($h@>@o+0#7@>#7@'@_#r+)@%$,#$@h@$@)@h@%$r+l+m+r+m+",
"l+8#@#F#=@=@[$h@)@)@h@$@$@y+h@<%T+C+%$o+n@'@&@e@7@9#B%%$B%>@P@>@V@V@:#i@P@>#7@p@n#/&(&_&U@_@p@~$n@~&F#i+` [@s+d%: : : : : : : : : : : : : : : : : : : : : = C+m+g+[.7@7@V@0#+#N@V$:&<&)%s$R#+#N@^#|@~$N@`@+#0@>@V@%$>#Y#=@>@>@0@7@,#V@W+8#<%F#=@h@>#%$<%<%=@o+x+h#`#m+l+",
"Y#j#r+r+F#y+h@)@h@h@h@h@,#)@<%y+P+=@%$i@o+~$e@e@7@9#)@V@~&+@P@>@>&h@##=@o+7@M@*#f@[&}&|&X%e@E@'@'@>@h#i+1&=@D+2&: : : : : : : : : : : : : : : : : : : : : 3&=@l+e+Z n@V@>#'@e@4&5&6&7&8&N@U@e@G@^#z@0#p@U@U@~$O@>&=@,#K i%V@7@'@V@h@,#V+h#<%<%h@-%h@=@h@$@C+7@$@r+m+l+l+",
",$r+F#y+@#9&r+h@,#h@=@)@h@y+r+r+<@&&$@i@n@e@&@&@i@9#=@i@+@P@!$V@0&h@1@$@P@>@~$f@a@a&b&c&O@~$E@'@+@V@r+i+S s+D+2&: : : : : : : : : : : : : : : : : : : : : * s+l+f+8++@7@7@n@n@+@x$d&e&f&%$U@M@U@`+b@~$e@e@+#0@~&~&V@%$z@)@=@i@n@i@<%=@-$@#h@r+i#i#2+)@=@=@=@%$F#r+j#@#l+",
",$Y#8#8#g&2+y+r+)@=@%$)@h@y+)@x+T+%$h@%$e@&@M@M@V@h&~&o+P@0@n@V@>#h@9$$@P@7@n@G@i&j&k&l&i@o+V+o+P@7@C@Z P s+J%2&: : : : : : : : : : : : : : : : : : : : : m&%&E+i+` +@+@P@V+o+V@n&o&p&q&f@+#n@f@ @|@~$e@P@0@O@+@+@+@=@k+$@i%>#o+!@)@%$<@2+)@r+2+i#h#x+$@$@s+=@l+E+8#Y#8#",
"1@K 8#h#r+r+r+)@=@%$=@$@%$h@<%x+:@=@r+=@'@~$~$0@=@9#n@n@O@M@O@V@,#h@1@%@~&V@P@r&T#s&t&u&'@S+P@7@7@7@w@Z S $@m@v&: : : : : : : : : : : : : : : : : : : : : 2 s+}+g+U &@0@~$~$n@w&x&y&z&A&`@e@n@e@`+c@n@0@%$>&r%P@V@~&=@z@i@7@=@7@=@>#%@A+i#<%-%Y%<%<%F#<%F#j#x+@#K |@B@,$",
"z@B@@#r+r+F#=@%$%$=@A%$@%$B%<%r+A+h@r+%&+@0#0@n@A%h&>@0@0@R#n@7@V@B%&$$@7@7@o+e@n#B&C&D&R#e@'@C+i@!@K Z P n+_+v&: : : : : : : : : : : : : : : : : : : : : E&=@}+g+U S+~$7@n@~$~&F&,%G&H&U@+#~$&@ @1@P@n@B%B%7@O@V@V@%$|@C+P@%$V@=@7@%$P+2+T$-%x+=@h@<%r+r+r+r+8#B@K K @#",
"|@g&r+<%h#i#r+h@)@2+<%)@s+B%<%y+B+s+y+V@n@n@u@n@x+Y#%$+@+@r%X%n@7@h@1@$@i@7@o+&@B#I&J&K&P%(@s@P+7@%@|@M.N n+L&v&: : : : : : : : : : : : : : : : : : : : : M&$@}+Z ` V+7@%$o+u@n@N&O&P&#&4%U@e@e@^&E#7@~&V@B%>@P@>@>@h@1@=@i@i@V@h@>#7@7@@#<%-%F#s+s+%@)@x+r+r+h#[#|@B@l+",
"/+@#h@h@h#h&y+y+<%9#i#F#F#<%<%@#D+J%r+%$n@'@~$o+r+{$<%=@%$V@7@V@>#)@9$s+7@V@>@M@H@Q&R&R$n@0@P@P@i@=@|@L+9+J%m@v&: : : : : : : : : : : : : : : : : : : : : S&x+E+Z ` o+%$B%7@+@n@e$T&U&V&4%/#'@&@W&4@V@o+~&7@>@7@V@%$<%c@C+-$%$h@h@h@7@<@Y#r+F#r+m@$@x+s+n+F#@#h#a$l+8#8#",
"|@@#)@<%h#-%)@[$h@i#2+r+y+F#r+@#D+s+$@$@7@i@~&%$2+&$<%)@,#B%B%w&)@T$:#r+h@=@7@n@s$X&Y&Z&7@P@i@%$i@%$B@M.9+$@m+`&: : : : : : : : : : : : : : : : : : : : :  *x+E+Z ` o+=@h@i@P@P@.*T&@&V&>$`@+@0@8@##B%i@V@>&o+>#h@B%<%c@7@7@!@%$)@<%P+}@g&y+F#<%)@r+r+x+m@a$h#F#r+j#@#i#",
"B@@#r+-%-%<%=@i@V@)@)@)@-%r+h#@#n+[@=@)@$@)@%$s+Y#'$<%<%r+T$&&,#7@w&:#,$-%%$%$7@K#+*@*#*%$7@i@i@V@7@E+Z a+J%@#`&: : : : : : : : : : : : : : : : : : : : : $*s+H Z T u@V@h@%$7@P@%*&***=*4%+#n@P@p@##%$7@V@%$-*=@B%h@*@3@!@7@=@h@x+)@C+Q+w@y+&&=@$@@#r+F#r+h#F#F#j#r+m+Y#",
"|@E+[#r+`#<%%$i@!@%$h@s+F#r+y+i#n+s+$@$@$@=@o+A+Y###-%2+i#2+y+=@~&T$)#C@h@V@%$7@ @P$;*>*B%V@7@7@7@7@Y#Z N m@H `&: : : : : : : : : : : : : : : : : : : : : S&s+H g+3$n@7@)@h@%$7@,*'*)*)&f@~$r%&@r&L@%&P@i@<%%$h@s+h@-%E#C+i@$@$@<%x+x+A+8#x+%@C+s+j#[#m+r+F#x+r+m+F#@#B@",
"{$B@Y#E+Y#r+)@h@%$=@)@x+<%y+-%8#!*J%F#F#$@%@7@C+8#K@-%<%r+y+y+i@7@~*{*r+!@7@,#o+_@]*^*/*s+C+=@%$V@V@_#M.N m@|+`&: : : : : : : : : : : : : : : : : : : : : (*$@l+Z T +@V@)@%@i@-*g@_*:*<*e@P@P@&@/#R.s+o+i@-%h@=@A%x+2+4@[@=@r+)@<%r+x+<@E+j#r+=@x+h#@#2+r+x+x+r+r+_+@#E+",
"|@##B@|@|@i#r+y+$@$@x+)@x+h#-%Y#m@m@r+<%x+s+%&h@Y###F#)@)@2+Y%%$h@K@,$C+P+i@i@-$-$[*}*B@h@=@V@%$7@=@B@+.P J%q `&: : : : : : : : : : : : : : : : : : : : : |*s+C@M.T n@+@V@!@7@o+x+1*2*s+e@M@V@7@V+A+x@n+%$y+~*h@h@h@h@z@s+=@)@x+)@r+x+D+|@@#r+n+r+h#F#l+@#r+r+m+h#h#@#8#",
"1@3@|@B@Y#Y#@#2+r+=@h@h@<%y+y+_#L&n+r+r+$@$@h@h@8###h@h@%&{$|@)@##4@n+z+P+C+%$A+F+P g+3*%&i@7@>@~&i@l++.4*[@q `&: : : : : : : : : : : : : : : : : : : : : 5*[@w@Z ` n@~&>@o+'@'@s+^+~+^+-$'@>#>@'@S+_+E#x+Y#x@r+)@=@h@k+$@$@$@$@F#y+x+x+B@[#r+F#@#y+y+@#Y#8#@#@#8#8#Y#B@",
"1@3@##p+8#@#2+y+h#)@%&%&<%<%r+Y#m@r+`#r+F#)@s+h@i###T$=@r+n$,$4@H$h#7@o+V+-$<%x@;+[.=.<@~&i@>@+@+@7@6*Z T s+m+7*: : : : : : : : : : : : : : : : : : : : : 8*s+K Z 1&o+~&o+n@0@&@s@k+`$;+=.7@7@~&o+u@V+C@$%r+I+b@$@x+r+9 m@<%<%x+<%y+<%s+B@@#)@F#_#i#9#p+{$p+8#@#@#@#B@|@",
"<#:#{$h&-%r+2+2+2+$@A%=@)@r+h#|@h#8#Y#h&i#<%x+)@Y#K@<%h#3+w@C%3@F#h@%$V+-$s+4@9*L+K$F#=@%$7@%$7@i@%$|@Z S r+|+0*: : : : : : : : : : : : : : : : : : : : : a*%@z@~+1&7@V@n@0#n@P@&@V+O.`$b*]%=@C+7@P+V+%$}+O.C@c*/+@#2+E#x+$@&&r+-%F#r+x+|@@#F#x+8#Y#_#&$|@|@l+a$r+[#E+K ",
"|@|@Y#@#h#r+y+@#2+)@s+x+r+2+@#B@C@Y#|@{$[#<%<%x+8#d*Y#7+i#B@e*=@%$h@%$o+7@A@'+` =.f*)@r+)@i@T$B%=@x+|@Z R r+g*h*: : : : : : : : : : : : : : : : : : : : : i*n+c@L+1&<@B%>@>@P@n@7@C+<@]+Z ;+3+n+V+-$+@7@$@b@S.C@=.x@9#3@x+F#y+2+~*2+@#x+|@8#@#F#r+i#Y#&$|@##@#r+r+8#8#K ",
"|@B@Y#i#@#@#y+h#r+h@$@F#y+2+i#B@C@Y#8#i#r+r+r+h@6*3@b$|@{$j*y+7@%$=@%$o+n&k*l*b$J%<%)@h@h@C+s+%&<%E+Z [.}.D+}+h*: : : : : : : : : : : : : : : : : : : : : m*n+H$~+3$S.h#>&V@V@+@i@%$s+7@{+i+n*o*P@7@o+A%!@$@3@]+p*`$Y#E#@#2+-%2+h#8#8#F###_#E+-%y+-%2+_#B@C%@#2+h#|@B@|@",
"K |@E+@#2+2+j#r+r+x+x+<%y+h#@#p+C@8#r+r+@#2+-%<%E+x@,$|@5+8#F#%$)@P+&#q*r*s*t*n+A+r+<%V@V@7@7@C+@#}.3$@.u*v*}+h*: : : : : : : : : : : : : : : : : : : : : w*J%P+b$!+o.x@A%>@>@r%P@7@F#<@V+x*y*z*A*0#V+$@%$C+h@L@x@p*@#~%Y#2+-%r+r+[#E+r+K@|@|@i#i#r+y+Y#p+&$i#i#g&b@##K@",
"B@|@Y#h&@#-%h#h#h#y+r+2+8#i#8#|@`#i#~*r+8#@#@#-%8#}+p*n$h#)@<%x+)@7@B*C*D*E*F*C+[@$@B%%$>&i@i@m@Z 9+e+}+s+x+}+h*: : : : : : : : : : : : : : : : : : : : : G*J%7@=@c$3$9*z@7@>#>@~$+@%$[@6@+$H*I*J*K*P@s+A%h@B%%&5+S._+x@8#y+2+~*2+2+@#a$3@|@:#9#9#~*i#Y#p+|@8#h&Y#p+|@|@",
"8#|@w@g&2+r+r+y+@#8#2+9#p+p+Y#:#E+8#h#8#B@@#h#8#R.]+3+Y#[$r+y+<%=@L*M*N*O*P*P%P+7@=@)@A%=@%$J%_.-+Z w@C+C+x+}+h*: : : : : : : : : : : : : : : : : : : : : Q*)@C+V@-*K+a+)+,$=@7@~&V@+@i@7@e@R*S*T*U*V*%@s+)@r+%&F#Q#7%5+|@2+i#r+r+_#i#@#3@####{$B@i#9#|@|@{$i#8#8#g&_###",
"@#8#Y#2+i#[#2+@#i#@#i#i#p+|@Y#'$m+C@h#8#i#`#C@x@J %$T$x+y+r+r+&&W*X*;&Y*Z*I@o+i@>&V@=@B%h@<%e+=+`*4@[@%$%$<%}+h*: : : : : : : : : : : : : : : : : : : : :  =%@i@h@i@s+c$a+9+|@%$7@%$>&~&~&o+e@Y$.=+=@=9#)@F#r+)@<%F#>&f*]+B@i#j#y+Y#i##=1@K B@p+_#_#9#|@|@,$i#Y#Y#_#B@w@",
"h#h#i#i#Y#i#h&Y#,$8#2+y+9#|@B@1@`##=r+2+-%8#3@A@p*F#$@r+8#<%<%*@$=%=&=*=C$u@-$7@V@V@T$T$x+{.=+[.4@=@h@)@=@x+}+h*: : : : : : : : : : : : : : : : : : : : : ===@7@%$V@%$J%{.9+P m+s+B%w&+@n@+@o+R#-=;=>=,='=h@x+x+r+<%x+{$$%j*|@h#@#Y#,$r+##Y#@#i#B@B@p+B@|@B@@#9#8#8#8#B@",
"C@C@8#8#B@_#_#Y#{$p+_#i#9#p+B@4@H a$@#h#i#4@Y#,$h#r+r+y+y+<%n&)=!=~={=C$%$i@i@V@V@=@$@$@b$;+h+S.%&$@A%=@B%x+}+h*: : : : : : : : : : : : : : : : : : : : : ]=i@o+7@V@=@C+m@^+>+` `#$@$@%$0#n@7@>#n@^=/=(=_=:==@s+y+r+r+r+b@|@;.B@@#@#i#m+1@Y#@#@#Y#_#|@:#|@p+Y#_#@#E+Y#|@",
"g&8#E+B@p+p+_#_#Y#9#B@Y#2+Y#Y#'$`#@#i#@#3@<=|@[=-%y+r+<%y+n&}=|=1=*=,*V@B%i@>&%$7@=@s+I+9*~+]+=@>#$@%&V@%$)@w@h*: : : : : : : : : : : : : : : : : : : : : ==C+-$~&>@%$=@<@C@g+)+}.a$$@<%%$~&V@B%V@n@2=3=4=5=6=h@F#-%C@8#@#4@k+{+8#i#i#m@c@g&Y#@#8#B@1@1@|@:###K Y#B@Y#B@",
"w@E+i#Y#B@Y#B@h&i#i#Y#i#h#h&8#1@r+h&i#h&1@<%&$i#-%h#x+=@7=8=9=(&0=a=%$<%B%>#V@%$7@v*$%'+b=c=C+x+h@=@B%%$%$h@A@d=: : : : : : : : : : : : : : : : : : : : : e=i@o+7@n@i@h@h@-*H Z ;+Z F#A%T$V@V@=@h@,#f=g=h=i=j=k=j#<%@#@#@#b@x+3@l+p+i#J%4@|@B@Y#@#B@##&$&${$|@Y#i#8#B@|@",
"B@Y#i#_#B@B@Y#Y#i#_#Y#@#[#g&B@s+$@h#2+8#9&-%3@i#h#r+<%l=m=n=o=p=q=,#$@F#B%>#h@%$V@S.r=` 3+<@$@-%h@%$V@i@i@h@4@d=: : : : : : : : : : : : : : : : : : : : : s=s+-*7@P@V@%$T$x+-$,$[.t=@.F#T$T$=@i@B%=@h@u=v=w=x=y=z=y+i#@#@#1@x+b@Y#|@Y#F#D+9$|@|@Y#p+($|@p+|@|@A=8#B@|@b@",
"l+@#8#B@B@B@B@B@_#p+Y#Y#g&8#|@F##=8#Y#Y###9#F+{$h#[#&&B=C=D=E=F=V@h@<%-%,#%$=@$@z@9*T >.s+h@-%y+<%$@i@7@%$r+6+: : : : : : : : : : : : : : : : : : : : : : G=r+7@~&i@>#=@h@-%=@-$H=!+I=^.F#,#>@=@%$%$<%%$f=v=J=K=L=M=Y#2+8#3@|@1@_#p+p+m+r+,$|@##|@|@B@K B@p+($|@K z@/+##",
"l+8#l+Y#|@z@|@B@{$_#p+Y#Y#A=3@_#8#|@7+b@|@##m$B@8#h&N=O=R&P=Q=>&$@<%F#T$A%h@T$b@a+P R=O+%&<%i#2+)@A%C+%&v*E+$.d=: : : : : : : : : : : : : : : : : : : : : S=c@s+7@V@V@=@h@h@=@J%<@S.T T=>.)@~&i@B%V@=@)@)@%*U=1=_*V={$F#l+x@e*X@h#{.9$B@@#4@1@|@##1@K K |@w@w@|@/+z@|@|@",
"B@Y#K _#|@&$|@p+h&p+&${$9#9#4@Y#Y#W=K%E+|@&$7+B@E+X=Y=Z=`= -x$)@&&r+T$B%B%<%,$T 9+4+P+s+<%)@2+-%%$%&%&F#a$.-8++-: : : : : : : : : : : : : : : : : : : : : @-@.`#$@%$-*B%<%)@h@F#$@7@5+S b*6+i@>&h@%$=@h@r+<%%*#-$-%-`#m+@#x@O.O.Y#K+n${$Y#k+z@z@|@/+|@|@B@B@8#Y#|@b@|@z@",
"|@|@|@|@($|@|@B@p+'$9$p+Y#_#b@6*i#e*,$`#B@d*L$B@@#9#&-[*A=x+r+h#~*-%h@>#B%y+K@U @.*-x+r+F#<%-%y+B%v*<%$@7+g+=---;-: : : : : : : : : : : : : : : : : : : : : >-4+F#s+C+h@<%<%h@<%@#F#A+i+!+=.x+_$)@%$B%<%2+a$F#,-'-)-@#|+,$W=X@3@@#Y#-.8#@#b@K@&${$1@##1@|@p+($|@|@b@##/+",
"e*]+e*W=!-W=K@~-W=W={-K@K@W=B@2+E+r+@#p+1@##]+8#2+B@]-^-~%m+2+9&i#2+<%<%T$r+3@e+~+I C@2+-%<%T$Y%s+J%<%i@d#/-(-_-Z :-: : : : : : : : : : : : : : : : : : : : d=<-7@V@B%A%<%T$F#F#i#8#7@[.L+@.$@=@)@<%&&y+i#C@@#z@M.a+9 C@8#K@S.x@8#h&F#h#`#k+j*3@1@!-,@W=3@W=3@X@O.X@,@W=",
"[--*C+=@%$P@u@&@u@}-~&%$%&$@-*`#w@h&@#Y#4@##]+8#n+m+|-~+~%_+r+y+2+y+<%<%h@)@x@e+` w@a$r+@#~*<%1-F#$@F#V@2-3-4-5-6-7-: : : : : : : : : : : : : : : : : : : : : 8-f@-*%&$@-%<%-%-%2+Y#s+0$~+`$n+$@$@y+<%F#2+C@m+k+~+,+~%C@@#1@S.j*8#h#r+r+h#r+7@V+o++@P@T+P+C+P+z+:@:@}@6@",
"_+m+m+h#h#r+x+v*$@F#@#2+h#l+v*-%i#h&@#@#k+Z >.a$=@a$3$9-S.h@h@<%r+y+&&-%<%=@O.i+!+3*#=`#2+i#-%F#x+a$-%w&0-a-b-c-d-e-: : : : : : : : : : : : : : : : : : : : : f-g-B%y+x+F#F#F#i#9#8#x+0$g+#.D+F#F#r+F#<%2+i#h-'$L+,+F+E+j#3@` ;.@#h#r+h#m+H x+n+n+n+D+_+m+r+r+_+_+_+r+m@",
"h#y+h#a$h#8#h#r+-%y+F#F#h#8#x+r+@#h#@#`#/+!+7+r+_+}+a+`*i-j-k-l-~*T$h@-%2+$@]+g+!+z@@#-%-%i#2+2+@#7+'$g@$=m-n-o-p-e-: : : : : : : : : : : : : : : : : : : : : q-r--%` F#-%y+~*Y#p+9#F#3$9-#.a$<%<%h@$@<%~*s-t-u-Z a+ %C@@#X@a+F+@#r+h#r+r+l+F#_+_+x+r+@#r+J%@#E+E+E+C@C@",
"F#r+[#r+`#E+@#h#r+r+x+s+r+h#r+r+r+2+`#i#3@h+4+E+i#}+3$y$v-w-x-y-~*y+)@-%9&x+R.9-!+z@8#y+2+i#r+F#C@p$K@O@$=z-A-B-C-e-: : : : : : : : : : : : : : : : : : : : : q-q*<%h$h@F#i#h&9#B@8#F#P Z Z `#h#h@h@<%-%W*D-E-F-f+0$R.E+E+j*[.G+@#r+@#h#@#E+h#x+r+F#r+l+@#r+C@l+_#8#E+E+",
"a$`#m+h#h#Y#h#h#h#<@<%h#r+r+`#@#@#8#8#Y#x@h+{.K E+H 3$G-H-I-J-K-2+2+)@F#2+J%]+i+` H$8#r+r+F#<%)@a$7+4@L-M-N-O-P-Q-e-: : : : : : : : : : : : : : : : : : : : : q-R-$@h+%&x+2+i#h&i#2+J%a+Z #.r+J%<%h@$@r+S-T-U-V-f+S R.E+E+]+[.3+C@@#h#@#C@z@l+_+F#h#@#Y#8#@#}+w@K K B@,$",
"C@C@|+|+B@Y#h#L&m+a$8#8#@#l+E+`#r+8#E+E+3@h+K+E+h#}+!+{.H-W-X-h-8#Y%h@)@-%s+S.^+!+H$8#r+r+x+x+$@_+5+##B%;#Y-Z-`-p-e-: : : : : : : : : : : : : : : : : : : : :  ;.;S-9-%&F#F#-%*@~*2+$@P Z ^+n+$@)@x+=@r+-%+;@;V-f+3$S.l+m+]+!+I$|+@#m+h#l+z@K l+@#i#B@8#r+H }+|@w@B@K |@",
"E#E#!*r$/+A@#;3*g*3@3@z@x@e*k+`#r+8#E+E+e*h+=.H [#K P f+$;%;&;*@i#r+h@r+<%$@S.g+P H$8#r+F#J%$@F#_+<@<%>&*;=;-;;;>;e-: : : : : : : : : : : : : : : : : : : : :  ;6=1-r+A%@#F#<%2+i#i#J%P Z `$n+$@r+)@$@<%~*,;';);i+` E#r+m+]+` ]+|+h#@#@#l+k+9 ]+]+E#E#k+8%k+S.I$E#k+S.9 ",
"e+f+%.^+^+{.4+7+{.e+f+e+Z M.I+E+a$8#@#C@4@|@3+E+[#c a+i+O.!;&&2+2+2+)@x+,#=@H$@.P 6%8#y+F#F#$@F#F#%&A%O@~;{;];^;/;(;: : : : : : : : : : : : : : : : : : : : : _;:;T$<%<%m+r+x+h#8#8#s+3$Z $.n+<%<%$@T$-%2+2+<;|@@.0$H$m+l+X@R.4@@#@#h#h#E+5+{.g+g+Z Z f+^+{.e+{.^+i+Z f+",
"3@k+c@1@K z@4@K z@4@k+4@O.S.~%l+r+@#@#@#1@z@F+E+2+w@[;g+]+@#h#2+2+Y#F#x+s+$@H$g+` 9 @#y+F#x+s+$@x+<%x+s+d#V=};|;;#:-: : : : : : : : : : : : : : : : : : : : : 1;8#<%~*<%m@r+$@r+l+@#B+` ..$.n+=@$@C+)@-%p+8#_+z@Z 1&~%m+E+O.R.]+E+@#C@[#C@]+3@|@|@/+3@3@4@4@k+K |@E#3@E#",
",$E+@#8#Y#E+B@C@l+}+w@E+}+k+9 H h#4@B@8#4@3@F+C@@#z@,+i+S.|+r+9#9#i#-%A%x+r+4@g+!+k+E+r+h#F#$@r+x+F#s+<%i#/+2;3;e-: : : : : : : : : : : : : : : : : : : : : 4;A@J%$@F#$@r+r+s+x+`#r+a$` @.5;n+=@n+=@$@r+Y#@#_+A@Z a+~%`#m+S.I+5+C@Y#R.K E+e*b@8#8#B@B@B@E+B@|@E+Y#K A@z@",
"Y#B@@#8#B@B@B@E+,$K Y#8#w@|@E#@#E+$%7+<#S.E#-.l+l+A@h$6;9$x+r+@#Y#2+-%y+r+r+E+f+L+`$B@r+F#-%y+@#F#n+x+y+`#a$j*7;: : : : : : : : : : : : : : : : : : : : : 8;3*!*h#F#s+x+8#@#$@F#@#`#-.3$i+]+n+s+x+h@r+r+@#_+D+_#B$h$9 @#C@{+I+F+B@F+>.K B@]+/+B@8#B@Y#p+E+K b@B@K ,$w@z@",
"B@,$B@E+|@1@##B@,$K B@p+|@1@S.r+K w@]+B@S.W=;.H C@_+}$9;0;a;~*Y#Y#y+8#i#i#y+-$<={.b+@.E+r+h#h#2+r+m@$@F#x+r+/+R@: : : : : : : : : : : : : : : : : : : : : b;D a$[#s+$@x+@#@#F#x+l+5+9*M.5+P+n+$@-%F#h#m+m+)@r-c;d;e;m+H B@F+7+-.l+o$B@|@Y#]+x@|@B@B@B@Y#B@|@1@k+w@w@B@z@",
"b@|@z@K |@1@K B@w@E+f;Y#K c@]+C@@#|@Y#,$x@1@-.B@G G g;h;i;j;k;~*h#2+8#2+2+2+F#o+/+Z o.*.@#F#h#r+F#$@$@$@F#E+F+l;: : : : : : : : : : : : : : : : : : : : : m;,$h#x+$@<%x+@#`#a$m@x@9*|-n$A+J%F#)@r+h#2+j#r+R-n;o;p;q;_+A@w@5+5+-.,$|@|@|@8#j*W=##K z@|@|@|@/+1@1@w@K w@w@",
"3@3@/+z@|@|@K w@E+@#E+l+w@4@]+B@r+B@E+w@3@r+X@H H w@%@r;s;t;u;v;*@i#~*~*y+i#i#r+7@j*}.o.7+@#r+F#m@s+x+F#x+@#5+8;: : : : : : : : : : : : : : : : : : : : : w;E+J%$@A%<%)@m+r+_+4@)+a+e+D+n+x+r+x+x+x+r+y+x;y;z;A;Z&V@l+k+K j*w@5+|@|@|@|@Y#]+3@1@|@####'$<#|@|@|@K z@##|@",
"d*W=K@1@|@B@B@B@E+h&B@|@1@d*o$3+@#m+E+z@O.h#O.H H B@H V@B;C;D;E;F;2+2+-%~*-%2+@#h#%&o$G;=+F+h#a$m@n+F#F#r+@#S.H;: : : : : : : : : : : : : : : : : : : : : I;l+r+r+$@$@$@a$r+k+N P @.|+h#h#<%r+x+r+_+h#J;K;L;M;N;C$a$H B@|@j*B@X@|@w@|@B@S.m$W=####K@K@K@##|@|@z@|@'$3@4@",
"X@3@4@##|@B@|@|@B@Y#|@|@|@1@X@J+c@l+E+,$H$H k+w@l+l+}+E+O;P;Q;R;S;T;_$h@<%<%-%r+@#`#A+b$P o.F+}+r+x+r+x+F#,$O.U;: : : : : : : : : : : : : : : : : : : : : V;|+r+r+r+_+_+a$4@9+)+g+I E+i#F#$@x+r+8#x+w&p&W;X;Y;Z;y+Y#C@Y#c@]+,$3@Y#|@##b@G-,@1@|@{$X@W=~-1@|@##~-K@K@e*3@",
"3@1@1@z@|@|@|@1@z@|@####|@1@9$e*1@l+E+E+`#b@,$x@w@l+E+B@8#P%`; >.>+>@>T$<%<%<%r+r+C@r+J%K%a+n.-.E+m+_+F#r+|@O.#>: : : : : : : : : : : : : : : : : : : : : $>C@a$m+r+F#@#|@T )+_.}+a$K Y#r+n+F#F#h#F#%>&>*>=>->r+($9#@#{$W=,$|@h#8#B@|@##Q#d*##&$/+;>W='$|@K ##R.R.,@X@O.",
">>1@1@'$K@c@z@3@|@C%|@_#B@|@|@9$k+B@z@B@C@h#|@A@S.|@8#@#@#h#,>'>)>!>~>&&)@r+2+h#2+@#l+|+{>e+9*n.]+C@`#@#@#|@S.#>: : : : : : : : : : : : : : : : : : : : : $>g*h#r+x+F#|@` >+Z A@m+h#B@l+r+<%2+<%<%]>^>/>(>_><%8#z@B@Y#3@/+|@Y#h&B@|@|@4@j*K@z@1@##K@1@####'$9$X@e*W=W=O.",
"e*3@O.3@K@3@3@K@:#9$##Y#_#|@|@9$/+|@##K }+E+l+b@H$S.B@@#h#@#r+:><>[>}>|>n&r+@#h#h#r+@#l+a$a$1>)+=+O.l+@#`#K 3@#>: : : : : : : : : : : : : : : : : : : : : $>C@@#r+r+E+[.b+~+E#m+|+8#E+@#h#F#$@,#2>3>4>5>6>h@B@B@B@|@/+H$x@{$B@|@|@|@##E#X@1@1@1@'$##/+|@1@3@3@K@K@K@K@K@",
"]+]+W=3@3@3@e*c@K@3@'$B@B@##9$3@4@|@##|@B@z@|@@#3*$%S.,$`#2+Y#`#r%7>8>9>0>*@`#E+`#r+@#`#m+|+|+{.9*a>H$C@`#w@E#b>: : : : : : : : : : : : : : : : : : : : : c>H @#@#E+Z -+`*H$_+a$@#@#@#l+r+$@T$d>e>f>g>4%<%B@|@|@|@x@x@j+w@<=/+##|@&$##|@]+/+|@|@&$|@1@##3@W=1@|@##3@X@e*",
"]+W=O.X@W=e*3@K@3@K@1@z@##'$1@3@4@|@##|@z@4@c@E+a$k+R=F+b@Y#B@K l+h>i>j>k>l>T$@#a$a$r+r+m+g*{@I _.m>)+E#@#|@x@#>: : : : : : : : : : : : : : : : : : : : : n>}+E+E+e+;+~+S.m@@#`#l+m+@#a$F#A%o>p>q>r>s>F#b@|@B@|@x@J+w@b@w@/+1@b@|@1@1@/+j*4@|@|@p+|@K@3@x@e*/+'$3@W=u#j*",
"W=K@3@W=3@W=9$##1@K@Y@##1@1@1@W=4@|@K |@<#z@4@A@E#j*6%^+F+'$|@_#K W*=*9=t>u>F;2+a$|+@#@#C@E+C@_+z@Z o.9+k+z@O.#>: : : : : : : : : : : : : : : : : : : : : n>A@}+^+t=[.S.n+C@B@E+@#r+F#r+<%J;*&v>w>x>B%|@{$|@z@O.e+3@1@-.E#K@1@B@:#'$z@1@j*3@1@&$|@1@3@3@3@W=1@9$X@X@R.,@",
"W=K@1@3@!-K@9$:#1@1@K@1@1@K@K@j*4@w@K K ##b@k+z@R.m$]+e*e+R.K l+}+,$B%y>z>A>B>1@H m+@#m+@#,$}+}+_+k+~+T=S k+O.#>: : : : : : : : : : : : : : : : : : : : : C>H 3+i.|-L$A+E+K B@C@C@m+h#@#H D>E>w>F>~&E+|@|@K S.i+;>S.W=b$3@1@z@B@|@1@##E#~@X@1@9$|@K@W=K@3@3@1@3@X@x@O.X@",
"K@K@1@3@W=K@'$|@1@1@K@K@K@3@d*j*O.|@z@A@1@##|@K O.;.G>S.3@@.6+K H H 8#w&H>I>J>3$E#l+8#C@|+C@l+|@w@r+]+1&o./+x@#>: : : : : : : : : : : : : : : : : : : : : C>}+=.,+Z A+H K ,$m+r+h#C@C@E+^+K>L>M>O@C@E+B@z@k+^+S./+^+e*=.3@/+z@####4@z@E#v#W=K@K@C%1@3@K@3@3@1@K@L@W=X@X@",
"3@e*W=K@!-L@K@3@X@K@3@K@K@W=,@o$]+|@|@B@|@|@z@A@3@N>u*I+3@x@@.]+B@E+B@C@x+a${.,+1&k+w@C@C@C@}+A@A@w@7+P ;+x@]+#>: : : : : : : : : : : : : : : : : : : : : O>K J+P 9+w@E+,$Y#h#F#@#u*,$K+a+i+Y#i@F#@#E+z@O.{.j*k+n$,$3@b$4@1@1@1@##1@##E#v#X@W=L@/+##1@K@K@]+K@W=d*W=X@]+",
"O.]+W=3@W=K@3@W=O.K@W=W=W=X@5+-.R.c@1@B@B@|@w@}+4@u#|@H F+4@E#e+R.z@K |@l+r$}+e+9+}.k+E+C@l+B@K |@A@=.a+;+O.S.#>: : : : : : : : : : : : : : : : : : : : : P>w@{.,+o.z@|@|@B@@#r+l+H =.a+Z $%=@m+h#@#K O.^+e*/+>.b@z@3@b$E#1@K@1@1@1@c@3@v#X@e*1@##|@9$1@~-X@!-X@d*X@j*N.",
"x@,@Q>!-K@c@##1@1@1@!-X@3@W={-u#5+e*x@1@##z@|@C@4@-.1@,$m@R=3@,@Z R.z@w@K l+J%w@Z ;+X K @#`#B@|@,$w@K+a+o.6 I$R>: : : : : : : : : : : : : : : : : : : : : S>8%^+,+o.z@B@z@##E+G#C@5+9*`*S.P+r+8#p+_#z@{.F+z@{.A@z@/+x@K+3@K@c@z@|@'$1@3@v#,@W=&$##<#'$##1@d*~-3@W=R.X@j*",
"X@j*j*W=4@##|@|@/+##1@K@3@3@~-X@]+1@1@z@z@K ,$}+S.m$K@|@8#C@|@|@5+^+4@}+/+z@|+B+b@h+;+I+,$H B@w@,$E+-.T>i.S.]+R>: : : : : : : : : : : : : : : : : : : : : S>K e+,+o.|@|@1@1@|@l+z@N ` m$s+_+C@B@w@|@F+7+|@}+4@A@4@K@W=*.3@K@4@1@/+|@3@E#5+X@W=|@##/+K@####3@3@c@3@S.W=R.",
"]+j*j*e*c@1@1@####1@4@1@9$K@K@,@,@c@c@b@|@w@K w@S.U>e*K@|@|@1@|@K@o${.w@B@|@E+|+n+`*V>>.}+,$C%z@K K W>,+j.O.j*X>: : : : : : : : : : : : : : : : : : : : : S>z@Z '+i.b@####k+k+E+k+Y>1+h#x+r+Y#B@E+F+7+K@|@B@K@z@##3@W=K+3@3@W=X@3@K@,@x@]+3@W=1@1@1@d*K@1@1@K@3@O.S.e*e*",
"R.,@W=W=K@3@c@4@K@K@1@4@1@!-X@u#]+c@1@1@k+b@K b@R.K+e*3@|@|@c@|@/+;>6;E#A@K A@l+j#Z>`> ,w@w@z@k+K |@b$,+n.S.]+X>: : : : : : : : : : : : : : : : : : : : : S>z@Z >+j.k+b@##|@B@C@p+.,+,@,@#[#8#E+B@@.X@1@|@B@c@c@1@3@3@K+O.c@3@W=3@3@X@O.j*K@1@~-3@3@X@W=3@1@K@W=e*R.R.]+",
",@,@W=K@3@3@1@1@c@1@|@1@K@X@j*u#]+4@1@z@|@b@z@|@X@c$O.K@z@|@1@1@L@3@U>o$c@|@b@l+h@#,$,%,c w@w@|@B@|@].a+j.O.R.R>: : : : : : : : : : : : : : : : : : : : : &,d Z b+*+4@|@##|@Y#@#*,=,-,;,r+g&{$B@|@f+e*K@B@,$4@>>K@L@x@b$3@c@K@3@W=X@X@S.]+4@1@3@3@K@W=W=K@3@K@O.O.S.S.S.",
"j*e*K@3@W=o@K@K@4@K@z@4@W=j*,@N.R.4@1@z@z@b@|@|@]+b$3@/+<#|@##K@!-d*n$;.c@/+4@w@)@>,,,',|@}+H }+w@w@>.a+*+S.{+X>: : : : : : : : : : : : : : : : : : : : : &,z@@.>+j.4@|@z@&$|@E+:=),!,~,y+Y#C%####p$x@c@B@,$K@W=3@3@O.b$S./+b@b@3@e*X@x@]+1@K@3@3@1@1@1@4@c@E#e*R.]+e*O.",
"u#W=O.x@e*W=3@O.3@O.K@1@e*j*,@o${+4@1@3@O.O.1@k+5+U>9$1@1@|@##K@K@3@b$R.b@4@3@B@%@{,],^,##c H }+l+}+b$a+i.S.I+X>: : : : : : : : : : : : : : : : : : : : : /,k+Z T>j.4@|@/+##z@K :=(,_,~,2+|@##z@|@{.4@|@Y#B@c@3@3@3@O.7+S.1@|@K 1@3@W=O.]+3@W=W=x@K@1@/+4@c@1@c@S.]+X@e*",
"d#j*X@X@3@O.c@S.X@O.O.E#e*j*R.~@{+H$O.3@O.3@4@z@R.b$W=c@1@####1@K@3@K+F+4@c@1@w@)@:,<,[,'$A@H f;E+H {.9+i.I$H+X>: : : : : : : : : : : : : : : : : : : : : },k+Z ,+j.4@/+c@4@4@|@:=|,1,2,i#|@##1@b@g+1@z@|@K 4@3@O.4@E#b$3@1@|@K z@X@c@O.j*]+,@X@X@3@O.O.O.4@E#E#E#O.x@x@",
"W>-.j*O.c@3@1@x@X@X@3@x@O.X@R.~@F+E#S.W=E#x@1@|@X@q+X@3@:#|@|@C%K@3@c$-.3@/+b@4@j#3,4,5,'$A@}+E+Y#E+J+,+n.H+F+X>: : : : : : : : : : : : : : : : : : : : : },|@Z 6,*+E#c@3@4@c@:#7,8,9,2,9&|@##1@z@@.k+/+##z@3@4@1@4@O.=.S.1@4@b@K@W=/+c@o$N>,@,@;>c@3@O.E#E#O.O.O.S.3@S.",
"-.5+j*O.1@1@/+x@]+x@3@S.,@0,R.~@I+S.S.3@O.S.4@z@]+;.O.3@##{$|@##c@W=K+ %2@1@/+1@y+a,b,^,:#z@|@l+Y#|@K+,+%+{+3+X>: : : : : : : : : : : : : : : : : : : : : /,z@Z -+j.3@c@/+1@c@:#c,d,e,2,f,|@K@9$z@@.1@z@4@3@x@2@4@3@e*=.O.3@c@3@3@e*3@E#N.j*u#]+4@/+x@S.S.R.S.S.S.x@e*S.",
"]+X@R.O.c@c@3@R.X@3@E#O.R.X@O.F+F+S.E#c@x@E#O.3@j*7+e*4@z@b@'$K@3@x@c$H+k+1@K@z@@#g,h,i,K@b@w@E+B@z@K+0+%+R.F+X>: : : : : : : : : : : : : : : : : : : : : j,z@@.'+&+E#1@##|@|@:#k,l,1,m,B@1@~-##K ..1@c 1@3@S.O.E#e*R.J+]+E#3@x@x@,@3@E#5+S.X@3@/+1@E#X@R.R.S.]+R.j*]+S.",
"S.]+R.R.X@X@,@j*j*R.3@x@R.X@,@F+{+O.x@4@3@1@3@]+-.7+3@/+4@##1@3@3@O.b${+z@4@3@K @#n,o,p,~-/+A@,$|@z@m$0+%+I$F+X>: : : : : : : : : : : : : : : : : : : : : q,d e+'+$+E#C%z@|@z@9$u-r,s,t,|@z@K@z@z@Z E#c k+O.O.3@S.e*R.{.x@x@1@4@X@N>S.O.5+O.E#3@3@1@E#X@R.O.O.e*]+-.F+-.",
"]+]+]+j*j*j*]+S.]+R.O.X@R.j*j*~@F+S.O.4@1@z@3@]+o$K+3@z@4@1@4@c@3@3@J+R.c k+z@B@u,v,w,x,x@4@z@A@K z@m$,+%+I$ %X>: : : : : : : : : : : : : : : : : : : : : y,k+e+;+#+4@|@/+<#1@4@z,A,B,C,K@z@3@c@1@Z S.z@k+S.O.3@O.e*R.*.]+3@/+1@X@j*S.O.F+S.O.E#x@c@O.O.]+X@R.j*]+5+-.U>",
"5+5+R.X@X@R.e*4@x@3@c@S.R.]+R.~@I+S.S.S.3@k+E#3@-.J+]+'$/+z@K@c@K@e*p$ %k+c z@z@~#D,E,F,O.4@E#1@##b@;.[;$+]+G+X>: : : : : : : : : : : : : : : : : : : : : j,k+e+o.$+z@|@1@z@c@3@G,H,I,J,O.k+3@O.4@Z S.z@4@S.O.c@1@3@5+*.X@X@3@x@Q>N.R.6 -.R.R.O.S.S.O.]+]+j*R.]+e*]+5+7+",
"5+5+R.O.X@5+X@c@O.E#4@c@S.R.j*5+3+]+]+O.3@k+4@4@F+{.j*c@K@/+3@3@O.X@G-]%E#z@|@Y#%*K,L,M,Q>4@E#4@K@4@b$,+%+6+F+X>: : : : : : : : : : : : : : : : : : : : : N,c@@.c+#+k+|@b@1@4@b@O,P,Q,R,W*/+x@c@4@Z O.b@4@O.]+3@1@3@R.K+R.]+R.R.j*o$j*S.-.R.X@3@X@x@]+e*S.]+j*]+X@R.~@m$",
"5+R.5+X@X@R.X@3@S.S.c@4@4@O.R.5+F+]+R.x@E#4@c@O.;.f+j*x@3@K@W=e*W=X@f+>.4@E#3@/+*@S,T,U,O.4@d /+/+S.{.'+%+S.{%X>: : : : : : : : : : : : : : : : : : : : : V,~% .t=#+k+B@|@z@|@|@l&W,X,Y,p+3@W=e*E#Z E#/+x@X@j*S.c@O.{+^.R.R.]+j*j*o$j*S.;.]+O.c@c@3@]+O.S.X@R.S.R.R.5+-.",
"-.N.o$j*,@e*X@3@O.x@3@E#c@x@]+F+F+]+R.x@3@c@x@]+;.f+5+R.3@c@X@X@3@X@f+>.4@3@x@4@Z,`, 'i,3@2@2@E#k+x@e+b+#+]+F+.': : : : : : : : : : : : : : : : : : : : : V,~%Z ;+&+k+B@##z@b@|@+'@'#'|>|@O.3@e*4@Z ]+O.;>3@,@R.O.$%;.@.F+j*R.j*5+N.5+6+;.R.S.O.E#S.]+S.O.R.O.S.S.]+5+F+",
"F+-.-.o$R.e*x@O.S.q@O.S.S.O.S.~@F+]+R.O.X@R.j*j*7+i+-.N.R.e*]+W=3@X@e+3+O.x@x@4@$'`,%'',K@9 d E#E#S.y$-+$+ %G+.': : : : : : : : : : : : : : : : : : : : : V,E#L+;+&+H$##K@4@c@##&'d,*'=''$O.c@x@X@L+5+X@e*]+,@]+]+R.].Z F+5+j*j*5+~@F+]+3+H+R.R.R.R.R.]+O.q@O.R.5+]+5+R.",
"F+N.~@N.,@j*S.O.S.S.6 e*S.x@]+-.I+]+R.R.j*o$~@F+b$i+-.j*N.j*,@W=X@j*y$I+]+O.c@c@Z,-';'>'|@w@z@k+E#]+g+'+$+{%G+.': : : : : : : : : : : : : : : : : : : : : ,'O.h+o.$+O.E#x@3@O.3@]>'')'m,|@K@/+1@O.h+o$R.]+5+]+]+R.-.K++.-.F+j*j*5+F+5+S.>.-.F+5+o$-.-.R.q@S.S.]+N.X@]+R.",
"5+F+-.~@j*N.j*S.]+S.O.]+S.S.R.3+9 x@R.N.o$-.5+j*7+i+-.o$~@R.e*X@,@j*i+ %q@O.c@c@~*a,!'>'|@A@d k+1@O.@.b+$+{+{+.': : : : : : : : : : : : : : : : : : : : : ~'O.!+i.$+S.E#3@X@,@3@{''']'^'A=1@##c@E#[.R.R.e*5+O.R.j*-.b$Z o$j*5+5+N.F+]+H$L$F+R.R.j*W>m$5+]+R.S.R.R.]+]+R.",
"I+F+N.R.R.N.R.e*R.S.O.e*O.]+F+~%S.R.F+-.7+e+-.H+*.f+F+j*-.5+]+e*,@]+^+I+S.O.O.c@~*a,/'(''$c 9 E#4@O.^+a>%+]+#%.': : : : : : : : : : : : : : : : : : : : : ~'H$U o.$+S.x@e*S.O.;>_''']':'A=/+4@1@1@L+]+R.S.F+]+R.R.N.K+Z j+F+@.-.N.5+5+O.k+;.R.R.X@o$m$5+]+{+]+R.]+5+F+5+",
";. %H+R.R.5+5+]+e*x@O.3@O.]+K+{+]+5+;.7+<'`$7+M+` i+@.^+i+M.{.f+i+;.{.-.S.3@O.1@~*['b,',K@z@z@9 ~%S.J+b*$+c= %}': : : : : : : : : : : : : : : : : : : : : |'O.` j.1'S.X@]+x@O.K@2'3'4'm,&$4@k+z@1@~+5+Z K+^.Z ^+^+Z f+R 4+b$Z ` ;.N.5+S.H$^+5+]+]+7+;.F+j*5+F+R.R.F+5+5+",
"-.F+F+R.R.F+F+R.X@]+]+O.X@~@f+F+R.F+7+}._.3+J+` Z 3$_.;+P <.9+<',+F+f+7+]+W=S.k+2+5'6'7'3@d z@4@E#O.{.b+$+{+G+}': : : : : : : : : : : : : : : : : : : : : 8'~%U n.@+S.W=]+O.x@x@_'d,9'0':#4@c@E#4@~+F+8+S a'b'c'R W )+Z P {.~.Z ` >.N.S.E#@.-.R.R.-.F+R.R.o$F+R.5+;.5+ %",
"-.-.N.5+5+R.R.]+]+X@j*$%$%7+f+F+5+-.{.` =.e+R ~+f+Z =+}.R a><'=+R p$g+7+S.X@]+3@g&d'e'f'3@d k+E#3@x@^+b+$+F+I+}': : : : : : : : : : : : : : : : : : : : : >-S.!+j.++O.x@x@4@4@c@u-d,g'0'##E#O.O.E#~+>.P h'W T=b'1&i'j'[.~+P e+4+` {.R.]+6 Z -.R.R.R.5+]+R.j+5+F+F+5+N.F+",
";.;.F+F+H+F+F+5+R.j*F+]+]+;.f+I+5+7+3+7+^+` }.^+e+k'R T )+<'I=1&9+b$g+3+4@x@e*4@_#l'm'n'3@k+z@O.O.j*K%-+$+{%J$}': : : : : : : : : : : : : : : : : : : : : o'I$S t=#+S.O.4@k+k+1@p'q'r's'z@3@X@S.E#X ;.!+T t'<'a>u'T I=!+e+{.1&Z {.N.-.R.6 Z 7+5+R.j*R.]+]+F+R.5+]+]+F+ %",
"b$b$-.j*]+R.F+-.-.F+-.H+R.;.J+I$]+7+J+^+!+X v'>.{.K%4+p$J+e+^+^+i+L$=.R.k+3@4@z@|@w'x'y'O.4@k+S.O.R.g+b+n.{+=.}': : : : : : : : : : : : : : : : : : : : : z'R.` ;+*+6+S.x@E#k+K@A'~=B'C'A@E#X@E#4@[.H$^+1>f+K+.-^+i+@.i+*.D'`$P f+b$o$5+4@g+b$F+j*5+F+R.S.R.6+$%S.]+5+7+",
"J+b$-.E'R.R.F+-.-.F+F+F+F+7+K+8#h@2+8#F#-.f+^+M.M.Z ~+~+M.b=h+!+8+Z @.H$4@O.k+c O.F'G'H'O.E#O.]+S.R.g+,+=.~%]%}': : : : : : : : : : : : : : : : : : : : : z'H+-.P *+H+O.S.c@4@O./$O=I'N=9 6 S.c@9 1>e+Z a+b=[.~+X ~+[.L+~+Z L+{.h#~*<%J'>&{.K+F+R.R.F+F+I$S.6+5+R.F+-.7+",
"{.K+K'F+-.-.5+5+5+5+R.F+-.b$Z G+6+S.S.4@6**@T$F#-%8#Y#A=9#A=i#h&L'M'w@~%E#S.z@R.N'}*F,9-R.O.]+R.]+j*i+ .B@O.=.}': : : : : : : : : : : : : : : : : : : : : O'F+E#=.;+j*S.3@1@3@j*6;P'Q'R'=.E#c@k+4@3@S'T'U'##h&8#6*F#v*J%2+9&~*2+I H$S.c@4@~+K+F+F+~@o$j+{+6+{+F+R.{+-.3+",
"J+K+;.-.7+7+-.5+R.F+R.5+-.n$ .G+R.]+X@]+E#/+O.4@z@k+O.S.S.N.]+j*j*O.S.O.E#O.z@5+V'W'b=Z R.O.R.j*j*5+g+U ]+S.=.}': : : : : : : : : : : : : : : : : : : : : X']+I$^+o.R.]+e*4@4@j*Y'Z'`' )^+9 k+k+d X@O.O.3@c@3@]+c@z@4@E#]+]+]+x@S.R.R.]+O.!+b$o$-.;.;.-.{+R.F+-.5+ %-.-.",
"{.K+-.;.7+b$-.5+F+-.F+o$o$m$Z  %~%S.]+]+S.E#R.E#z@c@E#O.O.R.]+R.R.E#k+]+S.O.E#-.6,.)h+@.R.S.R.j*5+5+g+` j*]+~.+): : : : : : : : : : : : : : : : : : : : : @)R.]+e+j.R.R.]+3@4@j*G-6,P 6, .O.4@4@c@k+E#O.O.4@E#R.S.O.E#S.q@]+F+5+]+5+5+S.S.!+*.7+m$;.U>-.{+5+-.>.I+-.;.=.",
"*.>.7+-.7+7+7+F+-.F+5+-.;.b$Z I+S.]+R.]+R.I$R.O.O.O.I$R.S.R.R.O.4@k+O.]+R.q@S.>.#)$)~+@.R.O.R.F+H+F+Z ` 5+R.^.+): : : : : : : : : : : : : : : : : : : : : %)R.R. .j.5+]+5+S.E#R.K+T>3$-+@.I$E#O.4@d 9 c@4@d E#R.S.q@6 R.R.F+-.j*]+S.R.x@6 [.J+7+b$K+K+;.{+R.N.7+=.>.E'=.",
"=.b$b$-.7+b$7+-.-.-.-.F+m$b$+.{%S.$%5+5+R.F+5+I$&)S.]+I$I$q@S.4@z@E#S.S.R.R.R.>.-+&+`*_.H+R.R.F+F+E'Z !+-.R.$.+): : : : : : : : : : : : : : : : : : : : : *){%H+..j.5+R.F+{+E#R.*.a+3$'+e+c@c@E#6 E#S.c 4@4@O.]+S.R.S.I$I$F+R.e*]+3@]+S.E#!+J+7+b$K+{.=.F+{+5+;.7+b$7+K+",
"b$K+b$m$#@b$b$;.;.7+U>;.m$n$Z {%S.R.F+F+]+ %F+R.S.E#S.I$R.R.S.4@c@O.S.q@R.5+{+=.;+.)h+X I+R.N.-.F+F+Z S ;. % .=): : : : : : : : : : : : : : : : : : : : : *)R.H+ .%+-.F+E'5+R.5+*.-)P 9*@.S.6 6 2@6 1@z@9 S.]+5+S.I$S.I$I$F+N.e*]+R.O.S.E#!+{.U>].K+f+=.F+5+~@b$4+4+K+{.",
"p$J+c$].K+b$#@;.>.U>b$b$;.K+Z G+S.R.5+I$S.F+F+H+O.9 9 I$H+R.R.6 6 S.O.O.S.]+5+b$;+&+[.Z ;.5+-.7+;.j+Z T ;. % .=): : : : : : : : : : : : : : : : : : : : : *)R.F+Z &+-.5+F+N.-.7+f+a+3$9*Z H+R.R.S.q@2@E#~%I$R.]+S.R.S.I$I$O.R.E#I$]+O.S.9 !+{.b$b$J+f+=.3+>.3+=.*.4+{.{.",
"K+4+*.b$K+K+K+;.b$c$c$=.b$K+~+/%R.F+]+O.]+j*R.R.R.8 6 I$H+R.R.]+O.O.S.R.H+R.H+=.T a+@.Z >. %-.>.-.>.~+P >.;. .=): : : : : : : : : : : : : : : : : : : : : ;)I+-.Z n.3+F+;.q+7+7+e+P X }.@.F+F+R.R.q@S.9 E#O.R.R.S.R.R.R.R.q@I$6 S.S.S.S.c !+f+b$K+K+J+b$;.b$=.K+*.K+*.J+",
"J+J+*.J+J+{.J+b$J+K+=.K+K+{.Z 6+{+{+R.R.]+5+R.R.I$I$q@R.R.R.O.R.H+I$S.H+ %5+H+=.a+Z ^+ .>.K';.7+;.K+~+S =.>. .=): : : : : : : : : : : : : : : : : : : : : >)>.>.Z j.7+3+7+q+7+=.e+Z ]%[.@.F+;.-.F+5+]+S.I$E#,)H+R.5+H+E'N.H+R.q@R.H+R.5+O.@.@.K+b$J+J+b$=.*.*.{.%.^+J+J+",
"g+i+i+f+f+e+e+{.{.{.J+J+{.Z 6+R.R.F+R.5+R. %5+R.R.&)H+H+H+R.R.R.R.I$5+F+;.G+Q@=.3$')~.Z =.;.#@M+;.#@[.P ]%>. .=): : : : : : : : : : : : : : : : : : : : : ))>.>.Z j.7+-.;.7+;.7+{. .:+!+`$8%-.-.;.-.5+5+R.]+ %F+ %F+K'K'E'N.F+F+H+ %R.-.F+]+9-^+{.f+i+%.{.{.e+i+g+g+Z @.",
"P 3$P 3$3$` !+` ` ` !+[.!+>.3+>.>.=.;.>.>.=.>.;.;.;.;.>.>.>.>.;.;.;.;.>.=.]%J$ .9+}.R b$b$>.M+*.b$;.` N =.>.X =): : : : : : : : : : : : : : : : : : : : : !)]%>.[.#+-.;.7+;.;.K+b$` T a+~+{%=.K+b$>.3+;.M+7+=.=.7+=.M+=.;.>.=.=.=.=.=.*.^.*.-.!+b=!+|-` !+!+3$3$3$P P P ",
"G-b$p${.e+g+f+K%{.{.{.n$=.Z ;+%+++@+d+++$+$+#+%+$+$+#+#+#+#+%+$+&+t=b*9+)+a>>+9+~+g+>.K+{.%.^+e+<.~.N O =.>.X =): : : : : : : : : : : : : : : : : : : : : !)>.~)X &+F+@.Z J+4+^+4+=.M.g+P )+;+;+>+b+o.j.#+++{)$+$+d+@+++++d+{)++$+&+$+$+#+j.!+6;7+m$c$n$n$b$c$b$K+{.K%g+",
"])^)^)/)^)^)^)/)()/)^)/)_)/)])F.])`.:)Y.<) +<)^)/)^)/)^) +F.F.F.^)^)/)^)^)<)^)/)^)<)^)F.`.Z.Y.F.F.[)})P K+*.U =): : : : : : : : : : : : : : : : : : : : : |)*.*.8+1)2)])F.`.3)`.F.])^)4)4)4)/)^)^)<)F.`.])^) + +^)^)^)^)<)`.Y.F.])F.])F.<)^)4)5)6)4)^)^)F.])^)^)^)^)7)Z.",
"&+p.p.c+c+j.j.-+-+8)c+c+c+p.c+;+j.p.&+*+j.j.j.o.-+c+j.p.&+p.p.p.9)9)j.j.j.j.c+c+j.j.;+,+6,0)c+c+Z'a)b)c)L+` a>=): : : : : : : : : : : : : : : : : : : : : d)1&U |-e)f)g)6,;+0)i.9)c+0);+-+0+-+;+p.9)c+j.j.c+9)c+8)-+-+;+c+j.p.p.j.p.i.j.p.p.0)-+h)i)p.j)p.p.p.t=c+c+j.&+",
"J k+A@J J 8%A@!*|+K z@c c c 8%o #;c c 8%g g G C !*o G }+z@w@A@A@J J I |+G |+G |+q |+q |+|+H J 8%A@K B@}+H |+g*d=: : : : : : : : : : : : : : : : : : : : : k)p*H C@a$E+}+m+|+D G u*C@C@@#C@l)D G J m)k w@A@|@A@C@G G o #;H |+g*g*C@G a$g*w@z@z@A@}+3*9 E#d 9 6 8%A@A@n)A@",
"o)o)p)p)o)q)q)r)p)s)t)u)v)w)x)y)z)p)A)G=p)z)B)y)C)D)E)B)p)G=G=G=p)G=p)E)F)G)F)H)H)H)r)z)z)p)G=q)I)G=G=G=o)G)J):-: : : : : : : : : : : : : : : : : : : : : K)p)o)o)x)x)x)z)E)L)M)z)F)N)x)z)H)O)E)r)P)z)p)G=G=G=r)H)E)E)z)x)z)x)G)O)F)H)z)r)G=G=G=G=s)Q)Q)s)Q)R)S)v)v)v)G="};
