/* XPM */
static char * so_door5_tex_xpm[] = {
"132 132 1509 2",
"  	c #2D363F",
". 	c #2C363F",
"+ 	c #2D3640",
"@ 	c #2C353E",
"# 	c #2C3640",
"$ 	c #2D3741",
"% 	c #2E3841",
"& 	c #2D3641",
"* 	c #2D3842",
"= 	c #2E3944",
"- 	c #2E3943",
"; 	c #2F3A45",
"> 	c #2E3842",
", 	c #2F3B46",
"' 	c #2F3944",
") 	c #2F3A46",
"! 	c #303C46",
"~ 	c #303B46",
"{ 	c #303C47",
"] 	c #303A45",
"^ 	c #313D4A",
"/ 	c #313E4A",
"( 	c #323E4A",
"_ 	c #323F4A",
": 	c #313D48",
"< 	c #35393C",
"[ 	c #393939",
"} 	c #303B45",
"| 	c #323F4B",
"1 	c #313D49",
"2 	c #303C48",
"3 	c #2E3843",
"4 	c #2E3A44",
"5 	c #2E3942",
"6 	c #2E3741",
"7 	c #2C363E",
"8 	c #2C353F",
"9 	c #2C353D",
"0 	c #2B343D",
"a 	c #22313F",
"b 	c #22303E",
"c 	c #23313F",
"d 	c #233341",
"e 	c #243341",
"f 	c #243342",
"g 	c #233240",
"h 	c #243543",
"i 	c #243443",
"j 	c #253544",
"k 	c #253646",
"l 	c #253645",
"m 	c #243544",
"n 	c #253545",
"o 	c #263746",
"p 	c #273847",
"q 	c #263645",
"r 	c #273645",
"s 	c #283847",
"t 	c #283948",
"u 	c #293A49",
"v 	c #283949",
"w 	c #273848",
"x 	c #293B4A",
"y 	c #293949",
"z 	c #293B4B",
"A 	c #293A4A",
"B 	c #2A3B4B",
"C 	c #2A3B4A",
"D 	c #2B3D4C",
"E 	c #2C3F4F",
"F 	c #2D3F4F",
"G 	c #2C3F50",
"H 	c #2D4151",
"I 	c #2C3D4C",
"J 	c #33393E",
"K 	c #2B3C4B",
"L 	c #2A3C4B",
"M 	c #293C4B",
"N 	c #2D4050",
"O 	c #283848",
"P 	c #283A49",
"Q 	c #273948",
"R 	c #273947",
"S 	c #263846",
"T 	c #253746",
"U 	c #253543",
"V 	c #233340",
"W 	c #16202A",
"X 	c #151F29",
"Y 	c #162029",
"Z 	c #16212A",
"` 	c #17222C",
" .	c #17222D",
"..	c #17232D",
"+.	c #18222D",
"@.	c #18242D",
"#.	c #18242E",
"$.	c #17242D",
"%.	c #192530",
"&.	c #19242F",
"*.	c #1A2630",
"=.	c #1A2732",
"-.	c #1A2631",
";.	c #1A2833",
">.	c #18252F",
",.	c #1B2833",
"'.	c #1B2834",
").	c #1A2733",
"!.	c #1B2934",
"~.	c #1C2934",
"{.	c #1C2A35",
"].	c #1C2A36",
"^.	c #1D2A36",
"/.	c #1D2B38",
"(.	c #1E2D39",
"_.	c #1F2F3C",
":.	c #1F2E3B",
"<.	c #1F2E3A",
"[.	c #1F2C39",
"}.	c #313437",
"|.	c #303337",
"1.	c #1F2C38",
"2.	c #1E2C38",
"3.	c #1C2B37",
"4.	c #1D2D3A",
"5.	c #1D2B37",
"6.	c #1C2935",
"7.	c #1B2733",
"8.	c #1B2933",
"9.	c #1A2632",
"0.	c #1A2731",
"a.	c #192631",
"b.	c #192630",
"c.	c #19252F",
"d.	c #18232D",
"e.	c #17232C",
"f.	c #060B10",
"g.	c #060A0F",
"h.	c #060B0E",
"i.	c #060B0F",
"j.	c #060C10",
"k.	c #070C11",
"l.	c #070B10",
"m.	c #070C10",
"n.	c #070D11",
"o.	c #070D12",
"p.	c #080D12",
"q.	c #070D13",
"r.	c #080E12",
"s.	c #080E13",
"t.	c #080F14",
"u.	c #080D13",
"v.	c #080E14",
"w.	c #090E14",
"x.	c #091015",
"y.	c #09131B",
"z.	c #091C2B",
"A.	c #0F1E29",
"B.	c #131F27",
"C.	c #131E27",
"D.	c #131C24",
"E.	c #2F3031",
"F.	c #2E2F31",
"G.	c #131E26",
"H.	c #141F28",
"I.	c #121E27",
"J.	c #091C29",
"K.	c #08151F",
"L.	c #081015",
"M.	c #090F14",
"N.	c #090F15",
"O.	c #0B1219",
"P.	c #0B141A",
"Q.	c #0C1319",
"R.	c #0C141A",
"S.	c #0B1218",
"T.	c #0C131A",
"U.	c #0B1319",
"V.	c #0D151B",
"W.	c #0C141B",
"X.	c #0B131A",
"Y.	c #0D151C",
"Z.	c #0E171E",
"`.	c #0C151B",
" +	c #0A1117",
".+	c #0A1116",
"++	c #0E1821",
"@+	c #0F1E2A",
"#+	c #192733",
"$+	c #20303E",
"%+	c #223341",
"&+	c #303336",
"*+	c #2F3236",
"=+	c #21313F",
"-+	c #223340",
";+	c #101E28",
">+	c #0E1A23",
",+	c #0B151B",
"'+	c #0A1218",
")+	c #0F161E",
"!+	c #0E161D",
"~+	c #0D161C",
"{+	c #0E171D",
"]+	c #0F181F",
"^+	c #0A1217",
"/+	c #0C151C",
"(+	c #111A23",
"_+	c #131D26",
":+	c #121D26",
"<+	c #121C24",
"[+	c #111B23",
"}+	c #121D25",
"|+	c #121C25",
"1+	c #131D27",
"2+	c #142028",
"3+	c #14202A",
"4+	c #142029",
"5+	c #16212B",
"6+	c #15222C",
"7+	c #15212B",
"8+	c #16222B",
"9+	c #182530",
"0+	c #192732",
"a+	c #21313E",
"b+	c #21323F",
"c+	c #1C2B36",
"d+	c #233644",
"e+	c #1E303F",
"f+	c #293C4C",
"g+	c #313438",
"h+	c #2F3337",
"i+	c #263947",
"j+	c #283B4A",
"k+	c #192834",
"l+	c #263B4B",
"m+	c #1F2F3B",
"n+	c #1D2C38",
"o+	c #20313E",
"p+	c #22333F",
"q+	c #1E2E3A",
"r+	c #192731",
"s+	c #16222C",
"t+	c #15212C",
"u+	c #16232D",
"v+	c #15202A",
"w+	c #131F28",
"x+	c #111B24",
"y+	c #111C24",
"z+	c #0F1920",
"A+	c #1B2A35",
"B+	c #1B2A36",
"C+	c #1A2934",
"D+	c #182631",
"E+	c #1B2935",
"F+	c #1F303C",
"G+	c #243644",
"H+	c #273949",
"I+	c #283B4B",
"J+	c #2A3E4E",
"K+	c #2C4253",
"L+	c #243847",
"M+	c #1E2E3B",
"N+	c #283C4C",
"O+	c #2A3F4F",
"P+	c #243442",
"Q+	c #313538",
"R+	c #303438",
"S+	c #283A4B",
"T+	c #293D4D",
"U+	c #273B4C",
"V+	c #2D4253",
"W+	c #2B4050",
"X+	c #2B3F4F",
"Y+	c #2B4051",
"Z+	c #2A3E4D",
"`+	c #263948",
" @	c #20303D",
".@	c #202F3B",
"+@	c #21303E",
"@@	c #20303C",
"#@	c #1C2B38",
"$@	c #1D2C39",
"%@	c #192632",
"&@	c #14212A",
"*@	c #18242F",
"=@	c #1F2D39",
"-@	c #1E2C39",
";@	c #263744",
">@	c #2C4151",
",@	c #2C4152",
"'@	c #2A3F4E",
")@	c #2E4354",
"!@	c #2E4455",
"~@	c #2D4353",
"{@	c #2F4456",
"]@	c #2D4354",
"^@	c #2D4454",
"/@	c #32485A",
"(@	c #324A5C",
"_@	c #32495B",
":@	c #32495C",
"<@	c #31485B",
"[@	c #31485A",
"}@	c #2C4354",
"|@	c #1E303E",
"1@	c #1E2D3A",
"2@	c #293E4E",
"3@	c #2A3E4F",
"4@	c #2E4557",
"5@	c #263C4C",
"6@	c #2A3F50",
"7@	c #323639",
"8@	c #303539",
"9@	c #2B4153",
"0@	c #203240",
"a@	c #2D4355",
"b@	c #293D4E",
"c@	c #2B3F51",
"d@	c #1F2F3D",
"e@	c #293D4B",
"f@	c #344B5E",
"g@	c #314658",
"h@	c #314859",
"i@	c #2F4557",
"j@	c #304658",
"k@	c #2D4252",
"l@	c #2B4151",
"m@	c #2B3F50",
"n@	c #2C4051",
"o@	c #253745",
"p@	c #253846",
"q@	c #243746",
"r@	c #233544",
"s@	c #233342",
"t@	c #223442",
"u@	c #233543",
"v@	c #2E4355",
"w@	c #2E4353",
"x@	c #2B4152",
"y@	c #304759",
"z@	c #344C5F",
"A@	c #2D4457",
"B@	c #1E313F",
"C@	c #243745",
"D@	c #233443",
"E@	c #2A3D4E",
"F@	c #2E4558",
"G@	c #2E4659",
"H@	c #294052",
"I@	c #293E4F",
"J@	c #2B4052",
"K@	c #273745",
"L@	c #32363A",
"M@	c #30353A",
"N@	c #293D4C",
"O@	c #2C4355",
"P@	c #213443",
"Q@	c #2F4558",
"R@	c #223240",
"S@	c #374F62",
"T@	c #2E4456",
"U@	c #2F4457",
"V@	c #2D4455",
"W@	c #2B3E4F",
"X@	c #223441",
"Y@	c #233444",
"Z@	c #243645",
"`@	c #233442",
" #	c #253847",
".#	c #273A49",
"+#	c #304558",
"@#	c #2E4457",
"##	c #2D4152",
"$#	c #30485B",
"%#	c #31495D",
"&#	c #2D4659",
"*#	c #1F3342",
"=#	c #223543",
"-#	c #223542",
";#	c #2D4557",
">#	c #30475A",
",#	c #2B4254",
"'#	c #2C4254",
")#	c #273846",
"!#	c #33373B",
"~#	c #30363B",
"{#	c #213343",
"]#	c #2F4659",
"^#	c #2A4052",
"/#	c #2C4153",
"(#	c #213240",
"_#	c #223645",
":#	c #31485C",
"<#	c #30485A",
"[#	c #31495C",
"}#	c #31475A",
"|#	c #2E4658",
"1#	c #273A4A",
"2#	c #233645",
"3#	c #334A5C",
"4#	c #304557",
"5#	c #2D4254",
"6#	c #304659",
"7#	c #32495D",
"8#	c #324A5E",
"9#	c #1B2F3D",
"0#	c #2A3F51",
"a#	c #293E50",
"b#	c #30373C",
"c#	c #203341",
"d#	c #32495E",
"e#	c #1A2B38",
"f#	c #30495C",
"g#	c #324A5D",
"h#	c #334B5E",
"i#	c #2F4658",
"j#	c #374E62",
"k#	c #253848",
"l#	c #233646",
"m#	c #243646",
"n#	c #273A4B",
"o#	c #22323F",
"p#	c #344A5D",
"q#	c #304657",
"r#	c #314759",
"s#	c #334A5E",
"t#	c #344C60",
"u#	c #324B5F",
"v#	c #334C61",
"w#	c #2E485B",
"x#	c #1D3140",
"y#	c #263A49",
"z#	c #253949",
"A#	c #2D4356",
"B#	c #33373C",
"C#	c #30373D",
"D#	c #1F303F",
"E#	c #1D2E3B",
"F#	c #334A5D",
"G#	c #344D61",
"H#	c #375063",
"I#	c #273B4B",
"J#	c #263A4A",
"K#	c #283B4C",
"L#	c #1D2D39",
"M#	c #293C4D",
"N#	c #314758",
"O#	c #334B5F",
"P#	c #334C60",
"Q#	c #344D62",
"R#	c #314A5F",
"S#	c #1F3241",
"T#	c #2D4357",
"U#	c #34383D",
"V#	c #31383F",
"W#	c #1F303E",
"X#	c #1E2F3D",
"Y#	c #324A5F",
"Z#	c #30475B",
"`#	c #344D60",
" $	c #354E61",
".$	c #354D61",
"+$	c #344E62",
"@$	c #354D62",
"#$	c #385164",
"$$	c #283D4C",
"%$	c #293B4C",
"&$	c #202F3C",
"*$	c #283A4A",
"=$	c #344C5E",
"-$	c #324C5F",
";$	c #2F485C",
">$	c #1F3140",
",$	c #1A2834",
"'$	c #2E4458",
")$	c #34393D",
"!$	c #31393F",
"~$	c #1E303D",
"{$	c #2D4558",
"]$	c #2C4052",
"^$	c #314A5E",
"/$	c #344C61",
"($	c #354E62",
"_$	c #354E63",
":$	c #385165",
"<$	c #253948",
"[$	c #263848",
"}$	c #273B4A",
"|$	c #334B5D",
"1$	c #334D61",
"2$	c #2F495D",
"3$	c #203140",
"4$	c #35393D",
"5$	c #313940",
"6$	c #2A4051",
"7$	c #233746",
"8$	c #3A5368",
"9$	c #263847",
"0$	c #253947",
"a$	c #2A3D4D",
"b$	c #2C4252",
"c$	c #334B60",
"d$	c #2F475B",
"e$	c #233545",
"f$	c #1C2B39",
"g$	c #2B4154",
"h$	c #2D4456",
"i$	c #243846",
"j$	c #395367",
"k$	c #344B60",
"l$	c #1E3140",
"m$	c #253747",
"n$	c #283E4F",
"o$	c #35393E",
"p$	c #313A41",
"q$	c #293D4F",
"r$	c #1B2C39",
"s$	c #30465A",
"t$	c #375064",
"u$	c #1C2C39",
"v$	c #33495B",
"w$	c #17242E",
"x$	c #203444",
"y$	c #2F475A",
"z$	c #353A3E",
"A$	c #313A42",
"B$	c #182734",
"C$	c #223544",
"D$	c #283C4B",
"E$	c #314C60",
"F$	c #2B475C",
"G$	c #213D51",
"H$	c #243E50",
"I$	c #17242F",
"J$	c #1D2E3C",
"K$	c #253B4D",
"L$	c #253E52",
"M$	c #2A465A",
"N$	c #1E2F3B",
"O$	c #1D2E39",
"P$	c #1F303D",
"Q$	c #1C2C38",
"R$	c #2E4352",
"S$	c #2B3E4E",
"T$	c #30485C",
"U$	c #37546B",
"V$	c #1F4965",
"W$	c #1A74A2",
"X$	c #2A495E",
"Y$	c #2A4153",
"Z$	c #1A2935",
"`$	c #323B43",
" %	c #1A2A36",
".%	c #1C2D3A",
"+%	c #2C4659",
"@%	c #2A5B7B",
"#%	c #265F82",
"$%	c #305069",
"%%	c #365064",
"&%	c #233542",
"*%	c #1F2E39",
"=%	c #1E2D38",
"-%	c #20313D",
";%	c #20303B",
">%	c #1D2C37",
",%	c #355065",
"'%	c #1D4864",
")%	c #127BB7",
"!%	c #2A4A61",
"~%	c #2C4356",
"{%	c #283E4E",
"]%	c #1B2B38",
"^%	c #2E4A5E",
"/%	c #286388",
"(%	c #246287",
"_%	c #2F4E66",
":%	c #202F3A",
"<%	c #1B2A34",
"[%	c #233440",
"}%	c #1D2C36",
"|%	c #21303B",
"1%	c #21313D",
"2%	c #21333F",
"3%	c #385268",
"4%	c #1E4864",
"5%	c #137BB9",
"6%	c #2B4B61",
"7%	c #273C4C",
"8%	c #303941",
"9%	c #2F4A5E",
"0%	c #296489",
"a%	c #236389",
"b%	c #2F4F66",
"c%	c #30485D",
"d%	c #111B22",
"e%	c #233441",
"f%	c #21303D",
"g%	c #243542",
"h%	c #21303C",
"i%	c #1E4966",
"j%	c #0F7CC1",
"k%	c #2B4A61",
"l%	c #283D4D",
"m%	c #2B404F",
"n%	c #363A3D",
"o%	c #313B43",
"p%	c #28658A",
"q%	c #23668D",
"r%	c #2F5067",
"s%	c #2E475A",
"t%	c #334C5F",
"u%	c #233643",
"v%	c #223440",
"w%	c #131F26",
"x%	c #0F161D",
"y%	c #15232D",
"z%	c #263745",
"A%	c #2E4253",
"B%	c #385368",
"C%	c #1F4966",
"D%	c #0E7DC4",
"E%	c #2C4B62",
"F%	c #36393D",
"G%	c #313A43",
"H%	c #2A6488",
"I%	c #22668F",
"J%	c #2F5069",
"K%	c #192833",
"L%	c #2A3E50",
"M%	c #365267",
"N%	c #1E4765",
"O%	c #1279C2",
"P%	c #2D4A61",
"Q%	c #303A44",
"R%	c #2A668B",
"S%	c #216690",
"T%	c #2F526B",
"U%	c #2C4456",
"V%	c #32485B",
"W%	c #1D2E3A",
"X%	c #365167",
"Y%	c #1277C2",
"Z%	c #2F485D",
"`%	c #2B658A",
" &	c #206692",
".&	c #30526B",
"+&	c #31495E",
"@&	c #293F4F",
"#&	c #15212A",
"$&	c #293F50",
"%&	c #233745",
"&&	c #354F65",
"*&	c #1E4967",
"=&	c #107AC4",
"-&	c #2E4C63",
";&	c #363A3E",
">&	c #313B45",
",&	c #293E4D",
"'&	c #1B2B36",
")&	c #2F495E",
"!&	c #2B658C",
"~&	c #1F6693",
"{&	c #30536D",
"]&	c #19252E",
"^&	c #2C4457",
"/&	c #344F64",
"(&	c #0F7BC7",
"_&	c #2D4C63",
":&	c #2F3A43",
"<&	c #2C658B",
"[&	c #1F6692",
"}&	c #30526C",
"|&	c #2D4458",
"1&	c #283C4D",
"2&	c #253845",
"3&	c #26394A",
"4&	c #1E4763",
"5&	c #0F7AC6",
"6&	c #2C4C63",
"7&	c #2F4A5F",
"8&	c #21668F",
"9&	c #2F5169",
"0&	c #2C4255",
"a&	c #2A4050",
"b&	c #283D4E",
"c&	c #204763",
"d&	c #0F7CC6",
"e&	c #303B44",
"f&	c #216790",
"g&	c #263845",
"h&	c #2A4152",
"i&	c #1F4763",
"j&	c #0E7DC5",
"k&	c #2C4D64",
"l&	c #2F3B45",
"m&	c #2B4253",
"n&	c #304A5F",
"o&	c #22658F",
"p&	c #2F4759",
"q&	c #1D2A34",
"r&	c #1F4864",
"s&	c #0D7EC7",
"t&	c #2D4E65",
"u&	c #2B6386",
"v&	c #23648C",
"w&	c #1C2B35",
"x&	c #1D445F",
"y&	c #127CBC",
"z&	c #2B4B62",
"A&	c #18252E",
"B&	c #36393C",
"C&	c #2F3A44",
"D&	c #2E4559",
"E&	c #2D475B",
"F&	c #2B6081",
"G&	c #266083",
"H&	c #2B4A60",
"I&	c #1C2933",
"J&	c #253A4A",
"K&	c #2A3F52",
"L&	c #1F3A4E",
"M&	c #2A5875",
"N&	c #253F53",
"O&	c #254A62",
"P&	c #224862",
"Q&	c #1C3040",
"R&	c #1C2832",
"S&	c #263949",
"T&	c #253A49",
"U&	c #2C4759",
"V&	c #244055",
"W&	c #254F69",
"X&	c #243C4E",
"Y&	c #2E3A43",
"Z&	c #273E50",
"`&	c #25485E",
" *	c #254962",
".*	c #294458",
"+*	c #304758",
"@*	c #1D4561",
"#*	c #1B73A7",
"$*	c #28485F",
"%*	c #37393C",
"&*	c #293F51",
"**	c #294356",
"=*	c #2A5F80",
"-*	c #255F83",
";*	c #2C4960",
">*	c #1D4764",
",*	c #127BBD",
"'*	c #2A4B62",
")*	c #2E3A45",
"!*	c #2C475B",
"~*	c #236289",
"{*	c #2E4D65",
"]*	c #1C2A34",
"^*	c #1E4A67",
"/*	c #107CC4",
"(*	c #2A4A62",
"_*	c #293E4C",
":*	c #2E3A46",
"<*	c #2C485D",
"[*	c #29668C",
"}*	c #216590",
"|*	c #223443",
"1*	c #1E4866",
"2*	c #107BC4",
"3*	c #2D3A44",
"4*	c #29668A",
"5*	c #206792",
"6*	c #2D4F68",
"7*	c #304859",
"8*	c #1B2832",
"9*	c #1E4A68",
"0*	c #107BC3",
"a*	c #2A4961",
"b*	c #37393B",
"c*	c #2D3943",
"d*	c #2B475B",
"e*	c #1D4966",
"f*	c #1279BD",
"g*	c #2A485F",
"h*	c #2D3A45",
"i*	c #2B4559",
"j*	c #296386",
"k*	c #236489",
"l*	c #2D4F67",
"m*	c #2B4252",
"n*	c #1579B5",
"o*	c #29485E",
"p*	c #2B4558",
"q*	c #296082",
"r*	c #256083",
"s*	c #2A3D4C",
"t*	c #263B4C",
"u*	c #1D2F3B",
"v*	c #1A384C",
"w*	c #21526E",
"x*	c #253E51",
"y*	c #2C3842",
"z*	c #214962",
"A*	c #204962",
"B*	c #2B4457",
"C*	c #1A2A37",
"D*	c #1A3040",
"E*	c #2C3742",
"F*	c #1D303F",
"G*	c #1C2E3D",
"H*	c #17232E",
"I*	c #2C3944",
"J*	c #253A48",
"K*	c #38393B",
"L*	c #2D3B45",
"M*	c #37393A",
"N*	c #2B3944",
"O*	c #152029",
"P*	c #1F303B",
"Q*	c #213341",
"R*	c #213442",
"S*	c #213340",
"T*	c #273C4A",
"U*	c #273A48",
"V*	c #38393A",
"W*	c #2C3945",
"X*	c #20313F",
"Y*	c #172B39",
"Z*	c #182833",
"`*	c #2B3844",
" =	c #172936",
".=	c #213647",
"+=	c #284155",
"@=	c #1B3F56",
"#=	c #255A77",
"$=	c #1F394B",
"%=	c #273B49",
"&=	c #293F4E",
"*=	c #2A3843",
"==	c #223746",
"-=	c #285773",
";=	c #1B445D",
">=	c #223E53",
",=	c #294357",
"'=	c #1D4159",
")=	c #1973A8",
"!=	c #24648A",
"~=	c #2B495F",
"{=	c #293642",
"]=	c #275471",
"^=	c #0F7DC0",
"/=	c #1E4964",
"(=	c #264257",
"_=	c #294153",
":=	c #1D3F56",
"<=	c #1C6F9F",
"[=	c #1E6D9C",
"}=	c #2D536D",
"|=	c #293743",
"1=	c #304D64",
"2=	c #285E81",
"3=	c #0980C9",
"4=	c #1E4863",
"5=	c #264055",
"6=	c #273C4D",
"7=	c #1B3648",
"8=	c #1A72A5",
"9=	c #2D5570",
"0=	c #2A3844",
"a=	c #24638A",
"b=	c #147AB2",
"c=	c #1C3E54",
"d=	c #273C4B",
"e=	c #1A3141",
"f=	c #1D3B4F",
"g=	c #285D7C",
"h=	c #2B536D",
"i=	c #293844",
"j=	c #2F4D65",
"k=	c #285A78",
"l=	c #1F425A",
"m=	c #1A3346",
"n=	c #253C4E",
"o=	c #1B394F",
"p=	c #275876",
"q=	c #285A77",
"r=	c #2A4C62",
"s=	c #293845",
"t=	c #2D4A60",
"u=	c #224D68",
"v=	c #206A96",
"w=	c #1C4057",
"x=	c #253F52",
"y=	c #253946",
"z=	c #263B4A",
"A=	c #1D3C53",
"B=	c #275777",
"C=	c #127DBD",
"D=	c #2C4E65",
"E=	c #1971A8",
"F=	c #216692",
"G=	c #1B3E56",
"H=	c #263E51",
"I=	c #283E51",
"J=	c #1E3D54",
"K=	c #265474",
"L=	c #2D5774",
"M=	c #2B465B",
"N=	c #182630",
"O=	c #21323E",
"P=	c #383939",
"Q=	c #263641",
"R=	c #2C4559",
"S=	c #2E526D",
"T=	c #1474B3",
"U=	c #236189",
"V=	c #1B3D56",
"W=	c #263C4F",
"X=	c #283F50",
"Y=	c #1D3C54",
"Z=	c #234E6C",
"`=	c #0782D3",
" -	c #2B5B7B",
".-	c #2C485E",
"+-	c #15222A",
"@-	c #263440",
"#-	c #141F27",
"$-	c #2C4458",
"%-	c #2D5470",
"&-	c #0E7ABF",
"*-	c #265B7D",
"=-	c #1A3A4F",
"--	c #243A4B",
";-	c #243948",
">-	c #17222B",
",-	c #1E3B50",
"'-	c #1F4C6A",
")-	c #0382DA",
"!-	c #2A5C7E",
"~-	c #2C4A60",
"{-	c #24323F",
"]-	c #233642",
"^-	c #141E26",
"/-	c #0E7CC3",
"(-	c #275676",
"_-	c #193549",
":-	c #25394B",
"<-	c #1E3241",
"[-	c #193950",
"}-	c #295F82",
"|-	c #2C4A62",
"1-	c #1E2E39",
"2-	c #151F27",
"3-	c #2B5471",
"4-	c #1A2C3A",
"5-	c #18232C",
"6-	c #253A4B",
"7-	c #162936",
"8-	c #1A3447",
"9-	c #2B516C",
"0-	c #2D4B61",
"a-	c #1C2C37",
"b-	c #333537",
"c-	c #282D32",
"d-	c #284F69",
"e-	c #1E4256",
"f-	c #162733",
"g-	c #17212B",
"h-	c #162835",
"i-	c #283C4A",
"j-	c #101C25",
"k-	c #141D26",
"l-	c #353738",
"m-	c #252E35",
"n-	c #24394A",
"o-	c #1A2D3A",
"p-	c #172430",
"q-	c #213342",
"r-	c #203340",
"s-	c #16242E",
"t-	c #182732",
"u-	c #152531",
"v-	c #122C3E",
"w-	c #103C55",
"x-	c #383839",
"y-	c #212F3A",
"z-	c #2E4556",
"A-	c #2B4354",
"B-	c #17252F",
"C-	c #273D4C",
"D-	c #1C303D",
"E-	c #162C3B",
"F-	c #124361",
"G-	c #11688D",
"H-	c #103447",
"I-	c #35383A",
"J-	c #29343E",
"K-	c #324859",
"L-	c #1A2933",
"M-	c #1B3140",
"N-	c #153143",
"O-	c #134B6C",
"P-	c #0B729B",
"Q-	c #10394F",
"R-	c #35383B",
"S-	c #293640",
"T-	c #2C4558",
"U-	c #273D4E",
"V-	c #213645",
"W-	c #245570",
"X-	c #27455C",
"Y-	c #263C4D",
"Z-	c #163449",
"`-	c #144D6E",
" ;	c #0A749E",
".;	c #103B52",
"+;	c #283641",
"@;	c #284255",
"#;	c #263F52",
"$;	c #205371",
"%;	c #233B4D",
"&;	c #233B4C",
"*;	c #127CA8",
"=;	c #274F6C",
"-;	c #263D4F",
";;	c #153449",
">;	c #154D6F",
",;	c #0774A3",
"';	c #103B53",
");	c #29495F",
"!;	c #0E7BAD",
"~;	c #234358",
"{;	c #1B2B37",
"];	c #243E4F",
"^;	c #0A84B7",
"/;	c #28516F",
"(;	c #273E51",
"_;	c #294051",
":;	c #1B303F",
"<;	c #153247",
"[;	c #144C6E",
"};	c #0675A5",
"|;	c #0F3A52",
"1;	c #284256",
"2;	c #283E4D",
"3;	c #2A4B61",
"4;	c #0783B8",
"5;	c #24455B",
"6;	c #0E81B0",
"7;	c #28506C",
"8;	c #153347",
"9;	c #144C6D",
"0;	c #0973A0",
"a;	c #28343F",
"b;	c #274053",
"c;	c #2A495F",
"d;	c #0C7EAC",
"e;	c #19262F",
"f;	c #283A48",
"g;	c #233848",
"h;	c #275E7C",
"i;	c #29475D",
"j;	c #1C3141",
"k;	c #153043",
"l;	c #144A6B",
"m;	c #0975A1",
"n;	c #103B51",
"o;	c #284154",
"p;	c #275B77",
"q;	c #243C4F",
"r;	c #2A3D4B",
"s;	c #1E2C37",
"t;	c #263F51",
"u;	c #1D3241",
"v;	c #152D3D",
"w;	c #144764",
"x;	c #0D7299",
"y;	c #11384D",
"z;	c #35373A",
"A;	c #28323C",
"B;	c #283F51",
"C;	c #273F51",
"D;	c #162028",
"E;	c #16222D",
"F;	c #15364A",
"G;	c #124D69",
"H;	c #212F3B",
"I;	c #162129",
"J;	c #1B2D3A",
"K;	c #172A3A",
"L;	c #2D373F",
"M;	c #1C2D39",
"N;	c #2F3439",
"O;	c #333639",
"P;	c #1E3749",
"Q;	c #27526E",
"R;	c #27455B",
"S;	c #2F363C",
"T;	c #204A63",
"U;	c #214A60",
"V;	c #1B2E3C",
"W;	c #2E4759",
"X;	c #224259",
"Y;	c #0880D0",
"Z;	c #285C7E",
"`;	c #254259",
" >	c #33363A",
".>	c #2E343A",
"+>	c #24526F",
"@>	c #088ACD",
"#>	c #254E68",
"$>	c #2A4254",
"%>	c #2F4C62",
"&>	c #285372",
"*>	c #008AE3",
"=>	c #275675",
"->	c #254156",
";>	c #2E3439",
">>	c #283F53",
",>	c #244E69",
"'>	c #0683D2",
")>	c #276083",
"!>	c #2F5168",
"~>	c #295979",
"{>	c #0087E2",
"]>	c #265270",
"^>	c #253F54",
"/>	c #17252E",
"(>	c #33373A",
"_>	c #2E353B",
":>	c #273D4F",
"<>	c #254A63",
"[>	c #0A7ECC",
"}>	c #216997",
"|>	c #294E68",
"1>	c #2B4356",
"2>	c #2B4E66",
"3>	c #266088",
"4>	c #0188DB",
"5>	c #25516E",
"6>	c #263F53",
"7>	c #34373B",
"8>	c #2F353C",
"9>	c #1479B7",
"0>	c #1B71A7",
"a>	c #284E68",
"b>	c #2D475C",
"c>	c #2B4F67",
"d>	c #236692",
"e>	c #117EBB",
"f>	c #234C66",
"g>	c #274052",
"h>	c #34373A",
"i>	c #2E353C",
"j>	c #26475D",
"k>	c #1D6F9E",
"l>	c #1577B4",
"m>	c #28506B",
"n>	c #2D485D",
"o>	c #213441",
"p>	c #223342",
"q>	c #2D485B",
"r>	c #2B4F68",
"s>	c #226994",
"t>	c #256487",
"u>	c #213E51",
"v>	c #2B3F4E",
"w>	c #213A4C",
"x>	c #205571",
"y>	c #137AB1",
"z>	c #274F69",
"A>	c #304D63",
"B>	c #2E495D",
"C>	c #27465C",
"D>	c #224358",
"E>	c #224A66",
"F>	c #234258",
"G>	c #1B2B35",
"H>	c #264256",
"I>	c #1E4B64",
"J>	c #204157",
"K>	c #24465C",
"L>	c #2E4C61",
"M>	c #244155",
"N>	c #0C7EC5",
"O>	c #23648E",
"P>	c #24435A",
"Q>	c #34383B",
"R>	c #2E363C",
"S>	c #274357",
"T>	c #235572",
"U>	c #0886C7",
"V>	c #23475E",
"W>	c #2F4B60",
"X>	c #26516F",
"Y>	c #0083DD",
"Z>	c #265C82",
"`>	c #234157",
" ,	c #152129",
".,	c #2D353C",
"+,	c #264054",
"@,	c #224F6C",
"#,	c #0588D4",
"$,	c #265471",
"%,	c #2F4D63",
"&,	c #0181DA",
"*,	c #255372",
"=,	c #0882CF",
"-,	c #27597A",
";,	c #2C4C64",
">,	c #2E516A",
",,	c #245170",
"',	c #1774AD",
"),	c #1E3C51",
"!,	c #2D343B",
"~,	c #1E3546",
"{,	c #206A99",
"],	c #294D66",
"^,	c #111C23",
"/,	c #15232C",
"(,	c #1D2D38",
"_,	c #2A485C",
":,	c #203E52",
"<,	c #192A38",
"[,	c #172733",
"},	c #1F3C4F",
"|,	c #28455A",
"1,	c #152027",
"2,	c #1F313E",
"3,	c #2C353B",
"4,	c #2C333B",
"5,	c #213241",
"6,	c #343739",
"7,	c #2C333A",
"8,	c #15222D",
"9,	c #182834",
"0,	c #1E2F3C",
"a,	c #353739",
"b,	c #182632",
"c,	c #162D3D",
"d,	c #17455B",
"e,	c #1D3342",
"f,	c #18384B",
"g,	c #16394E",
"h,	c #23394A",
"i,	c #1F2E3C",
"j,	c #163E57",
"k,	c #1A7198",
"l,	c #204054",
"m,	c #2B3239",
"n,	c #253D4F",
"o,	c #255673",
"p,	c #1F5978",
"q,	c #244257",
"r,	c #17425D",
"s,	c #147AAD",
"t,	c #204359",
"u,	c #295D7D",
"v,	c #235E7F",
"w,	c #25455B",
"x,	c #151F26",
"y,	c #184461",
"z,	c #107CB7",
"A,	c #22445B",
"B,	c #2A3239",
"C,	c #2A5E7F",
"D,	c #225F82",
"E,	c #18435F",
"F,	c #107CB8",
"G,	c #21445B",
"H,	c #2A323A",
"I,	c #2A5F7F",
"J,	c #235F83",
"K,	c #24445B",
"L,	c #18425E",
"M,	c #0F7DBB",
"N,	c #21445C",
"O,	c #14212B",
"P,	c #243F53",
"Q,	c #295F7F",
"R,	c #236084",
"S,	c #20323F",
"T,	c #17415D",
"U,	c #117CB9",
"V,	c #243E52",
"W,	c #2A5F7E",
"X,	c #226084",
"Y,	c #25394A",
"Z,	c #17405B",
"`,	c #147AB1",
" '	c #204257",
".'	c #293138",
"+'	c #223C4E",
"@'	c #2A5E7C",
"#'	c #234359",
"$'	c #173D57",
"%'	c #1677AA",
"&'	c #204155",
"*'	c #2A3139",
"='	c #2A5C79",
"-'	c #255D7D",
";'	c #214055",
">'	c #1D2F3D",
",'	c #17354A",
"''	c #21607E",
")'	c #1D394C",
"!'	c #293139",
"~'	c #203646",
"{'	c #204F6A",
"]'	c #1E506B",
"^'	c #1A3345",
"/'	c #182D3B",
"('	c #1F3E52",
"_'	c #1C2F3D",
":'	c #1F3340",
"<'	c #1E384B",
"['	c #1F394D",
"}'	c #1A2B39",
"|'	c #202F3D",
"1'	c #1A3F57",
"2'	c #1C6A8D",
"3'	c #1D3C4F",
"4'	c #293038",
"5'	c #21394A",
"6'	c #23536F",
"7'	c #1F5471",
"8'	c #27455A",
"9'	c #153F59",
"0'	c #1578A7",
"a'	c #1F4055",
"b'	c #283038",
"c'	c #2A5C7A",
"d'	c #225978",
"e'	c #224258",
"f'	c #151E26",
"g'	c #263A4B",
"h'	c #16415C",
"i'	c #137AB0",
"j'	c #363739",
"k'	c #233C4E",
"l'	c #2A5E7E",
"m'	c #235A7A",
"n'	c #253849",
"o'	c #127BB1",
"p'	c #223B4D",
"q'	c #225B7C",
"r'	c #234257",
"s'	c #131D25",
"t'	c #152028",
"u'	c #17425E",
"v'	c #117CB4",
"w'	c #20445A",
"x'	c #273037",
"y'	c #2B5F7F",
"z'	c #235D7E",
"A'	c #101A21",
"B'	c #107DB7",
"C'	c #272F37",
"D'	c #223A4C",
"E'	c #245C7E",
"F'	c #244359",
"G'	c #107DB9",
"H'	c #20435A",
"I'	c #223C4D",
"J'	c #24445A",
"K'	c #101A22",
"L'	c #192730",
"M'	c #17405C",
"N'	c #363738",
"O'	c #272F36",
"P'	c #233C4D",
"Q'	c #2B607F",
"R'	c #235C7F",
"S'	c #163F5B",
"T'	c #127AB7",
"U'	c #204258",
"V'	c #262E35",
"W'	c #235B7E",
"X'	c #224157",
"Y'	c #111A22",
"Z'	c #153E59",
"`'	c #1379AF",
" )	c #1E4156",
".)	c #225C7E",
"+)	c #142129",
"@)	c #143D57",
"#)	c #1279A9",
"$)	c #1D4056",
"%)	c #242C33",
"&)	c #223A4B",
"*)	c #2B5E7B",
"=)	c #225B7D",
"-)	c #223F54",
";)	c #273946",
">)	c #133A51",
",)	c #167198",
"')	c #1C3D51",
"))	c #232B32",
"!)	c #21384A",
"~)	c #205978",
"{)	c #213C4F",
"])	c #293B49",
"^)	c #142B3C",
"/)	c #184057",
"()	c #1B2E3D",
"_)	c #17384E",
":)	c #294050",
"<)	c #243848",
"[)	c #253C4C",
"})	c #142430",
"|)	c #232C33",
"1)	c #172835",
"2)	c #1F3749",
"3)	c #182F3E",
"4)	c #263D4E",
"5)	c #263D4D",
"6)	c #233846",
"7)	c #111F2A",
"8)	c #0F1A23",
"9)	c #242C34",
"0)	c #1B2A37",
"a)	c #131F29",
"b)	c #12202A",
"c)	c #111C25",
"d)	c #373738",
"e)	c #232B34",
"f)	c #111D25",
"g)	c #232B33",
"h)	c #222B33",
"i)	c #373838",
"j)	c #16232E",
"k)	c #222A32",
"l)	c #202A32",
"m)	c #21303F",
"n)	c #23333F",
"o)	c #202931",
"p)	c #1F272E",
"q)	c #0F171F",
"r)	c #192832",
"s)	c #202E3B",
"t)	c #0E181F",
"u)	c #0F1820",
"v)	c #101920",
"w)	c #101A20",
"x)	c #0E161C",
"y)	c #0F1921",
"z)	c #111E28",
"A)	c #1E262D",
"B)	c #121F28",
"C)	c #111C26",
"D)	c #0D161E",
"E)	c #101B23",
"F)	c #101B22",
"G)	c #0D181F",
"H)	c #0C161C",
"I)	c #091117",
"J)	c #0E1820",
"K)	c #141F29",
"L)	c #131E28",
"M)	c #132029",
"N)	c #13222D",
"O)	c #132939",
"P)	c #162530",
"Q)	c #1B2229",
"R)	c #142938",
"S)	c #132431",
"T)	c #14222C",
"U)	c #13212A",
"V)	c #132028",
"W)	c #121D27",
"X)	c #253644",
"Y)	c #25323D",
"Z)	c #2B3E4D",
"`)	c #273746",
" !	c #263643",
".!	c #222F3A",
"+!	c #222F3B",
"@!	c #23303D",
"#!	c #23313D",
"$!	c #24343F",
"%!	c #24333F",
"&!	c #24313E",
"*!	c #253440",
"=!	c #23313C",
"-!	c #22303C",
";!	c #23303C",
">!	c #23313E",
",!	c #243440",
"'!	c #283845",
")!	c #253441",
"!!	c #24313F",
"~!	c #263442",
"{!	c #283744",
"]!	c #273643",
"^!	c #263542",
"/!	c #253542",
"(!	c #263543",
"_!	c #23323E",
":!	c #25343F",
"<!	c #242F38",
"[!	c #273543",
"}!	c #253541",
"|!	c #243441",
"1!	c #253442",
"2!	c #25333F",
"3!	c #212C39",
"4!	c #232F3B",
"5!	c #222F39",
"6!	c #23303B",
"7!	c #212E39",
"8!	c #212D38",
"    . + + + @ @ # $ % + + $ & $ % $ * = - = ; > % - ; ; ; , ; ' ' ' ) ) ! ; ~ { ! , , ; ; ) , ; , ~ { ] { { { ^ / ( ( _ : < [ [ [ [ [ [ [ [ [ < } { { ( ( ( | ( / 1 ~ { { 2 { ~ ; ; 3 ; { ; ; ; ; ) ; ; ; ; , ; ; ; ; ; 4 - - * 5 - 4 > > - % > + + . + 6 % + 7 8 @ 9 0 ",
"a b a c d e d f g h i f i j j k l j m n l o p o q r s t t u v t s s v v v o w x x v v t v y z A u A B C B C D E F E G H I J [ [ [ [ [ [ [ [ [ J K L M G H N F D D x u C L C v t t w p v L A y v t u O O v y x v O P P Q R S T l l l T q o o l j n i e f i U U U e V a b ",
"W X Y Z ` `  . .` .. .+. .@.@.#.#.$. . ...%.%.&.&.&.%.%.*.=.=.-.-.-.=.;.=.>.%.,.'.=.=.).;.,.'.,.!.~.{.].^.]./.(._.:.<.<.[.}.[ [ [ [ [ [ [ [ [ |.1.2.3.4.(.2.2.5.].6.,.{.^.{.7.7.,.,.,.8.!.,.=.=.-.9.-.7.=.,.,.7.0.;.;.a.b.%.%.&.>.#.>.c.%.c.#.@.#.#. .d. .@.@.@.` e.Z Z ",
"f.g.h.h.i.j.k.l.m.k.l.k.k.n.n.o.n.k.l.m.k.p.p.o.p.p.p.q.r.s.s.p.s.s.s.s.t.q.u.v.t.v.v.v.t.t.v.s.s.s.v.v.w.t.x.y.z.A.B.C.D.E.[ [ [ [ [ [ [ [ [ F.G.H.I.J.K.L.M.M.M.w.v.w.M.M.v.t.t.t.t.M.N.v.s.v.p.u.s.v.v.w.w.v.s.v.v.s.s.s.s.s.u.o.o.s.s.u.o.n.o.o.k.k.j.m.k.k.j.i.i.f.",
"t.O.P.Q.R.R.O.S.T.R.S.U.R.R.R.R.R.R.R.V.W.X.R.W.R.R.Y.Z.W.S.S.U.X.R.U.R.V.R.U.R.Y.V.`.R.W.R.U. +.+M.N..+Q.R.R.++@+#+$+%+[.&+[ [ [ [ [ [ [ [ [ *+=+-+(.;+>+,+'+U.U.S..+.+'+R.Y.Z.)+!+`.Y.!+Z.W.R.W.R.W.~+!+Y.W.W.W.V.{+]+]+Z.!+V.`.R.W.W.R.X.P.R.X.X.U.O.O. +^+^+ + +'+'+",
"/+(+_+_+:+:+<+[+[+}+|+|+|+_+_+:+_+G.G.G.C.1+1+1+H.H.2+3+4+4+4+5+6+6+6+7+7+4+4+8+....#.9+a.0+9+%.{.5.<.a+b+<.c+d+e+3.Q f+V g+[ [ [ [ [ [ [ [ [ h+i+j+d+k+l+m+n+o+p+q+(.<.0+;.!.!.,.'.;.r+;. .5+s+5+7+t+6+..u+8+v+4+2+4+4+4+B.w+H.w+H.2+1+:+}+I.1+1+:+:+}+|+x+|+y+}+:+y+z+",
"(+..;.{.].3.{.;.;.A+B+A+C+!.!.;.).,.!.,.a.>.>.>.D+a.;.C+E+].].3.].c+].E+E+;.;.].(.(.(.<.F+m+q+<.G+Q H+I+f+J+f+K+L+M+N+O+P+Q+[ [ [ [ [ [ [ [ [ R+S+T+U+4.V+W+X+Y+Z+I+`+j+ @.@ @b++@@@<.(.<.c+B+3.3.#@n+n+$@#@c+E+'.;.#+%@#+D+a.%@3.#@3.C+;.C+E+E+E+C+'.;.;.;.;.;.;.;.>.4+",
"&@..*@!.=@<.(.-@/./.3./.n+n+].'.;.'.A+;@I+Z+>@Z+,@'@J+W+)@!@~@{@]@^@]@,@~@,@~@/@(@_@:@<@[@}@|@1@{.H+2@3@T+,@!@4@5@-+2@6@;@7@[ [ [ [ [ [ [ [ [ 8@I+3@9@0@]@~@)@a@b@c@T+<.:.d@e@[@f@_@g@h@i@!@~@{@j@{@i@)@!@k@l@W+Y+,@m@X+k@k@n@J+Z+m+].3.E+E+C+C+B+].3.E+E+!.!.A+;.$.B.>.",
"7+a.c+=+o@p@q@T r@s@m l l q@G+t@s@u@t@-@u Z+Z+I+J+T+O+,@]@]@,@v@]@w@K+,@x@,@,@a@y@y@y@<@z@A@B@C@D@f+O+E@f+O+F@G@H@G+I@J@K@L@[ [ [ [ [ [ [ [ [ M@N@J@O@P@G@4@Q@K+J+K+,@R@i+0@f+S@<@j@Q@T@U@!@V@i@y@j@4@T@]@,@W+m@m@c@O+W@,@k@Y+M @@u@p@C@X@$+0@=+Y@Z@m G+l u@u@`@%+(. .;.",
"7+;.:.%+`+`+o@ #p@p@`+H+H+H+.# #`+Q  #$+{.n@m@O+Y+Y+Y+,@+#Q@{@i@y@i@Q@@#a@]@##i@[@:@$#$#%#&#*#=#-#N+3@3@2@I@;#>#,#Z@6@'#)#!#[ [ [ [ [ [ [ [ [ ~#E@K+'#{#]#>#G@^#f+/#J@(# #_#N+:#]#<#[#j@j@i@T@y@}#y@<@y@|#T@K+'#K+,@x@J@]@]@j@@@o+H+f+1#q@%+t@2#q@Q `+ #`+`+ #q@q@`@0+!.",
"..E+ @u@1#I+Q Q .#.#1#I+I+1#I+1#H+I+1#G+_.3#4#O+,@,@Y+5#j@}#<@6#7#>#<@>#|#|#Q@>#:@8#%#:#8#&#9#4+-#U+x@J@0#a#a@:#O@Z@J@T@R !#[ [ [ [ [ [ [ [ [ b#c@5#J@c#>#d#6#0#2@4@c@=+$@e#U+f#F@<@8#<@g#<@j@:@<@}#h#8#%#<@j@i#i@U@K+J@a@{@j# @Z@N+O+f+k#q@l#m#T n#H+H+H+`+`+1#T G+;.3.",
"%.(.o#T f+N@I+N+f+f+j+j+I+1#N+f+N+N+1#T =+p#q#,@!@5#,@V@i@r#s#t#s#7#8#%#<@<@<@<@g#s#s#u#v#w#x#D+y#z#J@'#J@J@A#>#,#p@K+a@R B#[ [ [ [ [ [ [ [ [ C#J@a@J@D#>#:#i@K+K+6#6@2#0@E#I@8#y@%#d#8#h#h#F#s#<@<@G#G#t#s#8#g#<@}#i@K+!@i@H#b+q@f+J+I#n#J#y#1#`+K#I+I+N+I+1#j+i+Z@].L#",
"a.:.`@Q j+f+1#1#N+f+I+1#j+I+I+N+f+M#I+ #R@f@N#]@a@i@i@j@<@<@h#G#s#7#8#O#8#8#7#%#d#s#O#P#Q#R#S#k+1#H+J@F@Q@'#a@$#O@`+T#a@P U#[ [ [ [ [ [ [ [ [ V#J@@#K+W#G@F@4@'#a@}#,@q@(#X#O+O#Y#Z#%#O#`#G# $.$%#<@s#+$@$.$t#t#h#:@Q@5#a@j@#$`@T $$$$1#I+1#1#I+H+K#f+I+I+%$N+I+i+l 5.m+",
"a.&$Z@Q j+N+.#.#1#f+f+I+I+*$1#1#N+J+3@K#s@=$[@]@i@}#<@s#z@h#h#s#8#Q@<@8#G#u#7#8#u#O#P#O#-$;$>$,$.#T c@F@]#F@|#>#9@T '$@#M )$[ [ [ [ [ [ [ [ [ !$K+@#J@~${$A@O@A@]#>#]$L+t@|@2@u#s#$#^$+$/$t#($_$P#%#u#O#+$@$@$G#G#s#i@5#!@j@:$r@Q f+N+N+<$ #<$`+[$1#N+I+N@N+I+P Q l n+m+",
"C+=+T o@.#f+H+.#}$N@J+Z+f+f+%$H+S+m@Y+T+u@|$h@5#]@i#y@g#s#f@s#s#<#@#A@]#s#8#:#s#O#7#Y#P#1$2$3$,$<$q@b@A#6#@#F@F@^#Z@A@F@M 4$[ [ [ [ [ [ [ [ [ 5$]@|#6$4.O@O@9@F@:#y@Y+7$t@|@O+G#/$%#%#P#t#($t#@$z@:#:#<@h#O#O#P#+$h#F@'#5#y@8$l I+J+O+J+T+1#1#1#<$y#N+f+f+f+%$P 9$h n+ @",
";.=+0$p@Q i+ # #`+f+J+T+m@O+a$f+f+O+O+N+d _@r#b$J@K+'#F@:@g#g#h#y@T@F@>#8#:@7#u#O#8#u#c$Q#d$>$A+0$e$b@/#Q@$#F@A@I@Z@4@A#z )$[ [ [ [ [ [ [ [ [ V#T@i@6@f$g$O@h$>#>#@#6@i$=#0@3@+$+$v#P#O#P#t#<@h#s#>#:@>#<@g#8#7#%#7#]#5#'#y@j$q@f+,@V+m@O+J+$$.#I#N+J+f+f+N+N+H+`+u@$@$+",
"0+ @p@`+ #T `+ #H+f+J+T+m@m@O+O+T+I#I+H+s@h@Q@,@6@x@x@6@h$<@_@:@<@Q@F@y@:@y@:#7#8#k$/$v#P#Z#l$B+m$T ^#/#>#%#<@|#n$u@'#a@L o$[ [ [ [ [ [ [ [ [ p$a@h$q$r${$A@F@>#|#i#J@l#D@W#b@O#@$G#t#u#u#8#<@t#z@}#>#<#]#[#<@>#s$<@:#A#5#F@t$Z@f+Y+]$,@6@m@f+I#T+J+O+O+T+T+N+Q T D@u$ @",
";.b+p@`+C@ #N+I+J+O+T+T+J+m@O+m@T+I#}$i+`@v$h@6@b@T+$@s+w$a.a.%.>.....#.>.>.a.!.p@:#P#8#O#2$x$r@N+ #J@A@y$<#8#$#6$w$T x@L z$[ [ [ [ [ [ [ [ [ A$/#6@;.B$>#]#]#@#a@4@J@<$1#C$m@c$G#G#u#Y+$@;.#+;.;.>.w$w$*@a.a.D+9+A+a@a@T+5#t#r@D$6@b$J@O+J+N@T+Y+m@Y+O+J+J+f+H+T D@#@_.",
"0+q+%+o@p@1#J+T+Y+m@m@T+c@m@W@m@3@f+}$H+Z@S  @B+B+B+B+q+<.L#3.L#-@L#u$$@<.M+:.G+:.j@h#u#u#E$F$G$H$U+F@]#>#>#:#$#^#I$>.x@a$z$[ [ [ [ [ [ [ [ [ p$K+Z@w$J$f#>#]#A#]$a@'#K$L$M$8#s#s#O#P# @-+=+u$N$m+L#L#O$4.u$q+o+P$4.=+:.Q$@@`+q@J+J@K+,@6@Y+m@m@n@Y+,@m@J+f+N+`+Z@%+3.m+",
"a.n+o+Z@i+I+J+J+T+N+J+3@m@W+Z+Z+O+f+N+H+ #N#N@1#C@b+P$.@R$Z@=+@@=+=+q+%++@$+p@S$z i@<@8#T$O#U$V$W$X$A@]#6#$#6#F@Y$Z$A+x@Z+z$[ [ [ [ [ [ [ [ [ `$Y+N+ %.%$#|#A@A#K+A#+%@%#%$%%%t#%#:#h#&%)@i+:.o+=++@`@:._.b+Z@n@p+o+q@T I+X+h@f+2@x@'#b$Y+,@Y+,@m@W@W@O+T+f+N+ #D@-+{.:.",
"0+$@ @b+p@I+Z+N+N+H+I+a$Y+m@m@O+6@f+N+J#t@q#f+n# #d -+o#*%t@l =%-%8.;%>%=.o#(.T+1#i@Z#Z#y$u#,%'%)%!%~%A@F@A#A#O@{% %A+6@S$4$[ [ [ [ [ [ [ [ [ A$6@2@Q$]%i#A@O@'#O@F@^%/%(%_%u#>#|#T$h#q@b$m+o#b..@*%8.:%=.t@q@&%b+`@o@H+%$X+i@.#J+c@'#,@,@,@,@Y+J+J+N@f+N+I+K#`+%+m+E+n+",
"6+b.=+p+y#$$$$I+N+}$I+J+Y+J@c@m@Y+b@N+y#t@h@O+D$Z@<%&%-+&$<.o@(.=%[%}%|%1%~.2%6@ #T@>#Z#G@f#3%4%5%6%A#T@'#J@a@J@7%Z$;.Y+W+4$[ [ [ [ [ [ [ [ [ 8%J@J+Q$C+|#{$A#'#~%|#9%0%a%b%c%G@G@$#P#Z@,@d+<%.@(.:%p+8.o#-+`@o#p@p@.@h f+J+j@Q T+6$K+x@,@K+,@J@O+n@J+N+1#I+f+H+-+-+a.8+",
"[+d%3.<.H+f+T+T+f+T+f+3@T+6@6@J@Y+,@6@N+d+f@,@N+n#o@.@&%e%f%o+`@+@=@g%.@h%g%n+$$1#V@$#T$G@$#3%i%j%k%O@a@/#/#'#'#l%Z$0+l@m%n%[ [ [ [ [ [ [ [ [ o%J@J+u$!.F@|#F@{$F@F@2$p%q%r%R#s%G@f#t%q@K+q+u%L# @;@*%v%a+q@=+Q I+v%&%T+f+b$h@H+2@Y+J@J@J@,@b$]@K+V+m@N@1#I+O+N+b+:.w%x%",
">.y%:.(.Q f+f+f+J+J+I+T+f+T+T+O+J@J@x@T+q@|$,@N+N+$$o@<.Z@z%o#Z@K#,@A%)@j@~@T+x@N+V@$#T$y$T$B%C%D%E%A#A@O@9@'#5#N+Z$b.W+S$F%[ [ [ [ [ [ [ [ [ G%Y+T+#@;.;#|#F@h$|#]#9%H%I%J%R#y$y$$#8#T V@O+x@6$,@V+X+O+K#d I+N+h G+O+T+T+]@[@H+N+6@J@J@J@J@J@b$Y+!@b$O+T+J+J+f+b+=+..Z ",
"K%4.-+q+i+a$J+3@,@O+I+T+c@Y+3@J+L%I@c@2@q@(@V+b@T+T+6@p@1#*$[$m#L%'#'#'#4@A@9@9@y#!@%#%#Z#;$M%N%O%P%F@]#A#O@O@x@N+Z$>.m@X+F%[ [ [ [ [ [ [ [ [ Q%J@T+3.;.;#G@G@A@F@>#2$R%S%T%R#$#y$;$g#t@x@a@U%O@]@h$5#J@6@q@T+c@I+J@0#6@c@O@V% #1#b@3@6@6$Y+Y+O+N+,@c@J+J+O+X+f+%+Z@W%B+",
"..|+s+L#`+N+f+m@x@x@T+2@c@6$3@T+T+I@I@T+ #[@]@O+6@6@,@x@$$N+1#m$6@'#a@5#/#~%9@x@k#T@>#:#s$T$X%i%Y%P%6#y@|#h$x@x@N+C+w$J+W@F%[ [ [ [ [ [ [ [ [ Q%,@T+3.;.;#A@A@O@A@f#Z%`% &.&u#+&y$]#[#q@O@A#A@O@h$h$@#x@6@T O+6$J@K+J@q$x@@#}#H+l%I@6@6@@&6$6@b@T+O+6@T+f+O+Z+N+-+;.y+$.",
">.#&9+=+C@}$D$m@x@b$J@3@6$6$q$l%2@2@l%l%I#I+,@J@9@'#a@A@x@c@2@1#J@a@{$i#A@O@$&$&%&,@@#Q@i#$#&&*&=&-&<#<@Q@F@A#U%$$E+9+J+J+;&[ [ [ [ [ [ [ [ [ >&}@,&'&,.;#A#A@A@>#Z#)&!&~&{&u#^$y$y$%#q@O@|#|#F@F@A#A#x@J@ #J@J@J@K+'#6$J@a@O+y#b@6@6@I@I@I@6$6@O+6@J+2@J+J+N@I#u@3.s+]&",
"D+%@E+-+C@.#1#T+2@c@x@b@l%l%I@6@x@6$7%U+n#X@x@6@J@'#O@O@A#4@6@k#x@'#U%{$^&~%^#0#l#,@A#T#6#$#/&*&(&_&]#:#<@]#|#A#b@B+>.J+Z+F%[ [ [ [ [ [ [ [ [ :&x@$$B+8.;#F@F@]#y$y$9%<&[&}&u#c%|&y$g#2#O@|#G@|#;#A#'#K+J@`+x@,@'#a@a@J@K+!@u@l+I@1&3@b@I@6@6@6$2@2@I+N+N+N+I+.#Z@$@<%*.",
"9+C+#@2&p@T k#1#U+l%I@b@N+T+q$0#3@x@l%J#U+ #K+6@L%x@'#'#A@F@0#3&J@'#'#~%O@~%^#^#r@6@a@T#'$>#+$4&5&6&G@>#>#y@;#'#T+E+#.O+J+F%[ [ [ [ [ [ [ [ [ :&J@I+E+;.,#U%U%|#y$;$7&<&8&9&^$G@A@G@g#e$0&y$y$F@O@O@K+J@6@H+K+'#O@a@K+6$J@T@<$1&b@l%q$b@I@3@I@$&b@N+<$`+H+.#H+`+T L#A+0.",
"a.,$#@Q `+ # #y#l+$$3@q$1&I@L%q$a#a&l%J#b&U+K+6@6@x@'#F@Q@y@6$J#0#'#O@~%9@9@$&^#l#J+/#a@a@]#G#c&d&6&|#y@}#Q@h$O@T+E+w$O+O+n%[ [ [ [ [ [ [ [ [ e&6$I#C+r+K+9@9@F@>#T$)&<&f&9&^$|&G@]#g#q@A#Z#y$|#O@,#x@^#a#*$c@J@O@a@x@6@6@T@J#l%l%b@b&b&I@0#0#I@I@I# #0$1#1#Q 0$o@L#3.~.",
"a.;.n+g& # #1#1#U+T+c@b@l%b@b@b@L%I@$$z#b&U+,@Y+6$'#'#h$|#]#x@J#6$'#,#,#,#h&$&$&q@c@'#9@9@]#G#i&j&k&s$}#y@4@A@O@N@E+>.O+O+n%[ [ [ [ [ [ [ [ [ l&J@j+C+b.m&x@J@A@G@$#n&`%o&r%%#A@|#y$8#p@h$]#p&y$|&,#9@^#0#m$I@9@K+A#x@0#x@a@k#N+b@6$a#2@I@2@b@I@6$N+H+I+N+I+`+`+g&:.$@q&",
"r+0+Q$l  #p@H+y#1#$$6@6@q$I@b@b@I@2@2@U+I@l%~@Y+6$K+O@a@4@F@x@z#$&6$$&9@'#9@^#^#l#J@'#0#x@Q@P#r&s&t&]#j@Q@h$O@m&$$E+>.m@O+F%[ [ [ [ [ [ [ [ [ ; Y+I+C+a.x@x@^#A#|#>#^%u&v&b%T${$|#>#h#q@h$>#<#|#A@9@^#6$0#<$6@9@9@A@x@a#^#^@y#l%$$6@I@0#6$l%l%6@K+T+I#}$I+H+i+ #o@:.(.w&",
"a.0+'&G+p@T <$K#N+N+$$U+I@b@I@I@I@I@a#b@l%U+,@6@6$J@K+h$F@F@x@z#b@^#m&}@'#9@h&I@2#6@K+x@;#6#G@x&y&z&|&F@@#a@a@9@I#E+A&6@Z+B&[ [ [ [ [ [ [ [ [ C&6@H+A+;.O@^#0#a@F@D&E&F&G&H&>#]#F@$#h#Z@A#Q@]#]#h$,#h&6@a#T L%^#x@a@^#I@a#]@I#l%l%I@7%I@6@I@2@Y+x@2@N+I+H+H+`+`+h (.3.I&",
"w$;.c+h o@T 0$N+$$U+1#J&N+I@a#I@6@b@I@U+N+N+l@b&2@J@O@F@4@4@J@z#6@J@}@'#g$^#K&I@r@2@'#9@h$G@B@L&M&N&,#h$@#a@}@^#N+E+#.O+Z+B&[ [ [ [ [ [ [ [ [ - O+H+B+r+}@x@x@O@O@}@Y$O&P&Q&6$]#;#]#:@C@h$F@F@|#A@m&m&^#6$Z@b@6@J@O@J@l%6@b$1#I@N+J#J#l+b@6@6@6@6$$$N+K#1#H+0$p@`@L#A+R&",
">.#+A+=+Z@ #0$<$y#y#S&l+U+N+b@6@6$b@I@U+b@T+~@6$I@6$F@4@;#;#^#T&m&K+'#A@O@^#0#I@C$2@'#x@O@$#U&V&W&X&J@K+]@K+'#x@.#;...O+,&B&[ [ [ [ [ [ [ [ [ Y&a&`+E+>.}@}@'#]@K+^#Z&`& *.*G@|#O@G@<@q@h$F@'#A@,#}@}@}@6@G+2@L%0#K+c@b@6$l@l+b@N+l+J#I#T+2@2@O+6@H+`+y#<$y#0$p@`@#@,.8.",
"c.a.;.o+C@C@r@T y#I#N+N+N+b@6@6$6@2@6$I@l%T+k@6@N+6@a@h$h$A@6@z#O@O@,#;#,#^#a#I@r@3@m&^#'#+*^$@*#*$*a@!@'#x@x@x@p@;.#.2@N@%*[ [ [ [ [ [ [ [ [ 4 O+i+C+%.4@A@h$h$O@&***=*-*;*<#F@O@F@:@D@O@A@6$h&U%'#^#m&6@Z@J@x@6@x@6@0#3@W+J#l%7%1&l%l%$$l%$$K#T+1#T q@ #0$H+`+u@3.8.8.",
"%.9+;. @r@Z@Z@ #1#N+N+$$6@6$6$6@@&2@6$$&l%N+W+I@N+a&}@A#A@O@@&T&9@A@A@{$O@x@^#$&7$2@x@x@K+F@P#>*,*'*{$F@a@Y+J@c@T ;...J+f+%*[ [ [ [ [ [ [ [ [ )*6@i+C+%.!@h$x@O@h$m&!*0%~*{*]#|#h$4@<@r@'#O@$&$&x@,#^#^#6$q@Y+'#6$^#6@x@6$,@l+{%7%T+6@I@l%N+N+N+N+y# #T T 1#1#`+%+(.A+]*",
"A&#.;.m+D@r@q@S&N+l%I#J#N+I@b@l+l%b@O+$&l%U+X+O+U+^#O@O@V@O@T+<$6$}@}@U%|&O@x@I@r@2@J@x@K+4@+$^*/*(*^&i@T@,@x@3@q@#+ .J+_*%*[ [ [ [ [ [ [ [ [ :*2@i+;.>.]@x@6$K+V@O@<*[*}*9&s%]#F@F@p&`@x@m&^#$&9@'#9@9@I@r@6@J@J@^#I@0#x@x@1#l%7%$$O+O+3@b@T+N+N+I#n#q@ #H+1#`+`@-@c+8.",
">.9+E+_.|*=#d+1#I@I@I#T&U+U+l%z#J#$$$$l%l%1#Z+,&N+6$O@a@h$K+N+i$l%6@6$^#x@^#0#b@C$O+x@^#9@;#%#1*2*!%O@A@'#'#J@6@q@%@s+,&N@%*[ [ [ [ [ [ [ [ [ 3*T+`+;.>.K+6$$&x@}@O@F$4*5*6*s%i#a@4@7*u@^#K+m&x@9@x@^#6$l%D@Y+b$6$I@I@I@x@l@<$N+$$N+N@2@T+O+J+$$1#I#D$H+y#y# # #`@n+A+8*",
">.>.C+N$=#r@q@1#b@l%I#7%b@q$I@J#l+N+U+$$N+1#Z+O+2@2@x@J@m&6$l+7$l%b@a#$&$&&*b@{%l#N+I@6@x@O@T$9*0*a*x@'#J@6$J@6$ ##+s+2@I+b*[ [ [ [ [ [ [ [ [ c*T+`+;.>.K+6@I@J@'#'#d*4*8&6*d$<#}@A@y@2#$&J@^#h&K+0#I@$&l%D@x@x@c@6$b@l%,@n@S&U+$$l%b@N+N+T+N@D$I#$$N+K#1#J#T o@%+-@B+8.",
"c.9+A+ @u@2# #1#N+7%7%l%6@J@^#b@b@b@7%N+I#1#J+m@6@b@2@b@6$O+<$e$l%l%N+{%b&a#x@&*l#0$7%6$6$x@;$e*f*g*6$x@J@J@^#x@`+;.u+,&1#b*[ [ [ [ [ [ [ [ [ h*O+Q ;.$.V@^#I@6$x@'#i*j*k*l*s%|#O@'#Q@2#6$x@^#6$m*6@$&I@5@t@c@x@6@I@T+b@Y+'@p@U+b&6@2@1#N+$$N+I#$$$$K#N+I+<$ #d+-+n+3.8*",
"b.a.A+a+q@q@q@`+n#N+}$l%6$J@c@6$I@O+$$N+U+J#J+O+2@2@2@6@K+W+<$2#7%l+J#l+U+6@m&{%c#.#I@^#6$x@<@'%n*o*$&^#x@x@x@x@<$;. .N@Q b*[ [ [ [ [ [ [ [ [ 3*O+Q C+w$O@x@b@I@6$x@p*q*r*k&G@h$U%4@+*-#a&'#J@l%6$I@O+I@7%`@Y+J@2@2@l%T+T+W+y#T+3@Y+O+K#n#I+N+$$T+N+I+$$1# #q@Z@X@n+$@8.",
"#.%.A+b+q@q@i$ #<$`+<$N+b@I@6$6@b@T+l%U+7%y#s*,&$$$$2@3@x@Y+y#=#7%l%N+U+U+J@x@t*u*N+c@x@a#K+j@v*w*x*O+Y+6@6$^#^#k##+ .N@j+b*[ [ [ [ [ [ [ [ [ y*2@H+;.$.}@^#b@3@J@m*H@z*A*B*F@'#'#4@i#=+O+K+J@7%I@6@@&T+l+u@m@6@N+b@l%N+T+l@`+K#N+6@T+I#1#l+N+T+T+N+N+f+1#`+Z@r@b+3.!.=.",
" .a.!.a+G+q@q@2# #q@q@J#N+U+2@2@T+b@T+I#7%<$N@N@N+l%T+O+a&I@<$2#$$b@b@l+1&6$I@=#0$Y+,@J@J@b$b$C*D* #I@6@^#6$x@6@ #)...,&z b*[ [ [ [ [ [ [ [ [ E*O+.##+$.O@}@^#c@x@K+T+F*G*O+F@;#^#x@]@W+X@J+6$U+t*I@I@I@I@Z@O+6@b@T+b@N+T+Z+q@1#N+J+N+I#$$H+1#N+N+I+I#I#1#y#2#r@o+A+A+~.",
" .%@E+a+Z@C@r@t@q@ #<$<$1#l+N+6@I@I@l%U+U+k#_*J+N+N+2@2@I@I@y#2#I@I@a&i$q@b@2#u@J+V+,@Y+6$W+ @..C+g&a&J@x@9@m&J@H+).H*m@z b*[ [ [ [ [ [ [ [ [ I*m@p@;.>.O@m&9@K+a@a@O+c+0+c+b$a@0#9@a@!@f+`@T+<$X@N+b@6@I@G+2@2@2@2@$$U+T+T+ #n#N+$$1#U+U+1#<$y#1#1#y#y#<$ #r@u@o+E+;.{.",
"..9+!. @2#q@r@t@2#L+y#1#l+U+I#b@a&a&l%l%N+<$N@N+}$N+$$b@O+I@J#2#{%6@N+O$0$u@&%I#x@K+]@b$l%X@4+a.(.l@m&J@9@}@}@x@J*;.$.O+I+K*[ [ [ [ [ [ [ [ [ L*O+T ;.A&K+m&K+O@A@4@T@G+<%4+(.x@x@m&K+V@]@.#2%N+@@C@2@T+N+h N@l%l%T+l%U+l%O+ #1#b@$$k#J#z#L+i$L+y#1#1#1# #q@u@`@_.E+a.]*",
"A&%@E+ @r@Z@m#l#i$T&7%N+l+l+l+2@@&6@b@N+I#q@I#y#<$T&J#l%T+b@<$=#l%I#m+p@%&t@$$I@6$]@b$O+u@#&%@=%$$6@6$x@6$x@J@6$q@;.#.N+j+M*[ [ [ [ [ [ [ [ [ N*3@Z@0+A&x@^#O@A#O@'#4@]@%+<%O*=@6@Y+x@,@]@6$i+%+.#P*d+1#l+`@T+2@b&N+7%$$N+T+q@1#$$T+y#<$k#7$q@q@H+D$N+n#`+T =#Q*P$C+%@{.",
"9+A+3.m+r@q@q@q@<$1#I#N+U+1#l+b@O+T+N+l+1# #.#<$q@i$n#l%l%T+y#R*<$q+J# #S*6@6$I@6$K+x@o@7+>.(.T*b@N+b@J@{%$&6@T+q@;.@.N+U*V*[ [ [ [ [ [ [ [ [ W*J+D@%@A&l@$&9@9@'#O@x@Y+l@b+;.4+m+J+]@b$}@x@2@C@-+.#(.X@z#t@T+$$U+l+t*l+1#T+q@y#1#$$N+J#<$7$q@2#1#N+N+y#y#T u@X@_.!.!.8.",
"A+q+o+b+u@q@q@ #<$J#1#1#U+I#N+I@2@$$U+l+J# #.#<$y#J#N+N+N+I@J*t@L#q@i$X*U+x@6$6@6$K+Z&Y*Z*L#,&l%b@I@I@Y+O+a&l%`+;.a.b.Z+i+V*[ [ [ [ [ [ [ [ [ `*J+&%0+w$-+I#h&^#^#}@J@6$O+x@a+E+ =.='#x@K+@&c@2@t@b+2&<%<$`@1#l+7%l+I#y#y#$$2#k#`+7%U+7%l+k# #%&1#l+I#q@ #q@q@%+o+q+u$n+",
"E+o+G+-+%&q@T q@`+1#l+l+K#N+N+T+T+l%U+I#1#L+.#y#N+N+1#l+7%l%`+X@0$q@o+y#$$6$b@,@5#+=@=#=$=J+W+N+l%^#^#x@x@Y+1#b.w$!.%=&=i+V*[ [ [ [ [ [ [ [ [ *=,&,@L#9+H.X@@&9@9@U%'#x@$$l@]@==-=;=>=A#]@2@6$Y+I@-#X@2&1#e%<$l+7%N+N+n#`+N+=#q@q@J#J#N+U+<$L+7$J#J#S&C@2#=#q@t@o+o+o+L#",
"C+b+q@S*C@ # #q@<$T&1#7%I#I#I#U+N+l+y#J#y#q@}$J#t*N+y#1#1#7%y#i+2&O$I#b@l%T+b@x@,='=)=!=~=Y+m@2@$&6$h&J@J@N@;.s+A+i+O+T+i+V*[ [ [ [ [ [ [ [ [ {=,&x@6@u$w$#&Z@x@0#9@h$}@6$m@w@2$]=^=/=(='#O+@&I@$&a&o+-+f+X@y#U+l+t*l+l+1#D$t@q@l#z#z#t*J#<$L+q@y#T&<$L+q@q@2#t@X*0@X*$@",
"E+(#r@=+q@<$y#q@p@S&l+N+N+U+1#y#l+z#L+L+<$l#`+y#I#y# #1#I#y#=+b+m+<$q$N+U+l%6@_=:=<=[=}=^&,@x@6@b@@&6@6$,&8.3+;.p@Y+Y+T+i+V*[ [ [ [ [ [ [ [ [ |=b@Y+^#m*$@u+8+0$6@x@m&^#}@J@x@F@1=2=3=4=5=3@O+b@N+a&$$~$v%o+q@l+J#N+N+k#J#1#t@2#2#i$ #J#z#q@q@i$J#y#y#S&k#2#=#t@=+t@b+3.",
"E+-+C@o+q@`+1#y#<$l+J#n#l+1#J#1#J#J#L+q@<$e$I+.#I#y#J#}$.#X@S 6${%T+U+N+N+b&6=7=f&8=9=&#K+J@h&^#6@$&I@l%A+2+K%u@m@6$6$l%i+V*[ [ [ [ [ [ [ [ [ 0=3@J@I@J@O+u$u+s+q@6$x@6$h&m&m&K+F@_%a=b=c=z#b@$$N+b@l%$$h&T*b+ #J#K#U+<$J#d=r@T  #L+k#k#z#q@q@0$J#<$<$k# #p@C@u@=+u@u@L#",
"B+t@Z@=+q@1#I#I#J#J#<$J#T&<$0$y#l+U+z#q@ #r@}$d=N+l+7%y#t@o@2&$$2@N+y#l%l%5@e=f=g=h=+%V@b$x@^#^#{%{%T+3.2+a.u@6@I@b@6@T+i+V*[ [ [ [ [ [ [ [ [ i=6@x@6$^#6$,&3.s+..I+O+$&&*}@O@}@K+{$j=k=l=m=n=I@T+T+N+l%T+i$2%X*q@I#1#<$0$N+2#<$1#J# # #L+ #q@ #1#z#y#y#y# #p@C@2%q@G+q+",
"B+%+r@=+q@1#.#.#y#y# #k#k#<$i$L+k#J#z#L+ #u@Q D$1#I#J#u@<$0$I#N+N+U+U+l%Z&o=p=q=r=+%6$J@J@^#^#6@2@2@L#4+D+-+a&2@@&6@$&T+i+V*[ [ [ [ [ [ [ [ [ s=J@K+x@^#6@Y+N@c+5+>.}$2@2@6$A#O@x@0#O@t=u=v=w=x=6@O+U+N+N+N+C@q@:. #1#1#J#I+r@<$1#1#<$k#q@l#q@L+<$k#1#`+<$q@C@Z@-+q@%+$@",
"E+R@u@ @2#y#S&y#`+ #L+L+k#k#<$z# #<$l+<$<$e$}$1#J#1#t@y=q@z=7%U+N+l%U+Z&A=B=C=h=p*^#$&J@h&6$x@6@O+@@#&0+b+6@0#2@a&^#6$b@p@V*[ [ [ [ [ [ [ [ [ i=Y+b$m&9@6$6@l@.#C+8+b.D$2@l%6$m&^#$&^#O@D=E=F=G=H=I@$$7%.#y#1#u@G+a+y#J#J#N@D@S&<$1#y# #r@r@q@l#2#T <$ #<$ #q@r@=+u@`@$@",
";.q+b+o+u@ #p@`+J#<$ #<$ #T&J#J#<$J#I#T&y#r@N+T&J#T&r@l%7$J#7%I#T+6@I=J=K=s&L=M=6$l%$&0#^#6$x@&=2%7+N=O=Y+T+I@6@$&6$6$I@o@P=[ [ [ [ [ [ [ [ [ Q=J@K+x@O@J@I@I@m*Q ;.4+;.$$@&{%^#^#6@I@a#R=S=T=U=V=W=K#l%1#1#1#C@T+t@H+L+J#,&u@q@ #<$1# #2#7$7$i$q@<$J#y# #q@2#=#o+b+_.C+",
"@._+8+@@&%q@ #<$J#k# # #<$<$J#k#<$1#n#S& #O+2@I#l+y#J&7%t@J#I#N+l%X=Y=Z=`= -.-a#2@$$$&0#I@6$^#-++->.m+l@2@7%I@6$^#J@J@I@u@P=[ [ [ [ [ [ [ [ [ @-O+m*x@'#^#6${%T+b$0$a.#-!.$${%{%6@J@$&6@I@$-%-&-*-=---U+J#1#1#r@T+C@<$q@<$$$Z+C$q@q@<$L+m$q@L+q@q@;-y# #q@C@2#r@<.6+:+>-",
"8+v+<%p+`@q@H+1#y# # # # # #k#L+<$<$S&y#q@$$d=y#<$<$2#z# @i$I#n#b&,-'-)-!-~-^#I@l%7%a#6$6@2@Z@#&$.<.O+I@7%U+l%2@J@x@6$N+p+[ [ [ [ [ [ [ [ [ [ {-N+x@m&J@0#6@I@7%6@b$]-9+^-5.$$a#9@6@6$6$l%6$R=%-/-(-_-:-<$l+y#t@q@r@k#L+L+I+N+0$q@2#q@q@ #T  #L+m$q@T Z@d+2#q@2#:.a.4+e.",
"s+..n+o+e%o@H+y#H+<$q@Z@q@ #i$k#L+<$<$;-t@k#y#q@q+C@q@2#N$ #y#T&<-[-2*}-|-h&2@l%$${%@&I@{%C@u+..1->@a&l%J#l+b@@&Y+a&&=`+{.P=[ [ [ [ [ [ [ [ [ I&D@O+x@^#^#6@I@I@6@,&l@-+$.2-<.b@m&J@$&^#6@b@b@i*3-C=z*4-i$$$H+X@S*(#I#3.C$ #1#u@r@q@2#r@T T q@p@p@q@d+Z@q@q@C@C@W%C+..5-",
"8+8+{.a+&%T  #<$T k#q@7$q@L+T&L+7$i$z#z#u@<$<$Q*'&`+q@7$q+ #`+6-7-8-9-0-Y$b@b&N+{%$&$&l%0$$.s+n+,@O+l%b@l+7%6$a&a&$$D$a-r+b-[ [ [ [ [ [ [ [ [ c-!.}$2@6$m*$&l%b@I@$$2@x@o+#.O*p+J@h&I@6$6@I@N+l%i*d-e-f-}$I+1#X@%+%+<$$@O$i$<$G+Z@Z@q@d+q@q@ # #y#<$q@C@q@Z@q@G+:.;. .g-",
"8+4+a.V -+r@q@q@q@q@m$q@q@ #L+e$C$L+<$k#C@J*J#S*0$}$ #R*-% #1#z#h-C*;-T+N+I#t*7%I@0#$&U+=#%.!.i-T+N+$$l%7%U+$&&=l%2@q+C+j-k-l-[ [ [ [ [ [ [ [ [ m-n+$$O+Y+I@l%l%I@l%1#$$W+E+9+(.T+n$b@6$$&l%l+D$$$n-o-p-1#j+0$Q*(#t@1#<$_.y#1#C@=#7$i$r@2#r@q@L+m$q@q@C@2#d+q@e$a+a.3+` ",
"s+$.=.e%o+X*S*b+S*Q*q-Q*=#|*Q*Q*r-=#=#Q* #l+`+N+1#L+r@2#b+y#l+ #s-t-e%I+l+J&J#l+l%l%{%N+t@A+0+R .#l+7%l%{%1&O+,&l%J@E#u-v-w-;.x-[ [ [ [ [ [ [ [ P=y-x@^#$&@&l%{%$$$$J#y#x@a.%@!.2@6@b@l%b&U+J#.#1#Z@#+u+h .#y#=#-+X@y#T&$$I#}$G+X*t@r@q-0@Q*t@Q*t@(#%+(#0@Q*=+=+@@a.v+5-",
"s+;.A+o#l@j@z-m*Y+6@6$'#V@4@V@A-m&6$a&2@m*}$p@T&1#<$u@2#b+y#J+I+B-0+e%f+N+U+l+U+l%l%I@b@X@A+>.p@D$N+1#t*l%C-$$2@$$^#D-E-F-G-H-I-[ [ [ [ [ [ [ [ [ J-G@m*a&2@7%l%7%7%l+<$O+*@0+<%J+2@2@U+l%$$l+.#I+G+0+6+e%.#1#r@-+X*y#I#N+N+I#N+x@]@K+}@'#~@,@Y+,@V+k@k@n@w@+*K-.@,.s+@.",
"8+r+;.(.i+,&f+I+I+I#I#N+T+&=2@$$1#l+I#H+&=7%J#T&1#1#G+;.<.D$6@D$w$L--+I@I@l%N+U+b&7%l%6@%+E+9+g&d=}$l+J#7%$$T+D$7%&*M-N-O-P-Q-R-[ [ [ [ [ [ [ [ [ S-T-$&U+T+$$$$$$J#z#y#T+*@C+~.Z+$$$$N+$$l%l+J#U-e$%@6+ @`+K#t@>.:.1#I#N+I#I+Q T+J+J+J+Z+f+I+N+N+f+f+f+N+N@O+m%=%r+` e.",
"8+#.=.3.h .#I#U+I#D$I#y#I#N+7%U+$$$$I#y#T+N+1#I#1#}$d+9+q+N+f+i+u+K%V-W-X-Y-t*{%I@7%l+2@b+C+9+Z@1#7%7%J#l+l+1#q+e$H@e=Z-`- ;.;R-[ [ [ [ [ [ [ [ [ +;@;7%>.$$7%U+t*<$L+z#$$w$L-~.D$l%l%I@2@l%t*#;$;%;;.u+&$.#1#(#u+ @1#N+I#N+N+H+$$f+f+T+N+1#N+,&1#`+`+`+.#.#f+s*].r+Z g-",
"8+#.a.(.o@I+$$N+n#N+}$`+1#I#N+N+T+O+N+I#N+N+N+l+}$J#t@D+n+`+J#i+w$Z$&;*;=;-;t*U+b@7%J&T+=+L-9+Z@y#U+l+J#N+$$.#Q$=#,#e=;;>;,;';R-[ [ [ [ [ [ [ [ [ +;+=l%I$I@$$J#T&z# #y#$$..;.;.}$I#I@I@l%7%6=);!;~;B+*@=+`+`+X*a..@1#N+1#I#1#`+I#T+N+$$N+H+1#N+.#H+k#y#`+`+I+f+/.%.O*Z ",
"Z ..0.5.u%.#D$}$I+I#I#<$I#I#I#l@l%I#N+N+}$1#1#y#y#<$X@D+3.T `+Q w${;];^;/;(;l+l+b@$$l+,&b+E+>.&%y#N+N+$$l%b@D$q+u@_;:;<;[;};|;R-[ [ [ [ [ [ [ [ [ +;1;2@D+a&T+l+J#T&J#l+,&u+;.~.N+,&l%I@2@N+2;3;4;5;B+#.=+`+`+b+a.m+.#1#I#1#.#Z@H+f+$$I#1#<$y#1#i+p@T T  #0$H+N+c+w$H.Z ",
"O*..0.(.&%U*.#.#j+j+ #<$I#_*I+D$y#y#1#H+`+}$N+y#`+`+t@D+$@`+I#i+9+3.];6;7;U-y#1&I@b@7%O+-+c+9+&%y#N+N+T+T+2@f+o+2#$&9#8;9;0;.;R-[ [ [ [ [ [ [ [ [ a;b;2;L-a&$$$$7%5@t*l+2@..;.c+J+2@b@T+6@N+7%c;d;5;B+w$-+H+I+b+9+o#j+1#I+I#H+Z@T H+1#J# #y#N+Q i+q@p@ #T q@o@D$A+..O*` ",
"2+` e;3.&%P `@`@s*S$d+o@f;g&U*t@t@Z@X@S*G+}$N+y#`+`+S*D+(.Q n#T ..B+g;h;i;5@J#N+I@N+l%2@-+C+..&%y#N+$$,&2@$$f+l@l%h&j;k;l;m;n;R-[ [ [ [ [ [ [ [ [ a;H=C-N+@&1#$$l%l+J#J#,&..;.<%J+2@N+b@2@l%t*o;p;q;E+>.`@N+I+b+>.b+j+I#1#1#H+G+h b+b+`@`@G+z%G+-+o#`@G+-+h z%r;c+>.#&8+",
"2+s+#.s;(.(.A+B+].c+c+3.n+q+3.A+B+A+;.#+@@`+D$y#1#.#u@q@m+`+n#l u+E+%+t;b&l+l+l+b@T+a#6@&%!...u%y#U+$$$$2@$$$$a&@&,#u;v;w;x;y;z;[ [ [ [ [ [ [ [ [ A;B;{%l%l%I+N+T+I#y#y#O+w$;.{.J+l%l%2@{%7%l+l+C;q@!.*@&%I+H+(#=+u@1#1#I#I#`+o+3.C+C+;.;.B+c+3.A+3.c+E+;.B+c+(.a->.#&D;",
"#&..@..@a+%+t@G+D@r@T Z@u@T Z@u@G+u@%+-+e%H+N+1#1#1#r@Z@ @`+l+p@E;C+b+1#I#l+l+<$$$T+O+2@&%C+>.h 1#U+$$T+O+2@T+l%T+O+E#4-F;G;9#x-[ [ [ [ [ [ [ [ [ H;y#l%t*l%N@N+2@N+H+1#X+>.'.{.J+6@2@Y+b@7%L+y#f+Z@;.A&e%I+`+%+=+b+`+1#.#n#.#b+t@q@q@d+t@t@u@u@G+T q@`@t@`@-+S*-%#.4+I;",
"` u+` 1%2%d+0$`+1#y#<$`+ #.#H+i+p@`+i+G+h Q I#u@ #y#u@t@ @.#1#Z@6+E+-+j+N+z#z#J#7%@&T+N+u@C+9+G+`+N+I#$$2@N+T+$$O+l%J#d+J;K;R-[ [ [ [ [ [ [ [ [ L;o@,&2@$$2@N+N+O+T+}$N+D$>.!.s;J+6@J+6@2@N+<$1#f+o@;.u+e%}$I+-+@@o+.#<$=+T `+S*C@y#y# # # #`+ #q@`+<$T o@Z@r@r@@@r+#&` ",
"8+u+@.@@2%o@<$ #1#y# # # #`+0$T <$y#p@q@`@1#`+2%q+m#-+`@_.H+H+o@I$M;C$T+N+1#<$l+7%U+N+N+`+B+%@<% #N+$$7%U+1#$$J+T+U+}$D$X*N;[ [ [ [ [ [ [ [ [ O;g&s*I#$$O+T+y#1#2@$$1#}$_.w$E+b+J+O+T+I@N+N+1#f+Z+k#.%I$h 1#.#a+@@ @ # @<.T  #b+d+ #y# #<$L+`+T C@ #T 0$p@Z@d+`@(.;...e.",
"5+7+r+*%b+q@ #0$ #`+q@r@2# #0$T  #L+q@r@-+N+T p@b+ #-+Q*:.Q .#f+r$P;Q;R;t*<$<$U+y#J#J#U+b$y=3.v+!.`+N+I#I#l+N+N@2@$$T+N+d+!#[ [ [ [ [ [ [ [ [ S;M D$n#O+2@T+1#1#$$T+H+o+#&#+o+,@J+2@7%$$I#I+I+b@@;T;U;V;I+Q  # @q+_.H+P$ #q@<$b+X@q@ # # #<$ #q@r@G+p@p@ #Z@r@`@<.%. .Z ",
"s+u+;.:.X*u@C@q@Z@T q@r@T  #p@`+9$<$T D@b+.#1#q@<$0$X@r@_. #P P W;X;Y;Z;`;t*I#l+y#l+l+l+$$K+d+;.H./.1#$$I#N+$$2@2@2@$$`+ @ >[ [ [ [ [ [ [ [ [ .>0$I#T+2@l%T+1#}$D$N@X@#&B-O$W+,&$$b@N+I#l+K#N+1;+>@>#>$>f+o@p@o+o+_.0$q@q@q@y#X*Q*2#T Z@q@q@q@d+r@r@p@T p@p@q@u@&$>.s+I;",
"#.s+b.m+-+D@t@t@d+Z@q@q@T p@`+1#`+H+p@u@b+ #N+ #`+p@t@N+(#Q Q p@3@%>&>*>=>->5@J#t*t*U+J#J#N+x@X*b.H.q+1#N+$$N@O+T+$$T+1#o+O;[ [ [ [ [ [ [ [ [ ;>`+,&2@@&l%b@I+N+f+u@8+u+A+Z+J+T+N+T+T+T+N+U+>>,>'>)>a*^#H+G+T X*p@o+q@q@q@q@<$b+t@r@q@2#2#e$m#q@q@q@T Z@2#q@r@`@_.>.s+..",
"A+L#P$G+d+t@R*Q*=#r@q@ # # #`+T& #q@r@R*P$m+1#I+`+Z@%+I#%+Q Q  #Q ^#!>~>{>]>^>l+l+7%t*7%l+1#I#a&P$/>2+ @I#D$N@J+$$$$N+1#-+(>[ [ [ [ [ [ [ [ [ _>H+N+N+2@2@2@D$N+G+ ...!.j+I#I#l%N+T+N+f+I#:><>[>}>|>+%D$Q  #q@X* #(#q@p@q@ #-+N$Q*2#2#=#=#=#2#q@q@Z@q@e$t@u@t@%+`@X*q+3.",
";._.2%o+S*%+(#t@u@2#q@ #q@q@ #<$q@q@q@r@(##@D@H+`+0$&%Q G+p@H+H+i+`+1>2>3>4>5>6>n$I@l%l%7%N+1#}$W+L#..H. @i+N+T+N+T+$$0$%+7>[ [ [ [ [ [ [ [ [ 8>j+N+N+N+f+f+D$u@s+8+C+R `+J#$$2@T+N+y#T+&* *9>0>a>b>U+<$.#<$D@b+0$t@<$q@2#C@{;0@r@q@i$(#Q*|*r@q@2#|*=#=#S*t@D@%+:.b+_.B+",
"0+N$=+ @b+(#t@r@r@Z@q@q@q@r@Z@q@2#2#q@r@C$S*r@H+`+`+}$C@0$X@p@H+`+ #y#^&c>d>e>f>g>{%l%l%l%N+N+.#N+,&'&u+G._.`+I+f+$$N+q@%+h>[ [ [ [ [ [ [ [ [ i>.#D$I+N+$$1#q@$.8+8.i+D$T <$N+J+$$$$I#$$j>k>l>m>n>N+m$z#1#i$Q*0$q@I#y# #q@2#~$R*2#7$d+o>Q*e$q@T 2#=+=+0@(#%+%+%+:.=+_.B+",
"D+N$(# @S*t@p>r@r@e$=#D@Z@t@q@%&q@k# #q@q@C$G+ #Z@ #.#I#q@o@-+q@y#1#1#I#q>r>s>t>u>b&b@N+l+I#l+1#H+j+v>A+#&G.b+.#}$1#1#q@-+h>[ [ [ [ [ [ [ [ [ i>U*I#N+T+$$q@>.5+;.o@I+I# #H+N+l%l+l%l%w>x>y>z>A>l%y#Z@ #<$t@d+q@<$T& #q@q@u@X*=#Z@r@2#=#r@2#2#e$C$(#S*Q*Q*%+=#Q*M+(#$+B+",
"D+_.X@X*b+S*S*t@%+t@=#t@t@=#l#C$2#<$k#q@q@C$d+q@2#T i+`+H+C@&%-+ #1#I#1#N+B>C>D>E>F>Z&N+1#I#I#N+1#H+D$D$G>8+2+%+H+1#}$T t@h>[ [ [ [ [ [ [ [ [ i>.#1#N+N+`+a.v+0+`@I+j+y#`+1#I#$$2@a#H>I>J>K>L>I@ # # #q@d+&%X@i$ #q@q@q@2#`@(#r@r@r@e$2#d+q@r@t@t@=#=#=#=#=#D@%+q+=+X*E+",
"D+_.-+o+$+(#b+b+Q*t@t@t@S*D@=#t@e$ # #2#C$t@u@q@2#q@ #Z@q@1#g&2%-+0$}$l+<$}$U%M>N>O>P>5@}$`+}$N+1#}$I+j+j+3.#&Z &%.#}$p@`@Q>[ [ [ [ [ [ [ [ [ R>Q 1#1#`+;.3+K%&%f+D$1#1#1#H+N+2@{%S>T>U>V>s%l% #q@q@q@X@X@F+p@y=d+2#q@7$2#q@b+d+q@q@7$q@r@2#t@Q*r@q@2#t@(#S*t@%+W%=+o+;.",
"D+:.=+ @$+b+b+Q*%+(#Q*S*t@=#t@=#r@Z@2#e$r@t@u@q@2#q@Z@u@D@`+D$G+1- @C@<$ #T H+W>X>Y>Z>`>{%1#D$D$N+N+I+U*e@R 8. ,8+`@1#q@X@h>[ [ [ [ [ [ [ [ [ .,i+`+`+A+4+0+-+N@1#}$H+I+1#D$$$@&+,@,#,$,%,$$C@q@ #q@X@#@p@C@p@d+r@C@q@r@r@d+X*u@q@q@L+q@=#t@X@S*d+e$t@Q*W#X*%+(#$@X*m+0+",
"9+L#o+_.o+(#Q*=#t@Q*t@Q*C$2#r@=#_#2#r@r@r@Q*u@q@T q@m#Z@u@o@`@X*u%c+ @e$q@k#T 6=l*K=&,*,^>l+D$j+1#1#.#`+.#f+Z@;.H.s+G+Z@%+h>[ [ [ [ [ [ [ [ [ .,o@i+c+#-a.-+J+.# #`+1#N+$$N+l%:>c&=,-,;,$&q@i$q@Z@%+A+t@r@_.`@=#r@ #l#e$Z@r@X*t@r@7$q@r@t@t@t@Q*r@C$(#(#=+0@(#=+$@_.$@%@",
"u+4+D+q+X*%+Q*=#r@t@q-=#C$l#r@r@=#r@r@=#=#X*u@p@T T 2#C@G+Z@=+N$b+S*A+=+T H+i+0$$&>,,,',),r@Q I+1#I+1#0$i+i+f+G+0+2-#.G+%+h>[ [ [ [ [ [ [ [ [ !,Q m+B.B--%W+`+T  #.#.#I+I#1#Q ~,{,-,],m&`+q@q@T -+E+o>-+Q*L#t@r@Z@ #q@r@2#`@d@(#r@C$q@=#Q*=#t@t@r@t@(#X@%+(#Q*(#O$;.H.5+",
"#&^,/,Q$o+%+=#=#r@t@Q*=#e$q@r@r@=#=#=#t@R*X*%+q@Z@o@r@2#q@T %+:.(,-+t@!.p+T Q Q y#&*_,:,<,w$`@H+y#.#j+.#H+q@p@N+b+A&H.d+X@h>[ [ [ [ [ [ [ [ [ !,i+(.6+;.W+Q T 0$I+N+I#.#.#`+c+[,},|,,#.#`+ #Z@G+c+-+d+c+S*(.t@d+Z@2#2#u@Z@`@X#Q*=#=#%&r@t@=#t@t@r@=#-#Q*(#(#S*(#Q$A&^,1,",
"O*<+/>L#o+b+t@S*Q*=#q--#=#t@(#=#t@=#=#Q*0@P$b+q@q@ #q@q@Z@o@t@2,%=@@t@X@!.b+ #`+ #.#T+D$3.6+A&G+p@.#.#.#i+o@o@p@q+..4+X@b+h>[ [ [ [ [ [ [ [ [ 3,T #@..s+p@`+0$<$I#$$1#%=0$$@u+E+<$J@$$1#`+Z@%+3.X*G+O$0$t@L#u@r@r@r@2#r@2#`@X#(#Q*-#d+2#r@=#=#b+=#Q*R*Q*(#b+X*=+n+w$}+I;",
"v+|+#.n+o+(#%+b+Q*t@Q*=#t@Q*%+=#Q*Q*Q*(#o+_.=+D@r@ # #q@p@i+u@W#q@Q  @u@`@A+=+Z@T q@H+S$i+A+s+b.G+`+.#H+ #T q@o@(.u+4+%+-+h>[ [ [ [ [ [ [ [ [ 4,p@3.6+H.Z@q@q@ #1#N+H+Q (.u+;.2%6@I+I#1#T %+c+S*d+<.C@Z@t@L#`@r@=#r@r@r@D@t@X#(#S*r@2#q@C$r@|*(#q-(#R*(#X*$+W#$+].>.I.>-",
"C.|+$.3.o+%+X@0@5,q-=#D@2#r@r@r@q-(#t@Q*r-W#o+S*X@r@2#Z@q@.#u@_.r@0$N@1-t@0@;.=+Z@p@T H+,&p@;.4+=.T 1#}$ #q@0$p@$@u+H.d o#6,[ [ [ [ [ [ [ [ [ 7,z%c+6+H.Z@ #Z@2#`+%$.#o+#&K%-+,@N+y#L+k#Z@3. @Z@3.o@Z@d+X@$@t@=#D@Z@q@e$r@t@X#0@Q*7$2#m#e$2#r@R*|*t@Q*=+(#X*X*P$3...C.O*",
"4+|+$.n+ @S*(#X*X*Q*u@2#q@q@d+2#r@=#t@t@|*(#b+r@r@Z@Z@T 0$i+-+N$=#q@y#.#q@q@o+c+u@i+d+Z@j+X+C@D+4+@@0$Q  #p@0$`+_.8,B.-+b+6,[ [ [ [ [ [ [ [ [ 7,T A+6+H.q@q@r@r@q@H+Z@ .>.N$O+f+.# #p@q@ @q+q@i+u@o@u@=#Q*/.t@=#u@r@d+q@t@`@o+(#Q*q@2#d+=#2#2#t@t@D@t@-+Q*=+X*X*3.>.C.I;",
"4+<+$.a-_.=+b+X*X*S*D@r@r@2#2#r@u@r@C$=#=#0@0@D@D@C@q@p@T p@-+W%S*=#q@q@r@q@=#P$3.p@ #q@`+j+J+K%9,<.i+0$%&Z@T T 0,6+C.%+X*a,[ [ [ [ [ [ [ [ [ 7,Z@;.7+B.C@2#2#G+G+`+G+b,k+I#T+N+<$ #`+ @q+=#q@ #=#Z@2#t@Q*$@t@t@Q*(#t@=#0@X@b+t@Q*r@r@r@R*=#r@r@=#t@%+-+S*S*=+$+A+>.I.I;",
"B.y+..3.m+=+=+0@Q*Q*=#t@D@u@=#=#r@u@r@q-(#W#b+D@r@r@G+C@T C@=+$@S*t@q@q@D@q@d+o>M;`@o@T o@H+K#c,d,e,p@p@Z@G+T q@L#6+G.-+b+a,[ [ [ [ [ [ [ [ [ 7,Z@;.5+C.G+C@2#q@ #.#L+f,g,h,1#n#y#`+ #!.(#r@q@ #D@D@r@t@t@$@%+D@t@Q*t@t@(#%+X*=#r@|*t@t@(#Q*t@r@=#Q*S*=+=+b+=+P$!...1+2-",
"#-<+u+q+i,X*0@0@Q*=#t@t@r@r@D@r@q@r@=#(#X*W#b+u@r@Z@q@C@Z@q@(#u$%+=#Z@q@r@r@-#t@W%P$D@q@C@H+I@j,k,l,l p@p@q@ #q@4.u+C.%+=+6,[ [ [ [ [ [ [ [ [ m,m ;.v+1+u@q@2#q@<$1#n,o,p,q,N+S&i$ #q@B+S*=# #0$u@p>=#-#X@L#t@D@=#t@Q*(#(#-+b+u@r@t@t@=#Q*Q*=#t@=#%+%+-+-+-+=+d@]...:+G.",
"#-^,6+n+q+=+X*S*=#t@Q*P@=#=#u@=#Z@u@Q*X*0@$+=+u@r@Z@Z@C@q@q@b+L#t@d+m#q@2#=#q-R*O$:.D@d+u@p@b@r,s,t,q@i+Q i+p@p@<.u+1+-+a+a,[ [ [ [ [ [ [ [ [ m,Z@!.5+C.u@q@Z@7$q@`+x=u,v,w,U+<$%&2#2#Q$X@D@ #0$=#Q*t@t@%+L#-+d+C@C@t@S*(#X@b+r@=#t@t@r@r@r@u@D@`@S*=+b+S*%+b+_.c+..C.x,",
"B.[+s+(.:.X*W#Q*%+X@S*Q*t@%+t@%+=#r@S*X*0@P$a+u@r@t@%+%+r@G+o+W%C$r@r@q@2#=#=#t@L#=+C@u@t@ #3@y,z,A,2#l Q i+H+i+L#u+B.-+@@a,[ [ [ [ [ [ [ [ [ B,G+;.8,C.u@q@d+2#Z@T x=C,D,w,l+q@2#Z@q@3.u@q@<$ #D@t@t@t@%+q+-+r@q@T r@t@Q*%+b+t@Q*Q*X@=#r@d+u@D@r@D@-+b+(#S*o+W%c+ .:+G.",
"G.[+8+Q$_.$+E#X*(#(#t@%+D@-+(#%+%+`@S*X*=+d@a+&%%+t@%+t@u@Z@=+L#Q*D@r@2#2#r@=#t@$@ @u@D@r@p@b@E,F,G,e$o@Q 9$`+Q 3.s+B.o#+@a,[ [ [ [ [ [ [ [ [ H,G+;.6+C.u@d+D@u@u@q@x=I,J,K,J#q@2#r@C@C+r@Z@q@T u@t@%+u@`@L#t@r@q@T Z@(#D@%+X*b+0@(#(#t@%+%+%+u@`@`@`@%+X@X@o+q+c+u+C.^-",
"|+[+7+3.:.$+0,_.X*%+D@t@r@X@(#(#t@X@%+(#=+d@ @`@-+Q*`@X@r@q@(#M+(#t@l#q@q@%&=#t@u$_.t@d+C@u@K#L,M,N,e$o@i+`+<$`+#@6+G.+@ @a,[ [ [ [ [ [ [ [ [ H,q@;.O,1+`@D@t@u@D@l#P,Q,R,K,J&q@2#r@Z@!.G+d+2#Z@t@u@r@u@%+(.-+r@u@C@=#Q*d+D@P$2,0@0@o>D@t@%+`@`@%+%+%+-+t@-+_.3.3. .C.2-",
"_+y+#&n+:. @_.o+X*%+r@r@d+X@b+X@t@-+0@S,=+d@@@-+-+t@%+-+u@Z@b+:.%+t@2#i$q@2#D@Q*$@&$s@r@d+r@U+T,U,A,l#Z@q@H+<$q@$@6+_+a+m+a,[ [ [ [ [ [ [ [ [ B,Z@;.3+C.t@D@d+r@D@l#V,W,X,K,Y,q@=#C$Z@!.r@Z@u@t@X@s@u@t@S*(.%+t@D@t@t@S*t@`@$+X*W#b+u@d+X@-+-+=+-+-+-+X@S*-+_.#@A+8+C.2-",
"C.}+s+5.q+ @b+(#=+%+D@D@t@=+(#t@`@%+=+(#%+ @ @-+`@D@X@`@%+t@X*q+S*u@Z@C@e$=#t@X@u$+@G+r@=#Z@1#Z,`, '=#C@p@`+ #Z@$@t+_+=+ @a,[ [ [ [ [ [ [ [ [ .'Z@!.7+:+`@r@2#q@q@l#+'@'J,#' #r@|*2#T '.r@l r@t@-+%+`@S*=+#@b+`@t@X@X@0@t@`@o+-+(#t@d+r@`@(#=+=+-+b+=+X*b+-+ @$@A+s+|+x,",
"G.<+s+(.:.=+-+b+=+=+(#(#0@X*X*=+t@X@=+(#0@ @a+%+X@u@t@r@t@b+_.q+t@d+u@2#r@t@t@%+L#a+Z@u@t@T 1#$'%'&'|*d+o@0$q@Z@N$t+_+o# @a,[ [ [ [ [ [ [ [ [ *'m A+7+|+`@%&Z@q@Z@C$%;='-';'q@Z@=#Z@Z@;.`@l G+%+%+t@-+S*=+3.X@X@r@u@(#2,-+%+o+%+`@t@t@r@`@(#=+%+%+S*b+_. @_.:.$@A+u+1+I;",
"#-<+..2.q+o+b+b+b+X*X*X*b+-+b+=+%+(#=+X*X*d@ @-+%+u@r@Z@t@b+P$$@t@Z@u@r@u@D@t@t@#@=+l G+Z@ #>',''')'X@u@Z@o@T Z@N$6+_+o#&$a,[ [ [ [ [ [ [ [ [ !'G+A+4+}+u@q@d+m#r@u@~'{']'^'=#Z@t@D@r@;.-+Z@G+-+%+t@%+S*=+/.b+t@d+r@(#X*-+%+ @-+%+`@X@D@%+%+b+(#=+X*b+o+_.W%L#n+3...1+I;",
"2+<+u+3.M+ @o+o+=+(#(#=+S*u@X@t@D@-+=+b+=+d@@@-+-+-+t@G+`@t@_.#@b+e$d+Z@=#D@=#S*Q$&$G+l Z@Z@e#/'('_'%+u@`@r@2#C@:.E;|+b+.@a,[ [ [ [ [ [ [ [ [ .'G+A+H.|+Z@q@r@Z@D@t@:'<'['}'%+G+t@%+u@;.-+Z@u@-+%+D@r@t@o+/.(#(#t@X@5,$+=+d _.=+=+%+-+-+%+b+b+X*=+b+S*b+o+q+W%q+3.#.G.Y ",
"H.<+7+3.q+|'o+o+=+%+(#o+(#D@%+`@u@D@-+=+X*o+m+b+b+%+t@G+u@u@ @3.X*D@=#d+t@t@%+(#{;=@`@Z@q@<$i*1'2'3'5,u@`@u@=#u@L#6+_+p+ @a,[ [ [ [ [ [ [ [ [ 4'D@!.w+}+G+q@C@r@u@C@5'6'7'8'6=d+X@D@u@;.%+C@u@%+b+t@r@t@=+$@=+b+=+=+X*P$X*-+_.=+(#t@(#X@b+S*-+b+X*b+(#=+d@N$_.:.A+.._+x,",
"#-|+#&>%(._.o+=+o+(#(#=+(#t@-+-+D@u@u@%+=+o+ @b+=+X@`@u@D@%+:.B+X*X@t@=#Q*S*Q*(#B+<.u@`@t@d+5@9'0'a'%+u@m d+d+-+3.7+_+-+f%a,[ [ [ [ [ [ [ [ [ b'e%,.#-}+G+ #q@Z@q@q@X&c'd'e'L+t@Q*S*`@;.`@d+X@(#X*-+D@%+a+5.=+=+b+X*X*P$X*-+:.b+%+D@D@t@b+%+-+(#=+-+=+=+o+_._.d@{...C.f'",
"C.<+#&].L#_._.$+P$X*0@S*(#t@%+X@t@`@D@X@b+ @ @b+=+X@t@D@X@b+:.B+o+=+t@D@(#(#t@(#B+<.u@t@X@u@g'h'i' 't@s@s@`@G+X@A+v+}+b+ @j'[ [ [ [ [ [ [ [ [ b'e%;.4+:+G+ #2#Z@C@q@k'l'm'F>q@%+t@S*u@;.b+%+o>t@0@=+%+2%:.!. @X*=+X*o+$+o+p+:.=+-+%+`@-+b+-+%+=+%+-+-+b+o+ @ @_.].8+:+2-",
"w%[+4+,.-@_. @_._.P$=+S*X@%+-+R@%+-+-+%+-+d@ @b+=+%+(#=+X*X*q+E+_.$+=+S*b+Q*t@(#A+m+%+X@X@u@n'h'o't,=#h m `@`@-+Z$3+|+&$.@j'[ [ [ [ [ [ [ [ [ b'`@%@4+:+&%2#=#u@D@2#p'W,q'r'e$%+D@X@(#%@o+(#S*b+0@b+b+=+4.;. @o+X*X*o+d@ @b+m++@=+=+=+=+=+b+%+R@%+=+o+b+o+=+$+:.'.` s't'",
"C.<+2+;.3.:. @$+d@$+0@X*-+%+-+-+d S*-+X@b+_.@@b+=+=+X*P$d@ @L#E+_.X*$+X*0@Q*(#X*Z$@@b+%+D@D@g'u'v'w'q@p@Z@G+`@b+C+7+|+f%.@j'[ [ [ [ [ [ [ [ [ x'%+D+H.|+%+`@X@t@%+t@w>y'z'#'q@=#d+r@%+D+P$=+b+o+b+b+=+_.$@)._. @X*X*o+ @o+-+<._. @o+P$_._.=+R@-+-+b+$+(#b+=++@<.;...}+t'",
"_+A'2+;.#@:.o+ @_.d@X*$+X*-+b+-+%+b+-+-+=+m+h X@=+$+P$_.o+X*q+E+_.P$d@=+S*(#0@X*E+&$R@%+D@D@t*T,B'w'q@o@m G+r@%+!.v+|+a+a+j'[ [ [ [ [ [ [ [ [ C'%+9+B.|+-+`@t@(#0@t@D'y'E'F';-r@2#D@`@a.=+=+S*o+%+=+X*_.L#;.P$X*o+o+$+ @b+&%-% @=+=+X*0,N$o+b+=+-+=+=+b+b+=+=+&$E+s+[+2-",
"6+'&(.!.#@:.@@ @$+=+=+$+=+S*=+-+%+S*%+b+ @e%-+=+ @_.q+A+_.+@/.B+ @X*_.o+b+S*0@b+c+@@-+%+%+D@t*T,G'H'e$l h `@u@%+c+Z _+b+1%j'[ [ [ [ [ [ [ [ [ C'&%%.H.|+-+X@S*-+%+o>I'y'E'J';-d+u@r@r@%@b+=+-+ @b+=+=+$+$@;.F+ @!._.$+o+o+%+G+:.=+=+(#P$N$o+b+a+b+=+b+o+ @o+ @_.A+W%u$0+",
"K'|+;.a.B+W%:.&$+@=+=+o+o+b+S*X@%+t@%+b+$@a+b+o+:.q+L'<%q+-@>.E+!.c+E+#+3.B+E+:.3._.-+t@%+r@t*M'U,t,=#Z@Z@h e%-+#@O*|+O=&$N'[ [ [ [ [ [ [ [ [ O'%+>.C.^,-+(#b+X@%+=#P'Q'R'#'7$u@G+Z@r@0+o+;.$@5.;.c+c+;.B+@.n+L#;.>.:.$+o+-+&%c+o+b+b+q+:. @X*o+ @=+=+ @o+o+:.q+;.A+4+<+",
"!+d%2+$.B+q+_. @ @=+=+ @ @=+(#b+b+%+(#d@B+ @=+ @q+b.8.m+#@>.;.w$8.4+..0.s+L'6+ @B+q+b+Q*-+G+l+S'T'U't@m Z@u@`@%+3.v+|+a+.@N'[ [ [ [ [ [ [ [ [ V'e%%.G.[+-+Q*b+%+X@X@I'W,W'X'l#u@D@`@u@0+ @r+#.t'8*5-@.*.8+;...3.2.;.>.<.$+-+`@!._.=+=+_. @=+=+P$ @=+o+:.o+&$:.L#)...[+Y'",
"Q$/>0+0.3.4._._.$+o+o+=+=+b+b+(#X*2%2%q+B+ @o+_.3.>.(.A+@.0+B+;.2+b.@.Z L'2+@.Q$C+q+-+(#b+t@S&Z'`' )t@m G+`@t@X@c+v+|+ @@@N'[ [ [ [ [ [ [ [ [ m--+9+C.<+%+X@X@u@u@D@%;W,.)X'2#`@%+%+`@0+<...>-*.2-8*A&e.]&a.0+..A+n+>.3.=+b+d ;._.=+=+=+o+b+=+F+o+ @ @o+$+ @_.$@=.;... @",
"5+..>.>.3.$@:.:. @ @+@ @ @o+=+X* @b+b+:.B+@@o+q+m+q+c+>.b.c+A++)@.$.8+L'^-A&s+L#C+m+u@X@S*u@k#@)#)$)t@G+Z@%+%+X*'&3+|+f%*%N'[ [ [ [ [ [ [ [ [ %)o##.#-}+-+%+u@G+G+r@&)*)=)-)Z@t@(#-+`@=.:.9+$.I;L'Z e;$.^-9+A+3.A&;.3.$+_.=+d ;.q+o+=+X*=+b+b+ @=+o+b+b+ @&$q+#@;.A&6+>.",
"4+9+c+!.#@L#L#L#_.X*b+=+ @_._. @_.+@=+:.#@o#b+q+#@c+9+=.;)<.3.'&n+Q$#@A+c+c+E+-%(.=+G+t@u@Z@q@>),)')%+u@G+-+%+=+C+v+G.a+(.N'[ [ [ [ [ [ [ [ [ ))=+>.4+1+p+-+X@`@G+=#!)q=~){)o@`@(#`@u@a.&%c+G>B+$@a-c+E+!.E+/.])<%..B+L#P$o+u@C+L# @X*o+ @=+-+=+p+2%-+b+o+q+$@3.A+B+$.A&",
"4+$.E+B+$@$@#@L#_.|'=+=+ @_._. @ @ @ @q+$@y#I@l+y#$$_.B+c+#+#+;.0+0+#+N=D+9+r+;.!.&%u@%+G+l %+^)/)()%+`@%+b+-+=+C+6+(.e%=@N'[ [ [ [ [ [ [ [ [ ))+@_...1++@%+-+D@u@%+l$[-_)<-h d -+D@h G>A+;.u+N=a.0+=.0+a.%@0+;.%@3.I#t*l%:)h&3.$@ @=+=+ @ @o#-+p+o+=+ @_.q+q+$@B+E+ .a.",
"#&>.E+3.#@3.3.$@i, @_._.o+o+o+o+=+ @_.L#;..@p+-+-+u@J*5@{%$$7%y#<$;-z#;-J#T&<)[)p@e%`@-+Z@=+})D*_'L-=+%+b+=+b+X*E+,. #%+(.N'[ [ [ [ [ [ [ [ [ |) @`@(.4+X*-+t@r@t@X*M;1)2)3)(.`@D@G+u@t@4)5)6)2#T&y#J*$$&=,&l+J&t*l+R &%-+D@u@0+$@ @ @d@P$F+a+p+a+ @=+a+_.m+q+/.3.A+ .a.",
"O*@.C+E+A+#@#@$@:._.q+q+_.o+=+ @=+o+_.O$,..@=+b+(#b+`@d+%+u@Z@G+%+-+-+$+b+X*X*%+-+%+`@%+Z@o+7)8)N=;.=+%+=+X*X*o+C+%.b+-+(.N'[ [ [ [ [ [ [ [ [ 9)b+o#c+H.=+b+S*u@u@X*0)a)y%b)c+h G+G+m (#%+%+t@D@t@b+D@Z@u@`@b+b+b+X@-+=+=+b+%+9+L#P$_.:.:._.a+=+ @_.o+&$_._.q+n+3.;.s+%.",
"G...C+3.c+#@3.$@_.:.q+L#_.o+ @_. @P$P$N$;.&$e%-+b+b+-+`@=+`@Z@D@`@%+%+=+b+=+=+`@G+b+-+%+`@_.O,c)D+!.=+-+=+X*o+o+C+>.X*b+2.d)[ [ [ [ [ [ [ [ [ e)=+b+A+C.=+=+b+t@u@X*{;O,..O,,.%+u@u@D@G+`@%+%+u@`@=+-+%+`@-+R@b+ @o+b+o+o+-+-+9+/.q+N$:.W%_.a+o+_.<.@@_.:.(.L#$@3.;.s+#.",
"C...!.3.c+n+/.<.q+_.q+q+q+ @_. @o+_.:.L#;.@@-+b+=+b+=+o#=+%+%+%+o#=+-+=+=+%+u@G+%+b+=+R@-+<.&@f)0+!.=+%+=+ @+@ @;.>.o+=+5.d)[ [ [ [ [ [ [ [ [ g)=+=+,.C.o+b+o+-+`@=+$@8,w$3+!.o#`@%+u@m h D@u@m `@=+-+R@d =+=+ @_.X*b+-+=+X@d a.#@q+L#$@$@:.a+=+$+q+(.<.|'(.L#/.3.;.t+ .",
"C...;.c+n+(.(.L#L#_.q+L#q+_._._._. @N$L#).f%-+2%o+o+=+ @o+o#a -+b+o#o#R@-+u@Z@`@-+-+=+=+=+<.3+:+K%8.+@=+=+ @ @|';.9+_.=+{.d)[ [ [ [ [ [ [ [ [ h)f%+@'.C.o+=+ @a+`@=+/.u+w$7+A+D@D@`@d `@-+l u@u@%+b+-+=+-+o#o# @=+S*b+t@b+-+`@9+#@q+L#$@3.(. @a+o+:.q+L#q+$@-@-@].;.5+..",
"G.u+L-3.n+L#L#$@L#N$1@L#L#:.:.q+W%:.N$O$;.f%-+=+ @ @b+&$ @=+-+`@-+o#=+=+-+u@D@%+-+R@=+o+a+(.4+c)D+=.@@=+$+_. @ @;.#.:.&$,.i)[ [ [ [ [ [ [ [ [ h)=++@,._+_. @|'o+=+o+/.j)..#&!.-+d d s@d r@Z@h -+b+o+-+o#-+o#o# @$+S*b+=+%+-+`@9+3.W%4.$@B+(. @o+d@L#n+n+$@3.c+n+c+;.5+..",
"C. .;.3.$@L#Q$#@u$4.$@L#1@:.<.W%L#L#:.$@;..@-+=+o+o#-+ @ @+@%+h h o#+@=+=+d d -+%+%+-+b+o+L#4+:+a.;.:.o+_.q+:.F+;.$.:.&$,.i)[ [ [ [ [ [ [ [ [ h)=+ @;.:+_.o+ @$+_.q+B+u+w$#&;.+@=+=+-+R@s@`@e%o#=+b+-+=+-+o#o#%+=+`@o#b+%+-+h 9+3.L#L##@B+(.m+<.m+(./.n+3.3.3./.3.;.v+s+",
":+5+0+!.3.$@$@n+/.L#$@$@$@:.L#u$u$(.L#$@0+h%=+ @b+%+b+X*=+=+=+g d o#+@=+=+b+%+%+-+=++@=++@(.$.u+!.;.<.&$_.<._.<.0+..<.:.,.i)[ [ [ [ [ [ [ [ [ k)@@_.;.G.m+ @:.M+q+q+A+..=.b.!. @ @=+=+R@-+h `@%+=+=+-+=+=+=+=+R@o#d -+-+-+-+l 9+B+L#$@$@#@L#:.L#(.$@/.$@/.#@#@3.E+0+4+#&",
"<+4+9+;.A+3.#@#@/.#@#@3.#@L##@$@(.$@$@3.;.p+a+a+=+=+b+o+=+=+o#o#R@=+=+=+%+=++@o#-++@&$o++@(.u+;.c+,.<.i,:.q+:.$@0+#.(.<.,.i)[ [ [ [ [ [ [ [ [ l)<.<.;.C.q+m+q+M+q+(.A+;.=@a.!. @:._. @o+b+-+o#`@m)+@=+o++@|'$++@=+R@=++@=+o+%+!.!.$@L##@#@L#(././.3.].c+#@#@A+!.!.r+H.#&",
"[+2+@.=.;.;.C+E+E+B+B+A+A+3.3.3.#@#@3.;.p+=+=+ @=+o+=+&$o+=+=+a +@+@+@=+=+=+=+o#o+ @:..@)#(.w$n)2.;.(.:.1@-@:.1@a...=@<.,.i)[ [ [ [ [ [ [ [ [ o)<.<.;.C.q+_.:.q+:.q+3.,.V 9+<%z%_._.:._.o+o+=+b+&$ @&$ @i,i,|'$+ @ @+@&$=+_. @b+L-c+3.B+E+].3.3.A+E+C+C+;.!.;.).).9+|+#-",
"(+#-s+6+u+....w$..w$w$>.9+>.>.>.9+a.9+<.m+<.<.(.:.<.<.(.<.:.:.:.:.<.<.<.<.:.:.:.:.<.(.=@*%,.s+b.@.L#L#<.-@/.L#:.>. .(.<.=.i)[ [ [ [ [ [ [ [ [ p)=@<.a.}+_.:.q+:.:.$@L#>.$.u+0+f%(.$@L#<.m+:.-@q+(.(.q+(.-@(.:.<.(.(.(.(.(./.5./._.9+N=9+B->.9+9+w$w$w$......u+s+5+ ,:+H.",
"q) .r)L-L-B+{;L#Q$3.A+C+B+'&3.3.3.O$(.;.4+_+<+[+x+<+|+|+}+_+|+|+}+}+}+}+_+|+:+#-O*s+8+Z 5+s+0+C+<.$@3.].c+A+0.2. .` (.<.=.i)[ [ [ [ [ [ [ [ [ p)<.s)=.:+ @!.;.#@n+c+n+(.#+C+..8+4+4+5+v+H.C.}+<+y+|+|+x+[+<+<+x+y+<+|+:+|+|+}+C.9+M;q+N$u$O$O$L#u$L#$@3.'&C+A+L-;.a.w$A'",
"t.U./+Z.Z.Z.t)u)u)z+u)u)u)z+v)z+u)z+w)z+t)Z.t){+x)!+q)]+q)u)z+u)z+u)]+Z.Z.Z.u)u)z+u)u)q)u)z+u)q)u)Z.{+~+!+Z.Z.y)z)..$@/.%.i)[ [ [ [ [ [ [ [ [ A)/./.r+B)C)t)Z.{+D){+Z.t)u)A'A'A'z+u)u)q)Z.{+t)u)]+]+u)u)u)u)q){+!+Z.t)Z.t)Z.q)u)A'E)F)A'u)u)Z.t)u)u)u)u)G)~+~+H)`.R.X.I)",
"J)z+K'x+|+|+:+I.I.w+w+C.C.3+3+K)w+w+w+I.w+4+C.I.:+1+C.C.C.H.3+w+C.I.:+I.I.I.L)L)C.C.C.C.w+w+C.C.4+6+O,M)w+w+a)N)O)P)%@>.Z i)[ [ [ [ [ [ [ [ [ Q)A&%.B-R)S)T)O,4+M)B.L)w+M)4+3+t+3+4+I.L)w+C.C.w+L)w+K)3+3+4+w+C.I.I.C.I.B.C.I.I.M)3+U)V)I.W)I.I.I.#-w+w+C.:+|+:+|+(+u)Z.",
"p+d h m X)j S G+o@S S z%o@s*j+T Z@l l l z%x f;l l z%p p P L s*x P i+Z@p@o@o@S S R j+P j+P j+z j+z j+j+Q S z%o@T  #i+Q j+U*P=[ [ [ [ [ [ [ [ [ Y)2&Q .#D$`+i+I+j+M P %=.#.#1#.#Z)M P S `)t p@o@q@o@.#P P x f;Q j+U*U*.#P D$U*p@Z@Z@o@i+g&h `@m h d z%o@o@X)o@;@ !U g%p+o#",
".!+!@!#!#!{-$!$!%!%!$!&!&!*!%!#!=!-!;!>!,!'!)!%!!!{-%!)!~!'!{!]!^!~!%!{-{-{-%!{-%!^!/! !/!(!(!(!*!)!)!%!{-&!_!{-{-{-$! !:!x-[ [ [ [ [ [ [ [ [ <!%!$!$!,!,!,!)!^![!}!)!/!|!,!)!(!1!^!*!2!)!%!{-{-{-*!(!^!^!)!,!)!,! !1!/!(!)!*!{-{-{-{-#!+!+!#!+!3!4!;!;!;!{-&!5!6!6!7!8!"};
