/* XPM */
static char * so_door14_tex_xpm[] = {
"132 132 1453 2",
"  	c #2D3741",
". 	c #2E3841",
"+ 	c #2D3640",
"@ 	c #2D3641",
"# 	c #2D3842",
"$ 	c #2E3944",
"% 	c #2E3943",
"& 	c #2F3A45",
"* 	c #2E3842",
"= 	c #2F3B46",
"- 	c #2F3944",
"; 	c #2F3A46",
"> 	c #303C46",
", 	c #303B46",
"' 	c #303C47",
") 	c #303A45",
"! 	c #313D4A",
"~ 	c #313E4A",
"{ 	c #323E4A",
"] 	c #323F4A",
"^ 	c #313D48",
"/ 	c #35393C",
"( 	c #393939",
"_ 	c #303B45",
": 	c #323F4B",
"< 	c #313D49",
"[ 	c #303C48",
"} 	c #2E3843",
"| 	c #2E3A44",
"1 	c #2E3942",
"2 	c #2C363F",
"3 	c #243543",
"4 	c #243443",
"5 	c #243342",
"6 	c #253544",
"7 	c #253646",
"8 	c #253645",
"9 	c #243544",
"0 	c #253545",
"a 	c #263746",
"b 	c #273847",
"c 	c #263645",
"d 	c #273645",
"e 	c #283847",
"f 	c #283948",
"g 	c #293A49",
"h 	c #283949",
"i 	c #273848",
"j 	c #293B4A",
"k 	c #293949",
"l 	c #293B4B",
"m 	c #293A4A",
"n 	c #2A3B4B",
"o 	c #2A3B4A",
"p 	c #2B3D4C",
"q 	c #2C3F4F",
"r 	c #2D3F4F",
"s 	c #2C3F50",
"t 	c #2D4151",
"u 	c #2C3D4C",
"v 	c #33393E",
"w 	c #2B3C4B",
"x 	c #2A3C4B",
"y 	c #293C4B",
"z 	c #2D4050",
"A 	c #283848",
"B 	c #283A49",
"C 	c #273948",
"D 	c #273947",
"E 	c #263846",
"F 	c #253746",
"G 	c #243341",
"H 	c #17232D",
"I 	c #17222D",
"J 	c #18222D",
"K 	c #18242D",
"L 	c #18242E",
"M 	c #17242D",
"N 	c #192530",
"O 	c #19242F",
"P 	c #1A2630",
"Q 	c #1A2732",
"R 	c #1A2631",
"S 	c #1A2833",
"T 	c #18252F",
"U 	c #1B2833",
"V 	c #1B2834",
"W 	c #1A2733",
"X 	c #1B2934",
"Y 	c #1C2934",
"Z 	c #1C2A35",
"` 	c #1C2A36",
" .	c #1D2A36",
"..	c #1D2B38",
"+.	c #1E2D39",
"@.	c #1F2F3C",
"#.	c #1F2E3B",
"$.	c #1F2E3A",
"%.	c #1F2C39",
"&.	c #313437",
"*.	c #303337",
"=.	c #1F2C38",
"-.	c #1E2C38",
";.	c #1C2B37",
">.	c #1D2D3A",
",.	c #1D2B37",
"'.	c #1C2935",
").	c #1B2733",
"!.	c #1B2933",
"~.	c #1A2632",
"{.	c #1A2731",
"].	c #192631",
"^.	c #192630",
"/.	c #19252F",
"(.	c #070C11",
"_.	c #070B10",
":.	c #070D11",
"<.	c #070D12",
"[.	c #070C10",
"}.	c #080D12",
"|.	c #070D13",
"1.	c #080E12",
"2.	c #080E13",
"3.	c #080F14",
"4.	c #080D13",
"5.	c #080E14",
"6.	c #090E14",
"7.	c #091015",
"8.	c #09131B",
"9.	c #091C2B",
"0.	c #0F1E29",
"a.	c #131F27",
"b.	c #131E27",
"c.	c #131C24",
"d.	c #2F3031",
"e.	c #2E2F31",
"f.	c #131E26",
"g.	c #141F28",
"h.	c #121E27",
"i.	c #091C29",
"j.	c #08151F",
"k.	c #081015",
"l.	c #090F14",
"m.	c #090F15",
"n.	c #0C141A",
"o.	c #0B1218",
"p.	c #0B1319",
"q.	c #0D151B",
"r.	c #0C141B",
"s.	c #0B131A",
"t.	c #0D151C",
"u.	c #0E171E",
"v.	c #0C151B",
"w.	c #0A1117",
"x.	c #0A1116",
"y.	c #0C1319",
"z.	c #0E1821",
"A.	c #0F1E2A",
"B.	c #192733",
"C.	c #20303E",
"D.	c #223341",
"E.	c #303336",
"F.	c #2F3236",
"G.	c #21313F",
"H.	c #223340",
"I.	c #101E28",
"J.	c #0E1A23",
"K.	c #0B151B",
"L.	c #0A1218",
"M.	c #0F161E",
"N.	c #0E161D",
"O.	c #0D161C",
"P.	c #0E171D",
"Q.	c #0F181F",
"R.	c #0B141A",
"S.	c #121D25",
"T.	c #121C25",
"U.	c #131D26",
"V.	c #121D26",
"W.	c #131D27",
"X.	c #142028",
"Y.	c #14202A",
"Z.	c #142029",
"`.	c #16212B",
" +	c #15222C",
".+	c #15212B",
"++	c #16222B",
"@+	c #182530",
"#+	c #192732",
"$+	c #21313E",
"%+	c #21323F",
"&+	c #1C2B36",
"*+	c #233644",
"=+	c #1E303F",
"-+	c #293C4C",
";+	c #233340",
">+	c #313438",
",+	c #2F3337",
"'+	c #263947",
")+	c #283B4A",
"!+	c #192834",
"~+	c #263B4B",
"{+	c #1F2F3B",
"]+	c #1D2C38",
"^+	c #20313E",
"/+	c #22333F",
"(+	c #1E2E3A",
"_+	c #192731",
":+	c #16222C",
"<+	c #15212C",
"[+	c #16232D",
"}+	c #15202A",
"|+	c #131F28",
"1+	c #1B2A35",
"2+	c #1B2A36",
"3+	c #1A2934",
"4+	c #182631",
"5+	c #1B2935",
"6+	c #1F303C",
"7+	c #243644",
"8+	c #273949",
"9+	c #283B4B",
"0+	c #2A3E4E",
"a+	c #2C4253",
"b+	c #243847",
"c+	c #1E2E3B",
"d+	c #283C4C",
"e+	c #2A3F4F",
"f+	c #243442",
"g+	c #313538",
"h+	c #303438",
"i+	c #283A4B",
"j+	c #293D4D",
"k+	c #273B4C",
"l+	c #2D4253",
"m+	c #2B4050",
"n+	c #2B3F4F",
"o+	c #2B4051",
"p+	c #2A3E4D",
"q+	c #263948",
"r+	c #20303D",
"s+	c #202F3B",
"t+	c #21303E",
"u+	c #20303C",
"v+	c #1C2B38",
"w+	c #1D2C39",
"x+	c #192632",
"y+	c #263744",
"z+	c #2C4151",
"A+	c #2C4152",
"B+	c #2A3F4E",
"C+	c #2E4354",
"D+	c #2E4455",
"E+	c #2D4353",
"F+	c #2F4456",
"G+	c #2D4354",
"H+	c #2D4454",
"I+	c #32485A",
"J+	c #324A5C",
"K+	c #32495B",
"L+	c #32495C",
"M+	c #31485B",
"N+	c #31485A",
"O+	c #2C4354",
"P+	c #1E303E",
"Q+	c #1E2D3A",
"R+	c #293E4E",
"S+	c #2A3E4F",
"T+	c #2E4557",
"U+	c #263C4C",
"V+	c #2A3F50",
"W+	c #323639",
"X+	c #303539",
"Y+	c #2B4153",
"Z+	c #203240",
"`+	c #2D4355",
" @	c #293D4E",
".@	c #2B3F51",
"+@	c #1F2F3D",
"@@	c #293D4B",
"#@	c #344B5E",
"$@	c #314658",
"%@	c #314859",
"&@	c #2F4557",
"*@	c #304658",
"=@	c #2D4252",
"-@	c #2B4151",
";@	c #2B3F50",
">@	c #2C4051",
",@	c #233342",
"'@	c #243746",
")@	c #223442",
"!@	c #233543",
"~@	c #1E2C39",
"{@	c #2E4355",
"]@	c #2E4353",
"^@	c #2B4152",
"/@	c #304759",
"(@	c #344C5F",
"_@	c #2D4457",
":@	c #1E313F",
"<@	c #243745",
"[@	c #233443",
"}@	c #2A3D4E",
"|@	c #2E4558",
"1@	c #2E4659",
"2@	c #294052",
"3@	c #293E4F",
"4@	c #2B4052",
"5@	c #273745",
"6@	c #32363A",
"7@	c #30353A",
"8@	c #293D4C",
"9@	c #2C4355",
"0@	c #213443",
"a@	c #2F4558",
"b@	c #223240",
"c@	c #374F62",
"d@	c #2E4456",
"e@	c #2F4457",
"f@	c #2D4455",
"g@	c #2B3E4F",
"h@	c #253846",
"i@	c #223441",
"j@	c #233444",
"k@	c #243645",
"l@	c #273A49",
"m@	c #253847",
"n@	c #304558",
"o@	c #2E4457",
"p@	c #2D4152",
"q@	c #30485B",
"r@	c #31495D",
"s@	c #2D4659",
"t@	c #1F3342",
"u@	c #223543",
"v@	c #223542",
"w@	c #2D4557",
"x@	c #30475A",
"y@	c #2B4254",
"z@	c #2C4254",
"A@	c #273846",
"B@	c #33373B",
"C@	c #30363B",
"D@	c #213343",
"E@	c #2F4659",
"F@	c #2A4052",
"G@	c #2C4153",
"H@	c #213240",
"I@	c #223645",
"J@	c #31485C",
"K@	c #30485A",
"L@	c #31495C",
"M@	c #31475A",
"N@	c #2E4658",
"O@	c #273A4A",
"P@	c #233645",
"Q@	c #334A5C",
"R@	c #304557",
"S@	c #2D4254",
"T@	c #304659",
"U@	c #32495D",
"V@	c #324A5E",
"W@	c #1B2F3D",
"X@	c #2A3F51",
"Y@	c #293E50",
"Z@	c #30373C",
"`@	c #203341",
" #	c #32495E",
".#	c #1A2B38",
"+#	c #30495C",
"@#	c #324A5D",
"##	c #334B5E",
"$#	c #2F4658",
"%#	c #374E62",
"&#	c #253848",
"*#	c #233646",
"=#	c #243646",
"-#	c #273A4B",
";#	c #344A5D",
">#	c #304657",
",#	c #314759",
"'#	c #334A5E",
")#	c #344C60",
"!#	c #324B5F",
"~#	c #334C61",
"{#	c #2E485B",
"]#	c #1D3140",
"^#	c #263A49",
"/#	c #253949",
"(#	c #2D4356",
"_#	c #33373C",
":#	c #30373D",
"<#	c #1F303F",
"[#	c #1D2E3B",
"}#	c #334A5D",
"|#	c #344D61",
"1#	c #375063",
"2#	c #273B4B",
"3#	c #263A4A",
"4#	c #283B4C",
"5#	c #293C4D",
"6#	c #314758",
"7#	c #334B5F",
"8#	c #334C60",
"9#	c #344D62",
"0#	c #314A5F",
"a#	c #1F3241",
"b#	c #2D4357",
"c#	c #34383D",
"d#	c #31383F",
"e#	c #1F303E",
"f#	c #1E2F3D",
"g#	c #324A5F",
"h#	c #30475B",
"i#	c #344D60",
"j#	c #354E61",
"k#	c #354D61",
"l#	c #344E62",
"m#	c #354D62",
"n#	c #385164",
"o#	c #233442",
"p#	c #283D4C",
"q#	c #283A4A",
"r#	c #344C5E",
"s#	c #324C5F",
"t#	c #2F485C",
"u#	c #1F3140",
"v#	c #1A2834",
"w#	c #2E4458",
"x#	c #34393D",
"y#	c #31393F",
"z#	c #1E303D",
"A#	c #2D4558",
"B#	c #2C4052",
"C#	c #314A5E",
"D#	c #344C61",
"E#	c #354E62",
"F#	c #354E63",
"G#	c #385165",
"H#	c #233544",
"I#	c #253948",
"J#	c #263848",
"K#	c #293B4C",
"L#	c #334B5D",
"M#	c #334D61",
"N#	c #2F495D",
"O#	c #203140",
"P#	c #35393D",
"Q#	c #313940",
"R#	c #2A4051",
"S#	c #233746",
"T#	c #3A5368",
"U#	c #2A3D4D",
"V#	c #233341",
"W#	c #2C4252",
"X#	c #334B60",
"Y#	c #2F475B",
"Z#	c #253947",
"`#	c #233545",
" $	c #1C2B39",
".$	c #2B4154",
"+$	c #2D4456",
"@$	c #243846",
"#$	c #395367",
"$$	c #344B60",
"%$	c #1E3140",
"&$	c #253747",
"*$	c #283E4F",
"=$	c #35393E",
"-$	c #313A41",
";$	c #293D4F",
">$	c #1B2C39",
",$	c #30465A",
"'$	c #375064",
")$	c #273B4A",
"!$	c #33495B",
"~$	c #17242E",
"{$	c #203444",
"]$	c #2F475A",
"^$	c #353A3E",
"/$	c #313A42",
"($	c #182734",
"_$	c #223544",
":$	c #18242F",
"<$	c #283C4B",
"[$	c #1D2D39",
"}$	c #1C2C39",
"|$	c #314C60",
"1$	c #2B475C",
"2$	c #213D51",
"3$	c #243E50",
"4$	c #17242F",
"5$	c #1D2E3C",
"6$	c #253B4D",
"7$	c #253E52",
"8$	c #2A465A",
"9$	c #1E2F3B",
"0$	c #1D2E39",
"a$	c #1F303D",
"b$	c #1C2C38",
"c$	c #2E4352",
"d$	c #2B3E4E",
"e$	c #30485C",
"f$	c #37546B",
"g$	c #1F4965",
"h$	c #1A74A2",
"i$	c #2A495E",
"j$	c #2A4153",
"k$	c #1A2935",
"l$	c #323B43",
"m$	c #1A2A36",
"n$	c #1C2D3A",
"o$	c #2C4659",
"p$	c #2A5B7B",
"q$	c #265F82",
"r$	c #305069",
"s$	c #365064",
"t$	c #233542",
"u$	c #22323F",
"v$	c #1F2E39",
"w$	c #1E2D38",
"x$	c #20313D",
"y$	c #20303B",
"z$	c #1D2C37",
"A$	c #355065",
"B$	c #1D4864",
"C$	c #127BB7",
"D$	c #2A4A61",
"E$	c #2C4356",
"F$	c #283E4E",
"G$	c #1B2B38",
"H$	c #2E4A5E",
"I$	c #286388",
"J$	c #246287",
"K$	c #2F4E66",
"L$	c #202F3A",
"M$	c #253745",
"N$	c #1B2A34",
"O$	c #202F3C",
"P$	c #233440",
"Q$	c #1D2C36",
"R$	c #21303B",
"S$	c #21313D",
"T$	c #21333F",
"U$	c #385268",
"V$	c #1E4864",
"W$	c #137BB9",
"X$	c #2B4B61",
"Y$	c #273C4C",
"Z$	c #303941",
"`$	c #2F4A5E",
" %	c #296489",
".%	c #236389",
"+%	c #2F4F66",
"@%	c #30485D",
"#%	c #233441",
"$%	c #21303D",
"%%	c #1F2D39",
"&%	c #243542",
"*%	c #21303C",
"=%	c #1E4966",
"-%	c #0F7CC1",
";%	c #2B4A61",
">%	c #283D4D",
",%	c #2B404F",
"'%	c #363A3D",
")%	c #313B43",
"!%	c #28658A",
"~%	c #23668D",
"{%	c #2F5067",
"]%	c #2E475A",
"^%	c #334C5F",
"/%	c #233643",
"(%	c #223440",
"_%	c #263745",
":%	c #2E4253",
"<%	c #385368",
"[%	c #1F4966",
"}%	c #0E7DC4",
"|%	c #2C4B62",
"1%	c #36393D",
"2%	c #313A43",
"3%	c #2A6488",
"4%	c #22668F",
"5%	c #2F5069",
"6%	c #2A3E50",
"7%	c #365267",
"8%	c #1E4765",
"9%	c #1279C2",
"0%	c #2D4A61",
"a%	c #303A44",
"b%	c #2A668B",
"c%	c #216690",
"d%	c #2F526B",
"e%	c #2C4456",
"f%	c #32485B",
"g%	c #365167",
"h%	c #1277C2",
"i%	c #2F485D",
"j%	c #2B658A",
"k%	c #206692",
"l%	c #30526B",
"m%	c #31495E",
"n%	c #293F4F",
"o%	c #293F50",
"p%	c #233745",
"q%	c #354F65",
"r%	c #1E4967",
"s%	c #107AC4",
"t%	c #2E4C63",
"u%	c #363A3E",
"v%	c #313B45",
"w%	c #293E4D",
"x%	c #1B2B36",
"y%	c #2F495E",
"z%	c #2B658C",
"A%	c #1F6693",
"B%	c #30536D",
"C%	c #2C4457",
"D%	c #344F64",
"E%	c #0F7BC7",
"F%	c #2D4C63",
"G%	c #2F3A43",
"H%	c #2C658B",
"I%	c #1F6692",
"J%	c #30526C",
"K%	c #2D4458",
"L%	c #283C4D",
"M%	c #26394A",
"N%	c #1E4763",
"O%	c #0F7AC6",
"P%	c #2C4C63",
"Q%	c #2F4A5F",
"R%	c #21668F",
"S%	c #2F5169",
"T%	c #2C4255",
"U%	c #2A4050",
"V%	c #283D4E",
"W%	c #204763",
"X%	c #0F7CC6",
"Y%	c #303B44",
"Z%	c #216790",
"`%	c #2A4152",
" &	c #1F4763",
".&	c #0E7DC5",
"+&	c #2C4D64",
"@&	c #2F3B45",
"#&	c #2B4253",
"$&	c #304A5F",
"%&	c #22658F",
"&&	c #2F4759",
"*&	c #1F4864",
"=&	c #0D7EC7",
"-&	c #2D4E65",
";&	c #2B6386",
">&	c #23648C",
",&	c #1D445F",
"'&	c #127CBC",
")&	c #2B4B62",
"!&	c #18252E",
"~&	c #36393C",
"{&	c #2F3A44",
"]&	c #2E4559",
"^&	c #2D475B",
"/&	c #2B6081",
"(&	c #266083",
"_&	c #2B4A60",
":&	c #253A4A",
"<&	c #2A3F52",
"[&	c #1F3A4E",
"}&	c #2A5875",
"|&	c #253F53",
"1&	c #254A62",
"2&	c #224862",
"3&	c #1C3040",
"4&	c #263949",
"5&	c #253A49",
"6&	c #2C4759",
"7&	c #244055",
"8&	c #254F69",
"9&	c #243C4E",
"0&	c #2E3A43",
"a&	c #273E50",
"b&	c #25485E",
"c&	c #254962",
"d&	c #294458",
"e&	c #304758",
"f&	c #1D4561",
"g&	c #1B73A7",
"h&	c #28485F",
"i&	c #37393C",
"j&	c #293F51",
"k&	c #294356",
"l&	c #2A5F80",
"m&	c #255F83",
"n&	c #2C4960",
"o&	c #1D4764",
"p&	c #127BBD",
"q&	c #2A4B62",
"r&	c #2E3A45",
"s&	c #2C475B",
"t&	c #236289",
"u&	c #2E4D65",
"v&	c #1E4A67",
"w&	c #107CC4",
"x&	c #2A4A62",
"y&	c #293E4C",
"z&	c #2E3A46",
"A&	c #2C485D",
"B&	c #29668C",
"C&	c #216590",
"D&	c #1E4866",
"E&	c #107BC4",
"F&	c #2D3A44",
"G&	c #29668A",
"H&	c #206792",
"I&	c #2D4F68",
"J&	c #304859",
"K&	c #1E4A68",
"L&	c #107BC3",
"M&	c #2A4961",
"N&	c #37393B",
"O&	c #2D3943",
"P&	c #2B475B",
"Q&	c #1D4966",
"R&	c #1279BD",
"S&	c #2A485F",
"T&	c #2D3A45",
"U&	c #2B4559",
"V&	c #296386",
"W&	c #236489",
"X&	c #2D4F67",
"Y&	c #2B4252",
"Z&	c #1579B5",
"`&	c #29485E",
" *	c #2B4558",
".*	c #296082",
"+*	c #256083",
"@*	c #2A3D4C",
"#*	c #263B4C",
"$*	c #1D2F3B",
"%*	c #1A384C",
"&*	c #21526E",
"**	c #253E51",
"=*	c #2C3842",
"-*	c #214962",
";*	c #204962",
">*	c #2B4457",
",*	c #1A2A37",
"'*	c #1A3040",
")*	c #2C3742",
"!*	c #1D303F",
"~*	c #1C2E3D",
"{*	c #263845",
"]*	c #17232E",
"^*	c #2C3944",
"/*	c #253A48",
"(*	c #38393B",
"_*	c #2D3B45",
":*	c #15212A",
"<*	c #37393A",
"[*	c #2B3944",
"}*	c #152029",
"|*	c #1F303B",
"1*	c #213442",
"2*	c #213340",
"3*	c #273C4A",
"4*	c #273A48",
"5*	c #38393A",
"6*	c #2C3945",
"7*	c #20313F",
"8*	c #172B39",
"9*	c #182833",
"0*	c #2B3844",
"a*	c #172936",
"b*	c #213647",
"c*	c #253845",
"d*	c #284155",
"e*	c #1B3F56",
"f*	c #255A77",
"g*	c #1F394B",
"h*	c #273B49",
"i*	c #293F4E",
"j*	c #2A3843",
"k*	c #223746",
"l*	c #285773",
"m*	c #1B445D",
"n*	c #223E53",
"o*	c #294357",
"p*	c #1D4159",
"q*	c #1973A8",
"r*	c #24648A",
"s*	c #2B495F",
"t*	c #293642",
"u*	c #275471",
"v*	c #0F7DC0",
"w*	c #1E4964",
"x*	c #264257",
"y*	c #294153",
"z*	c #1D3F56",
"A*	c #1C6F9F",
"B*	c #1E6D9C",
"C*	c #2D536D",
"D*	c #293743",
"E*	c #304D64",
"F*	c #285E81",
"G*	c #0980C9",
"H*	c #1E4863",
"I*	c #264055",
"J*	c #273C4D",
"K*	c #1B3648",
"L*	c #1A72A5",
"M*	c #2D5570",
"N*	c #192833",
"O*	c #2A3844",
"P*	c #24638A",
"Q*	c #147AB2",
"R*	c #1C3E54",
"S*	c #273C4B",
"T*	c #1A3141",
"U*	c #1D3B4F",
"V*	c #285D7C",
"W*	c #2B536D",
"X*	c #293844",
"Y*	c #2F4D65",
"Z*	c #285A78",
"`*	c #1F425A",
" =	c #1A3346",
".=	c #253C4E",
"+=	c #1B394F",
"@=	c #275876",
"#=	c #285A77",
"$=	c #2A4C62",
"%=	c #293845",
"&=	c #2D4A60",
"*=	c #224D68",
"==	c #206A96",
"-=	c #1C4057",
";=	c #253F52",
">=	c #253946",
",=	c #263B4A",
"'=	c #1D3C53",
")=	c #275777",
"!=	c #127DBD",
"~=	c #2C4E65",
"{=	c #1971A8",
"]=	c #216692",
"^=	c #1B3E56",
"/=	c #263E51",
"(=	c #283E51",
"_=	c #1E3D54",
":=	c #265474",
"<=	c #2D5774",
"[=	c #2B465B",
"}=	c #182630",
"|=	c #21323E",
"1=	c #383939",
"2=	c #263641",
"3=	c #2C4559",
"4=	c #2E526D",
"5=	c #1474B3",
"6=	c #236189",
"7=	c #1B3D56",
"8=	c #263C4F",
"9=	c #283F50",
"0=	c #1D3C54",
"a=	c #234E6C",
"b=	c #0782D3",
"c=	c #2B5B7B",
"d=	c #2C485E",
"e=	c #15222A",
"f=	c #263440",
"g=	c #141F27",
"h=	c #2C4458",
"i=	c #2D5470",
"j=	c #0E7ABF",
"k=	c #265B7D",
"l=	c #1A3A4F",
"m=	c #243A4B",
"n=	c #243948",
"o=	c #1E3B50",
"p=	c #1F4C6A",
"q=	c #0382DA",
"r=	c #2A5C7E",
"s=	c #2C4A60",
"t=	c #24323F",
"u=	c #233642",
"v=	c #141E26",
"w=	c #0E7CC3",
"x=	c #275676",
"y=	c #193549",
"z=	c #25394B",
"A=	c #1E3241",
"B=	c #193950",
"C=	c #295F82",
"D=	c #2C4A62",
"E=	c #1E2E39",
"F=	c #1C2933",
"G=	c #151F27",
"H=	c #2B5471",
"I=	c #1A2C3A",
"J=	c #213341",
"K=	c #253A4B",
"L=	c #162936",
"M=	c #1A3447",
"N=	c #2B516C",
"O=	c #2D4B61",
"P=	c #1C2C37",
"Q=	c #333537",
"R=	c #282D32",
"S=	c #284F69",
"T=	c #1E4256",
"U=	c #162733",
"V=	c #162835",
"W=	c #283C4A",
"X=	c #101C25",
"Y=	c #141D26",
"Z=	c #353738",
"`=	c #252E35",
" -	c #24394A",
".-	c #1A2D3A",
"+-	c #172430",
"@-	c #213342",
"#-	c #223443",
"$-	c #203340",
"%-	c #16242E",
"&-	c #182732",
"*-	c #152531",
"=-	c #122C3E",
"--	c #103C55",
";-	c #383839",
">-	c #212F3A",
",-	c #2B4354",
"'-	c #17252F",
")-	c #273D4C",
"!-	c #1C303D",
"~-	c #162C3B",
"{-	c #124361",
"]-	c #11688D",
"^-	c #103447",
"/-	c #35383A",
"(-	c #29343E",
"_-	c #1A2933",
":-	c #1B3140",
"<-	c #153143",
"[-	c #134B6C",
"}-	c #0B729B",
"|-	c #10394F",
"1-	c #35383B",
"2-	c #293640",
"3-	c #2C4558",
"4-	c #273D4E",
"5-	c #213645",
"6-	c #245570",
"7-	c #27455C",
"8-	c #263C4D",
"9-	c #163449",
"0-	c #144D6E",
"a-	c #0A749E",
"b-	c #103B52",
"c-	c #283641",
"d-	c #284255",
"e-	c #263F52",
"f-	c #205371",
"g-	c #233B4D",
"h-	c #233B4C",
"i-	c #127CA8",
"j-	c #274F6C",
"k-	c #263D4F",
"l-	c #153449",
"m-	c #154D6F",
"n-	c #0774A3",
"o-	c #103B53",
"p-	c #29495F",
"q-	c #0E7BAD",
"r-	c #234358",
"s-	c #1B2B37",
"t-	c #243E4F",
"u-	c #0A84B7",
"v-	c #28516F",
"w-	c #273E51",
"x-	c #294051",
"y-	c #1B303F",
"z-	c #153247",
"A-	c #144C6E",
"B-	c #0675A5",
"C-	c #0F3A52",
"D-	c #284256",
"E-	c #283E4D",
"F-	c #2A4B61",
"G-	c #0783B8",
"H-	c #24455B",
"I-	c #0E81B0",
"J-	c #28506C",
"K-	c #153347",
"L-	c #144C6D",
"M-	c #0973A0",
"N-	c #28343F",
"O-	c #274053",
"P-	c #2A495F",
"Q-	c #0C7EAC",
"R-	c #283A48",
"S-	c #233848",
"T-	c #275E7C",
"U-	c #29475D",
"V-	c #1C3141",
"W-	c #153043",
"X-	c #144A6B",
"Y-	c #0975A1",
"Z-	c #103B51",
"`-	c #284154",
" ;	c #275B77",
".;	c #243C4F",
"+;	c #263F51",
"@;	c #1D3241",
"#;	c #152D3D",
"$;	c #144764",
"%;	c #0D7299",
"&;	c #11384D",
"*;	c #35373A",
"=;	c #28323C",
"-;	c #283F51",
";;	c #273F51",
">;	c #16222D",
",;	c #15364A",
"';	c #124D69",
");	c #212F3B",
"!;	c #1B2D3A",
"~;	c #172A3A",
"{;	c #2D373F",
"];	c #1E2C37",
"^;	c #1C2D39",
"/;	c #2F3439",
"(;	c #333639",
"_;	c #1E3749",
":;	c #27526E",
"<;	c #27455B",
"[;	c #2F363C",
"};	c #204A63",
"|;	c #214A60",
"1;	c #1B2E3C",
"2;	c #263847",
"3;	c #2E4759",
"4;	c #224259",
"5;	c #0880D0",
"6;	c #285C7E",
"7;	c #254259",
"8;	c #33363A",
"9;	c #2E343A",
"0;	c #24526F",
"a;	c #088ACD",
"b;	c #254E68",
"c;	c #2A4254",
"d;	c #2F4C62",
"e;	c #285372",
"f;	c #008AE3",
"g;	c #275675",
"h;	c #254156",
"i;	c #2E3439",
"j;	c #283F53",
"k;	c #244E69",
"l;	c #0683D2",
"m;	c #276083",
"n;	c #2F5168",
"o;	c #295979",
"p;	c #0087E2",
"q;	c #265270",
"r;	c #253F54",
"s;	c #17252E",
"t;	c #33373A",
"u;	c #2E353B",
"v;	c #273D4F",
"w;	c #254A63",
"x;	c #0A7ECC",
"y;	c #216997",
"z;	c #294E68",
"A;	c #2B4356",
"B;	c #2B4E66",
"C;	c #266088",
"D;	c #0188DB",
"E;	c #25516E",
"F;	c #263F53",
"G;	c #34373B",
"H;	c #2F353C",
"I;	c #1479B7",
"J;	c #1B71A7",
"K;	c #284E68",
"L;	c #2D475C",
"M;	c #2B4F67",
"N;	c #236692",
"O;	c #117EBB",
"P;	c #234C66",
"Q;	c #274052",
"R;	c #34373A",
"S;	c #2E353C",
"T;	c #26475D",
"U;	c #1D6F9E",
"V;	c #1577B4",
"W;	c #28506B",
"X;	c #2D485D",
"Y;	c #213441",
"Z;	c #2D485B",
"`;	c #2B4F68",
" >	c #226994",
".>	c #256487",
"+>	c #213E51",
"@>	c #2B3F4E",
"#>	c #213A4C",
"$>	c #205571",
"%>	c #137AB1",
"&>	c #274F69",
"*>	c #304D63",
"=>	c #2E495D",
"->	c #27465C",
";>	c #224358",
">>	c #224A66",
",>	c #234258",
"'>	c #1B2B35",
")>	c #264256",
"!>	c #1E4B64",
"~>	c #204157",
"{>	c #24465C",
"]>	c #2E4C61",
"^>	c #244155",
"/>	c #0C7EC5",
"(>	c #23648E",
"_>	c #24435A",
":>	c #16212A",
"<>	c #34383B",
"[>	c #2E363C",
"}>	c #274357",
"|>	c #235572",
"1>	c #0886C7",
"2>	c #23475E",
"3>	c #2F4B60",
"4>	c #26516F",
"5>	c #0083DD",
"6>	c #265C82",
"7>	c #234157",
"8>	c #152129",
"9>	c #2D353C",
"0>	c #264054",
"a>	c #224F6C",
"b>	c #0588D4",
"c>	c #265471",
"d>	c #2F4D63",
"e>	c #0181DA",
"f>	c #255372",
"g>	c #0882CF",
"h>	c #27597A",
"i>	c #2C4C64",
"j>	c #2E516A",
"k>	c #245170",
"l>	c #1774AD",
"m>	c #1E3C51",
"n>	c #2D343B",
"o>	c #1E3546",
"p>	c #206A99",
"q>	c #294D66",
"r>	c #1D2D38",
"s>	c #2A485C",
"t>	c #203E52",
"u>	c #192A38",
"v>	c #172733",
"w>	c #1F3C4F",
"x>	c #28455A",
"y>	c #1F313E",
"z>	c #2C353B",
"A>	c #2C333B",
"B>	c #343739",
"C>	c #2C333A",
"D>	c #15222D",
"E>	c #1D2E3A",
"F>	c #182834",
"G>	c #1E2F3C",
"H>	c #353739",
"I>	c #182632",
"J>	c #162D3D",
"K>	c #17455B",
"L>	c #1D3342",
"M>	c #18384B",
"N>	c #16394E",
"O>	c #23394A",
"P>	c #163E57",
"Q>	c #1A7198",
"R>	c #204054",
"S>	c #2B3239",
"T>	c #253D4F",
"U>	c #255673",
"V>	c #1F5978",
"W>	c #244257",
"X>	c #223342",
"Y>	c #17425D",
"Z>	c #147AAD",
"`>	c #204359",
" ,	c #295D7D",
".,	c #235E7F",
"+,	c #25455B",
"@,	c #184461",
"#,	c #107CB7",
"$,	c #22445B",
"%,	c #2A3239",
"&,	c #2A5E7F",
"*,	c #225F82",
"=,	c #18435F",
"-,	c #107CB8",
";,	c #21445B",
">,	c #2A323A",
",,	c #2A5F7F",
"',	c #235F83",
"),	c #24445B",
"!,	c #18425E",
"~,	c #0F7DBB",
"{,	c #21445C",
"],	c #14212B",
"^,	c #243F53",
"/,	c #295F7F",
"(,	c #236084",
"_,	c #20323F",
":,	c #17415D",
"<,	c #117CB9",
"[,	c #243E52",
"},	c #2A5F7E",
"|,	c #226084",
"1,	c #25394A",
"2,	c #17405B",
"3,	c #147AB1",
"4,	c #204257",
"5,	c #293138",
"6,	c #223C4E",
"7,	c #2A5E7C",
"8,	c #234359",
"9,	c #173D57",
"0,	c #1677AA",
"a,	c #204155",
"b,	c #2A3139",
"c,	c #2A5C79",
"d,	c #255D7D",
"e,	c #214055",
"f,	c #1D2F3D",
"g,	c #17354A",
"h,	c #21607E",
"i,	c #1D394C",
"j,	c #293139",
"k,	c #203646",
"l,	c #204F6A",
"m,	c #1E506B",
"n,	c #1A3345",
"o,	c #182D3B",
"p,	c #1F3E52",
"q,	c #1C2F3D",
"r,	c #1F3340",
"s,	c #1E384B",
"t,	c #1F394D",
"u,	c #1A2B39",
"v,	c #213241",
"w,	c #1A3F57",
"x,	c #1C6A8D",
"y,	c #1D3C4F",
"z,	c #293038",
"A,	c #21394A",
"B,	c #23536F",
"C,	c #1F5471",
"D,	c #27455A",
"E,	c #153F59",
"F,	c #1578A7",
"G,	c #1F4055",
"H,	c #283038",
"I,	c #2A5C7A",
"J,	c #225978",
"K,	c #224258",
"L,	c #263A4B",
"M,	c #16415C",
"N,	c #137AB0",
"O,	c #363739",
"P,	c #233C4E",
"Q,	c #2A5E7E",
"R,	c #235A7A",
"S,	c #253849",
"T,	c #127BB1",
"U,	c #223B4D",
"V,	c #225B7C",
"W,	c #234257",
"X,	c #17425E",
"Y,	c #117CB4",
"Z,	c #20445A",
"`,	c #273037",
" '	c #2B5F7F",
".'	c #235D7E",
"+'	c #107DB7",
"@'	c #272F37",
"#'	c #223A4C",
"$'	c #245C7E",
"%'	c #244359",
"&'	c #107DB9",
"*'	c #20435A",
"='	c #223C4D",
"-'	c #24445A",
";'	c #192730",
">'	c #17405C",
",'	c #363738",
"''	c #272F36",
")'	c #111C23",
"!'	c #233C4D",
"~'	c #2B607F",
"{'	c #235C7F",
"]'	c #163F5B",
"^'	c #127AB7",
"/'	c #204258",
"('	c #262E35",
"_'	c #111B23",
":'	c #235B7E",
"<'	c #224157",
"['	c #152028",
"}'	c #1B2832",
"|'	c #18232C",
"1'	c #153E59",
"2'	c #1379AF",
"3'	c #1E4156",
"4'	c #121C24",
"5'	c #225C7E",
"6'	c #17222B",
"7'	c #17232C",
"8'	c #19252E",
"9'	c #142129",
"0'	c #143D57",
"a'	c #1279A9",
"b'	c #1D4056",
"c'	c #242C33",
"d'	c #223A4B",
"e'	c #2B5E7B",
"f'	c #225B7D",
"g'	c #223F54",
"h'	c #162129",
"i'	c #19262F",
"j'	c #273946",
"k'	c #133A51",
"l'	c #167198",
"m'	c #1C3D51",
"n'	c #232B32",
"o'	c #21384A",
"p'	c #205978",
"q'	c #213C4F",
"r'	c #293B49",
"s'	c #202F3D",
"t'	c #142B3C",
"u'	c #184057",
"v'	c #1B2E3D",
"w'	c #17384E",
"x'	c #294050",
"y'	c #243848",
"z'	c #253C4C",
"A'	c #142430",
"B'	c #232C33",
"C'	c #172835",
"D'	c #1F3749",
"E'	c #182F3E",
"F'	c #263D4E",
"G'	c #263D4D",
"H'	c #233846",
"I'	c #111F2A",
"J'	c #0F1A23",
"K'	c #242C34",
"L'	c #1B2A37",
"M'	c #131F29",
"N'	c #15232D",
"O'	c #12202A",
"P'	c #111C25",
"Q'	c #373738",
"R'	c #232B34",
"S'	c #14212A",
"T'	c #111D25",
"U'	c #232B33",
"V'	c #22313F",
"W'	c #222B33",
"X'	c #373838",
"Y'	c #16232E",
"Z'	c #233240",
"`'	c #222A32",
" )	c #1F2E3C",
".)	c #202A32",
"+)	c #21303F",
"@)	c #23333F",
"#)	c #202931",
"$)	c #1F272E",
"%)	c #111B24",
"&)	c #17222C",
"*)	c #202E3B",
"=)	c #111C24",
"-)	c #0F1920",
";)	c #0F1820",
">)	c #101920",
",)	c #101A20",
"')	c #0E181F",
"))	c #0E161C",
"!)	c #0F171F",
"~)	c #0F1921",
"{)	c #111E28",
"])	c #1E262D",
"^)	c #121F28",
"/)	c #111C26",
"()	c #0D161E",
"_)	c #101A21",
":)	c #101B23",
"<)	c #101B22",
"[)	c #141F29",
"})	c #131E28",
"|)	c #132029",
"1)	c #13222D",
"2)	c #132939",
"3)	c #162530",
"4)	c #1B2229",
"5)	c #142938",
"6)	c #132431",
"7)	c #14222C",
"8)	c #13212A",
"9)	c #132028",
"0)	c #121D27",
"a)	c #25323D",
"b)	c #2B3E4D",
"c)	c #273746",
"d)	c #24333F",
"e)	c #24343F",
"f)	c #24313E",
"g)	c #253440",
"h)	c #23313D",
"i)	c #23313C",
"j)	c #22303C",
"k)	c #23303C",
"l)	c #23313E",
"m)	c #243440",
"n)	c #283845",
"o)	c #253441",
"p)	c #24313F",
"q)	c #263442",
"r)	c #283744",
"s)	c #273643",
"t)	c #263542",
"u)	c #253542",
"v)	c #263643",
"w)	c #263543",
"x)	c #23323E",
"y)	c #25343F",
"z)	c #242F38",
"A)	c #273543",
"B)	c #253541",
"C)	c #243441",
"D)	c #253442",
"E)	c #25333F",
"F)	c #222F3B",
"G)	c #212C39",
"H)	c #232F3B",
"  . + +   @   .   # $ % $ & * . % & & & = & - - - ; ; > & , ' > = = & & ; = & = , ' ) ' ' ' ! ~ { { ] ^ / ( ( ( ( ( ( ( ( ( ( ( ( ( ( ( ( ( ( ( ( ( ( ( ( ( ( ( / _ ' ' { { { : { ~ < , ' ' [ ' , & & } & ' & & & & ; & & & & = & & & & & | % % # 1 % | * * % . * + + 2 ",
"3 4 5 4 6 6 7 8 6 9 0 8 a b a c d e f f g h f e e h h h a i j j h h f h k l m g m n o n o p q r q s t u v ( ( ( ( ( ( ( ( ( ( ( ( ( ( ( ( ( ( ( ( ( ( ( ( ( ( ( v w x y s t z r p p j g o x o h f f i b h x m k h f g A A h k j h A B B C D E F 8 8 8 F c a a 8 6 0 4 G ",
"H I J I K K L L M I I H N N O O O N N P Q Q R R R Q S Q T N U V Q Q W S U V U X Y Z `  .` ..+.@.#.$.$.%.&.( ( ( ( ( ( ( ( ( ( ( ( ( ( ( ( ( ( ( ( ( ( ( ( ( ( ( *.=.-.;.>.+.-.-.,.` '.U Z  .Z ).).U U U !.X U Q Q R ~.R ).Q U U ).{.S S ].^.N N O T L T /.N /.L K L L I ",
"(._.(.(.:.:.<.:.(._.[.(.}.}.<.}.}.}.|.1.2.2.}.2.2.2.2.3.|.4.5.3.5.5.5.3.3.5.2.2.2.5.5.6.3.7.8.9.0.a.b.c.d.( ( ( ( ( ( ( ( ( ( ( ( ( ( ( ( ( ( ( ( ( ( ( ( ( ( ( e.f.g.h.i.j.k.l.l.l.6.5.6.l.l.5.3.3.3.3.l.m.5.2.5.}.4.2.5.5.6.6.5.2.5.5.2.2.2.2.2.4.<.<.2.2.4.<.:.<.<.(.",
"n.o.p.n.n.n.n.n.n.n.q.r.s.n.r.n.n.t.u.r.o.o.p.s.n.p.n.q.n.p.n.t.q.v.n.r.n.p.w.x.l.m.x.y.n.n.z.A.B.C.D.%.E.( ( ( ( ( ( ( ( ( ( ( ( ( ( ( ( ( ( ( ( ( ( ( ( ( ( ( F.G.H.+.I.J.K.L.p.p.o.x.x.L.n.t.u.M.N.v.t.N.u.r.n.r.n.r.O.N.t.r.r.r.q.P.Q.Q.u.N.q.v.n.r.r.n.s.R.n.s.s.p.",
"S.T.T.T.U.U.V.U.f.f.f.b.W.W.W.g.g.X.Y.Z.Z.Z.`. + + +.+.+Z.Z.++H H L @+].#+@+N Z ,.$.$+%+$.&+*+=+;.C -+;+>+( ( ( ( ( ( ( ( ( ( ( ( ( ( ( ( ( ( ( ( ( ( ( ( ( ( ( ,+'+)+*+!+~+{+]+^+/+(++.$.#+S X X U V S _+S I `.:+`..+<+ +H [+++}+Z.X.Z.Z.Z.a.|+g.|+g.X.W.V.S.h.W.W.V.V.",
"1+2+1+3+X X S W U X U ].T T T 4+].S 3+5+` ` ;.` &+` 5+5+S S ` +.+.+.$.6+{+(+$.7+C 8+9+-+0+-+a+b+c+d+e+f+g+( ( ( ( ( ( ( ( ( ( ( ( ( ( ( ( ( ( ( ( ( ( ( ( ( ( ( h+i+j+k+>.l+m+n+o+p+9+q+)+r+s+r+%+t+u+$.+.$.&+2+;.;.v+]+]+w+v+&+5+V S B.x+B.4+].x+;.v+;.3+S 3+5+5+5+3+V ",
"..;...]+]+` V S V 1+y+9+p+z+p+A+B+0+m+C+D+E+F+G+H+G+A+E+A+E+I+J+K+L+M+N+O+P+Q+Z 8+R+S+j+A+D+T+U+H.R+V+y+W+( ( ( ( ( ( ( ( ( ( ( ( ( ( ( ( ( ( ( ( ( ( ( ( ( ( ( X+9+S+Y+Z+G+E+C+`+ @.@j+$.#.+@@@N+#@K+$@%@&@D+E+F+*@F+&@C+D+=@-@m+o+A+;@n+=@=@>@0+p+{+` ;.5+5+3+3+2+` ;.",
",@9 8 8 '@7+)@,@!@)@~@g p+p+9+0+j+e+A+G+G+A+{@G+]@a+A+^@A+A+`+/@/@/@M+(@_@:@<@[@-+e+}@-+e+|@1@2@7+3@4@5@6@( ( ( ( ( ( ( ( ( ( ( ( ( ( ( ( ( ( ( ( ( ( ( ( ( ( ( 7@8@4@9@0@1@T+a@a+0+a+A+b@'+Z+-+c@M+*@a@d@e@D+f@&@/@*@T+d@G+A+m+;@;@.@e+g@A+=@o+y u+!@h@<@i@C.Z+G.j@k@9 ",
"h@q+8+8+8+l@m@q+C m@C.Z >@;@e+o+o+o+A+n@a@F+&@/@&@a@o@`+G+p@&@N+L+q@q@r@s@t@u@v@d+S+S+R+3@w@x@y@k@V+z@A@B@( ( ( ( ( ( ( ( ( ( ( ( ( ( ( ( ( ( ( ( ( ( ( ( ( ( ( C@}@a+z@D@E@x@1@F@-+G@4@H@m@I@d+J@E@K@L@*@*@&@d@/@M@/@M+/@N@d@a+z@a+A+^@4@G+G+*@u+^+8+-+O@'@D.)@P@'@C q+",
"l@O@9+9+O@9+O@8+9+O@7+@.Q@R@e+A+A+o+S@*@M@M+T@U@x@M+x@N@N@a@x@L+V@r@J@V@s@W@Z.v@k+^@4@X@Y@`+J@9@k@4@d@D B@( ( ( ( ( ( ( ( ( ( ( ( ( ( ( ( ( ( ( ( ( ( ( ( ( ( ( Z@.@S@4@`@x@ #T@X@R+T+.@G.w+.#k++#|@M+V@M+@#M+*@L+M+M@##V@r@M+*@$#&@e@a+4@`+F+%#r+k@d+e+-+&#'@*#=#F -#8+",
"-+)+)+9+O@d+-+d+d+O@F G.;#>#A+D+S@A+f@&@,#'#)#'#U@V@r@M+M+M+M+@#'#'#!#~#{#]#4+^#/#4@z@4@4@(#x@y@h@a+`+D _#( ( ( ( ( ( ( ( ( ( ( ( ( ( ( ( ( ( ( ( ( ( ( ( ( ( ( :#4@`+4@<#x@J@&@a+a+T@V+P@Z+[#3@V@/@r@ #V@####}#'#M+M+|#|#)#'#V@@#M+M@&@a+D+&@1#%+'@-+0+2#-#3#^#O@q+4#9+",
"-+9+O@)+9+9+d+-+5#9+m@b@#@6#G+`+&@&@*@M+M+##|#'#U@V@7#V@V@U@r@ #'#7#8#9#0#a#!+O@8+4@|@a@z@`+q@9@q+b#`+B c#( ( ( ( ( ( ( ( ( ( ( ( ( ( ( ( ( ( ( ( ( ( ( ( ( ( ( d#4@o@a+e#1@|@T+z@`+M@A+'@H@f#e+7#g#h#r@7#i#|#j#k#r@M+'#l#m#k#)#)###L+a@S@`+*@n#o#F p#p#O@9+O@O@9+8+4#-+",
"-+-+9+9+q#O@O@d+0+S+4#,@r#N+G+&@M@M+'#(@####'#V@a@M+V@|#!#U@V@!#7#8#7#s#t#u#v#l@F .@|@E@|@N@x@Y+F w#o@y x#( ( ( ( ( ( ( ( ( ( ( ( ( ( ( ( ( ( ( ( ( ( ( ( ( ( ( y#a+o@4@z#A#_@9@_@E@x@B#b+)@P+R+!#'#q@C#l#D#)#E#F#8#r@!#7#l#m#m#|#|#'#&@S@D+*@G#H#C -+d+d+I#m@I#q+J#O@d+",
"8@0+p+-+-+K#8+i+;@o+j+!@L#%@S@G+$#/@@#'##@'#'#K@o@_@E@'#V@J@'#7#U@g#8#M#N#O#v#I#'@ @(#T@o@|@|@F@k@_@|@y P#( ( ( ( ( ( ( ( ( ( ( ( ( ( ( ( ( ( ( ( ( ( ( ( ( ( ( Q#G+N@R#>.9@9@Y+|@J@/@o+S#)@P+e+|#D#r@r@8#)#E#)#m#(@J@J@M+##7#7#8#l###|@z@S@/@T#8 9+0+e+0+j+O@O@O@I#^#d+",
"-+0+j+;@e+U#-+-+e+e+d+V#K+,#W#4@a+z@|@L+@#@###/@d@|@x@V@L+U@!#7#V@!#X#9#Y#u#1+Z#`# @G@a@q@|@_@3@k@T+(#l x#( ( ( ( ( ( ( ( ( ( ( ( ( ( ( ( ( ( ( ( ( ( ( ( ( ( ( d#d@&@V+ $.$9@+$x@x@o@V+@$u@Z+S+l#l#~#8#7#8#)#M+##'#x@L+x@M+@#V@U@r@U@E@S@z@/@#$'@-+A+l+;@e+0+p#l@2#d+0+",
"-+0+j+;@;@e+e+j+2#9+8+,@%@a@A+V+^@^@V++$M+K+L+M+a@|@/@L+/@J@U@V@$$D#~#8#h#%$2+&$F F@G@x@r@M+N@*$!@z@`+x =$( ( ( ( ( ( ( ( ( ( ( ( ( ( ( ( ( ( ( ( ( ( ( ( ( ( ( -$`++$;$>$A#_@|@x@N@$#4@*#[@e# @7#m#|#)#!#!#V@M+)#(@M@x@K@E@L@M+x@,$M+J@(#S@|@'$k@-+o+B#A+V+;@-+2#j+0+e+",
"e+j+j+0+;@e+;@j+2#)$'+o#!$%@V+ @j+w+:+~$].].N T H H L T T ].X h@J@8#V@7#N#{$H#d+m@4@_@]$K@V@q@R#~$F ^@x ^$( ( ( ( ( ( ( ( ( ( ( ( ( ( ( ( ( ( ( ( ( ( ( ( ( ( ( /$G@V+S ($x@E@E@o@`+T+4@I#O@_$;@X#|#|#!#o+w+S B.S S T ~$~$:$].].4+@+1+`+`+j+S@)#H#<$V+W#4@e+0+8@j+o+;@o+",
";@;@j+.@;@g@;@S+-+)$8+k@E r+2+2+2+2+(+$.[$;.[$~@[$}$w+$.c+#.7+#.*@##!#!#|$1$2$3$k+|@E@x@x@J@q@F@4$T ^@U#^$( ( ( ( ( ( ( ( ( ( ( ( ( ( ( ( ( ( ( ( ( ( ( ( ( ( ( -$a+k@~$5$+#x@E@(#B#`+z@6$7$8$V@'#'#7#8#r+H.G.}$9${+[$[$0$>.}$(+^+a$>.G.#.b$u+q+'@0+4@a+A+V+o+;@;@>@o+A+",
"d+0+S+;@m+p+p+e+-+d+8+m@6#8@O@<@%+a$s+c$k@G.u+G.G.(+D.t+C.h@d$l &@M+V@e$7#f$g$h$i$_@E@T@q@T@|@j$k$1+^@p+^$( ( ( ( ( ( ( ( ( ( ( ( ( ( ( ( ( ( ( ( ( ( ( ( ( ( ( l$o+d+m$n$q@N@_@(#a+(#o$p$q$r$s$)#r@J@##t$C+'+#.^+G.t+o##.@.%+k@>@/+^+'@F 9+n+%@-+R+^@z@W#o+A+o+A+;@g@g@",
"8+9+U#o+;@;@e+V+-+d+3#)@>#-+-#m@V#H.u$v$)@8 w$x$!.y$z$Q u$+.j+O@&@h#h#]$!#A$B$C$D$E$_@|@(#(#9@F$m$1+V+d$P#( ( ( ( ( ( ( ( ( ( ( ( ( ( ( ( ( ( ( ( ( ( ( ( ( ( ( /$V+R+b$G$$#_@9@z@9@|@H$I$J$K$!#x@N@e$##'@W#{+u$^.s+v$!.L$Q )@'@t$%+o#M$8+K#n+&@l@0+.@z@A+A+A+A+o+0+0+8@",
")$9+0+o+4@.@;@o+ @d+^#)@%@e+<$k@N$t$H.O$$.M$+.w$P$Q$R$S$Y T$V+m@d@x@h#1@+#U$V$W$X$(#d@z@4@`+4@Y$k$S o+m+P#( ( ( ( ( ( ( ( ( ( ( ( ( ( ( ( ( ( ( ( ( ( ( ( ( ( ( Z$4@0+b$3+N@A#(#z@E$N@`$ %.%+%@%1@1@q@8#k@A+*+N$s++.L$/+!.u$H.o#u$h@h@s+3 -+0+*@C j+R#a+^@A+a+A+4@e+>@0+",
"j+-+S+j+V+V+4@o+A+V+d+*+#@A+d+-#M$s+t$#%$%^+o#t+%%&%s+*%&%]+p#O@f@q@e$1@q@U$=%-%;%9@`+G@G@z@z@>%k$#+-@,%'%( ( ( ( ( ( ( ( ( ( ( ( ( ( ( ( ( ( ( ( ( ( ( ( ( ( ( )%4@0+}$X |@N@|@A#|@|@N#!%~%{%0#]%1@+#^%'@a+(+/%[$r+y+v$(%$+'@G.C 9+(%t$j+-+W#%@8+R+o+4@4@4@A+W#G+a+l+;@",
"0+9+j+-+j+j+e+4@4@^@j+'@L#A+d+d+p#M$$.k@_%u$k@4#A+:%C+*@E+j+^@d+f@q@e$]$e$<%[%}%|%(#_@9@Y+z@S@d+k$^.m+d$1%( ( ( ( ( ( ( ( ( ( ( ( ( ( ( ( ( ( ( ( ( ( ( ( ( ( ( 2%o+j+v+S w@N@|@+$N@E@`$3%4%5%0#]$]$q@V@F f@e+^@R#A+l+n+e+4#V#9+d+3 7+e+j+j+G+N+8+d+V+4@4@4@4@4@W#o+D+W#",
"e+9+j+.@o+S+0+6%3@.@R+'@J+l+ @j+j+V+h@O@q#J#=#6%z@z@z@T+_@Y+Y+^#D+r@r@h#t#7%8%9%0%|@E@(#9@9@^@d+k$T ;@n+1%( ( ( ( ( ( ( ( ( ( ( ( ( ( ( ( ( ( ( ( ( ( ( ( ( ( ( a%4@j+;.S w@1@1@_@|@x@N#b%c%d%0#q@]$t#@#)@^@`+e%9@G++$S@4@V+'@j+.@9+4@X@V+.@9@f%m@O@ @S+V+R#o+o+e+d+A+.@",
"^@j+R+.@R#S+j+j+3@3@j+m@N+G+e+V+V+A+^@p#d+O@&$V+z@`+S@G@E$Y+^@&#d@x@J@,$e$g%=%h%0%T@/@N@+$^@^@d+3+~$0+g@1%( ( ( ( ( ( ( ( ( ( ( ( ( ( ( ( ( ( ( ( ( ( ( ( ( ( ( a%A+j+;.S w@_@_@9@_@+#i%j%k%l%!#m%]$E@L@'@9@(#_@9@+$+$o@^@V+F e+R#4@a+4@;$^@o@M@8+>%3@V+V+n%R#V+ @j+e+V+",
"W#4@S+R#R#;$>%R+R+>%>%2#9+A+4@Y+z@`+_@^@.@R+O@4@`+A#$#_@9@o%o%p%A+o@a@$#q@q%r%s%t%K@M+a@|@(#e%p#5+@+0+0+u%( ( ( ( ( ( ( ( ( ( ( ( ( ( ( ( ( ( ( ( ( ( ( ( ( ( ( v%O+w%x%U w@(#_@_@x@h#y%z%A%B%!#C#]$]$r@'@9@N@N@|@|@(#(#^@4@m@4@4@4@a+z@R#4@`+e+^# @V+V+3@3@3@R#V+e+V+0+",
".@^@ @>%>%3@V+^@R#Y$k+-#i@^@V+4@z@9@9@(#T+V+&#^@z@e%A#C%E$F@X@*#A+(#b#T@q@D%r%E%F%E@J@M+E@N@(# @2+T 0+p+1%( ( ( ( ( ( ( ( ( ( ( ( ( ( ( ( ( ( ( ( ( ( ( ( ( ( ( G%^@p#2+!.w@|@|@E@]$]$`$H%I%J%!#@%K%]$@#P@9@N@1@N@w@(#z@a+4@q+^@A+z@`+`+4@a+D+!@~+3@L%S+ @3@V+V+R#R+R+9+",
">%3@ @d+j+;$X@S+^@>%3#k+m@a+V+6%^@z@z@_@|@X@M%4@z@z@E$9@E$F@F@H#V+`+b#w#x@l#N%O%P%1@x@x@/@w@z@j+5+L e+0+1%( ( ( ( ( ( ( ( ( ( ( ( ( ( ( ( ( ( ( ( ( ( ( ( ( ( ( G%4@9+5+S y@e%e%N@]$t#Q%H%R%S%C#1@_@1@@#`#T%]$]$|@9@9@a+4@V+8+a+z@9@`+a+R#4@d@I#L% @>%;$ @3@S+3@o% @d+I#",
"p#S+;$L%3@6%;$Y@U%>%3#V%k+a+V+V+^@z@|@a@/@R#3#X@z@9@E$Y+Y+o%F@*#0+G@`+`+E@|#W%X%P%N@/@M@a@+$9@j+5+~$e+e+'%( ( ( ( ( ( ( ( ( ( ( ( ( ( ( ( ( ( ( ( ( ( ( ( ( ( ( Y%R#2#3+_+a+Y+Y+|@x@e$y%H%Z%S%C#K%1@E@@#'@(#h#]$N@9@y@^@F@Y@q#.@4@9@`+^@V+V+d@3#>%>% @V%V%3@X@X@3@3@2#m@",
"j+.@ @>% @ @ @6%3@p#/#V%k+A+o+R#z@z@+$N@E@^@3#R#z@y@y@y@`%o%o%'@.@z@Y+Y+E@|# &.&+&,$M@/@T+_@9@8@5+T e+e+'%( ( ( ( ( ( ( ( ( ( ( ( ( ( ( ( ( ( ( ( ( ( ( ( ( ( ( @&4@)+3+^.#&^@4@_@1@q@$&j%%&{%r@_@N@]$V@h@+$E@&&]$K%y@Y+F@X@&$3@Y+a+(#^@X@^@`+&#d+ @R#Y@R+3@R+ @3@R#d+8+",
"p#V+V+;$3@ @ @3@R+R+k+3@>%E+o+R#a+9@`+T+|@^@/#o%R#o%Y+z@Y+F@F@*#4@z@X@^@a@8#*&=&-&E@*@a@+$9@#&p#5+T ;@e+1%( ( ( ( ( ( ( ( ( ( ( ( ( ( ( ( ( ( ( ( ( ( ( ( ( ( ( & o+9+3+].^@^@F@(#N@x@H$;&>&+%e$A#N@x@##'@+$x@K@N@_@Y+F@R#X@I#V+Y+Y+_@^@Y@F@H+^#>%p#V+3@X@R#>%>%V+a+j+2#",
"d+p#k+3@ @3@3@3@3@Y@ @>%k+A+V+R#4@a++$|@|@^@/# @F@#&O+z@Y+`%3@P@V+a+^@w@T@1@,&'&)&K%|@o@`+`+Y+2#5+!&V+p+~&( ( ( ( ( ( ( ( ( ( ( ( ( ( ( ( ( ( ( ( ( ( ( ( ( ( ( {&V+8+1+S 9@F@X@`+|@]&^&/&(&_&x@E@|@q@##k@(#a@E@E@+$y@`%V+Y@F 6%F@^@`+F@3@Y@G+2#>%>%3@Y$3@V+3@R+o+^@R+d+",
"k+O@:&d+3@Y@3@V+ @3@k+d+d+-@V%R+4@9@|@T+T+4@/#V+4@O+z@.$F@<&3@H#R+z@Y++$1@:@[&}&|&y@+$o@`+O+F@d+5+L e+p+~&( ( ( ( ( ( ( ( ( ( ( ( ( ( ( ( ( ( ( ( ( ( ( ( ( ( ( % e+8+2+_+O+^@^@9@9@O+j$1&2&3&R#E@w@E@L+<@+$|@|@N@_@#&#&F@R#k@ @V+4@9@4@>%V+W#O@3@d+3#3#~+ @V+V+V+R#p#d+",
"^#4&~+k+d+ @V+R# @3@k+ @j+E+R#3@R#|@T+w@w@F@5&#&a+z@_@9@F@X@3@_$R+z@^@9@q@6&7&8&9&4@a+G+a+z@^@l@S H e+w%~&( ( ( ( ( ( ( ( ( ( ( ( ( ( ( ( ( ( ( ( ( ( ( ( ( ( ( 0&U%q+5+T O+O+z@G+a+F@a&b&c&d&1@N@9@1@M+'@+$|@z@_@y@O+O+O+V+7+R+6%X@a+.@ @R#-@~+ @d+~+3#2#j+R+R+e+V+8+q+",
"2#d+d+d+ @V+R#V+R+R#3@>%j+=@V+d+V+`++$+$_@V+/#9@9@y@w@y@F@Y@3@H#S+#&F@z@e&C#f&g&h&`+D+z@^@^@^@h@S L R+8@i&( ( ( ( ( ( ( ( ( ( ( ( ( ( ( ( ( ( ( ( ( ( ( ( ( ( ( | e+'+3+N T+_@+$+$9@j&k&l&m&n&K@|@9@|@L+[@9@_@R#`%e%z@F@#&V+k@4@^@V+^@V+X@S+m+3#>%Y$L%>%>%p#>%p#4#j+O@F ",
"d+d+p#V+R#R#V+n%R+R#o%>%d+m+3@d+U%O+(#_@9@n%5&Y+_@_@A#9@^@F@o%S#R+^@^@a+|@8#o&p&q&A#|@`+o+4@.@F S H 0+-+i&( ( ( ( ( ( ( ( ( ( ( ( ( ( ( ( ( ( ( ( ( ( ( ( ( ( ( r&V+'+3+N D++$^@9@+$#&s& %t&u&E@N@+$T+M+H#z@9@o%o%^@y@F@F@R#'@o+z@R#F@V+^@R#A+~+F$Y$j+V+3@>%d+d+d+d+^#m@",
">%2#3#d+3@ @~+>% @e+o%>%k+n+e+k+F@9@9@f@9@j+I#R#O+O+e%K%9@^@3@H#R+4@^@a+T+l#v&w&x&C%&@d@A+^@S+'@B.I 0+y&i&( ( ( ( ( ( ( ( ( ( ( ( ( ( ( ( ( ( ( ( ( ( ( ( ( ( ( z&R+'+S T G+^@R#a+f@9@A&B&C&S%]%E@|@|@&&o#^@#&F@o%Y+z@Y+Y+3@H#V+4@4@F@3@X@^@^@O@>%Y$p#e+e+S+ @j+d+d+2#-#",
"3@2#5&k+k+>%/#3#p#p#>%>%O@p+w%d+R#9@`++$a+d+@$>%V+R#F@^@F@X@ @_$e+^@F@Y+w@r@D&E&D$9@_@z@z@4@V+'@x+:+w%8@i&( ( ( ( ( ( ( ( ( ( ( ( ( ( ( ( ( ( ( ( ( ( ( ( ( ( ( F&j+q+S T a+R#o%^@O+9@1$G&H&I&]%$#`+T+J&!@F@a+#&^@Y+^@F@R#>%[@o+W#R#3@3@3@^@-@I#d+p#d+8@R+j+e+0+p#O@2#<$",
">%2#Y$ @;$3@3#~+d+k+p#d+O@p+e+R+R+^@4@#&R#~+S#>% @Y@o%o%j& @F$*#d+3@V+^@9@e$K&L&M&^@z@4@R#4@R#m@B.:+R+9+N&( ( ( ( ( ( ( ( ( ( ( ( ( ( ( ( ( ( ( ( ( ( ( ( ( ( ( O&j+q+S T a+V+3@4@z@z@P&G&R%I&Y#K@O+_@/@P@o%4@F@`%a+X@3@o%>%[@^@^@.@R# @>%A+>@4&k+p#>% @d+d+j+8@<$2#p#d+",
"Y$Y$>%V+4@F@ @ @ @Y$d+2#O@0+;@V+ @R+ @R#e+I#`#>%>%d+F$V%Y@^@j&*#Z#Y$R#R#^@t#Q&R&S&R#^@4@4@F@^@q+S [+w%O@N&( ( ( ( ( ( ( ( ( ( ( ( ( ( ( ( ( ( ( ( ( ( ( ( ( ( ( T&e+C S M f@F@3@R#^@z@U&V&W&X&]%N@9@z@a@P@R#^@F@R#Y&V+o%3@U+)@.@^@V+3@j+ @o+B+h@k+V%V+R+O@d+p#d+2#p#p#4#",
"d+)$>%R#4@.@R#3@e+p#d+k+3#0+e+R+R+R+V+a+m+I#P@Y$~+3#~+k+V+#&F$`@l@3@F@R#^@M+B$Z&`&o%F@^@^@^@^@I#S I 8@C N&( ( ( ( ( ( ( ( ( ( ( ( ( ( ( ( ( ( ( ( ( ( ( ( ( ( ( F&e+C 3+~$9@^@ @3@R#^@ *.*+*+&1@+$e%T+e&v@U%z@4@>%R#3@e+3@Y$o#o+4@R+R+>%j+j+m+^#j+S+o+e+4#-#9+d+p#j+d+9+",
"q+I#d+ @3@R#V+ @j+>%k+Y$^#@*w%p#p#R+S+^@o+^#u@Y$>%d+k+k+4@^@#*$*d+.@^@Y@a+*@%*&***e+o+V+R#F@F@&#B.I 8@)+N&( ( ( ( ( ( ( ( ( ( ( ( ( ( ( ( ( ( ( ( ( ( ( ( ( ( ( =*R+8+S M O+F@ @S+4@Y&2@-*;*>*|@z@z@T+$#G.e+a+4@Y$3@V+n%j+~+!@;@V+d+ @>%d+j+-@q+4#d+V+j+2#O@~+d+j+j+d+d+",
"'@'@3#d+k+R+R+j+ @j+2#Y$I#8@8@d+>%j+e+U%3@I#P@p# @ @~+L%R#3@u@Z#o+A+4@4@W#W#,*'*m@3@V+F@R#^@V+m@W H w%l N&( ( ( ( ( ( ( ( ( ( ( ( ( ( ( ( ( ( ( ( ( ( ( ( ( ( ( )*e+l@B.M 9@O+F@.@^@a+j+!*~*e+|@w@F@^@G+m+i@0+R#k+#*3@3@3@3@k@e+V+ @j+ @d+j+p+'@O@d+0+d+2#p#8+O@d+d+9+2#",
"m@I#I#O@~+d+V+3@3@>%k+k+&#y&0+d+d+R+R+3@3@^#P@3@3@U%@$'@ @P@!@0+l+A+o+R#m+r+H 3+{*U%4@^@Y+#&4@8+W ]*;@l N&( ( ( ( ( ( ( ( ( ( ( ( ( ( ( ( ( ( ( ( ( ( ( ( ( ( ( ^*;@h@S T 9@#&Y+a+`+`+e+&+#+&+W#`+X@Y+`+D+-+o#j+I#i@d+ @V+3@7+R+R+R+R+p#k+j+j+m@-#d+p#O@k+k+O@I#^#O@O@^#",
"b+^#O@~+k+2# @U%U%>%>%d+I#8@d+)$d+p# @e+3@3#P@F$V+d+0$Z#!@t$2#^@a+G+W#>%i@Z.].+.-@#&4@Y+O+O+^@/*S M e+9+(*( ( ( ( ( ( ( ( ( ( ( ( ( ( ( ( ( ( ( ( ( ( ( ( ( ( ( _*e+F S !&a+#&a+9@_@T+d@7+N$Z.+.^@^@#&a+f@G+l@T$d+u+<@R+j+d+3 8@>%>%j+>%k+>%e+m@O@ @p#&#3#/#b+@$b+^#O@O@",
"5&Y$d+~+~+~+R+n%V+ @d+2#'@2#^#I#5&3#>%j+ @I#u@>%2#{+h@p%)@p#3@R#G+W#e+!@:*x+w$p#V+R#^@R#^@4@R#'@S L d+)+<*( ( ( ( ( ( ( ( ( ( ( ( ( ( ( ( ( ( ( ( ( ( ( ( ( ( ( [*S+k@#+!&^@F@9@(#9@z@T+G+D.N$}*%%V+o+^@A+G+R#'+D.l@|**+O@~+o#j+R+V%d+Y$p#d+j+'@O@p#j+^#I#&#S#'@'@8+<$d+",
"O@2#d+k+O@~+ @e+j+d+~+O@m@l@I#'@@$-#>%>%j+^#1*I#(+3#m@2*V+R#3@R#a+^@M$.+T +.3* @d+ @4@F$o%V+j+'@S K d+4*5*( ( ( ( ( ( ( ( ( ( ( ( ( ( ( ( ( ( ( ( ( ( ( ( ( ( ( 6*0+[@x+!&-@o%Y+Y+z@9@^@o+-@%+S Z.{+0+G+W#O+^@R+<@H.l@+.i@/#)@j+p#k+~+#*~+O@j+'@^#O@p#d+3#I#S#'@P@O@d+d+",
"3#O@O@k+2#d+3@R+p#k+~+3#m@l@I#^#3#d+d+d+3@/*)@[$'@@$7*k+^@R#V+R#a+a&8*9*[$w%>% @3@3@o+e+U%>%q+S ].^.p+'+5*( ( ( ( ( ( ( ( ( ( ( ( ( ( ( ( ( ( ( ( ( ( ( ( ( ( ( 0*0+t$#+~$H.2#`%F@F@O+4@R#e+^@$+5+a*b*z@^@a+n%.@R+)@%+c*N$I#o#O@~+Y$~+2#^#^#p#P@&#q+Y$k+Y$~+&#m@p%O@~+2#",
"O@~+~+4#d+d+j+j+>%k+2#O@b+l@^#d+d+O@~+Y$>%q+i@Z#'@^+^#p#R# @A+S@d*e*f*g*0+m+d+>%F@F@^@^@o+O@^.~$X h*i*'+5*( ( ( ( ( ( ( ( ( ( ( ( ( ( ( ( ( ( ( ( ( ( ( ( ( ( ( j*w%A+[$@+g.i@n%Y+Y+e%z@^@p#-@G+k*l*m*n*(#G+R+R#o+3@v@i@c*O@#%I#~+Y$d+d+-#q+d+u@'@'@3#3#d+k+I#b+S#3#3#4&",
"5&O@Y$2#2#2#k+d+~+^#3#^#'@)$3##*d+^#O@O@Y$^#'+c*0$2# @>%j+ @^@o*p*q*r*s*o+;@R+o%R#`%4@4@8@S :+1+'+e+j+'+5*( ( ( ( ( ( ( ( ( ( ( ( ( ( ( ( ( ( ( ( ( ( ( ( ( ( ( t*w%^@V+}$~$:*k@^@X@Y++$O+R#;@]@N#u*v*w*x*z@e+n%3@o%U%^+H.-+i@^#k+~+#*~+~+O@<$)@'@*#/#/##*3#I#b+'@^#5&I#",
"4&~+d+d+k+O@^#~+/#b+b+I#*#q+^#2#^#m@O@2#^#G.%+{+I#;$d+k+>%V+y*z*A*B*C*C%A+^@V+ @n%V+R#w%!.Y.S h@o+o+j+'+5*( ( ( ( ( ( ( ( ( ( ( ( ( ( ( ( ( ( ( ( ( ( ( ( ( ( ( D* @o+F@Y&w+[+++Z#V+^@#&F@O+4@^@|@E*F*G*H*I*S+e+ @d+U%p#z#(%^+'@~+3#d+d+&#3#O@)@P@P@@$m@3#/#'@'@@$3#^#^#",
"~+3#-#~+O@3#O@3#3#b+'@I#`#9+l@2#^#3#)$l@i@E R#F$j+k+d+d+V%J*K*Z%L*M*s@a+4@`%F@V+o%3@>%1+X.N*!@;@R#R#>%'+5*( ( ( ( ( ( ( ( ( ( ( ( ( ( ( ( ( ( ( ( ( ( ( ( ( ( ( O*S+4@3@4@e+}$[+:+'@R#^@R#`%#&#&a+|@K$P*Q*R*/# @p#d+ @>%p#`%3*%+m@3#4#k+I#3#S*H#F m@b+&#&#/#'@'@Z#3#I#I#",
"3#I#3#5&I#Z#^#~+k+/#'@m@H#)$S*d+~+Y$^#)@M$c*p#R+d+^#>%>%U+T*U*V*W*o$f@W#^@F@F@F$F$j+;.X.].!@V+3@ @V+j+'+5*( ( ( ( ( ( ( ( ( ( ( ( ( ( ( ( ( ( ( ( ( ( ( ( ( ( ( X*V+^@R#F@R#w%;.:+H 9+e+o%j&O+9@O+a+A#Y*Z*`* =.=3@j+j+d+>%j+@$T$7*'@2#O@I#Z#d+P@I#O@3#m@m@b+m@'@m@O@/#^#",
"^#m@&#&#I#@$b+&#3#/#b+m@!@C <$O@2#3#!@I#Z#2#d+d+k+k+>%a&+=@=#=$=o$R#4@4@F@F@V+R+R+[$Z.4+H.U%R+n%V+o%j+'+5*( ( ( ( ( ( ( ( ( ( ( ( ( ( ( ( ( ( ( ( ( ( ( ( ( ( ( %=4@a+^@F@V+o+8@&+`.T )$R+R+R#(#9@^@X@9@&=*===-=;=V+e+k+d+d+d+<@'@#.m@O@O@3#9+H#I#O@O@I#&#'@*#'@b+I#&#O@",
"m@b+b+&#&#I#/#m@I#~+I#I#`#)$O@3#O@)@>='@,=Y$k+d+>%k+a&'=)=!=W* *F@o%4@`%R#^@V+e+u+:*#+%+V+X@R+U%F@R# @h@5*( ( ( ( ( ( ( ( ( ( ( ( ( ( ( ( ( ( ( ( ( ( ( ( ( ( ( X*o+W##&Y+R#V+-@l@3+++^.<$R+>%R##&F@o%F@9@~={=]=^=/=3@p#Y$l@^#O@!@7+$+^#3#3#8@[@4&I#O@^#m@H#H#'@*#P@F I#",
"I#m@I#m@5&3#3#I#3#2#5&^#H#d+5&3#5&H#>%S#3#Y$2#j+V+(=_=:==&<=[=R#>%o%X@F@R#^@i*T$.+}=|=o+j+3@V+o%R#R#3@M$1=( ( ( ( ( ( ( ( ( ( ( ( ( ( ( ( ( ( ( ( ( ( ( ( ( ( ( 2=4@a+^@9@4@3@3@Y&C S Z.S p#n%F$F@F@V+3@Y@3=4=5=6=7=8=4#>%O@O@O@<@j+)@8+b+3#w%!@'@m@I#O@m@P@S#S#@$'@I#3#",
"&#m@m@I#I#3#&#I#O@-#4&m@e+R+2#~+^#:&Y$)@3#2#d+>%9=0=a=b=c=d=Y@R+p#o%X@3@R#F@H.e=T {+-@R+Y$3@R#F@4@4@3@!@1=( ( ( ( ( ( ( ( ( ( ( ( ( ( ( ( ( ( ( ( ( ( ( ( ( ( ( f=e+Y&^@z@F@R#F$j+W#Z#].g=X p#F$F$V+4@o%V+3@h=i=j=k=l=m=k+3#O@O@H#j+<@I#'@I#p#p+_$'@'@I#b+&$'@b+'@'@n=^#",
"m@m@m@m@m@&#b+I#I#4&^#'@p#S*^#I#I#P@/#r+@$2#-#V%o=p=q=r=s=F@3@>%Y$Y@R#V+R+k@:*M $.e+3@Y$k+>%R+4@^@R#d+/+( ( ( ( ( ( ( ( ( ( ( ( ( ( ( ( ( ( ( ( ( ( ( ( ( ( ( ( t=d+^@#&4@X@V+3@Y$V+W#u=@+v=,.p#Y@Y+V+R#R#>%R#3=i=w=x=y=z=I#~+^#)@'@H#&#b+b+9+d+Z#'@P@'@'@m@F m@b+&$'@F ",
"I#'@k@'@m@@$&#b+I#I#n=)@&#^#'@(+<@'@P@9$m@^#5&A=B=E&C=D=`%R+>%p#F$n%3@F$<@[+H E=z+U%>%3#~+ @n%o+U%i*q+Z 1=( ( ( ( ( ( ( ( ( ( ( ( ( ( ( ( ( ( ( ( ( ( ( ( ( ( ( F=[@e+^@F@F@V+3@3@V+w%-@H.M G=$. @#&4@o%F@V+ @ @U&H=!=-*I=@$p#8+i@2*H@2#;._$m@O@!@H#'@P@H#F F '@h@h@'@*+",
"&#'@S#'@b+5&b+S#@$/#/#!@I#I#J=x%q+'@S#(+m@q+K=L=M=N=O=j$ @V%d+F$o%o%>%Z#M :+]+A+e+>% @~+Y$R#U%U%p#<$P=_+Q=( ( ( ( ( ( ( ( ( ( ( ( ( ( ( ( ( ( ( ( ( ( ( ( ( ( ( R=X )$R+R#Y&o%>% @3@p#R+^@^+L }*/+4@`%3@R#V+3@d+>%U&S=T=U=)$9+O@i@D.D.I#w+0$@$I#7+k@k@'@*+'@'@m@m@^#I#'@",
"'@&$'@'@m@b+`#_$b+I#&#<@/*3#2*Z#)$m@1*x$m@O@/#V=,*n=j+d+2##*Y$3@X@o%k+u@N X W=j+d+p#>%Y$k+o%i*>%R+(+3+X=Y=Z=( ( ( ( ( ( ( ( ( ( ( ( ( ( ( ( ( ( ( ( ( ( ( ( ( ( ( `=]+p#e+o+3@>%>%3@>%O@p#m+5+@++.j+*$ @R#o%>%~+<$p# -.-+-O@)+Z#J=H@)@O@I#@.^#O@<@u@S#@$H#P@H#'@b+&$'@'@",
"J=@-J=u@#-J=J=$-u@u@J=m@~+q+d+O@b+H#P@%+^#~+m@%-&-#%9+~+:&3#~+>%>%F$d+)@1+#+D l@~+Y$>%F$L%e+w%>%4@[#*-=---S ;-( ( ( ( ( ( ( ( ( ( ( ( ( ( ( ( ( ( ( ( ( ( ( ( ( ( 1=>-^@F@o%n%>%F$p#p#3#^#^@].x+X R+V+ @>%V%k+3#l@O@k@B.[+3 l@^#u@H.i@^#5&p#2#)$7+7*)@H#@-Z+J=)@J=)@H@D.",
"V+R#z@f@T+f@,-#&R#U%R+Y&)$h@5&O@I#!@P@%+^#0+9+'-#+#%-+d+k+~+k+>%>%3@ @i@1+T h@<$d+O@#*>%)-p#R+p#F@!-~-{-]-^-/-( ( ( ( ( ( ( ( ( ( ( ( ( ( ( ( ( ( ( ( ( ( ( ( ( ( ( (-1@Y&U%R+Y$>%Y$Y$~+I#e+:$#+N$0+R+R+k+>%p#~+l@9+7+#+ +#%l@O@H#H.7*^#2#d+d+2#d+^@G+a+O+z@E+A+o+A+l+=@",
"2#2#d+j+i*R+p#O@~+2#8+i*Y$3#5&O@O@7+S $.<$V+<$~$_-H.3@3@>%d+k+V%Y$>%V+D.5+@+{*S*)$~+3#Y$p#j+<$Y$j&:-<-[-}-|-1-( ( ( ( ( ( ( ( ( ( ( ( ( ( ( ( ( ( ( ( ( ( ( ( ( ( ( 2-3-o%k+j+p#p#p#3#/#^#j+:$3+Y p+p#p#d+p#>%~+3#4-`#x+ +r+q+4#)@T #.O@2#d+2#9+C j+0+0+0+p+-+9+d+d+-+-+",
"<$2#^#2#d+Y$k+p#p#2#^#j+d+O@2#O@)$*+@+(+d+-+'+[+N*5-6-7-8-#*F$3@Y$~+R+%+3+@+k@O@Y$Y$3#~+~+O@(+`#2@T*9-0-a-b-1-( ( ( ( ( ( ( ( ( ( ( ( ( ( ( ( ( ( ( ( ( ( ( ( ( ( ( c-d-Y$T p#Y$k+#*I#b+/#p#~$_-Y <$>%>%3@R+>%#*e-f-g-S [+O$l@O@H@[+r+O@d+2#d+d+8+p#-+-+j+d+O@d+w%O@q+q+",
"d+)$q+O@2#d+d+j+e+d+2#d+d+d+~+)$3#)@4+]+q+3#'+~$k$h-i-j-k-#*k+ @Y$:&j+G._-@+k@^#k+~+3#d+p#l@b$u@y@T*l-m-n-o-1-( ( ( ( ( ( ( ( ( ( ( ( ( ( ( ( ( ( ( ( ( ( ( ( ( ( ( c-d*>%4$3@p#3#5&/#m@^#p#H S S )$2#3@3@>%Y$J*p-q-r-2+:$G.q+q+7*].s+O@d+O@2#O@q+2#j+d+p#d+8+O@d+l@8+&#",
"2#2#I#2#2#2#-@>%2#d+d+)$O@O@^#^#I#i@4+;.F q+C ~$s-t-u-v-w-~+~+ @p#~+w%%+5+T t$^#d+d+p#>% @<$(+!@x-y-z-A-B-C-1-( ( ( ( ( ( ( ( ( ( ( ( ( ( ( ( ( ( ( ( ( ( ( ( ( ( ( c-D-R+4+U%j+~+3#5&3#~+w%[+S Y d+w%>%3@R+d+E-F-G-H-2+L G.q+q+%+].{+l@O@2#O@l@k@8+-+p#2#O@I#^#O@'+h@F ",
")+m@I#2#y&9+<$^#^#O@8+q+)$d+^#q+q+)@4+w+q+2#'+@+;.t-I-J-4-^#L%3@ @Y$e+H.&+@+t$^#d+d+j+j+R+-+^+P@o%W@K-L-M-b-1-( ( ( ( ( ( ( ( ( ( ( ( ( ( ( ( ( ( ( ( ( ( ( ( ( ( ( N-O-E-_-U%p#p#Y$U+#*~+R+H S &+0+R+ @j+V+d+Y$P-Q-H-2+~$H.8+9+%+@+u$)+O@9+2#8+k@F 8+O@3#m@^#d+C '+'@h@",
"d$*+M$R-{*4*)@)@k@i@2*7+)$d+^#q+q+2*4++.C -#F H 2+S-T-U-U+3#d+3@d+>%R+H.3+H t$^#d+p#w%R+p#-+-@>%`%V-W-X-Y-Z-1-( ( ( ( ( ( ( ( ( ( ( ( ( ( ( ( ( ( ( ( ( ( ( ( ( ( ( N-/=)-d+n%O@p#>%~+3#3#w%H S N$0+R+d+ @R+>%#*`- ;.;5+T o#d+9+%+T %+)+2#O@O@8+7+3 %+%+o#o#7+_%7+H.u$o#",
"&+&+;.]+(+;.1+2+1+S B.u+q+<$^#O@l@!@'@{+q+-#8 [+5+D.+;V%~+~+~+ @j+Y@V+t$X H /%^#k+p#p#R+p#p#U%n%y@@;#;$;%;&;*;( ( ( ( ( ( ( ( ( ( ( ( ( ( ( ( ( ( ( ( ( ( ( ( ( ( ( =;-;F$>%>%9+d+j+2#^#^#e+~$S Z 0+>%>%R+F$Y$~+~+;;'@X :$t$9+8+H@G.!@O@O@2#2#q+^+;.3+3+S S 2+&+;.1+;.&+",
"H#F k@!@F k@!@7+!@D.H.#%8+d+O@O@O@H#k@r+q+~+h@>;3+%+O@2#~+~+I#p#j+e+R+t$3+T 3 O@k+p#j+e+R+j+>%j+e+[#I=,;';W@;-( ( ( ( ( ( ( ( ( ( ( ( ( ( ( ( ( ( ( ( ( ( ( ( ( ( ( );^#>%#*>%8@d+R+d+8+O@n+T V Z 0+V+R+o+ @Y$b+^#-+k@S !&#%9+q+D.G.%+q+O@l@-#l@%+)@'@'@*+)@)@!@!@7+F '@",
"^#I#q+m@l@8+'+h@q+'+7+3 C 2#!@m@^#!@)@r+l@O@k@ +5+H.)+d+/#/#3#Y$n%j+d+!@3+@+7+q+d+2#p#R+d+j+p#e+>%3#*+!;~;1-( ( ( ( ( ( ( ( ( ( ( ( ( ( ( ( ( ( ( ( ( ( ( ( ( ( ( {;M$w%R+p#R+d+d+e+j+)$d+<$T X ];0+V+0+V+R+d+I#O@-+M$S [+#%)$9+H.u+^+l@I#G.F q+2*<@^#^#m@m@m@q+m@'@q+I#",
"^#m@m@m@q+Z#F I#^#h@'@o#O@q+T$(+=#H.o#@.8+8+M$4$^;_$j+d+O@I#~+Y$k+d+d+q+2+x+N$m@d+p#Y$k+O@p#0+j+k+)$<$7*/;( ( ( ( ( ( ( ( ( ( ( ( ( ( ( ( ( ( ( ( ( ( ( ( ( ( ( (;{*@*2#p#e+j+^#O@R+p#O@)$@.~$5+%+0+e+j+3@d+d+O@-+p+&#n$4$3 O@l@$+u+r+m@r+$.F m@%+*+m@^#m@I#b+q+F <@m@F ",
"q+'@H#P@m@Z#F m@b+'@H#H.d+F h@%+m@H.J=#.C l@-+>$_;:;<;#*I#I#k+^#3#3#k+W#>=;.}+X q+d+2#2#~+d+8@R+p#j+d+*+B@( ( ( ( ( ( ( ( ( ( ( ( ( ( ( ( ( ( ( ( ( ( ( ( ( ( ( [;y <$-#e+R+j+O@O@p#j+8+^+:*B.^+A+0+R+Y$p#2#9+9+ @d-};|;1;9+C m@r+(+@.8+a$m@'@I#%+i@'@m@m@m@I#m@'@H#7+h@",
"F '@H#F m@h@q+2;I#F [@%+l@O@'@I#Z#i@H#@.m@B B 3;4;5;6;7;#*2#~+^#~+~+~+p#a+*+S g...O@p#2#d+p#R+R+R+p#q+r+8;( ( ( ( ( ( ( ( ( ( ( ( ( ( ( ( ( ( ( ( ( ( ( ( ( ( ( 9;Z#2#j+R+>%j+O@)$<$8@i@:*'-0$m+w%p# @d+2#~+4#d+D-0;a;b;c;-+M$h@^+^+@.Z#'@'@'@^#7*J=P@F k@'@'@'@*+H#H#h@",
"k@'@'@F h@q+O@q+8+h@!@%+m@d+m@q+h@)@d+H@C C h@S+d;e;f;g;h;U+3##*#*k+3#3#d+^@7*^.g.(+O@d+p#8@e+j+p#j+O@^+(;( ( ( ( ( ( ( ( ( ( ( ( ( ( ( ( ( ( ( ( ( ( ( ( ( ( ( i;q+w%R+n%>% @9+d+-+!@++[+1+p+0+j+d+j+j+j+d+k+j;k;l;m;M&F@8+7+F 7*h@^+'@'@'@'@I#%+)@H#'@P@P@`#=#'@'@'@F ",
"H#'@m@m@m@q+5&m@'@H#1*a${+O@9+q+k@D.2#D.C C m@C F@n;o;p;q;r;~+~+Y$#*Y$~+O@2#U%a$s;X.r+2#<$8@0+p#p#d+O@H.t;( ( ( ( ( ( ( ( ( ( ( ( ( ( ( ( ( ( ( ( ( ( ( ( ( ( ( u;8+d+d+R+R+R+<$d+7+I H X )+2#2#>%d+j+d+-+2#v;w;x;y;z;o$<$C m@'@7*m@H@'@h@'@m@H.9$J=P@P@u@u@u@P@'@'@k@'@",
"P@'@m@'@'@m@I#'@'@'@H#H@v+[@8+q+Z#t$C 7+h@8+8+'+q+A;B;C;D;E;F;*$3@>%>%Y$d+O@)$m+[$H g.r+'+d+j+d+j+p#Z#D.G;( ( ( ( ( ( ( ( ( ( ( ( ( ( ( ( ( ( ( ( ( ( ( ( ( ( ( H;)+d+d+d+-+-+<$!@:+++3+D q+3#p#R+j+d+^#j+j&c&I;J;K;L;k+I#l@I#[@%+Z#)@I#'@P@<@s-Z+H#'@@$H@J=#-H#'@P@#-u@",
"k@'@'@'@H#k@'@P@P@'@H#_$2*H#8+q+q+)$<@Z#i@h@8+q+m@^#C%M;N;O;P;Q;F$>%>%>%d+d+l@d+w%x%[+f.@.q+9+-+p#d+'@D.R;( ( ( ( ( ( ( ( ( ( ( ( ( ( ( ( ( ( ( ( ( ( ( ( ( ( ( S;l@<$9+d+p#O@'@M ++!.'+<$F I#d+0+p#p#2#p#T;U;V;W;X;d+&$/#O@@$J=Z#'@2#^#m@'@P@z#1*P@S#*+Y;J=`#'@F P@G.G.",
"`#u@[@k@)@'@p%'@&#m@'@'@_$7+m@k@m@l@2#'@M$H.'@^#O@O@2#Z;`; >.>+>V% @d+~+2#~+O@8+)+@>1+:*f.%+l@)$O@O@'@H.R;( ( ( ( ( ( ( ( ( ( ( ( ( ( ( ( ( ( ( ( ( ( ( ( ( ( ( S;4*2#d+j+p#'@T `.S M$9+2#m@8+d+>%~+>%>%#>$>%>&>*>>%^#k@m@I#)@*+'@I#5&m@'@'@!@7*u@k@H#P@u@H#P@P@`#_$H@2*",
")@u@)@)@u@*#_$P@I#&#'@'@_$*+'@P@F '+q+8+<@t$H.m@O@2#O@d+=>->;>>>,>a&d+O@2#2#d+O@8+<$<$'>++X.D.8+O@)$F )@R;( ( ( ( ( ( ( ( ( ( ( ( ( ( ( ( ( ( ( ( ( ( ( ( ( ( ( S;l@O@d+d+q+].}+#+o#9+)+^#q+O@2#p#R+Y@)>!>~>{>]>3@m@m@m@'@*+t$i@@$m@'@'@'@P@o#H@H#H#H#`#P@*+'@H#)@)@u@u@",
")@)@)@2*[@u@)@`#m@m@P@_$)@!@'@P@'@m@k@'@O@{*T$H.Z#)$~+I#)$e%^>/>(>_>U+)$q+)$d+O@)$9+)+)+;.:*:>t$l@)$h@o#<>( ( ( ( ( ( ( ( ( ( ( ( ( ( ( ( ( ( ( ( ( ( ( ( ( ( ( [>C O@O@q+S Y.N*t$-+<$O@O@O@8+d+R+F$}>|>1>2>]%>%m@'@'@'@i@i@6+h@>=*+P@'@S#P@'@%+*+'@'@S#'@H#P@)@J=H#'@P@",
"H@J=2*)@u@)@u@H#k@P@`#H#)@!@'@P@'@k@!@[@q+<$7+E=r+<@I#m@F 8+3>4>5>6>7>F$O@<$<$d+d+9+4*@@D !.8>++o#O@'@i@R;( ( ( ( ( ( ( ( ( ( ( ( ( ( ( ( ( ( ( ( ( ( ( ( ( ( ( 9>'+q+q+1+Z.#+H.8@O@)$8+9+O@<$p#n%0>a>b>c>d>p#<@'@m@'@i@v+h@<@h@*+H#<@'@H#H#*+7*!@'@'@b+'@u@)@i@2**+`#)@",
"J=)@J=_$P@H#u@I@P@H#H#H#J=!@'@F '@=#k@!@M$o#7*/%&+r+`#'@&#F J*X&:=e>f>r;~+<$)+O@O@l@q+l@-+k@S g.:+7+k@D.R;( ( ( ( ( ( ( ( ( ( ( ( ( ( ( ( ( ( ( ( ( ( ( ( ( ( ( 9>M$'+&+g=].H.0+l@m@q+O@d+p#d+>%v;W%g>h>i>o%'@@$'@k@D.1+)@H#@.o#u@H#m@*#`#k@H#7*)@H#S#'@H#)@)@)@J=H#_$H@",
")@@-u@_$*#H#H#u@H#H#u@u@7*!@h@F F P@<@7+k@G.9$%+2*1+G.F 8+'+Z#o%j>k>l>m>H#C 9+O@9+O@Z#'+'+-+7+#+G=L 7+D.R;( ( ( ( ( ( ( ( ( ( ( ( ( ( ( ( ( ( ( ( ( ( ( ( ( ( ( n>C {+a.'-x$m+q+F m@l@l@9+2#O@C o>p>h>q>#&q+'@'@F H.5+Y;H.J=[$)@H#k@m@'@H#P@o#+@H@H#_$'@u@J=u@)@)@H#)@H@",
")@J=u@`#'@H#H#u@u@u@)@1*7*D.'@k@M$H#P@'@F D.#.r>H.)@X /+F C C ^#j&s>t>u>~$o#8+^#l@)+l@8+'@h@d+%+!&g.*+i@R;( ( ( ( ( ( ( ( ( ( ( ( ( ( ( ( ( ( ( ( ( ( ( ( ( ( ( n>'++. +S m+C F Z#9+d+2#l@l@q+&+v>w>x>y@l@q+m@k@7+&+H.*+&+2*+.)@*+k@P@P@!@k@o#f#J=u@u@p%H#)@u@)@)@H#u@v@",
"u@@-v@u@)@H@u@)@u@u@J=Z+a$%+'@'@m@'@'@k@M$)@y>h*u+)@i@X %+m@q+m@l@j+<$;. +!&7+h@l@l@l@'+M$M$h@(+H Z.i@%+R;( ( ( ( ( ( ( ( ( ( ( ( ( ( ( ( ( ( ( ( ( ( ( ( ( ( ( z>F v+H :+h@q+Z#I#2#p#O@h*Z#w+[+5+I#4@p#O@q+k@D.;.7*7+0$Z#)@[$!@H#H#H#P@H#P@o#f#H@J=v@*+P@H#u@u@%+u@J=1*",
")@J=u@)@J=D.u@J=J=J=H@^+@.G.[@H#m@m@'@h@'+!@e#'@C r+!@o#1+G.k@F '@8+d$'+1+:+^.7+q+l@8+m@F '@M$+.[+Z.D.H.R;( ( ( ( ( ( ( ( ( ( ( ( ( ( ( ( ( ( ( ( ( ( ( ( ( ( ( A>h@;. +g.k@'@'@m@O@d+8+C +.[+S T$V+9+2#O@F D.&+2**+$.<@k@)@[$o#H#u@H#H#H#[@)@f#H@2*H#P@'@_$H##-H@@-H@1*",
"@-u@[@P@H#H#H#@-H@)@J=$-e#^+2*i@H#P@k@'@l@!@@.H#Z#8@E=)@Z+S G.k@h@F 8+w%h@S Z.Q F O@)$m@'@Z#h@w+[+g.V#u$B>( ( ( ( ( ( ( ( ( ( ( ( ( ( ( ( ( ( ( ( ( ( ( ( ( ( ( C>_%&+ +g.k@m@k@P@q+K#l@^+:*N*H.A+d+^#b+&#k@;.r+k@;.M$k@*+i@w+)@u@[@k@'@`#H#)@f#Z+J=S#P@=#`#P@H#1*#-)@J=",
"J=!@P@'@'@*+P@H#u@)@)@#-H@%+H#H#k@k@F Z#'+H.9$u@'@^#l@'@'@^+&+!@'+*+k@)+n+<@4+Z.u+Z#C m@h@Z#q+@.D>a.H.%+B>( ( ( ( ( ( ( ( ( ( ( ( ( ( ( ( ( ( ( ( ( ( ( ( ( ( ( C>F 1+ +g.'@'@H#H#'@8+k@I T 9$e+-+l@m@h@'@r+(+'@'+!@M$!@u@J=..)@u@!@H#*+'@)@o#^+H@J='@P@*+u@P@P@)@)@[@)@",
"2*[@H#H#P@P@H#!@H#_$u@u@Z+Z+[@[@<@'@h@F h@H.E>2*u@'@'@H#'@u@a$;.h@m@'@q+)+0+N*F>$.'+Z#p%k@F F G> +b.D.7*H>( ( ( ( ( ( ( ( ( ( ( ( ( ( ( ( ( ( ( ( ( ( ( ( ( ( ( C>k@S .+a.<@P@P@7+7+q+7+I>!+2#j+d+I#m@q+r+(+u@'@m@u@k@P@)@J=w+)@)@J=H@)@u@Z+i@%+)@J=H#H#H#1*u@H#H#u@)@D.",
"J=u@)@[@!@u@u@H#!@H#@-H@e#%+[@H#H#7+<@F <@G.w+2*)@'@'@[@'@*+Y;^;o#M$F M$8+4#J>K>L>h@h@k@7+F '@[$ +f.H.%+H>( ( ( ( ( ( ( ( ( ( ( ( ( ( ( ( ( ( ( ( ( ( ( ( ( ( ( C>k@S `.b.7+<@P@'@m@l@b+M>N>O>O@-#^#q+m@X H@H#'@m@[@[@H#)@)@w+D.[@)@J=)@)@H@D.7*u@H##-)@)@H@J=)@H#u@J=2*",
"u@)@)@H#H#[@H#'@H#u@H@7*e#%+!@H#k@'@<@k@'@H@}$D.u@k@'@H#H#v@)@E>a$[@'@<@8+3@P>Q>R>8 h@h@'@m@'@>.[+b.D.G.B>( ( ( ( ( ( ( ( ( ( ( ( ( ( ( ( ( ( ( ( ( ( ( ( ( ( ( S>9 S }+W.!@'@P@'@I#O@T>U>V>W>d+4&@$m@'@2+2*u@m@Z#!@X>u@v@i@[$)@[@u@)@J=H@H@H.%+!@H#)@)@u@J=J=u@)@u@D.D.",
")@J=0@u@u@!@u@k@!@J=7*Z+C.G.!@H#k@k@<@'@'@%+[$)@*+=#'@P@u@@-1*0$#.[@*+!@h@ @Y>Z>`>'@'+C '+h@h@$.[+W.H.$+H>( ( ( ( ( ( ( ( ( ( ( ( ( ( ( ( ( ( ( ( ( ( ( ( ( ( ( S>k@X `.b.!@'@k@S#'@q+;= ,.,+,k+I#p%P@P@b$i@[@m@Z#u@J=)@)@D.[$H.*+<@<@)@2*H@i@%+H#u@)@)@H#H#H#!@[@o#2*G.",
"i@2*J=)@D.)@D.u@H#2*7*Z+a$$+!@H#)@D.D.H#7+^+E>_$H#H#'@P@u@u@)@[$G.<@!@)@m@S+@,#,$,P@8 C '+8+'+[$[+a.H.u+H>( ( ( ( ( ( ( ( ( ( ( ( ( ( ( ( ( ( ( ( ( ( ( ( ( ( ( %,7+S D>b.!@'@*+P@k@F ;=&,*,+,~+'@P@k@'@;.!@'@I#m@[@)@)@)@D.(+H.H#'@F H#)@J=D.%+)@J=J=i@u@H#*+!@[@H#[@H.",
"H@)@D.[@H.H@D.D.o#2*7*G.+@$+t$D.)@D.)@!@k@G.[$J=[@H#P@P@H#u@)@w+r+!@[@H#h@ @=,-,;,`#M$C 2;q+C ;.:+a.u$t+H>( ( ( ( ( ( ( ( ( ( ( ( ( ( ( ( ( ( ( ( ( ( ( ( ( ( ( >,7+S  +b.!@*+[@!@!@'@;=,,',),3#'@P@H#<@3+H#k@'@F !@)@D.!@o#[$)@H#'@F k@H@[@D.7*%+Z+H@H@)@D.D.D.!@o#o#o#",
"D.[@)@H#i@H@H@)@i@D.H@G.+@r+o#H.J=o#i@H#'@H@c+H@)@*#'@'@p%u@)@}$@.)@*+<@!@4#!,~,{,`#M$'+q+I#q+v+ +f.t+r+H>( ( ( ( ( ( ( ( ( ( ( ( ( ( ( ( ( ( ( ( ( ( ( ( ( ( ( >,'@S ],W.o#[@)@!@[@*#^,/,(,),:&'@P@H#k@X 7+*+P@k@)@!@H#!@D.+.H.H#!@<@u@J=*+[@a$y>Z+Z+Y;[@)@D.o#o#D.D.D.",
"D.H#H#*+i@%+i@)@H.Z+_,G.+@u+H.H.)@D.H.!@k@%+#.D.)@P@@$'@P@[@J=w+O$,@H#*+H#k+:,<,$,*#k@'@8+I#'@w+ +U.$+{+H>( ( ( ( ( ( ( ( ( ( ( ( ( ( ( ( ( ( ( ( ( ( ( ( ( ( ( %,k@S Y.b.)@[@*+H#[@*#[,},|,),1,'@u@_$k@X H#k@!@)@i@,@!@)@2*+.D.)@[@)@)@2*)@o#C.7*e#%+!@*+i@H.H.G.H.H.H.",
"D.[@[@)@G.H@)@o#D.G.H@D.r+r+H.o#[@i@o#D.)@7*(+2*!@k@<@`#u@)@i@}$t+7+H#u@k@O@2,3,4,u@<@h@q+m@k@w+<+U.G.r+H>( ( ( ( ( ( ( ( ( ( ( ( ( ( ( ( ( ( ( ( ( ( ( ( ( ( ( 5,k@X .+V.o#H#P@'@'@*#6,7,',8,m@H##-P@F V H#8 H#)@H.D.o#2*G.v+%+o#)@i@i@Z+)@o#^+H.H@)@*+H#o#H@G.G.H.%+G.",
"G.H@H@Z+7*7*G.)@i@G.H@Z+r+$+D.i@!@)@H#)@%+@.(+)@*+!@P@H#)@)@D.[$$+k@!@)@F O@9,0,a,#-*+M$Z#'@k@9$<+U.u$r+H>( ( ( ( ( ( ( ( ( ( ( ( ( ( ( ( ( ( ( ( ( ( ( ( ( ( ( b,9 1+.+T.o#p%k@'@k@_$g-c,d,e,'@k@u@k@k@S o#8 7+D.D.)@H.2*G.;.i@i@H#!@H@y>H.D.^+D.o#)@)@H#o#H@G.D.D.2*%+",
"7*7*7*%+H.%+G.D.H@G.7*7*+@r+H.D.!@H#k@)@%+a$w+)@k@!@H#!@[@)@)@v+G.8 7+k@m@f,g,h,i,i@!@k@M$F k@9$ +U.u$O$H>( ( ( ( ( ( ( ( ( ( ( ( ( ( ( ( ( ( ( ( ( ( ( ( ( ( ( j,7+1+Z.S.!@'@*+=#H#!@k,l,m,n,u@k@)@[@H#S H.k@7+H.D.)@D.2*G...%+)@*+H#H@7*H.D.r+H.D.o#i@[@D.D.%+H@G.7*%+",
"H@H@G.2*!@i@)@[@H.G.%+G.+@u+H.H.H.)@7+o#)@@.v+%+`#*+k@u@[@u@2*b$O$7+8 k@k@.#o,p,q,D.!@o#H#P@<@#.>;T.%+s+H>( ( ( ( ( ( ( ( ( ( ( ( ( ( ( ( ( ( ( ( ( ( ( ( ( ( ( 5,7+1+g.T.k@'@H#k@[@)@r,s,t,u,D.7+)@D.!@S H.k@!@H.D.[@H#)@^+..H@H@)@i@v,C.G.V#@.G.G.D.H.H.D.%+%+7*G.%+2*",
"D.H@^+H@[@D.o#!@[@H.G.7*^+{+%+%+D.)@7+!@!@r+;.7*[@u@*+)@)@D.H@s-%%o#k@'@I#U&w,x,y,v,!@o#!@u@!@[$ +U./+r+H>( ( ( ( ( ( ( ( ( ( ( ( ( ( ( ( ( ( ( ( ( ( ( ( ( ( ( z,[@X |+S.7+'@<@H#!@<@A,B,C,D,J**+i@[@!@S D.<@!@D.%+)@H#)@G.w+G.%+G.G.7*a$7*H.@.G.H@)@H@i@%+2*H.%+7*%+H@",
"H@H@G.H@)@H.H.[@!@!@D.G.^+r+%+G.i@o#!@[@D.#.2+7*i@)@u@J=2*J=H@2+$.!@o#)@*+U+E,F,G,D.!@9 *+*+H.;..+U.H.$%H>( ( ( ( ( ( ( ( ( ( ( ( ( ( ( ( ( ( ( ( ( ( ( ( ( ( ( H,#%U g=S.7+m@'@k@'@'@9&I,J,K,b+)@J=2*o#S o#*+i@H@7*H.[@D.$+,.G.G.%+7*7*a$7*H.#.%+D.[@[@)@%+D.H.H@G.H.G.",
"7*Z+2*H@)@D.i@)@o#[@i@%+r+r+%+G.i@)@[@i@%+#.2+^+G.)@[@H@H@)@H@2+$.!@)@i@!@L,M,N,4,)@,@,@o#7+i@1+}+S.%+r+O,( ( ( ( ( ( ( ( ( ( ( ( ( ( ( ( ( ( ( ( ( ( ( ( ( ( ( H,#%S Z.V.7+m@P@k@<@'@P,Q,R,,>'@D.)@2*!@S %+D.Y;)@Z+G.D.T$#.X r+7*G.7*^+C.^+/+#.G.H.D.o#H.%+H.D.G.D.H.H.",
"a$G.2*i@D.H.b@D.H.H.D.H.+@r+%+G.D.H@G.7*7*(+5+@.C.G.2*%+J=)@H@1+{+D.i@i@!@S,M,T,`>u@3 9 o#o#H.k$Y.T.O$s+O,( ( ( ( ( ( ( ( ( ( ( ( ( ( ( ( ( ( ( ( ( ( ( ( ( ( ( H,o#x+Z.V.t$P@u@!@[@P@U,},V,W,`#D.[@i@H@x+^+H@2*%+Z+%+%+G.>.S r+^+7*7*^++@r+%+{+t+G.G.G.G.G.%+D.b@D.G.^+",
"C.Z+7*H.D.H.H.V#2*H.i@%+@.u+%+G.G.7*a$+@r+[$5+@.7*C.7*Z+J=H@7*k$u+%+D.[@[@L,X,Y,Z,'@h@k@7+o#%+3+.+T.$%s+O,( ( ( ( ( ( ( ( ( ( ( ( ( ( ( ( ( ( ( ( ( ( ( ( ( ( ( `,D.4+g.T.D.o#i@)@D.)@#> '.'8,'@u@*+H#D.4+a$G.%+^+%+%+G.@.w+W @.r+7*7*^+r+^+H.$.@.r+^+a$@.@.G.b@H.H.%+C.",
"+@7*C.7*H.%+H.D.%+H.H.G.{+3 i@G.C.a$@.^+7*(+5+@.a$+@G.2*H@Z+7*5+O$b@D.[@[@#*:,+'Z,'@M$9 7+H#D.X }+T.$+$+O,( ( ( ( ( ( ( ( ( ( ( ( ( ( ( ( ( ( ( ( ( ( ( ( ( ( ( @'D.@+a.T.H.o#)@H@Z+)@#' '$'%'n=H#P@[@o#].G.G.2*^+D.G.7*@.[$S a$7*^+^+C.r+%+t$x$r+G.G.7*G>9$^+%+G.H.G.G.",
"G.G.C.G.2*G.H.D.2*D.%+r+#%H.G.r+@.(+1+@.t+..2+r+7*@.^+%+2*Z+%+&+u+H.D.D.[@#*:,&'*'`#8 3 o#!@D.&+:>U.%+S$O,( ( ( ( ( ( ( ( ( ( ( ( ( ( ( ( ( ( ( ( ( ( ( ( ( ( ( @'t$N g.T.H.i@2*H.D.Y;=' '$'-'n=*+!@H#H#x+%+G.H.r+%+G.G.C.w+S 6+r+X @.C.^+^+D.7+#.G.G.H@a$9$^+%+$+%+G.%+",
"G.G.^+^+%+2*i@D.)@D.%+w+$+%+^+#.(+;'N$(+~@T 5+X &+5+B.;.2+5+#.;.@.H.)@D.H##*>'<,`>u@k@k@3 #%H.v+}*T.|=O$,'( ( ( ( ( ( ( ( ( ( ( ( ( ( ( ( ( ( ( ( ( ( ( ( ( ( ( ''D.T b.)'H.H@%+i@D.u@!'~'{'8,S#!@7+k@H##+^+S w+,.S &+&+S 2+K ]+[$S T #.C.^+H.t$&+^+%+%+(+#.r+7*^+r+G.G.",
"G.G.r+r+G.H@%+%+D.H@+@2+r+G.r+(+^.!.{+v+T S ~$!.Z.H {.:+;' +r+2+(+%+J=H.7+~+]'^'/')@9 k@!@o#D.;.}+T.$+s+,'( ( ( ( ( ( ( ( ( ( ( ( ( ( ( ( ( ( ( ( ( ( ( ( ( ( ( ('#%N f._'H.J=%+D.i@i@='},:'<'*#!@[@o#!@#+r+_+L ['}'|'K P ++S H ;.-.S T $.C.H.o#X @.G.G.@.r+G.G.a$r+G.^+",
"^+^+G.G.%+%+H@7*T$T$(+2+r+^+@.;.T +.1+K #+2+S X.^.K :>;'X.K b$3+(+H.H@%+)@4&1'2'3')@9 7+o#)@i@&+}+T.r+u+,'( ( ( ( ( ( ( ( ( ( ( ( ( ( ( ( ( ( ( ( ( ( ( ( ( ( ( `=H.@+b.4'D.i@i@!@!@[@g-},5'<'P@o#D.D.o##+$.H 6'P G=}'!&7'8'].#+H 1+]+T ;.G.%+V#S @.G.G.G.^+%+G.6+^+r+r+",
"r+t+r+r+^+G.7*r+%+%+#.2+u+^+(+{+(+&+T ^.&+1+9'K M ++;'v=!&:+[$3+{+!@i@2*!@&#0'a'b')@7+k@D.D.7*x%Y.T.$%v$,'( ( ( ( ( ( ( ( ( ( ( ( ( ( ( ( ( ( ( ( ( ( ( ( ( ( ( c'u$L g=S.H.D.!@7+7+H#d'e'f'g'k@)@H@H.o#Q #.@+M h';':>i'M v=@+1+;.!&S ;.C.@.G.V#S (+^+G.7*G.%+%+r+G.^+%+",
"7*%+G.r+@.@.r+@.t+G.#.v+u$%+(+v+&+@+Q j'$.;.x%]+b$v+1+&+&+5+x$+.G.7+)@!@k@'@k'l'm'D.!@7+H.D.G.3+}+f.$++.,'( ( ( ( ( ( ( ( ( ( ( ( ( ( ( ( ( ( ( ( ( ( ( ( ( ( ( n'G.T Z.W./+H.i@o#7+u@o'#=p'q'M$o#H@o#!@].t$&+'>2+w+P=&+5+X 5+..r'N$H 2+[$a$^+!@3+[$r+7*^+r+G.H.G./+T$H.",
"s'G.G.r+@.@.r+r+r+r+(+w+^#3@~+^#p#@.2+&+B.B.S #+#+B.}=4+@+_+S X t$!@D.7+8 D.t'u'v'D.o#D.%+H.G.3+ ++.#%%%,'( ( ( ( ( ( ( ( ( ( ( ( ( ( ( ( ( ( ( ( ( ( ( ( ( ( ( n't+@.H W.t+D.H.[@!@D.%$B=w'A=3 V#H.[@3 '>1+S [+}=].#+Q #+].x+#+S x+;.2##*>%x'`%;.w+r+G.G.r+r+u$H./+^+G.",
"r+@.@.^+^+^+^+G.r+@.[$S s+/+H.H.!@/*U+F$p#Y$^#I#n=/#n=3#5&y'z'h@#%o#H.k@G.A''*q,_-G.D.%+G.%+7*5+U m@D.+.,'( ( ( ( ( ( ( ( ( ( ( ( ( ( ( ( ( ( ( ( ( ( ( ( ( ( ( B'r+o#+.Z.7*H.)@H#)@7*^;C'D'E'+.o#[@7+!@)@F'G'H'P@5&^#/*p#i*w%~+:&#*~+D t$H.[@!@#+w+r+r++@a$6+$+/+$+r+G.",
"@.(+(+@.^+G.r+G.^+@.0$U s+G.%+H@%+o#*+D.!@k@7+D.H.H.C.%+7*7*D.H.D.o#D.k@^+I'J'}=S G.D.G.7*7*^+3+N %+H.+.,'( ( ( ( ( ( ( ( ( ( ( ( ( ( ( ( ( ( ( ( ( ( ( ( ( ( ( K'%+u$&+g.G.%+2*!@!@7*L'M'N'O'&+3 7+7+9 H@D.D.)@[@)@%+[@k@!@o#%+%+%+i@H.G.G.%+D.@+[$a$@.#.#.@.$+G.r+@.^+",
"#.(+[$@.^+r+@.r+a$a$9$S O$#%H.%+%+H.o#G.o#k@[@o#D.D.G.%+G.G.o#7+%+H.D.o#@.],P'4+X G.H.G.7*^+^+3+T 7*%+-.Q'( ( ( ( ( ( ( ( ( ( ( ( ( ( ( ( ( ( ( ( ( ( ( ( ( ( ( R'G.%+1+b.G.G.%+)@!@7*s-],H ],U D.!@!@[@7+o#D.D.!@o#G.H.D.o#H.b@%+r+^+%+^+^+H.H.@+..(+9$#.E>@.$+^+@.$.u+",
"@.(+(+(+r+@.r+^+@.#.[$S u+H.%+G.%+G.u$G.D.D.D.u$G.H.G.G.D.!@7+D.%+G.b@H.$.S'T'#+X G.D.G.r+t+r+S T ^+G.,.Q'( ( ( ( ( ( ( ( ( ( ( ( ( ( ( ( ( ( ( ( ( ( ( ( ( ( ( U'G.G.U b.^+%+^+H.o#G.w+D>~$Y.X u$o#D.!@9 3 [@!@9 o#G.H.b@V#G.G.r+@.7*%+H.G.i@V#].v+(+[$w+w+#.$+G.C.(++.",
"@.(+[$(+@.@.@.@.r+9$[$W $%H.T$^+^+G.r+^+u$V'H.%+u$u$b@H.!@k@o#H.H.G.G.G.$.Y.V.N*!.t+G.G.r+r+s'S @+@.G.Z Q'( ( ( ( ( ( ( ( ( ( ( ( ( ( ( ( ( ( ( ( ( ( ( ( ( ( ( W'$%t+V b.^+G.r+$+o#G...[+~$.+1+[@[@o#V#o#H.8 !@!@D.%+H.G.H.u$u$r+G.2*%+)@%+H.o#@+v+(+[$w+;.+.r+$+^+#.(+",
"9$Q+[$[$#.#.(+E>#.9$0$S $%H.G.r+r+%+O$r+G.H.o#H.u$G.G.H.!@[@D.H.b@G.^+$++.Z.P'4+Q u+G.C.@.r+r+S L #.O$U X'( ( ( ( ( ( ( ( ( ( ( ( ( ( ( ( ( ( ( ( ( ( ( ( ( ( ( W'G.t+U U.@.r+s'^+G.^+..Y'H :*X H.V#V#,@V#H#k@3 H.%+^+H.u$H.u$u$r+C.2*%+G.D.H.o#@+;.E>>.w+2++.r+^++@[$]+",
">.w+[$Q+#.$.E>[$[$#.w+S s+H.G.^+u$H.r+r+t+D.3 3 u$t+G.G.V#V#H.D.D.H.%+^+[$Z.V.].S #.^+@.(+#.6+S M #.O$U X'( ( ( ( ( ( ( ( ( ( ( ( ( ( ( ( ( ( ( ( ( ( ( ( ( ( ( W'G.r+S V.@.^+r+C.@.(+2+[+~$:*S t+G.G.H.b@,@o##%u$G.%+H.G.H.u$u$D.G.o#u$%+D.H.3 @+;.[$[$v+2++.{+$.{++...",
"[$w+w+w+#.[$}$}$+.[$w+#+*%G.r+%+D.%+7*G.G.G.Z'V#u$t+G.G.%+D.D.H.G.t+G.t++.M [+X S $.O$@.$.@.$.#+H $.#.U X'( ( ( ( ( ( ( ( ( ( ( ( ( ( ( ( ( ( ( ( ( ( ( ( ( ( ( `'u+@.S f.{+r+#.c+(+(+1+H Q ^.X r+r+G.G.b@H.3 o#D.G.G.H.G.G.G.G.b@u$V#H.H.H.H.8 @+2+[$w+w+v+[$#.[$+.w+..",
"v+v+;.v+[$v+w++.w+w+;.S /+$+$+G.G.%+^+G.G.u$u$b@G.G.G.D.G.t+u$H.t+O$^+t++.[+S &+U $. )#.(+#.w+#+L +.$.U X'( ( ( ( ( ( ( ( ( ( ( ( ( ( ( ( ( ( ( ( ( ( ( ( ( ( ( .)$.$.S b.(+{+(+c+(++.1+S %%].X r+#.@.r+^+%+H.u$o#+)t+G.^+t+s'C.t+G.b@G.t+G.^+D.X X w+[$v+v+[$+.....;.` ",
"2+2+1+1+;.;.;.v+v+;.S /+G.G.r+G.^+G.O$^+G.G.V't+t+t+G.G.G.G.u$^+r+#.s+A@+.~$@)-.S +.#.Q+~@#.Q+].H %%$.U X'( ( ( ( ( ( ( ( ( ( ( ( ( ( ( ( ( ( ( ( ( ( ( ( ( ( ( #)$.$.S b.(+@.#.(+#.(+;.U ;+@+N$_%@.@.#.@.^+^+G.%+O$r+O$r+ ) )s'C.r+r+t+O$G.@.r+%+_-&+;.2+5+` ;.;.1+5+3+",
"~$~$T @+T T T @+].@+$.{+$.$.+.#.$.$.+.$.#.#.#.#.$.$.$.$.#.#.#.#.$.+.%%v$U :+^.K [$[$$.~@..[$#.T I +.$.Q X'( ( ( ( ( ( ( ( ( ( ( ( ( ( ( ( ( ( ( ( ( ( ( ( ( ( ( $)%%$.].S.@.#.(+#.#.w+[$T M [+#+$%+.w+[$$.{+#.~@(++.+.(++.~@+.#.$.+.+.+.+.+...,...@.@+}=@+'-T @+@+~$~$~$",
";.1+3+2+x%;.;.;.0$+.S Z.U.4'_'%)4'T.T.S.U.T.T.S.S.S.S.U.T.V.g=}*:+++:>`.:+#+3+$.w+;.` &+1+{.-.I &)+.$.Q X'( ( ( ( ( ( ( ( ( ( ( ( ( ( ( ( ( ( ( ( ( ( ( ( ( ( ( $)$.*)Q V.r+X S v+]+&+]++.B.3+H ++Z.Z.`.}+g.b.S.4'=)T.T.%)_'4'4'%)=)4'T.V.T.T.S.b.@+^;(+9$}$0$0$[$}$[$w+",
"-);););)-)>)-);)-),)-)')u.')P.))N.!)Q.!);)-);)-);)Q.u.u.u.;);)-););)!);)-);)!);)u.P.O.N.u.u.~){)H w+..N X'( ( ( ( ( ( ( ( ( ( ( ( ( ( ( ( ( ( ( ( ( ( ( ( ( ( ( ])...._+^)/)')u.P.()P.u.');)_)_)_)-););)!)u.P.');)Q.Q.;);););)!)P.N.u.')u.')u.!);)_):)<)_););)u.');););)",
"|+|+b.b.Y.Y.[)|+|+|+h.|+Z.b.h.V.W.b.b.b.g.Y.|+b.h.V.h.h.h.})})b.b.b.b.|+|+b.b.Z. +],|)|+|+M'1)2)3)x+T :>X'( ( ( ( ( ( ( ( ( ( ( ( ( ( ( ( ( ( ( ( ( ( ( ( ( ( ( 4)!&N '-5)6)7)],Z.|)a.})|+|)Z.Y.<+Y.Z.h.})|+b.b.|+})|+[)Y.Y.Z.|+b.h.h.b.h.a.b.h.h.|)Y.8)9)h.0)h.h.h.g=|+",
"E E _%M$@*)+F k@8 8 8 _%j R-8 8 _%b b B x @*j B '+k@h@M$M$E E D )+B )+B )+l )+l )+)+C E _%M$F m@'+C )+4*1=( ( ( ( ( ( ( ( ( ( ( ( ( ( ( ( ( ( ( ( ( ( ( ( ( ( ( a)c*C l@<$q+'+9+)+y B h*l@l@O@l@b)y B E c)f h@M$'@M$l@B B j R-C )+4*4*l@B <$4*h@k@k@M$'+{*3 o#9 3 V#_%M$",
"d)e)f)f)g)d)h)i)j)k)l)m)n)o)d)p)t=d)o)q)n)r)s)t)q)d)t=t=t=d)t=d)t)u)v)u)w)w)w)g)o)o)d)t=f)x)t=t=t=e)v)y);-( ( ( ( ( ( ( ( ( ( ( ( ( ( ( ( ( ( ( ( ( ( ( ( ( ( ( z)d)e)e)m)m)m)o)t)A)B)o)u)C)m)o)w)D)t)g)E)o)d)t=t=t=g)w)t)t)o)m)o)m)v)D)u)w)o)g)t=t=t=t=h)F)F)h)F)G)H)k)"};
