/* XPM */
static char * so_door17_tex_xpm[] = {
"132 132 1446 2",
"  	c #2D3640",
". 	c #2D3741",
"+ 	c #2D3641",
"@ 	c #2E3841",
"# 	c #2D3842",
"$ 	c #2E3944",
"% 	c #2E3943",
"& 	c #2F3A45",
"* 	c #2E3842",
"= 	c #2F3B46",
"- 	c #2F3944",
"; 	c #2F3A46",
"> 	c #303C46",
", 	c #303B46",
"' 	c #303C47",
") 	c #303A45",
"! 	c #313D4A",
"~ 	c #313E4A",
"{ 	c #323E4A",
"] 	c #323F4A",
"^ 	c #313D48",
"/ 	c #35393C",
"( 	c #393939",
"_ 	c #303B45",
": 	c #323F4B",
"< 	c #313D49",
"[ 	c #303C48",
"} 	c #2E3843",
"| 	c #2E3A45",
"1 	c #2E3A44",
"2 	c #2E3942",
"3 	c #243443",
"4 	c #253544",
"5 	c #253646",
"6 	c #253645",
"7 	c #243544",
"8 	c #253545",
"9 	c #263746",
"0 	c #273847",
"a 	c #263645",
"b 	c #273645",
"c 	c #283847",
"d 	c #283948",
"e 	c #293A49",
"f 	c #283949",
"g 	c #273848",
"h 	c #293B4A",
"i 	c #293949",
"j 	c #293B4B",
"k 	c #293A4A",
"l 	c #2A3B4B",
"m 	c #2A3B4A",
"n 	c #2B3D4C",
"o 	c #2C3F4F",
"p 	c #2D3F4F",
"q 	c #2C3F50",
"r 	c #2D4151",
"s 	c #2C3D4C",
"t 	c #33393E",
"u 	c #2B3C4B",
"v 	c #2A3C4B",
"w 	c #293C4B",
"x 	c #2D4050",
"y 	c #283848",
"z 	c #283A49",
"A 	c #273948",
"B 	c #273947",
"C 	c #263846",
"D 	c #253746",
"E 	c #17222D",
"F 	c #18242D",
"G 	c #18242E",
"H 	c #17242D",
"I 	c #17232D",
"J 	c #192530",
"K 	c #19242F",
"L 	c #1A2630",
"M 	c #1A2732",
"N 	c #1A2631",
"O 	c #1A2833",
"P 	c #18252F",
"Q 	c #1B2833",
"R 	c #1B2834",
"S 	c #1A2733",
"T 	c #1B2934",
"U 	c #1C2934",
"V 	c #1C2A35",
"W 	c #1C2A36",
"X 	c #1D2A36",
"Y 	c #1D2B38",
"Z 	c #1E2D39",
"` 	c #1F2F3C",
" .	c #1F2E3B",
"..	c #1F2E3A",
"+.	c #1F2C39",
"@.	c #313437",
"#.	c #303337",
"$.	c #1F2C38",
"%.	c #1E2C38",
"&.	c #1C2B37",
"*.	c #1D2D3A",
"=.	c #1D2B37",
"-.	c #1C2935",
";.	c #1B2733",
">.	c #1B2933",
",.	c #1A2632",
"'.	c #1A2731",
").	c #192631",
"!.	c #192630",
"~.	c #19252F",
"{.	c #070C11",
"].	c #070D11",
"^.	c #070D12",
"/.	c #070B10",
"(.	c #070C10",
"_.	c #080D12",
":.	c #070D13",
"<.	c #080E12",
"[.	c #080E13",
"}.	c #080F14",
"|.	c #080D13",
"1.	c #080E14",
"2.	c #090E14",
"3.	c #091015",
"4.	c #09131B",
"5.	c #091C2B",
"6.	c #0F1E29",
"7.	c #131F27",
"8.	c #131E27",
"9.	c #131C24",
"0.	c #2F3031",
"a.	c #2E2F31",
"b.	c #131E26",
"c.	c #141F28",
"d.	c #121E27",
"e.	c #091C29",
"f.	c #08151F",
"g.	c #081015",
"h.	c #090F14",
"i.	c #090F15",
"j.	c #0C141A",
"k.	c #0D151B",
"l.	c #0C141B",
"m.	c #0B131A",
"n.	c #0D151C",
"o.	c #0E171E",
"p.	c #0B1218",
"q.	c #0B1319",
"r.	c #0C151B",
"s.	c #0A1117",
"t.	c #0A1116",
"u.	c #0C1319",
"v.	c #0E1821",
"w.	c #0F1E2A",
"x.	c #192733",
"y.	c #20303E",
"z.	c #223341",
"A.	c #303336",
"B.	c #2F3236",
"C.	c #21313F",
"D.	c #223340",
"E.	c #101E28",
"F.	c #0E1A23",
"G.	c #0B151B",
"H.	c #0A1218",
"I.	c #0F161E",
"J.	c #0E161D",
"K.	c #0D161C",
"L.	c #0E171D",
"M.	c #0F181F",
"N.	c #0B141A",
"O.	c #121C25",
"P.	c #131D26",
"Q.	c #121D26",
"R.	c #131D27",
"S.	c #142028",
"T.	c #14202A",
"U.	c #142029",
"V.	c #16212B",
"W.	c #15222C",
"X.	c #15212B",
"Y.	c #16222B",
"Z.	c #182530",
"`.	c #192732",
" +	c #21313E",
".+	c #21323F",
"++	c #1C2B36",
"@+	c #233644",
"#+	c #1E303F",
"$+	c #293C4C",
"%+	c #233340",
"&+	c #313438",
"*+	c #2F3337",
"=+	c #263947",
"-+	c #283B4A",
";+	c #192834",
">+	c #263B4B",
",+	c #1F2F3B",
"'+	c #1D2C38",
")+	c #20313E",
"!+	c #22333F",
"~+	c #1E2E3A",
"{+	c #192731",
"]+	c #16222C",
"^+	c #15212C",
"/+	c #16232D",
"(+	c #15202A",
"_+	c #131F28",
":+	c #121D25",
"<+	c #1A2934",
"[+	c #182631",
"}+	c #1B2935",
"|+	c #1F303C",
"1+	c #243644",
"2+	c #273949",
"3+	c #283B4B",
"4+	c #2A3E4E",
"5+	c #2C4253",
"6+	c #243847",
"7+	c #1E2E3B",
"8+	c #283C4C",
"9+	c #2A3F4F",
"0+	c #243442",
"a+	c #313538",
"b+	c #303438",
"c+	c #283A4B",
"d+	c #293D4D",
"e+	c #273B4C",
"f+	c #2D4253",
"g+	c #2B4050",
"h+	c #2B3F4F",
"i+	c #2B4051",
"j+	c #2A3E4D",
"k+	c #263948",
"l+	c #20303D",
"m+	c #202F3B",
"n+	c #21303E",
"o+	c #20303C",
"p+	c #1B2A36",
"q+	c #1C2B38",
"r+	c #1D2C39",
"s+	c #192632",
"t+	c #1B2A35",
"u+	c #263744",
"v+	c #2C4151",
"w+	c #2C4152",
"x+	c #2A3F4E",
"y+	c #2E4354",
"z+	c #2E4455",
"A+	c #2D4353",
"B+	c #2F4456",
"C+	c #2D4354",
"D+	c #2D4454",
"E+	c #32485A",
"F+	c #324A5C",
"G+	c #32495B",
"H+	c #32495C",
"I+	c #31485B",
"J+	c #31485A",
"K+	c #2C4354",
"L+	c #1E303E",
"M+	c #1E2D3A",
"N+	c #293E4E",
"O+	c #2A3E4F",
"P+	c #2E4557",
"Q+	c #263C4C",
"R+	c #2A3F50",
"S+	c #323639",
"T+	c #303539",
"U+	c #2B4153",
"V+	c #203240",
"W+	c #2D4355",
"X+	c #293D4E",
"Y+	c #2B3F51",
"Z+	c #1F2F3D",
"`+	c #293D4B",
" @	c #344B5E",
".@	c #314658",
"+@	c #314859",
"@@	c #2F4557",
"#@	c #304658",
"$@	c #2D4252",
"%@	c #2B4151",
"&@	c #2B3F50",
"*@	c #2C4051",
"=@	c #243746",
"-@	c #223442",
";@	c #233342",
">@	c #233543",
",@	c #1E2C39",
"'@	c #2E4355",
")@	c #2E4353",
"!@	c #2B4152",
"~@	c #304759",
"{@	c #344C5F",
"]@	c #2D4457",
"^@	c #1E313F",
"/@	c #243745",
"(@	c #233443",
"_@	c #2A3D4E",
":@	c #2E4558",
"<@	c #2E4659",
"[@	c #294052",
"}@	c #293E4F",
"|@	c #2B4052",
"1@	c #273745",
"2@	c #32363A",
"3@	c #30353A",
"4@	c #293D4C",
"5@	c #2C4355",
"6@	c #213443",
"7@	c #2F4558",
"8@	c #223240",
"9@	c #374F62",
"0@	c #2E4456",
"a@	c #2F4457",
"b@	c #2D4455",
"c@	c #2B3E4F",
"d@	c #253846",
"e@	c #223441",
"f@	c #273A49",
"g@	c #253847",
"h@	c #304558",
"i@	c #2E4457",
"j@	c #2D4152",
"k@	c #30485B",
"l@	c #31495D",
"m@	c #2D4659",
"n@	c #1F3342",
"o@	c #223543",
"p@	c #223542",
"q@	c #2D4557",
"r@	c #30475A",
"s@	c #2B4254",
"t@	c #243645",
"u@	c #2C4254",
"v@	c #273846",
"w@	c #33373B",
"x@	c #30363B",
"y@	c #213343",
"z@	c #2F4659",
"A@	c #2A4052",
"B@	c #2C4153",
"C@	c #213240",
"D@	c #223645",
"E@	c #31485C",
"F@	c #30485A",
"G@	c #31495C",
"H@	c #31475A",
"I@	c #2E4658",
"J@	c #273A4A",
"K@	c #233645",
"L@	c #334A5C",
"M@	c #304557",
"N@	c #2D4254",
"O@	c #304659",
"P@	c #32495D",
"Q@	c #324A5E",
"R@	c #1B2F3D",
"S@	c #2A3F51",
"T@	c #293E50",
"U@	c #30373C",
"V@	c #203341",
"W@	c #32495E",
"X@	c #1A2B38",
"Y@	c #30495C",
"Z@	c #324A5D",
"`@	c #334B5E",
" #	c #2F4658",
".#	c #374E62",
"+#	c #253848",
"@#	c #233646",
"##	c #243646",
"$#	c #344A5D",
"%#	c #304657",
"&#	c #314759",
"*#	c #334A5E",
"=#	c #344C60",
"-#	c #324B5F",
";#	c #334C61",
">#	c #2E485B",
",#	c #1D3140",
"'#	c #263A49",
")#	c #253949",
"!#	c #2D4356",
"~#	c #33373C",
"{#	c #30373D",
"]#	c #1F303F",
"^#	c #1D2E3B",
"/#	c #334A5D",
"(#	c #344D61",
"_#	c #375063",
":#	c #273B4B",
"<#	c #273A4B",
"[#	c #263A4A",
"}#	c #293C4D",
"|#	c #314758",
"1#	c #334B5F",
"2#	c #334C60",
"3#	c #344D62",
"4#	c #314A5F",
"5#	c #1F3241",
"6#	c #2D4357",
"7#	c #34383D",
"8#	c #31383F",
"9#	c #1F303E",
"0#	c #1E2F3D",
"a#	c #324A5F",
"b#	c #30475B",
"c#	c #344D60",
"d#	c #354E61",
"e#	c #354D61",
"f#	c #344E62",
"g#	c #354D62",
"h#	c #385164",
"i#	c #233442",
"j#	c #283D4C",
"k#	c #283A4A",
"l#	c #283B4C",
"m#	c #344C5E",
"n#	c #324C5F",
"o#	c #2F485C",
"p#	c #1F3140",
"q#	c #1A2834",
"r#	c #2E4458",
"s#	c #34393D",
"t#	c #31393F",
"u#	c #1E303D",
"v#	c #2D4558",
"w#	c #2C4052",
"x#	c #314A5E",
"y#	c #344C61",
"z#	c #354E62",
"A#	c #354E63",
"B#	c #385165",
"C#	c #233544",
"D#	c #253948",
"E#	c #293B4C",
"F#	c #334B5D",
"G#	c #334D61",
"H#	c #2F495D",
"I#	c #203140",
"J#	c #35393D",
"K#	c #313940",
"L#	c #2A4051",
"M#	c #233746",
"N#	c #3A5368",
"O#	c #2A3D4D",
"P#	c #233341",
"Q#	c #2C4252",
"R#	c #334B60",
"S#	c #2F475B",
"T#	c #253947",
"U#	c #233545",
"V#	c #1C2B39",
"W#	c #2B4154",
"X#	c #2D4456",
"Y#	c #243846",
"Z#	c #395367",
"`#	c #344B60",
" $	c #1E3140",
".$	c #253747",
"+$	c #283E4F",
"@$	c #35393E",
"#$	c #313A41",
"$$	c #293D4F",
"%$	c #1B2C39",
"&$	c #30465A",
"*$	c #375064",
"=$	c #273B4A",
"-$	c #33495B",
";$	c #17242E",
">$	c #203444",
",$	c #2F475A",
"'$	c #353A3E",
")$	c #313A42",
"!$	c #182734",
"~$	c #223544",
"{$	c #18242F",
"]$	c #283C4B",
"^$	c #1D2D39",
"/$	c #1C2C39",
"($	c #314C60",
"_$	c #2B475C",
":$	c #213D51",
"<$	c #243E50",
"[$	c #17242F",
"}$	c #1D2E3C",
"|$	c #253B4D",
"1$	c #253E52",
"2$	c #2A465A",
"3$	c #1E2F3B",
"4$	c #1D2E39",
"5$	c #1F303D",
"6$	c #1C2C38",
"7$	c #2E4352",
"8$	c #2B3E4E",
"9$	c #30485C",
"0$	c #37546B",
"a$	c #1F4965",
"b$	c #1A74A2",
"c$	c #2A495E",
"d$	c #2A4153",
"e$	c #1A2935",
"f$	c #323B43",
"g$	c #1A2A36",
"h$	c #1C2D3A",
"i$	c #2C4659",
"j$	c #2A5B7B",
"k$	c #265F82",
"l$	c #305069",
"m$	c #365064",
"n$	c #233542",
"o$	c #22323F",
"p$	c #1F2E39",
"q$	c #1E2D38",
"r$	c #20313D",
"s$	c #20303B",
"t$	c #1D2C37",
"u$	c #355065",
"v$	c #1D4864",
"w$	c #127BB7",
"x$	c #2A4A61",
"y$	c #2C4356",
"z$	c #283E4E",
"A$	c #1B2B38",
"B$	c #2E4A5E",
"C$	c #286388",
"D$	c #246287",
"E$	c #2F4E66",
"F$	c #202F3A",
"G$	c #253745",
"H$	c #1B2A34",
"I$	c #202F3C",
"J$	c #233440",
"K$	c #1D2C36",
"L$	c #21303B",
"M$	c #21313D",
"N$	c #21333F",
"O$	c #385268",
"P$	c #1E4864",
"Q$	c #137BB9",
"R$	c #2B4B61",
"S$	c #273C4C",
"T$	c #303941",
"U$	c #2F4A5E",
"V$	c #296489",
"W$	c #236389",
"X$	c #2F4F66",
"Y$	c #30485D",
"Z$	c #243543",
"`$	c #233441",
" %	c #21303D",
".%	c #1F2D39",
"+%	c #243542",
"@%	c #21303C",
"#%	c #1E4966",
"$%	c #0F7CC1",
"%%	c #2B4A61",
"&%	c #283D4D",
"*%	c #2B404F",
"=%	c #363A3D",
"-%	c #313B43",
";%	c #28658A",
">%	c #23668D",
",%	c #2F5067",
"'%	c #2E475A",
")%	c #334C5F",
"!%	c #233643",
"~%	c #223440",
"{%	c #263745",
"]%	c #2E4253",
"^%	c #385368",
"/%	c #1F4966",
"(%	c #0E7DC4",
"_%	c #2C4B62",
":%	c #36393D",
"<%	c #313A43",
"[%	c #2A6488",
"}%	c #22668F",
"|%	c #2F5069",
"1%	c #2A3E50",
"2%	c #263848",
"3%	c #365267",
"4%	c #1E4765",
"5%	c #1279C2",
"6%	c #2D4A61",
"7%	c #303A44",
"8%	c #2A668B",
"9%	c #216690",
"0%	c #2F526B",
"a%	c #2C4456",
"b%	c #32485B",
"c%	c #365167",
"d%	c #1277C2",
"e%	c #2F485D",
"f%	c #2B658A",
"g%	c #206692",
"h%	c #30526B",
"i%	c #31495E",
"j%	c #293F4F",
"k%	c #293F50",
"l%	c #233745",
"m%	c #354F65",
"n%	c #1E4967",
"o%	c #107AC4",
"p%	c #2E4C63",
"q%	c #363A3E",
"r%	c #313B45",
"s%	c #293E4D",
"t%	c #1B2B36",
"u%	c #2F495E",
"v%	c #2B658C",
"w%	c #1F6693",
"x%	c #30536D",
"y%	c #2C4457",
"z%	c #344F64",
"A%	c #0F7BC7",
"B%	c #2D4C63",
"C%	c #2F3A43",
"D%	c #2C658B",
"E%	c #1F6692",
"F%	c #30526C",
"G%	c #2D4458",
"H%	c #283C4D",
"I%	c #26394A",
"J%	c #1E4763",
"K%	c #0F7AC6",
"L%	c #2C4C63",
"M%	c #2F4A5F",
"N%	c #21668F",
"O%	c #2F5169",
"P%	c #2C4255",
"Q%	c #2A4050",
"R%	c #283D4E",
"S%	c #204763",
"T%	c #0F7CC6",
"U%	c #303B44",
"V%	c #216790",
"W%	c #2A4152",
"X%	c #1F4763",
"Y%	c #0E7DC5",
"Z%	c #2C4D64",
"`%	c #2F3B45",
" &	c #2B4253",
".&	c #304A5F",
"+&	c #22658F",
"@&	c #2F4759",
"#&	c #1F4864",
"$&	c #0D7EC7",
"%&	c #2D4E65",
"&&	c #2B6386",
"*&	c #23648C",
"=&	c #1D445F",
"-&	c #127CBC",
";&	c #2B4B62",
">&	c #18252E",
",&	c #36393C",
"'&	c #2F3A44",
")&	c #2E4559",
"!&	c #2D475B",
"~&	c #2B6081",
"{&	c #266083",
"]&	c #2B4A60",
"^&	c #2A3F52",
"/&	c #1F3A4E",
"(&	c #2A5875",
"_&	c #253F53",
":&	c #254A62",
"<&	c #224862",
"[&	c #1C3040",
"}&	c #253A49",
"|&	c #2C4759",
"1&	c #244055",
"2&	c #254F69",
"3&	c #243C4E",
"4&	c #2E3A43",
"5&	c #273E50",
"6&	c #25485E",
"7&	c #254962",
"8&	c #294458",
"9&	c #304758",
"0&	c #1D4561",
"a&	c #1B73A7",
"b&	c #28485F",
"c&	c #37393C",
"d&	c #293F51",
"e&	c #294356",
"f&	c #2A5F80",
"g&	c #255F83",
"h&	c #2C4960",
"i&	c #1D4764",
"j&	c #127BBD",
"k&	c #2A4B62",
"l&	c #2C475B",
"m&	c #236289",
"n&	c #2E4D65",
"o&	c #1E4A67",
"p&	c #107CC4",
"q&	c #2A4A62",
"r&	c #293E4C",
"s&	c #2E3A46",
"t&	c #2C485D",
"u&	c #29668C",
"v&	c #216590",
"w&	c #1E4866",
"x&	c #107BC4",
"y&	c #2D3A44",
"z&	c #29668A",
"A&	c #206792",
"B&	c #2D4F68",
"C&	c #304859",
"D&	c #1E4A68",
"E&	c #107BC3",
"F&	c #2A4961",
"G&	c #37393B",
"H&	c #2D3943",
"I&	c #2B475B",
"J&	c #263949",
"K&	c #1D4966",
"L&	c #1279BD",
"M&	c #2A485F",
"N&	c #2D3A45",
"O&	c #2B4559",
"P&	c #296386",
"Q&	c #236489",
"R&	c #2D4F67",
"S&	c #2B4252",
"T&	c #1579B5",
"U&	c #29485E",
"V&	c #2B4558",
"W&	c #296082",
"X&	c #256083",
"Y&	c #2A3D4C",
"Z&	c #263B4C",
"`&	c #1D2F3B",
" *	c #1A384C",
".*	c #21526E",
"+*	c #253E51",
"@*	c #2C3842",
"#*	c #214962",
"$*	c #204962",
"%*	c #2B4457",
"&*	c #1A2A37",
"**	c #1A3040",
"=*	c #2C3742",
"-*	c #1D303F",
";*	c #1C2E3D",
">*	c #263845",
",*	c #17232E",
"'*	c #2C3944",
")*	c #253A48",
"!*	c #38393B",
"~*	c #2D3B45",
"{*	c #15212A",
"]*	c #37393A",
"^*	c #2B3944",
"/*	c #152029",
"(*	c #1F303B",
"_*	c #213442",
":*	c #213340",
"<*	c #273C4A",
"[*	c #273A48",
"}*	c #38393A",
"|*	c #2C3945",
"1*	c #20313F",
"2*	c #172B39",
"3*	c #182833",
"4*	c #2B3844",
"5*	c #172936",
"6*	c #213647",
"7*	c #253845",
"8*	c #284155",
"9*	c #1B3F56",
"0*	c #255A77",
"a*	c #1F394B",
"b*	c #273B49",
"c*	c #293F4E",
"d*	c #2A3843",
"e*	c #223746",
"f*	c #285773",
"g*	c #1B445D",
"h*	c #223E53",
"i*	c #294357",
"j*	c #1D4159",
"k*	c #1973A8",
"l*	c #24648A",
"m*	c #2B495F",
"n*	c #293642",
"o*	c #275471",
"p*	c #0F7DC0",
"q*	c #1E4964",
"r*	c #264257",
"s*	c #294153",
"t*	c #1D3F56",
"u*	c #1C6F9F",
"v*	c #1E6D9C",
"w*	c #2D536D",
"x*	c #293743",
"y*	c #304D64",
"z*	c #285E81",
"A*	c #0980C9",
"B*	c #1E4863",
"C*	c #264055",
"D*	c #273C4D",
"E*	c #1B3648",
"F*	c #1A72A5",
"G*	c #2D5570",
"H*	c #192833",
"I*	c #2A3844",
"J*	c #24638A",
"K*	c #147AB2",
"L*	c #1C3E54",
"M*	c #273C4B",
"N*	c #1A3141",
"O*	c #1D3B4F",
"P*	c #285D7C",
"Q*	c #2B536D",
"R*	c #293844",
"S*	c #2F4D65",
"T*	c #285A78",
"U*	c #1F425A",
"V*	c #1A3346",
"W*	c #253C4E",
"X*	c #1B394F",
"Y*	c #275876",
"Z*	c #285A77",
"`*	c #2A4C62",
" =	c #293845",
".=	c #2D4A60",
"+=	c #224D68",
"@=	c #206A96",
"#=	c #1C4057",
"$=	c #253F52",
"%=	c #253946",
"&=	c #263B4A",
"*=	c #1D3C53",
"==	c #275777",
"-=	c #127DBD",
";=	c #2C4E65",
">=	c #1971A8",
",=	c #216692",
"'=	c #1B3E56",
")=	c #263E51",
"!=	c #283E51",
"~=	c #1E3D54",
"{=	c #265474",
"]=	c #2D5774",
"^=	c #2B465B",
"/=	c #182630",
"(=	c #21323E",
"_=	c #383939",
":=	c #263641",
"<=	c #2C4559",
"[=	c #2E526D",
"}=	c #1474B3",
"|=	c #236189",
"1=	c #1B3D56",
"2=	c #263C4F",
"3=	c #253A4A",
"4=	c #283F50",
"5=	c #1D3C54",
"6=	c #234E6C",
"7=	c #0782D3",
"8=	c #2B5B7B",
"9=	c #2C485E",
"0=	c #15222A",
"a=	c #263440",
"b=	c #141F27",
"c=	c #2C4458",
"d=	c #2D5470",
"e=	c #0E7ABF",
"f=	c #265B7D",
"g=	c #1A3A4F",
"h=	c #243A4B",
"i=	c #1E3B50",
"j=	c #1F4C6A",
"k=	c #0382DA",
"l=	c #2A5C7E",
"m=	c #2C4A60",
"n=	c #24323F",
"o=	c #233642",
"p=	c #141E26",
"q=	c #0E7CC3",
"r=	c #275676",
"s=	c #193549",
"t=	c #25394B",
"u=	c #243948",
"v=	c #1E3241",
"w=	c #193950",
"x=	c #295F82",
"y=	c #2C4A62",
"z=	c #1E2E39",
"A=	c #1C2933",
"B=	c #151F27",
"C=	c #2B5471",
"D=	c #1A2C3A",
"E=	c #213341",
"F=	c #253A4B",
"G=	c #162936",
"H=	c #1A3447",
"I=	c #2B516C",
"J=	c #2D4B61",
"K=	c #1C2C37",
"L=	c #333537",
"M=	c #282D32",
"N=	c #284F69",
"O=	c #1E4256",
"P=	c #162733",
"Q=	c #162835",
"R=	c #283C4A",
"S=	c #101C25",
"T=	c #141D26",
"U=	c #353738",
"V=	c #252E35",
"W=	c #24394A",
"X=	c #1A2D3A",
"Y=	c #172430",
"Z=	c #223443",
"`=	c #203340",
" -	c #16242E",
".-	c #182732",
"+-	c #152531",
"@-	c #122C3E",
"#-	c #103C55",
"$-	c #383839",
"%-	c #212F3A",
"&-	c #213342",
"*-	c #2B4354",
"=-	c #17252F",
"--	c #273D4C",
";-	c #1C303D",
">-	c #162C3B",
",-	c #124361",
"'-	c #11688D",
")-	c #103447",
"!-	c #35383A",
"~-	c #29343E",
"{-	c #1A2933",
"]-	c #1B3140",
"^-	c #153143",
"/-	c #134B6C",
"(-	c #0B729B",
"_-	c #10394F",
":-	c #35383B",
"<-	c #293640",
"[-	c #2C4558",
"}-	c #273D4E",
"|-	c #213645",
"1-	c #245570",
"2-	c #27455C",
"3-	c #263C4D",
"4-	c #163449",
"5-	c #144D6E",
"6-	c #0A749E",
"7-	c #103B52",
"8-	c #283641",
"9-	c #284255",
"0-	c #263F52",
"a-	c #205371",
"b-	c #233B4D",
"c-	c #233B4C",
"d-	c #127CA8",
"e-	c #274F6C",
"f-	c #263D4F",
"g-	c #153449",
"h-	c #154D6F",
"i-	c #0774A3",
"j-	c #103B53",
"k-	c #29495F",
"l-	c #0E7BAD",
"m-	c #234358",
"n-	c #1B2B37",
"o-	c #243E4F",
"p-	c #0A84B7",
"q-	c #28516F",
"r-	c #273E51",
"s-	c #294051",
"t-	c #1B303F",
"u-	c #153247",
"v-	c #144C6E",
"w-	c #0675A5",
"x-	c #0F3A52",
"y-	c #284256",
"z-	c #283E4D",
"A-	c #2A4B61",
"B-	c #0783B8",
"C-	c #24455B",
"D-	c #0E81B0",
"E-	c #28506C",
"F-	c #153347",
"G-	c #144C6D",
"H-	c #0973A0",
"I-	c #28343F",
"J-	c #274053",
"K-	c #2A495F",
"L-	c #0C7EAC",
"M-	c #283A48",
"N-	c #233848",
"O-	c #275E7C",
"P-	c #29475D",
"Q-	c #1C3141",
"R-	c #153043",
"S-	c #144A6B",
"T-	c #0975A1",
"U-	c #103B51",
"V-	c #284154",
"W-	c #275B77",
"X-	c #243C4F",
"Y-	c #263F51",
"Z-	c #1D3241",
"`-	c #152D3D",
" ;	c #144764",
".;	c #0D7299",
"+;	c #11384D",
"@;	c #35373A",
"#;	c #28323C",
"$;	c #283F51",
"%;	c #273F51",
"&;	c #16222D",
"*;	c #15364A",
"=;	c #124D69",
"-;	c #212F3B",
";;	c #1B2D3A",
">;	c #172A3A",
",;	c #2D373F",
"';	c #1E2C37",
");	c #1C2D39",
"!;	c #2F3439",
"~;	c #333639",
"{;	c #1E3749",
"];	c #27526E",
"^;	c #27455B",
"/;	c #2F363C",
"(;	c #204A63",
"_;	c #214A60",
":;	c #1B2E3C",
"<;	c #263847",
"[;	c #2E4759",
"};	c #224259",
"|;	c #0880D0",
"1;	c #285C7E",
"2;	c #254259",
"3;	c #33363A",
"4;	c #2E343A",
"5;	c #24526F",
"6;	c #088ACD",
"7;	c #254E68",
"8;	c #2A4254",
"9;	c #2F4C62",
"0;	c #285372",
"a;	c #008AE3",
"b;	c #275675",
"c;	c #254156",
"d;	c #2E3439",
"e;	c #283F53",
"f;	c #244E69",
"g;	c #0683D2",
"h;	c #276083",
"i;	c #2F5168",
"j;	c #295979",
"k;	c #0087E2",
"l;	c #265270",
"m;	c #253F54",
"n;	c #17252E",
"o;	c #33373A",
"p;	c #2E353B",
"q;	c #273D4F",
"r;	c #254A63",
"s;	c #0A7ECC",
"t;	c #216997",
"u;	c #294E68",
"v;	c #2B4356",
"w;	c #2B4E66",
"x;	c #266088",
"y;	c #0188DB",
"z;	c #25516E",
"A;	c #263F53",
"B;	c #34373B",
"C;	c #2F353C",
"D;	c #1479B7",
"E;	c #1B71A7",
"F;	c #284E68",
"G;	c #2D475C",
"H;	c #2B4F67",
"I;	c #236692",
"J;	c #117EBB",
"K;	c #234C66",
"L;	c #274052",
"M;	c #34373A",
"N;	c #2E353C",
"O;	c #26475D",
"P;	c #1D6F9E",
"Q;	c #1577B4",
"R;	c #28506B",
"S;	c #2D485D",
"T;	c #213441",
"U;	c #2D485B",
"V;	c #2B4F68",
"W;	c #226994",
"X;	c #256487",
"Y;	c #213E51",
"Z;	c #2B3F4E",
"`;	c #213A4C",
" >	c #205571",
".>	c #137AB1",
"+>	c #274F69",
"@>	c #304D63",
"#>	c #2E495D",
"$>	c #27465C",
"%>	c #224358",
"&>	c #224A66",
"*>	c #234258",
"=>	c #1B2B35",
"->	c #264256",
";>	c #1E4B64",
">>	c #204157",
",>	c #24465C",
"'>	c #2E4C61",
")>	c #244155",
"!>	c #0C7EC5",
"~>	c #23648E",
"{>	c #24435A",
"]>	c #16212A",
"^>	c #34383B",
"/>	c #2E363C",
"(>	c #274357",
"_>	c #235572",
":>	c #0886C7",
"<>	c #23475E",
"[>	c #2F4B60",
"}>	c #26516F",
"|>	c #0083DD",
"1>	c #265C82",
"2>	c #234157",
"3>	c #152129",
"4>	c #2D353C",
"5>	c #264054",
"6>	c #224F6C",
"7>	c #0588D4",
"8>	c #265471",
"9>	c #2F4D63",
"0>	c #0181DA",
"a>	c #255372",
"b>	c #0882CF",
"c>	c #27597A",
"d>	c #2C4C64",
"e>	c #2E516A",
"f>	c #245170",
"g>	c #1774AD",
"h>	c #1E3C51",
"i>	c #2D343B",
"j>	c #1E3546",
"k>	c #206A99",
"l>	c #294D66",
"m>	c #1D2D38",
"n>	c #2A485C",
"o>	c #203E52",
"p>	c #192A38",
"q>	c #172733",
"r>	c #1F3C4F",
"s>	c #28455A",
"t>	c #1F313E",
"u>	c #2C353B",
"v>	c #2C333B",
"w>	c #343739",
"x>	c #2C333A",
"y>	c #15222D",
"z>	c #1D2E3A",
"A>	c #182834",
"B>	c #1E2F3C",
"C>	c #353739",
"D>	c #182632",
"E>	c #162D3D",
"F>	c #17455B",
"G>	c #1D3342",
"H>	c #18384B",
"I>	c #16394E",
"J>	c #23394A",
"K>	c #163E57",
"L>	c #1A7198",
"M>	c #204054",
"N>	c #2B3239",
"O>	c #253D4F",
"P>	c #255673",
"Q>	c #1F5978",
"R>	c #244257",
"S>	c #223342",
"T>	c #17425D",
"U>	c #147AAD",
"V>	c #204359",
"W>	c #295D7D",
"X>	c #235E7F",
"Y>	c #25455B",
"Z>	c #184461",
"`>	c #107CB7",
" ,	c #22445B",
".,	c #2A3239",
"+,	c #2A5E7F",
"@,	c #225F82",
"#,	c #18435F",
"$,	c #107CB8",
"%,	c #21445B",
"&,	c #2A323A",
"*,	c #2A5F7F",
"=,	c #235F83",
"-,	c #24445B",
";,	c #18425E",
">,	c #0F7DBB",
",,	c #21445C",
"',	c #14212B",
"),	c #243F53",
"!,	c #295F7F",
"~,	c #236084",
"{,	c #20323F",
"],	c #17415D",
"^,	c #117CB9",
"/,	c #243E52",
"(,	c #2A5F7E",
"_,	c #226084",
":,	c #25394A",
"<,	c #17405B",
"[,	c #147AB1",
"},	c #204257",
"|,	c #293138",
"1,	c #223C4E",
"2,	c #2A5E7C",
"3,	c #234359",
"4,	c #173D57",
"5,	c #1677AA",
"6,	c #204155",
"7,	c #2A3139",
"8,	c #2A5C79",
"9,	c #255D7D",
"0,	c #214055",
"a,	c #1D2F3D",
"b,	c #17354A",
"c,	c #21607E",
"d,	c #1D394C",
"e,	c #293139",
"f,	c #203646",
"g,	c #204F6A",
"h,	c #1E506B",
"i,	c #1A3345",
"j,	c #182D3B",
"k,	c #1F3E52",
"l,	c #1C2F3D",
"m,	c #1F3340",
"n,	c #1E384B",
"o,	c #1F394D",
"p,	c #1A2B39",
"q,	c #213241",
"r,	c #1A3F57",
"s,	c #1C6A8D",
"t,	c #1D3C4F",
"u,	c #293038",
"v,	c #21394A",
"w,	c #23536F",
"x,	c #1F5471",
"y,	c #27455A",
"z,	c #153F59",
"A,	c #1578A7",
"B,	c #1F4055",
"C,	c #283038",
"D,	c #2A5C7A",
"E,	c #225978",
"F,	c #224258",
"G,	c #263A4B",
"H,	c #16415C",
"I,	c #137AB0",
"J,	c #363739",
"K,	c #233C4E",
"L,	c #2A5E7E",
"M,	c #235A7A",
"N,	c #253849",
"O,	c #127BB1",
"P,	c #223B4D",
"Q,	c #225B7C",
"R,	c #234257",
"S,	c #17425E",
"T,	c #117CB4",
"U,	c #20445A",
"V,	c #273037",
"W,	c #2B5F7F",
"X,	c #235D7E",
"Y,	c #107DB7",
"Z,	c #272F37",
"`,	c #223A4C",
" '	c #245C7E",
".'	c #244359",
"+'	c #107DB9",
"@'	c #20435A",
"#'	c #223C4D",
"$'	c #24445A",
"%'	c #192730",
"&'	c #17405C",
"*'	c #363738",
"='	c #272F36",
"-'	c #111C23",
";'	c #233C4D",
">'	c #2B607F",
",'	c #235C7F",
"''	c #163F5B",
")'	c #127AB7",
"!'	c #204258",
"~'	c #262E35",
"{'	c #111B23",
"]'	c #235B7E",
"^'	c #224157",
"/'	c #152028",
"('	c #1B2832",
"_'	c #18232C",
":'	c #153E59",
"<'	c #1379AF",
"['	c #1E4156",
"}'	c #121C24",
"|'	c #225C7E",
"1'	c #17222B",
"2'	c #17232C",
"3'	c #19252E",
"4'	c #142129",
"5'	c #143D57",
"6'	c #1279A9",
"7'	c #1D4056",
"8'	c #242C33",
"9'	c #223A4B",
"0'	c #2B5E7B",
"a'	c #225B7D",
"b'	c #223F54",
"c'	c #162129",
"d'	c #19262F",
"e'	c #273946",
"f'	c #133A51",
"g'	c #167198",
"h'	c #1C3D51",
"i'	c #232B32",
"j'	c #21384A",
"k'	c #205978",
"l'	c #213C4F",
"m'	c #293B49",
"n'	c #142B3C",
"o'	c #184057",
"p'	c #1B2E3D",
"q'	c #17384E",
"r'	c #294050",
"s'	c #243848",
"t'	c #253C4C",
"u'	c #142430",
"v'	c #232C33",
"w'	c #172835",
"x'	c #1F3749",
"y'	c #182F3E",
"z'	c #263D4E",
"A'	c #263D4D",
"B'	c #233846",
"C'	c #111F2A",
"D'	c #0F1A23",
"E'	c #242C34",
"F'	c #1B2A37",
"G'	c #131F29",
"H'	c #15232D",
"I'	c #12202A",
"J'	c #111C25",
"K'	c #373738",
"L'	c #232B34",
"M'	c #14212A",
"N'	c #111D25",
"O'	c #232B33",
"P'	c #22313F",
"Q'	c #202F3D",
"R'	c #222B33",
"S'	c #373838",
"T'	c #16232E",
"U'	c #233240",
"V'	c #222A32",
"W'	c #1F2E3C",
"X'	c #202A32",
"Y'	c #21303F",
"Z'	c #23333F",
"`'	c #202931",
" )	c #1F272E",
".)	c #111B24",
"+)	c #17222C",
"@)	c #202E3B",
"#)	c #111C24",
"$)	c #0F1820",
"%)	c #0F1920",
"&)	c #101920",
"*)	c #101A20",
"=)	c #0E181F",
"-)	c #0E161C",
";)	c #0F171F",
">)	c #0F1921",
",)	c #111E28",
"')	c #1E262D",
"))	c #121F28",
"!)	c #111C26",
"~)	c #0D161E",
"{)	c #101A21",
"])	c #101B23",
"^)	c #101B22",
"/)	c #141F29",
"()	c #131E28",
"_)	c #132029",
":)	c #13222D",
"<)	c #132939",
"[)	c #162530",
"})	c #1B2229",
"|)	c #142938",
"1)	c #132431",
"2)	c #14222C",
"3)	c #13212A",
"4)	c #132028",
"5)	c #121D27",
"6)	c #25323D",
"7)	c #2B3E4D",
"8)	c #273746",
"9)	c #24313E",
"0)	c #253440",
"a)	c #24333F",
"b)	c #23313D",
"c)	c #23313C",
"d)	c #22303C",
"e)	c #23303C",
"f)	c #23313E",
"g)	c #243440",
"h)	c #283845",
"i)	c #253441",
"j)	c #24313F",
"k)	c #263442",
"l)	c #283744",
"m)	c #273643",
"n)	c #263542",
"o)	c #253542",
"p)	c #263643",
"q)	c #263543",
"r)	c #23323E",
"s)	c #24343F",
"t)	c #25343F",
"u)	c #242F38",
"v)	c #273543",
"w)	c #253541",
"x)	c #243441",
"y)	c #253442",
"z)	c #25333F",
"A)	c #222F3B",
"  . + . @ . # $ % $ & * @ % & & & = & - - - ; ; > & , ' > = = & & ; = & = , ' ) ' ' ' ! ~ { { ] ^ / ( ( ( ( ( ( ( ( ( ( ( ( ( ( ( ( ( ( ( ( ( ( ( ( ( ( ( ( ( ( ( ( ( / _ ' ' { { { : { ~ < , ' ' [ ' , & & } & ' & & & & ; & & & & = | & & & & 1 % % # 2 % 1 * * % @ * ",
"3 4 4 5 6 4 7 8 6 9 0 9 a b c d d e f d c c f f f 9 g h h f f d f i j k e k l m l m n o p o q r s t ( ( ( ( ( ( ( ( ( ( ( ( ( ( ( ( ( ( ( ( ( ( ( ( ( ( ( ( ( ( ( ( ( t u v w q r x p n n h e m v m f d d g 0 f v k i f d e y y f i h f y z z A B C D 6 6 6 D a 9 9 6 4 ",
"E F F G G H E E I J J K K K J J L M M N N N M O M P J Q R M M S O Q R Q T U V W X W Y Z `  .....+.@.( ( ( ( ( ( ( ( ( ( ( ( ( ( ( ( ( ( ( ( ( ( ( ( ( ( ( ( ( ( ( ( ( #.$.%.&.*.Z %.%.=.W -.Q V X V ;.;.Q Q Q >.T Q M M N ,.N ;.M Q Q ;.'.O O ).!.J J K P G P ~.J ~.G F ",
"{.].].^.].{./.(.{._._.^._._._.:.<.[.[._.[.[.[.[.}.:.|.1.}.1.1.1.}.}.1.[.[.[.1.1.2.}.3.4.5.6.7.8.9.0.( ( ( ( ( ( ( ( ( ( ( ( ( ( ( ( ( ( ( ( ( ( ( ( ( ( ( ( ( ( ( ( ( a.b.c.d.e.f.g.h.h.h.2.1.2.h.h.1.}.}.}.}.h.i.1.[.1._.|.[.1.1.2.2.1.[.1.1.[.[.[.[.[.|.^.^.[.[.|.^.].",
"j.j.j.j.j.j.j.k.l.m.j.l.j.j.n.o.l.p.p.q.m.j.q.j.k.j.q.j.n.k.r.j.l.j.q.s.t.h.i.t.u.j.j.v.w.x.y.z.+.A.( ( ( ( ( ( ( ( ( ( ( ( ( ( ( ( ( ( ( ( ( ( ( ( ( ( ( ( ( ( ( ( ( B.C.D.Z E.F.G.H.q.q.p.t.t.H.j.n.o.I.J.r.n.J.o.l.j.l.j.l.K.J.n.l.l.l.k.L.M.M.o.J.k.r.j.l.l.j.m.N.j.",
"O.P.P.Q.P.b.b.b.8.R.R.R.c.c.S.T.U.U.U.V.W.W.W.X.X.U.U.Y.I I G Z.).`.Z.J V =... +.+..++@+#+&.A $+%+&+( ( ( ( ( ( ( ( ( ( ( ( ( ( ( ( ( ( ( ( ( ( ( ( ( ( ( ( ( ( ( ( ( *+=+-+@+;+>+,+'+)+!+~+Z ..`.O T T Q R O {+O E V.]+V.X.^+W.I /+Y.(+U.S.U.U.U.7._+c._+c.S.R.Q.:+d.R.",
"<+T T O S Q T Q ).P P P [+).O <+}+W W &.W ++W }+}+O O W Z Z Z ..|+,+~+..1+A 2+3+$+4+$+5+6+7+8+9+0+a+( ( ( ( ( ( ( ( ( ( ( ( ( ( ( ( ( ( ( ( ( ( ( ( ( ( ( ( ( ( ( ( ( b+c+d+e+*.f+g+h+i+j+3+k+-+l+m+l+.+n+o+..Z ..++p+&.&.q+'+'+r+q+++}+R O x.s+x.[+).s+&.q+&.<+O <+}+}+",
"'+'+W R O R t+u+3+j+v+j+w+x+4+g+y+z+A+B+C+D+C+w+A+w+A+E+F+G+H+I+J+K+L+M+V 2+N+O+d+w+z+P+Q+D.N+R+u+S+( ( ( ( ( ( ( ( ( ( ( ( ( ( ( ( ( ( ( ( ( ( ( ( ( ( ( ( ( ( ( ( ( T+3+O+U+V+C+A+y+W+X+Y+d+.. .Z+`+J+ @G+.@+@@@z+A+B+#@B+@@y+z+$@%@g+i+w+&@h+$@$@*@4+j+,+W &.}+}+<+<+",
"6 =@1+-@;@>@-@,@e j+j+3+4+d+9+w+C+C+w+'@C+)@5+w+!@w+w+W+~@~@~@I+{@]@^@/@(@$+9+_@$+9+:@<@[@1+}@|@1@2@( ( ( ( ( ( ( ( ( ( ( ( ( ( ( ( ( ( ( ( ( ( ( ( ( ( ( ( ( ( ( ( ( 3@4@|@5@6@<@P+7@5+4+5+w+8@=+V+$+9@I+#@7@0@a@z+b@@@~@#@P+0@C+w+g+&@&@Y+9+c@w+$@i+w o+>@d@/@e@y.V+C.",
"2+2+f@g@k+A g@y.V *@&@9+i+i+i+w+h@7@B+@@~@@@7@i@W+C+j@@@J+H+k@k@l@m@n@o@p@8+O+O+N+}@q@r@s@t@R+u@v@w@( ( ( ( ( ( ( ( ( ( ( ( ( ( ( ( ( ( ( ( ( ( ( ( ( ( ( ( ( ( ( ( ( x@_@5+u@y@z@r@<@A@$+B@|@C@g@D@8+E@z@F@G@#@#@@@0@~@H@~@I+~@I@0@5+u@5+w+!@|@C+C+#@o+)+2+$+J@=@z.-@K@",
"3+J@3+J@2+3+J@1+` L@M@9+w+w+i+N@#@H@I+O@P@r@I+r@I@I@7@r@H+Q@l@E@Q@m@R@U.p@e+!@|@S@T@W+E@5@t@|@0@B w@( ( ( ( ( ( ( ( ( ( ( ( ( ( ( ( ( ( ( ( ( ( ( ( ( ( ( ( ( ( ( ( ( U@Y+N@|@V@r@W@O@S@N+P+Y+C.r+X@e+Y@:@I+Q@I+Z@I+#@H+I+H@`@Q@l@I+#@ #@@a@5+|@W+B+.#l+t@8+9+$++#=@@###",
"3+J@8+$+8+8+J@D C.$#%#w+z+N@w+b@@@&#*#=#*#P@Q@l@I+I+I+I+Z@*#*#-#;#>#,#[+'#)#|@u@|@|@!#r@s@d@5+W+B ~#( ( ( ( ( ( ( ( ( ( ( ( ( ( ( ( ( ( ( ( ( ( ( ( ( ( ( ( ( ( ( ( ( {#|@W+|@]#r@E@@@5+5+O@R+K@V+^#}@Q@~@l@W@Q@`@`@/#*#I+I+(#(#=#*#Q@Z@I+H@@@5+z+@@_#.+=@$+4+:#<#[#'#J@",
"-+3+3+8+$+}#3+g@8@ @|#C+W+@@@@#@I+I+`@(#*#P@Q@1#Q@Q@P@l@W@*#1#2#3#4#5#;+J@2+|@:@7@u@W+k@5@k+6#W+z 7#( ( ( ( ( ( ( ( ( ( ( ( ( ( ( ( ( ( ( ( ( ( ( ( ( ( ( ( ( ( ( ( ( 8#|@i@5+9#<@:@P+u@W+H@w+=@C@0#9+1#a#b#l@1#c#(#d#e#l@I+*#f#g#e#=#=#`@H+7@N@W+#@h#i#D j#j#J@3+J@J@3+",
"3+k#J@J@8+4+O+l#;@m#J+C+@@H@I+*#{@`@`@*#Q@7@I+Q@(#-#P@Q@-#1#2#1#n#o#p#q#f@D Y+:@z@:@I@r@U+D r#i@w s#( ( ( ( ( ( ( ( ( ( ( ( ( ( ( ( ( ( ( ( ( ( ( ( ( ( ( ( ( ( ( ( ( t#5+i@|@u#v#]@5@]@z@r@w#6+-@L+N+-#*#k@x#f#y#=#z#A#2#l@-#1#f#g#g#(#(#*#@@N@z+#@B#C#A $+8+8+D#g@D#k+",
"$+$+E#2+c+&@i+d+>@F#+@N@C+ #~@Z@*# @*#*#F@i@]@z@*#Q@E@*#1#P@a#2#G#H#I#q#D#=@X+!#O@i@:@:@A@t@]@:@w J#( ( ( ( ( ( ( ( ( ( ( ( ( ( ( ( ( ( ( ( ( ( ( ( ( ( ( ( ( ( ( ( ( K#C+I@L#*.5@5@U+:@E@~@i+M#-@L+9+(#y#l@l@2#=#z#=#g#{@E@E@I+`@1#1#2#f#`@:@u@N@~@N#6 3+4+9+4+d+J@J@J@",
"&@9+O#$+$+9+9+8+P#G+&#Q#|@5+u@:@H+Z@Z@`@~@0@:@r@Q@H+P@-#1#Q@-#R#3#S#p#t+T#U#X+B@7@k@:@]@}@t@P+!#j s#( ( ( ( ( ( ( ( ( ( ( ( ( ( ( ( ( ( ( ( ( ( ( ( ( ( ( ( ( ( ( ( ( 8#0@@@R+V#W#5@X#r@r@i@R+Y#o@V+O+f#f#;#2#1#2#=#I+`@*#r@H+r@I+Z@Q@P@l@P@z@N@u@~@Z#=@$+w+f+&@9+4+j#f@",
"&@&@9+9+d+:#3+2+;@+@7@w+R+!@!@R+X#I+G+H+I+7@:@~@H+~@E@P@Q@`#y#;#2#b# $p+.$D A@B@r@l@I+I@+$>@u@W+v @$( ( ( ( ( ( ( ( ( ( ( ( ( ( ( ( ( ( ( ( ( ( ( ( ( ( ( ( ( ( ( ( ( #$W+X#$$%$v#]@:@r@I@ #|@@#(@9#X+1#g#(#=#-#-#Q@I+=#{@H@r@F@z@G@I+r@&$I+E@!#N@:@*$t@$+i+w#w+R+&@$+:#",
"4+&@9+&@d+:#=$=+i#-$+@R+X+d+r+]+;$).).J P I I G P P ).T d@E@2#Q@1#H#>$C#8+g@|@]@,$F@Q@k@L#;$D !@v '$( ( ( ( ( ( ( ( ( ( ( ( ( ( ( ( ( ( ( ( ( ( ( ( ( ( ( ( ( ( ( ( ( )$B@R+O !$r@z@z@i@W+P+|@D#J@~$&@R#(#(#-#i+r+O x.O O P ;$;${$).).[+Z.t+W+W+d+N@=#C#]$R+Q#|@9+4+4@d+",
"Y+&@c@&@O+$+=$2+t@C l+p+p+p+p+~+..^$&.^$,@^$/$r+..7+ .1+ .#@`@-#-#($_$:$<$e+:@z@r@r@E@k@A@[$P !@O#'$( ( ( ( ( ( ( ( ( ( ( ( ( ( ( ( ( ( ( ( ( ( ( ( ( ( ( ( ( ( ( ( ( #$5+t@;$}$Y@r@z@!#w#W+u@|$1$2$Q@*#*#1#2#l+D.C./$3$,+^$^$4$*./$~+)+5$*.C. .6$o+k+=@4+|@5+w+R+i+&@&@",
"&@g+j+j+9+$+8+2+g@|#4@J@/@.+5$m+7$t@C.o+C.C.~+z.n+y.d@8$j @@I+Q@9$1#0$a$b$c$]@z@O@k@O@:@d$e$t+!@j+'$( ( ( ( ( ( ( ( ( ( ( ( ( ( ( ( ( ( ( ( ( ( ( ( ( ( ( ( ( ( ( ( ( f$i+8+g$h$k@I@]@!#5+!#i$j$k$l$m$=#l@E@`@n$y+=+ .)+C.n+i# .` .+t@*@!+)+=@D 3+h++@$+N+!@u@Q#i+w+i+w+",
"i+&@&@9+R+$+8+[#-@%#$+<#g@P#D.o$p$-@6 q$r$>.s$t$M o$Z d+J@@@b#b#,$-#u$v$w$x$y$]@:@!#!#5@z$g$t+R+8$J#( ( ( ( ( ( ( ( ( ( ( ( ( ( ( ( ( ( ( ( ( ( ( ( ( ( ( ( ( ( ( ( ( )$R+N+6$A$ #]@5@u@5@:@B$C$D$E$-#r@I@9$`@=@Q#,+o$!.m+p$>.F$M -@=@n$.+i#G$2+E#h+@@f@4+Y+u@w+w+w+w+i+",
"i+|@Y+&@i+X+8+'#-@+@9+]$t@H$n$D.I$..G$Z q$J$K$L$M$U N$R+g@0@r@b#<@Y@O$P$Q$R$!#0@u@|@W+|@S$e$O i+g+J#( ( ( ( ( ( ( ( ( ( ( ( ( ( ( ( ( ( ( ( ( ( ( ( ( ( ( ( ( ( ( ( ( T$|@4+6$<+I@v#!#u@y$I@U$V$W$X$Y$<@<@k@2#t@w+@+H$m+Z F$!+>.o$D.i#o$d@d@m+Z$$+4+#@A d+L#5+!@w+5+w+|@",
"d+R+R+|@i+w+R+8+@+ @w+8+<#G$m+n$`$ %)+i#n+.%+%m+@%+%'+j#J@b@k@9$<@k@O$#%$%%%5@W+B@B@u@u@&%e$`.%@*%=%( ( ( ( ( ( ( ( ( ( ( ( ( ( ( ( ( ( ( ( ( ( ( ( ( ( ( ( ( ( ( ( ( -%|@4+/$T :@I@:@v#:@:@H#;%>%,%4#'%<@Y@)%=@5+~+!%^$l+u+p$~% +=@C.A 3+~%n$d+$+Q#+@2+N+i+|@|@|@w+Q#C+",
"$+d+d+9+|@|@!@d+=@F#w+8+8+j#G$..t@{%o$t@l#w+]%y+#@A+d+!@8+b@k@9$,$9$^%/%(%_%!#]@5@U+u@N@8+e$!.g+8$:%( ( ( ( ( ( ( ( ( ( ( ( ( ( ( ( ( ( ( ( ( ( ( ( ( ( ( ( ( ( ( ( ( <%i+d+q+O q@I@:@X#I@z@U$[%}%|%4#,$,$k@Q@D b@9+!@L#w+f+h+9+l#P#3+8+Z$1+9+d+d+C+J+2+8+R+|@|@|@|@|@Q#",
"Y+i+O+4+1%}@Y+N+=@F+f+X+d+d+R+d@J@k#2%##1%u@u@u@P+]@U+U+'#z+l@l@b#o#3%4%5%6%:@z@!#5@5@!@8+e$P &@h+:%( ( ( ( ( ( ( ( ( ( ( ( ( ( ( ( ( ( ( ( ( ( ( ( ( ( ( ( ( ( ( ( ( 7%|@d+&.O q@<@<@]@:@r@H#8%9%0%4#k@,$o#Z@-@!@W+a%5@C+X#N@|@R+=@d+Y+3+|@S@R+Y+5@b%g@J@X+O+R+L#i+i+9+",
"Y+L#O+d+d+}@}@d+g@J+C+9+R+R+w+!@j#8+J@.$R+u@W+N@B@y$U+!@+#0@r@E@&$9$c%#%d%6%O@~@I@X#!@!@8+<+;$4+c@:%( ( ( ( ( ( ( ( ( ( ( ( ( ( ( ( ( ( ( ( ( ( ( ( ( ( ( ( ( ( ( ( ( 7%w+d+&.O q@]@]@5@]@Y@e%f%g%h%-#i%,$z@G@=@5@!#]@5@X#X#i@!@R+D 9+L#|@5+|@$$!@i@H@2+&%}@R+R+j%L#R+X+",
"L#L#$$&%N+N+&%&%:#3+w+|@U+u@W+]@!@Y+N+J@|@W+v# #]@5@k%k%l%w+i@7@ #k@m%n%o%p%F@I+7@:@!#a%j#}+Z.4+4+q%( ( ( ( ( ( ( ( ( ( ( ( ( ( ( ( ( ( ( ( ( ( ( ( ( ( ( ( ( ( ( ( ( r%K+s%t%Q q@!#]@]@r@b#u%v%w%x%-#x#,$,$l@=@5@I@I@:@:@!#!#!@|@g@|@|@|@5+u@L#|@W+9+'#X+R+R+}@}@}@L#R+",
"&%&%}@R+!@L#S$e+<#e@!@R+|@u@5@5@!#P+R++#!@u@a%v#y%y$A@S@@#w+!#6#O@k@z%n%A%B%z@E@I+z@I@!#X+p+P 4+j+:%( ( ( ( ( ( ( ( ( ( ( ( ( ( ( ( ( ( ( ( ( ( ( ( ( ( ( ( ( ( ( ( ( C%!@j#p+>.q@:@:@z@,$,$U$D%E%F%-#Y$G%,$Z@K@5@I@<@I@q@!#u@5+|@k+!@w+u@W+W+|@5+z+>@>+}@H%O+X+}@R+R+L#",
"8+d+$$S@O+!@&%[#e+g@5+R+1%!@u@u@]@:@S@I%|@u@u@y$5@y$A@A@C#R+W+6#r#r@f#J%K%L%<@r@r@~@q@u@d+}+G 9+4+:%( ( ( ( ( ( ( ( ( ( ( ( ( ( ( ( ( ( ( ( ( ( ( ( ( ( ( ( ( ( ( ( ( C%|@3+}+O s@a%a%I@,$o#M%D%N%O%x#<@]@<@Z@U#P%,$,$:@5@5@5+|@R+2+5+u@5@W+5+L#|@0@D#H%X+&%$$X+}@O+}@k%",
"H%}@1%$$T@Q%&%[#R%e+5+R+R+!@u@:@7@~@L#[#S@u@5@y$U+U+k%A@@#4+B@W+W+z@(#S%T%L%I@~@H@7@X#5@d+}+;$9+9+=%( ( ( ( ( ( ( ( ( ( ( ( ( ( ( ( ( ( ( ( ( ( ( ( ( ( ( ( ( ( ( ( ( U%L#:#<+{+5+U+U+:@r@9$u%D%V%O%x#G%<@z@Z@=@!#b#,$I@5@s@!@A@T@k#Y+|@5@W+!@R+R+0@[#&%&%X+R%R%}@S@S@}@",
"&%X+X+X+1%}@j#)#R%e+w+i+L#u@u@X#I@z@!@[#L#u@s@s@s@W%k%k%=@Y+u@U+U+z@(#X%Y%Z%&$H@~@P+]@5@4@}+P 9+9+=%( ( ( ( ( ( ( ( ( ( ( ( ( ( ( ( ( ( ( ( ( ( ( ( ( ( ( ( ( ( ( ( ( `%|@-+<+!. &!@|@]@<@k@.&f%+&,%l@]@I@,$Q@d@X#z@@&,$G%s@U+A@S@.$}@U+5+!#!@S@!@W++#8+X+L#T@N+}@N+X+}@",
"$$}@X+X+}@N+N+e+}@&%A+i+L#5+5@W+P+:@!@)#k%L#k%U+u@U+A@A@@#|@u@S@!@7@2##&$&%&z@#@7@X#5@ &j#}+P &@9+:%( ( ( ( ( ( ( ( ( ( ( ( ( ( ( ( ( ( ( ( ( ( ( ( ( ( ( ( ( ( ( ( ( & i+3+<+).!@!@A@!#I@r@B$&&*&X$9$v#I@r@`@=@X#r@F@I@]@U+A@L#S@D#R+U+U+]@!@T@A@D+'#&%j#R+}@S@L#&%&%R+",
"}@X+}@}@}@}@T@X+&%e+w+R+L#|@5+X#:@:@!@)#X+A@ &K+u@U+W%}@K@R+5+!@q@O@<@=&-&;&G%:@i@W+W+U+:#}+>&R+j+,&( ( ( ( ( ( ( ( ( ( ( ( ( ( ( ( ( ( ( ( ( ( ( ( ( ( ( ( ( ( ( ( ( '&R+2+t+O 5@A@S@W+:@)&!&~&{&]&r@z@:@k@`@t@!#7@z@z@X#s@W%R+T@D 1%A@!@W+A@}@T@C+:#&%&%}@S$}@R+}@N+i+",
"8+}@T@}@R+X+}@e+8+8+%@R%N+|@5@:@P+P+|@)#R+|@K+u@W#A@^&}@C#N+u@U+X#<@^@/&(&_&s@X#i@W+K+A@8+}+G 9+j+,&( ( ( ( ( ( ( ( ( ( ( ( ( ( ( ( ( ( ( ( ( ( ( ( ( ( ( ( ( ( ( ( ( % 9+2+p+{+K+!@!@5@5@K+d$:&<&[&L#z@q@z@H+/@X#:@:@I@]@ & &A@L#t@X+R+|@5@|@&%R+Q#J@}@8+[#[#>+X+R+R+R+",
"e+8+X+R+L#X+}@e+X+d+A+L#}@L#:@P+q@q@A@}& &5+u@]@5@A@S@}@~$N+u@!@5@k@|&1&2&3&|@5+C+5+u@!@f@O I 9+s%,&( ( ( ( ( ( ( ( ( ( ( ( ( ( ( ( ( ( ( ( ( ( ( ( ( ( ( ( ( ( ( ( ( 4&Q%k+}+P K+K+u@C+5+A@5&6&7&8&<@I@5@<@I+=@X#:@u@]@s@K+K+K+R+1+N+1%S@5+Y+X+L#%@>+X+8+>+[#:#d+N+N+9+",
"8+X+R+L#R+N+L#}@&%d+$@R+8+R+W+X#X#]@R+)#5@5@s@q@s@A@T@}@C#O+ &A@u@9&x#0&a&b&W+z+u@!@!@!@d@O G N+4@c&( ( ( ( ( ( ( ( ( ( ( ( ( ( ( ( ( ( ( ( ( ( ( ( ( ( ( ( ( ( ( ( ( 1 9+=+<+J P+]@X#X#5@d&e&f&g&h&F@:@5@:@H+(@5@]@L#W%a%u@A@ &R+t@|@!@R+!@R+S@O+g+[#&%S$H%&%&%j#&%j#l#",
"R+L#L#R+j%N+L#k%&%8+g+}@8+Q%K+!#]@5@j%}&U+]@]@v#5@!@A@k%M#N+!@!@5+:@2#i&j&k&v#:@W+i+|@Y+D O I 4+$+c&( ( ( ( ( ( ( ( ( ( ( ( ( ( ( ( ( ( ( ( ( ( ( ( ( ( ( ( ( ( ( ( ( | R+=+<+J z+X#!@5@X# &l&V$m&n&z@I@X#P+I+C#u@5@k%k%!@s@A@A@L#=@i+u@L#A@R+!@L#w+>+z$S$d+R+}@&%8+8+8+",
"8+}@X+>+&%X+9+k%&%e+h+9+e+A@5@5@b@5@d+D#L#K+K+a%G%5@!@}@C#N+|@!@5+P+f#o&p&q&y%@@0@w+!@O+=@x.E 4+r&c&( ( ( ( ( ( ( ( ( ( ( ( ( ( ( ( ( ( ( ( ( ( ( ( ( ( ( ( ( ( ( ( ( s&N+=+O P C+!@L#5+b@5@t&u&v&O%'%z@:@:@@&i#!@ &A@k%U+u@U+U+}@C#R+|@|@A@}@S@!@!@J@&%S$j#9+9+O+X+d+8+",
"e+e+&%)#[#j#j#&%&%J@j+s%8+L#5@W+X#5+8+Y#&%R+L#A@!@A@S@X+~$9+!@A@U+q@l@w&x&x$5@]@u@u@|@R+=@s+]+s%4@c&( ( ( ( ( ( ( ( ( ( ( ( ( ( ( ( ( ( ( ( ( ( ( ( ( ( ( ( ( ( ( ( ( y&d+k+O P 5+L#k%!@K+5@_$z&A&B&'% #W+P+C&>@A@5+ &!@U+!@A@L#&%(@i+Q#L#}@}@}@!@%@D#8+j#8+4@N+d+9+4+j#",
"X+$$}@[#>+8+e+j#8+J@j+9+N+N+!@|@ &L#>+M#&%X+T@k%k%d&X+z$@#8+}@R+!@5@9$D&E&F&!@u@|@L#|@L#g@x.]+N+3+G&( ( ( ( ( ( ( ( ( ( ( ( ( ( ( ( ( ( ( ( ( ( ( ( ( ( ( ( ( ( ( ( ( H&d+k+O P 5+R+}@|@u@u@I&z&N%B&S#F@K+]@~@K@k%|@A@W%5+S@}@k%&%(@!@!@Y+L#X+&%w+*@J&e+j#&%X+8+8+d+4@]$",
"R+|@A@X+X+X+S$8+:#J@4+&@R+X+N+X+L#9+D#U#&%&%8+z$R%T@!@d&@#T#S$L#L#!@o#K&L&M&L#!@|@|@A@!@k+O /+s%J@G&( ( ( ( ( ( ( ( ( ( ( ( ( ( ( ( ( ( ( ( ( ( ( ( ( ( ( ( ( ( ( ( ( N&9+A O H b@A@}@L#!@u@O&P&Q&R&'%I@5@u@7@K@L#!@A@L#S&R+k%}@Q+-@Y+!@R+}@d+X+i+x+d@e+R%R+N+J@8+j#8+:#",
"L#|@Y+L#}@9+j#8+e+[#4+9+N+N+N+R+5+g+D#K@S$>+[#>+e+R+ &z$V@f@}@A@L#!@I+v$T&U&k%A@!@!@!@!@D#O E 4@A G&( ( ( ( ( ( ( ( ( ( ( ( ( ( ( ( ( ( ( ( ( ( ( ( ( ( ( ( ( ( ( ( ( y&9+A <+;$5@!@X+}@L#!@V&W&X&Z%<@X#a%P+9&p@Q%u@|@&%L#}@9+}@S$i#i+|@N+N+&%d+d+g+'#d+O+i+9+l#<#3+8+j#",
"X+}@L#R+X+d+&%e+S$'#Y&s%j#j#N+O+!@i+'#o@S$&%8+e+e+|@!@Z&`&8+Y+!@T@5+#@ *.*+*9+i+R+L#A@A@+#x.E 4@-+G&( ( ( ( ( ( ( ( ( ( ( ( ( ( ( ( ( ( ( ( ( ( ( ( ( ( ( ( ( ( ( ( ( @*N+2+O H K+A@X+O+|@S&[@#*$*%*:@u@u@P+ #C.9+5+|@S$}@R+j%d+>+>@&@R+8+X+&%8+d+%@k+l#8+R+d+:#J@>+8+d+",
"8+e+N+N+d+X+d+:#S$D#4@4@8+&%d+9+Q%}@D#K@j#X+X+>+H%L#}@o@T#i+w+|@|@Q#Q#&***g@}@R+A@L#!@R+g@S I s%j G&( ( ( ( ( ( ( ( ( ( ( ( ( ( ( ( ( ( ( ( ( ( ( ( ( ( ( ( ( ( ( ( ( =*9+f@x.H 5@K+A@Y+!@5+d+-*;*9+:@q@A@!@C+g+e@4+L#e+Z&}@}@}@}@t@9+R+X+d+X+8+d+j+=@J@8+4+8+:#j#2+J@8+",
"J@>+8+R+}@}@&%e+e++#r&4+8+8+N+N+}@}@'#K@}@}@Q%Y#=@X+K@>@4+f+w+i+L#g+l+I <+>*Q%|@!@U+ &|@2+S ,*&@j G&( ( ( ( ( ( ( ( ( ( ( ( ( ( ( ( ( ( ( ( ( ( ( ( ( ( ( ( ( ( ( ( ( '*&@d@O P 5@ &U+5+W+W+9+++`.++Q#W+S@U+W+z+$+i#d+D#e@8+X+R+}@1+N+N+N+N+j#e+d+d+g@<#8+j#J@e+e+J@D#'#",
">+e+:#X+Q%Q%&%&%8+D#4@8+=$8+j#X+9+}@[#K@z$R+8+4$T#>@n$:#!@5+C+Q#&%e@U.).Z %@ &|@U+K+K+!@)*O H 9+3+!*( ( ( ( ( ( ( ( ( ( ( ( ( ( ( ( ( ( ( ( ( ( ( ( ( ( ( ( ( ( ( ( ( ~*9+D O >&5+ &5+5@]@P+0@1+H$U.Z !@!@ &5+b@C+f@N$8+o+/@N+d+8+Z$4@&%&%d+&%e+&%9+g@J@X+j#+#[#)#6+Y#6+",
">+>+>+N+j%R+X+8+:#=@:#'#D#}&[#&%d+X+D#o@&%:#,+d@l%-@j#}@L#C+Q#9+>@{*s+q$j#R+L#!@L#!@|@L#=@O G 8+-+]*( ( ( ( ( ( ( ( ( ( ( ( ( ( ( ( ( ( ( ( ( ( ( ( ( ( ( ( ( ( ( ( ( ^*O+t@`.>&!@A@5@!#5@u@P+C+z.H$/*.%R+i+!@w+C+L#=+z.f@(*@+J@>+i#d+N+R%8+S$j#8+d+=@J@j#d+'#D#+#M#=@=@",
"e+J@>+X+9+d+8+>+J@g@f@D#=@Y#<#&%&%d+'#_*D#~+[#g@:*R+L#}@L#5+!@G$X.P Z <*X+8+X+|@z$k%R+d+=@O F 8+[*}*( ( ( ( ( ( ( ( ( ( ( ( ( ( ( ( ( ( ( ( ( ( ( ( ( ( ( ( ( ( ( ( ( |*4+(@s+>&%@k%U+U+u@5@!@i+%@.+O U.,+4+C+Q#K+!@N+/@D.f@Z e@)#-@d+j#e+>+Z&>+J@d+=@'#J@j#8+[#D#M#=@K@",
"e+:#8+}@N+j#e+>+[#g@f@D#'#[#8+8+8+}@)*-@^$=@Y#1*e+!@L#R+L#5+5&2*3*^$s%&%X+}@}@i+9+Q%&%k+O ).!.j+=+}*( ( ( ( ( ( ( ( ( ( ( ( ( ( ( ( ( ( ( ( ( ( ( ( ( ( ( ( ( ( ( ( ( 4*4+n$`.;$D.:#W%A@A@K+|@L#9+!@ +}+5*6*u@!@5+j%Y+N+-@.+7*H$D#i#J@>+S$>+:#'#'#j#K@+#k+S$e+S$>++#g@l%",
"l#8+8+d+d+&%e+:#J@6+f@'#8+8+J@>+S$&%k+e@T#=@)+'#j#L#X+w+N@8*9*0*a*4+g+8+&%A@A@!@!@i+J@!.;$T b*c*=+}*( ( ( ( ( ( ( ( ( ( ( ( ( ( ( ( ( ( ( ( ( ( ( ( ( ( ( ( ( ( ( ( ( d*s%w+^$Z.c.e@j%U+U+a%u@!@j#%@C+e*f*g*h*!#C+N+L#i+}@p@e@7*J@`$D#>+S$8+8+<#k+8+o@=@=@[#[#8+e+D#6+M#",
":#:#:#e+8+>+'#[#'#=@=$[#Z&8+'#J@J@S$'#=+7*4$:#X+&%d+X+!@i*j*k*l*m*i+&@N+k%L#W%|@|@4@O ]+t+=+9+d+=+}*( ( ( ( ( ( ( ( ( ( ( ( ( ( ( ( ( ( ( ( ( ( ( ( ( ( ( ( ( ( ( ( ( n*s%!@R+/$;${*t@!@S@U+X#K+L#&@)@H#o*p*q*r*u@9+j%}@k%Q%)+D.$+e@'#e+>+Z&>+>+J@]$-@=@@#)#)#Z&[#D#6+=@",
"8+e+J@'#>+)#6+6+D#@#k+'#:#'#g@J@:#'#C..+,+D#$$8+e+&%R+s*t*u*v*w*y%w+!@R+X+j%R+L#s%>.T.O d@i+i+d+=+}*( ( ( ( ( ( ( ( ( ( ( ( ( ( ( ( ( ( ( ( ( ( ( ( ( ( ( ( ( ( ( ( ( x*X+i+A@S&r+/+Y.T#R+!@ &A@K+|@!@:@y*z*A*B*C*O+9+X+8+Q%j#u#~%)+=@>+[#8+8++#[#J@-@K@K@Y#g@[#)#=@=@Y#",
">+J@[#J@[#[#6+=@D#U#3+f@:#'#[#=$f@e@C L#z$d+e+8+8+R%D*E*V%F*G*m@5+|@W%A@R+k%}@&%t+S.H*>@&@L#L#&%=+}*( ( ( ( ( ( ( ( ( ( ( ( ( ( ( ( ( ( ( ( ( ( ( ( ( ( ( ( ( ( ( ( ( I*O+|@}@|@9+/$/+]+=@L#!@L#W% & &5+:@E$J*K*L*)#X+j#8+X+&%j#W%<*.+g@[#l#e+D#[#M*C#D g@6++#+#)#=@=@T#",
"}&D#T#'#>+e+)#=@g@C#=$M*8+>+S$'#-@G$7*j#N+8+'#&%&%Q+N*O*P*Q*i$b@Q#!@A@A@z$z$d+&.S.).>@R+}@X+R+d+=+}*( ( ( ( ( ( ( ( ( ( ( ( ( ( ( ( ( ( ( ( ( ( ( ( ( ( ( ( ( ( ( ( ( R*R+!@L#A@L#s%&.]+I 3+9+k%d&K+5@K+5+v#S*T*U*V*W*}@d+d+8+&%d+Y#N$1*=@:#J@D#T#8+K@D#J@[#g@g@6+g@=@g@",
"+#D#Y#6++#[#)#6+g@>@A ]$J@:#[#>@D#T#:#8+8+e+e+&%5&X*Y*Z*`*i$L#|@|@A@A@R+N+N+^$U.[+D.Q%N+j%R+k%d+=+}*( ( ( ( ( ( ( ( ( ( ( ( ( ( ( ( ( ( ( ( ( ( ( ( ( ( ( ( ( ( ( ( (  =|@5+!@A@R+i+4@++V.P =$N+N+L#!#5@!@S@5@.=+=@=#=$=R+9+e+8+8+8+/@=@ .g@J@J@[#3+C#D#J@J@D#+#=@@#=@6+",
"+#+#D#)#g@D#>+D#D#U#=$J@[#J@-@%==@&=S$e+8+&%e+5&*===-=Q*V&A@k%|@W%L#!@R+9+o+{*`..+R+S@N+Q%A@L#X+d@}*( ( ( ( ( ( ( ( ( ( ( ( ( ( ( ( ( ( ( ( ( ( ( ( ( ( ( ( ( ( ( ( ( R*i+Q# &U+L#R+%@f@<+Y.!.]$N+&%L# &A@k%A@5@;=>=,='=)=}@j#S$f@'#J@>@1+ +'#[#[#4@(@J&D#J@'#g@C#C#=@@#",
"g@}&[#[#D#[#:#}&'#C#8+}&[#}&C#&%M#[#S$:#d+R+!=~={=$&]=^=L#&%k%S@A@L#!@c*N$X./=(=i+d+}@R+k%L#L#}@G$_=( ( ( ( ( ( ( ( ( ( ( ( ( ( ( ( ( ( ( ( ( ( ( ( ( ( ( ( ( ( ( ( ( :=|@5+!@5@|@}@}@S&A O U.O j#j%z$A@A@R+}@T@<=[=}=|=1=2=l#&%J@J@J@/@d+-@2+6+[#s%>@=@g@D#J@g@K@M#M#Y#",
"D#D#[#+#D#J@<#J&g@9+N+:#>+'#3=S$-@[#:#8+&%4=5=6=7=8=9=T@N+j#k%S@}@L#A@D.0=P ,+%@N+S$}@L#A@|@|@}@>@_=( ( ( ( ( ( ( ( ( ( ( ( ( ( ( ( ( ( ( ( ( ( ( ( ( ( ( ( ( ( ( ( ( a=9+S&!@u@A@L#z$d+Q#T#).b=T j#z$z$R+|@k%R+}@c=d=e=f=g=h=e+[#J@J@C#d+/@D#=@D#j#j+~$=@=@D#6+.$=@6+=@",
"g@g@+#6+D#D#J&'#=@j#M*'#D#D#K@)#l+Y#:#<#R%i=j=k=l=m=A@}@&%S$T@L#R+N+t@{*H ..9+}@S$e+&%N+|@!@L#8+!+( ( ( ( ( ( ( ( ( ( ( ( ( ( ( ( ( ( ( ( ( ( ( ( ( ( ( ( ( ( ( ( ( ( n=8+!@ &|@S@R+}@S$R+Q#o=Z.p==.j#T@U+R+L#L#&%L#<=d=q=r=s=t=D#>+'#-@=@C#+#6+6+3+8+T#=@K@=@=@g@D g@6+",
"=@g@Y#+#6+D#D#u=-@+#'#=@~+/@=@K@3$g@'#}&v=w=x&x=y=W%N+&%j#z$j%}@z$/@/+I z=v+Q%&%[#>+X+j%i+Q%c*k+V _=( ( ( ( ( ( ( ( ( ( ( ( ( ( ( ( ( ( ( ( ( ( ( ( ( ( ( ( ( ( ( ( ( A=(@9+!@A@A@R+}@}@R+s%%@D.H B=..X+ &|@k%A@R+X+X+O&C=-=#*D=Y#j#2+e@:*C@:#&.~$g@J@>@C#=@K@C#D D =@d@",
"=@6+}&6+M#Y#)#)#>@D#D#E=t%k+=@M#~+g@k+F=G=H=I=J=d$X+R%8+z$k%k%&%T#H ]+'+w+9+&%X+>+S$L#Q%Q%j#]$K={+L=( ( ( ( ( ( ( ( ( ( ( ( ( ( ( ( ( ( ( ( ( ( ( ( ( ( ( ( ( ( ( ( ( M=T =$N+L#S&k%&%X+}@j#N+!@)+G /*!+|@W%}@L#R+}@8+&%O&N=O=P==$3+J@e@z.z.D#r+4$Y#D#1+t@t@=@@+=@=@g@g@",
"=@g@6+U#~$6+D#+#/@)*[#:*T#=$g@_*r$g@J@)#Q=&*u=d+8+:#Z&S$}@S@k%e+o@J T R=d+8+j#&%S$e+k%c*&%N+~+<+S=T=U=( ( ( ( ( ( ( ( ( ( ( ( ( ( ( ( ( ( ( ( ( ( ( ( ( ( ( ( ( ( ( ( ( V='+j#9+i+}@&%&%}@&%J@j#g+}+Z.Z d++$X+L#k%&%>+]$j#W=X=Y=J@-+T#E=C@-@J@D#` '#J@/@o@M#Y#C#K@C#=@6+",
"o@Z=E=E=`=o@o@E=g@>+k+8+J@6+C#K@.+'#>+g@ -.-`$3+>+3=[#>+&%&%z$8+-@t+`.B f@>+S$&%z$H%9+s%&%|@^#+-@-#-O $-( ( ( ( ( ( ( ( ( ( ( ( ( ( ( ( ( ( ( ( ( ( ( ( ( ( ( ( ( ( ( ( _=%-!@A@k%j%&%z$j#j#[#'#!@).s+T N+R+X+&%R%e+[#f@J@t@x./+Z$f@'#o@D.e@'#}&j#:#=$1+1*-@C#&-V+E=-@E=",
"b@P+b@*- &L#Q%N+S&=$d@}&J@D#>@K@.+'#4+3+=-`.`$$+8+e+>+e+&%&%}@X+e@t+P d@]$8+J@Z&&%--j#N+j#A@;->-,-'-)-!-( ( ( ( ( ( ( ( ( ( ( ( ( ( ( ( ( ( ( ( ( ( ( ( ( ( ( ( ( ( ( ( ( ~-<@S&Q%N+S$&%S$S$>+D#9+{$`.H$4+N+N+e+&%j#>+f@3+1+`.W.`$f@J@C#D.1*'#:#8+8+:#8+!@C+5+K+u@A+w+i+",
"d+c*N+j#J@>+:#2+c*S$[#}&J@J@1+O ..]$R+]$;${-D.}@}@&%8+e+R%S$&%R+z.}+Z.>*M*=$>+[#S$j#d+]$S$d&]-^-/-(-_-:-( ( ( ( ( ( ( ( ( ( ( ( ( ( ( ( ( ( ( ( ( ( ( ( ( ( ( ( ( ( ( ( ( <-[-k%e+d+j#j#j#[#)#'#d+{$<+U j+j#j#8+j#&%>+[#}-U#s+W.l+k+l#-@P  .J@:#8+:#3+A d+4+4+4+j+$+3+8+",
":#8+S$e+j#j#:#'#d+8+J@:#J@=$@+Z.~+8+$+=+/+H*|-1-2-3-Z&z$}@S$>+N+.+<+Z.t@J@S$S$[#>+>+J@~+U#[@N*4-5-6-7-:-( ( ( ( ( ( ( ( ( ( ( ( ( ( ( ( ( ( ( ( ( ( ( ( ( ( ( ( ( ( ( ( ( 8-9-S$P j#S$e+Z&D#6+)#j#;${-U ]$&%&%}@N+&%Z&0-a-b-O /+I$f@J@C@/+l+J@8+:#8+8+2+j#$+$+d+8+J@8+s%",
"J@:#8+8+d+9+8+:#8+8+8+>+=$[#-@[+'+k+[#=+;$e$c-d-e-f-Z&e+X+S$3=d+C.{-Z.t@'#e+>+[#8+j#f@6$o@s@N*g-h-i-j-:-( ( ( ( ( ( ( ( ( ( ( ( ( ( ( ( ( ( ( ( ( ( ( ( ( ( ( ( ( ( ( ( ( 8-8*&%[$}@j#[#}&)#g@'#j#I O O =$:#}@}@&%S$D*k-l-m-p+{$C.k+k+1*).m+J@8+J@:#J@k+:#d+8+j#8+2+J@8+",
":#:#:#%@&%:#8+8+=$J@J@'#'#D#e@[+&.D k+A ;$n-o-p-q-r->+>+X+j#>+s%.+}+P n$'#8+8+j#&%X+]$~+>@s-t-u-v-w-x-:-( ( ( ( ( ( ( ( ( ( ( ( ( ( ( ( ( ( ( ( ( ( ( ( ( ( ( ( ( ( ( ( ( 8-y-N+[+Q%d+>+[#}&[#>+s%/+O U 8+s%&%}@N+8+z-A-B-C-p+G C.k+k+.+).,+f@J@:#J@f@t@2+$+j#:#J@D#'#J@",
":#r&3+]$'#'#J@2+k+=$8+'#k+k+-@[+r+k+:#=+Z.&.o-D-E-}-'#H%}@X+S$9+D.++Z.n$'#8+8+d+d+N+$+)+K@k%R@F-G-H-7-:-( ( ( ( ( ( ( ( ( ( ( ( ( ( ( ( ( ( ( ( ( ( ( ( ( ( ( ( ( ( ( ( ( I-J-z-{-Q%j#j#S$Q+Z&>+N+I O ++4+N+X+d+R+8+S$K-L-C-p+;$D.2+3+.+Z.o$-+J@3+:#2+t@D 2+J@[#g@'#8+A ",
"M->*[*-@-@t@e@:*1+=$8+'#k+k+:*[+Z A <#D I p+N-O-P-Q+[#8+}@8+&%N+D.<+I n$'#8+j#s%N+j#$+%@&%W%Q-R-S-T-U-:-( ( ( ( ( ( ( ( ( ( ( ( ( ( ( ( ( ( ( ( ( ( ( ( ( ( ( ( ( ( ( ( ( I-)=--8+j%J@j#&%>+[#[#s%I O H$4+N+8+X+N+&%Z&V-W-X-}+P i#8+3+.+P .+-+:#J@J@2+1+Z$.+.+i#i#1+{%1+",
"'+~+&.t+p+t+O x.o+k+]$'#J@f@>@=@,+k+<#6 /+}+z.Y-R%>+>+>+X+d+T@R+n$T I !%'#e+j#j#N+j#j#Q%j%s@Z-`- ;.;+;@;( ( ( ( ( ( ( ( ( ( ( ( ( ( ( ( ( ( ( ( ( ( ( ( ( ( ( ( ( ( ( ( ( #;$;z$&%&%3+8+d+:#'#'#9+;$O V 4+&%&%N+z$S$>+>+%;=@T {$n$3+2+C@C.>@J@J@:#:#k+)+&.<+<+O O p+++&.",
">@D t@>@1+>@z.D.`$2+8+J@J@J@C#t@l+k+>+d@&;<+.+J@:#>+>+D#j#d+9+N+n$<+P Z$J@e+j#d+9+N+d+&%d+9+^#D=*;=;R@$-( ( ( ( ( ( ( ( ( ( ( ( ( ( ( ( ( ( ( ( ( ( ( ( ( ( ( ( ( ( ( ( ( -;'#&%Z&&%4@8+N+8+2+J@h+P R V 4+R+N+i+X+S$6+'#$+t@O >&`$3+k+z.C..+k+J@f@<#f@.+-@=@=@@+-@-@>@>@",
"g@f@2+=+d@k+=+1+Z$A :#>@g@'#>@-@l+f@J@t@W.}+D.-+8+)#)#[#S$j%d+8+>@<+Z.1+k+8+:#j#N+8+d+j#9+&%[#@+;;>;:-( ( ( ( ( ( ( ( ( ( ( ( ( ( ( ( ( ( ( ( ( ( ( ( ( ( ( ( ( ( ( ( ( ,;G$s%N+j#N+8+8+9+d+=$8+]$P T ';4+R+4+R+N+8+D#J@$+G$O /+`$=$3+D.o+)+f@D#C.D k+:*/@'#'#g@g@g@k+g@",
"g@k+T#D D#'#d@=@i#J@k+N$~+##D.i#` 2+2+G$[$);~$d+8+J@D#>+S$e+8+8+k+p+s+H$g@8+j#S$e+J@j#4+d+e+=$]$1*!;( ( ( ( ( ( ( ( ( ( ( ( ( ( ( ( ( ( ( ( ( ( ( ( ( ( ( ( ( ( ( ( ( ~;>*Y&:#j#9+d+'#J@N+j#J@=$` ;$}+.+4+9+d+}@8+8+J@$+j++#h$[$Z$J@f@ +o+l+g@l+..D g@.+@+g@'#g@D#6+k+D ",
"K@g@T#D g@6+=@C#D.8+D d@.+g@D.E= .A f@$+%${;];^;Z&D#D#e+'#[#[#e+Q#%=&.(+T k+8+:#:#>+8+4@N+j#d+8+@+w@( ( ( ( ( ( ( ( ( ( ( ( ( ( ( ( ( ( ( ( ( ( ( ( ( ( ( ( ( ( ( ( ( /;w ]$<#9+N+d+J@J@j#d+2+)+{*x.)+w+4+N+S$j#:#3+3+X+9-(;_;:;3+A g@l+~+` 2+5$g@=@D#.+e@=@g@g@g@D#g@=@",
"D g@d@k+<;D#D (@.+f@J@=@D#T#e@C#` g@z z [;};|;1;2;Z&:#>+'#>+>+>+j#5+@+O c.Y J@j#:#8+j#N+N+N+j#k+l+3;( ( ( ( ( ( ( ( ( ( ( ( ( ( ( ( ( ( ( ( ( ( ( ( ( ( ( ( ( ( ( ( ( 4;T#:#d+N+&%d+J@=$]$4@e@{*=-4$g+s%j#X+8+:#>+l#8+y-5;6;7;8;$+G$d@)+)+` T#=@=@=@'#1*E=K@D t@=@=@=@@+",
"D d@k+J@k+2+d@>@.+g@8+g@k+d@-@8+C@A A d@O+9;0;a;b;c;Q+[#Z&Z&e+[#[#8+!@1*!.c.~+J@8+j#4@9+d+j#d+J@)+~;( ( ( ( ( ( ( ( ( ( ( ( ( ( ( ( ( ( ( ( ( ( ( ( ( ( ( ( ( ( ( ( ( d;k+s%N+j%&%X+3+8+$+>@Y./+t+j+4+d+8+d+d+d+8+e+e;f;g;h;F&A@2+1+D 1*d@)+=@=@=@=@D#.+-@C#=@K@K@U###=@",
"g@g@k+}&g@=@C#_*5$,+J@3+k+t@z.:#z.A A g@A A@i;j;k;l;m;>+>+S$Z&S$>+J@:#Q%5$n;S.l+:#]$4@4+j#j#8+J@D.o;( ( ( ( ( ( ( ( ( ( ( ( ( ( ( ( ( ( ( ( ( ( ( ( ( ( ( ( ( ( ( ( ( p;2+8+8+N+N+N+]$8+1+E I T -+:#:#&%8+d+8+$+:#q;r;s;t;u;i$]$A g@=@1*g@C@=@d@=@g@D.3$E=K@K@o@o@o@K@=@",
"=@=@g@D#=@=@=@C#C@q+(@2+k+T#n$A 1+d@2+2+=+k+v;w;x;y;z;A;+$}@&%&%S$8+J@=$g+^$I c.l+=+8+d+8+d+j#T#z.B;( ( ( ( ( ( ( ( ( ( ( ( ( ( ( ( ( ( ( ( ( ( ( ( ( ( ( ( ( ( ( ( ( C;-+8+8+8+$+$+]$>@]+Y.<+B k+[#j#N+d+8+'#d+d&7&D;E;F;G;e+D#f@D#(@.+T#-@D#=@K@/@n-V+C#=@Y#C@E=Z=C#=@",
"=@C#t@=@K@K@=@C#~$:*C#2+k+k+=$/@T#e@d@2+k+g@'#y%H;I;J;K;L;z$&%&%&%8+8+f@8+s%t%/+b.` k+3+$+j#8+=@z.M;( ( ( ( ( ( ( ( ( ( ( ( ( ( ( ( ( ( ( ( ( ( ( ( ( ( ( ( ( ( ( ( ( N;f@]$3+8+j#J@=@H Y.>.=+]$D D#8+4+j#j#:#j#O;P;Q;R;S;8+.$)#J@Y#E=T#=@:#'#g@=@K@u#_*K@M#@+T;E=U#=@D ",
"t@-@=@l%=@+#g@=@=@~$1+g@t@g@f@:#=@G$D.=@'#J@J@:#U;V;W;X;Y;R%X+8+>+:#>+J@2+-+Z;t+{*b..+f@=$J@J@=@D.M;( ( ( ( ( ( ( ( ( ( ( ( ( ( ( ( ( ( ( ( ( ( ( ( ( ( ( ( ( ( ( ( ( N;[*:#8+d+j#=@P V.O G$3+:#g@2+8+&%>+&%&%`; >.>+>@>&%'#t@g@D#-@@+=@D#}&g@=@=@>@1*o@t@C#K@o@C#K@K@U#",
"-@o@@#~$K@D#+#=@=@~$@+=@K@D =+k+2+/@n$D.g@J@:#J@8+#>$>%>&>*>5&8+J@:#:#8+J@2+]$]$=>Y.S.z.2+J@=$D -@M;( ( ( ( ( ( ( ( ( ( ( ( ( ( ( ( ( ( ( ( ( ( ( ( ( ( ( ( ( ( ( ( ( N;f@J@8+8+k+).(+`.i#3+-+'#k+J@:#j#N+T@->;>>>,>'>}@g@g@g@=@@+n$e@Y#g@=@=@=@K@i#C@C#C#C#U#K@@+=@C#-@",
":*(@o@-@U#g@g@K@~$-@>@=@K@=@g@t@=@J@>*N$D.T#=$>+D#=$a%)>!>~>{>Q+=$k+=$8+J@=$3+-+-+&.{*]>n$f@=$d@i#^>( ( ( ( ( ( ( ( ( ( ( ( ( ( ( ( ( ( ( ( ( ( ( ( ( ( ( ( ( ( ( ( ( />A J@J@k+O T.H*n$$+]$J@J@J@2+8+N+z$(>_>:><>'%&%g@=@=@=@e@e@|+d@%=@+K@=@M#K@=@.+@+=@=@M#=@C#K@-@E=",
"-@o@-@o@C#t@K@U#C#-@>@=@K@=@t@>@(@k+]$1+z=l+/@D#g@D 2+[>}>|>1>2>z$J@]$]$8+8+3+[*`+B >.3>Y.i#J@=@e@M;( ( ( ( ( ( ( ( ( ( ( ( ( ( ( ( ( ( ( ( ( ( ( ( ( ( ( ( ( ( ( ( ( 4>=+k+k+t+U.`.D.4@J@=$2+3+J@]$j#j%5>6>7>8>9>j#/@=@g@=@e@q+d@/@d@@+C#/@=@C#C#@+1*>@=@=@6+=@o@-@e@:*",
"~$K@C#o@D@K@C#C#C#E=>@=@D =@##t@>@G$i#1*!%++l+U#=@+#D D*R&{=0>a>m;>+]$-+J@J@f@k+f@$+t@O c.]+1+t@z.M;( ( ( ( ( ( ( ( ( ( ( ( ( ( ( ( ( ( ( ( ( ( ( ( ( ( ( ( ( ( ( ( ( 4>G$=+++b=).D.4+f@g@k+J@8+j#8+&%q;S%b>c>d>k%=@Y#=@t@z.t+-@C#` i#o@C#g@@#U#t@C#1*-@C#M#=@C#-@-@-@E=",
"~$@#C#C#o@C#C#o@o@1*>@d@D D K@/@1+t@C.3$.+:*t+C.D 2+=+T#k%e>f>g>h>C#A 3+J@3+J@T#=+=+$+1+`.B=G 1+z.M;( ( ( ( ( ( ( ( ( ( ( ( ( ( ( ( ( ( ( ( ( ( ( ( ( ( ( ( ( ( ( ( ( i>A ,+7.=-r$g+k+D g@f@f@3+:#J@A j>k>c>l> &k+=@=@D D.}+T;D.E=^$-@C#t@g@=@C#K@i#Z+C@C#~$=@o@E=o@-@-@",
"U#=@C#C#o@o@o@-@_*1*z.=@t@G$C#K@=@D z. .m>D.-@T !+D A A '#d&n>o>p>;$i#2+'#f@-+f@2+=@d@8+.+>&c.@+e@M;( ( ( ( ( ( ( ( ( ( ( ( ( ( ( ( ( ( ( ( ( ( ( ( ( ( ( ( ( ( ( ( ( i>=+Z W.O g+A D T#3+8+:#f@f@k+++q>r>s>s@f@k+g@t@1+++D.@+++:*Z -@@+t@K@K@>@t@i#0#E=o@o@l%C#-@o@-@-@",
"o@-@C@o@-@o@o@E=V+5$.+=@=@g@=@=@t@G$-@t>b*o+-@e@T .+g@k+g@f@d+]$&.W.>&1+d@f@f@f@=+G$G$d@~+I U.e@.+M;( ( ( ( ( ( ( ( ( ( ( ( ( ( ( ( ( ( ( ( ( ( ( ( ( ( ( ( ( ( ( ( ( u>D q+I ]+d@k+T#D#:#j#J@b*T#r+/+}+D#|@j#J@k+t@z.&.1*1+4$T#-@^$>@C#C#C#K@C#K@i#0#C@E=p@@+K@C#o@o@.+",
"-@E=z.o@E=E=E=C@)+` C.(@C#g@g@=@d@=+>@9#=@A l+>@i#t+C.t@D =@2+8$=+t+]+!.1+k+f@2+g@D =@G$Z /+U.z.D.M;( ( ( ( ( ( ( ( ( ( ( ( ( ( ( ( ( ( ( ( ( ( ( ( ( ( ( ( ( ( ( ( ( v>d@&.W.c.t@=@=@g@J@8+2+A Z /+O N$R+3+:#J@D z.++:*@+../@t@-@^$i#C#o@C#C#C#(@-@0#C@:*C#K@=@~$C#Z=C@",
"K@C#C#C#&-C@-@E=`=9#)+:*e@C#K@t@=@f@>@` C#T#4@z=-@V+O C.t@d@D 2+s%d@O U.M D J@=$g@=@T#d@r+/+c.P#o$w>( ( ( ( ( ( ( ( ( ( ( ( ( ( ( ( ( ( ( ( ( ( ( ( ( ( ( ( ( ( ( ( ( x>{%++W.c.t@g@t@K@k+E#f@)+{*H*D.w+8+'#6++#t@&.l+t@&.G$t@@+e@r+-@o@(@t@=@U#C#-@0#V+E=M#K@##U#K@C#_*",
"=@=@@+K@C#o@-@-@Z=C@.+C#C#t@t@D T#=+D.3$o@=@'#f@=@=@)+++>@=+@+t@-+h+/@[+U.o+T#A g@d@T#k+` y>7.D..+w>( ( ( ( ( ( ( ( ( ( ( ( ( ( ( ( ( ( ( ( ( ( ( ( ( ( ( ( ( ( ( ( ( x>D t+W.c.=@=@C#C#=@2+t@E P 3$9+$+f@g@d@=@l+~+=@=+>@G$>@o@E=Y -@o@>@C#@+=@-@i#)+C@E==@K@@+o@K@K@-@",
"C#K@K@C#>@C#~$o@o@V+V+(@(@/@=@d@D d@D.z>:*o@=@=@C#=@o@5$&.d@g@=@k+-+4+H*A>..=+T#l%t@D D B>W.8.z.1*C>( ( ( ( ( ( ( ( ( ( ( ( ( ( ( ( ( ( ( ( ( ( ( ( ( ( ( ( ( ( ( ( ( x>t@O X.7./@K@K@1+1+k+1+D>;+:#d+8+D#g@k+l+~+o@=@g@o@t@K@-@E=r+-@-@E=C@-@o@V+e@.+-@E=C#C#C#_*o@C#C#",
"(@>@o@o@C#>@C#&-C@9#.+(@C#C#1+/@D /@C.r+:*-@=@=@(@=@@+T;);i#G$D G$2+l#E>F>G>d@d@t@1+D =@^$W.b.D..+C>( ( ( ( ( ( ( ( ( ( ( ( ( ( ( ( ( ( ( ( ( ( ( ( ( ( ( ( ( ( ( ( ( x>t@O V.8.1+/@K@=@g@f@6+H>I>J>J@<#'#k+g@T C@C#=@g@(@(@C#-@-@r+z.(@-@E=-@-@C@z.1*o@C#Z=-@-@C@E=-@C#",
"C#C#(@C#=@C#o@C@1*9#.+>@C#t@=@/@t@=@C@/$z.o@t@=@C#C#p@-@z>5$(@=@/@2+}@K>L>M>6 d@d@=@g@=@*./+8.z.C.w>( ( ( ( ( ( ( ( ( ( ( ( ( ( ( ( ( ( ( ( ( ( ( ( ( ( ( ( ( ( ( ( ( N>7 O (+R.>@=@K@=@D#J@O>P>Q>R>8+J&Y#g@=@p+:*o@g@T#>@S>o@p@e@^$-@(@o@-@E=C@C@D..+>@C#-@-@o@E=E=o@-@",
"o@o@>@o@t@>@E=1*V+y.C.>@C#t@t@/@=@=@.+^$-@@+##=@K@o@&-_*4$ .(@@+>@d@X+T>U>V>=@=+A =+d@d@../+R.D. +C>( ( ( ( ( ( ( ( ( ( ( ( ( ( ( ( ( ( ( ( ( ( ( ( ( ( ( ( ( ( ( ( ( N>t@T V.8.>@=@t@M#=@k+$=W>X>Y>e+D#l%K@K@6$e@(@g@T#o@E=-@-@z.^$D.@+/@/@-@:*C@e@.+C#o@-@-@C#C#C#>@(@",
"-@z.-@z.o@C#:*1*V+5$ +>@C#-@z.z.C#1+)+z>~$C#C#=@K@o@o@-@^$C./@>@-@g@O+Z>`> ,K@6 A =+2+=+^$/+7.D.o+C>( ( ( ( ( ( ( ( ( ( ( ( ( ( ( ( ( ( ( ( ( ( ( ( ( ( ( ( ( ( ( ( ( .,1+O y>8.>@=@@+K@t@D $=+,@,Y>>+=@K@t@=@&.>@=@D#g@(@-@-@-@z.~+D.C#=@D C#-@E=z..+-@E=E=e@o@C#@+>@(@",
"(@D.C@z.z.i#:*1*C.Z+ +n$z.-@z.-@>@t@C.^$E=(@C#K@K@C#o@-@r+l+>@(@C#d@X+#,$,%,U#G$A <;k+A &.]+7.o$n+C>( ( ( ( ( ( ( ( ( ( ( ( ( ( ( ( ( ( ( ( ( ( ( ( ( ( ( ( ( ( ( ( ( &,1+O W.8.>@@+(@>@>@=@$=*,=,-,[#=@K@C#/@<+C#t@=@D >@-@z.>@i#^$-@C#=@D t@C@(@z.1*.+V+C@C@-@z.z.z.>@",
"C#e@C@C@-@e@z.C@C.Z+l+i#D.E=i#e@C#=@C@7+C@-@@#=@=@l%o@-@/$` -@@+/@>@l#;,>,,,U#G$=+k+D#k+q+W.b.n+l+C>( ( ( ( ( ( ( ( ( ( ( ( ( ( ( ( ( ( ( ( ( ( ( ( ( ( ( ( ( ( ( ( ( &,=@O ',R.i#(@-@>@(@@#),!,~,-,3==@K@C#t@T 1+@+K@t@-@>@C#>@z.Z D.C#>@/@o@E=@+(@5$t>V+V+T;(@-@z.i#i#",
"@+e@.+e@-@D.V+{,C.Z+o+D.D.-@z.D.>@t@.+ .z.-@K@Y#=@K@(@E=r+I$;@C#@+C#e+],^, ,@#t@=@2+D#=@r+W.P. +,+C>( ( ( ( ( ( ( ( ( ( ( ( ( ( ( ( ( ( ( ( ( ( ( ( ( ( ( ( ( ( ( ( ( .,t@O T.8.-@(@@+C#(@@#/,(,_,-,:,=@o@~$t@T C#t@>@-@e@;@>@-@:*Z z.-@(@-@-@:*-@i#y.1*9#.+>@@+e@D.D.C.",
"-@C.C@-@i#z.C.C@z.l+l+D.i#(@e@i#z.-@1*~+:*>@t@/@U#o@-@e@/$n+1+C#o@t@J@<,[,},o@/@d@k+g@t@r+^+P.C.l+C>( ( ( ( ( ( ( ( ( ( ( ( ( ( ( ( ( ( ( ( ( ( ( ( ( ( ( ( ( ( ( ( ( |,t@T X.Q.i#C#K@=@=@@#1,2,=,3,g@C#Z=K@D R C#6 C#-@D.z.i#:*C.q+.+i#-@e@e@V+-@i#)+D.C@-@@+C#i#C@C.C.",
"V+1*1*C.-@e@C.C@V+l+ +z.e@>@-@C#-@.+` ~+-@@+>@K@C#-@-@z.^$ +t@>@-@D J@4,5,6,Z=@+G$T#=@t@3$^+P.o$l+C>( ( ( ( ( ( ( ( ( ( ( ( ( ( ( ( ( ( ( ( ( ( ( ( ( ( ( ( ( ( ( ( ( 7,7 t+X.O.i#l%t@=@t@~$b-8,9,0,=@t@o@t@t@O i#6 1+z.z.-@D.:*C.&.e@e@C#>@C@t>D.z.)+z.i#-@-@C#i#C@C.z.",
".+D..+C.z.C@C.1*1*Z+l+D.z.>@C#t@-@.+5$r+-@t@>@C#>@(@-@-@q+C.6 1+t@g@a,b,c,d,e@>@t@G$D t@3$W.P.o$I$C>( ( ( ( ( ( ( ( ( ( ( ( ( ( ( ( ( ( ( ( ( ( ( ( ( ( ( ( ( ( ( ( ( e,1+t+U.:+>@=@@+##C#>@f,g,h,i,o@t@-@(@C#O D.t@1+D.z.-@z.:*C.Y .+-@@+C#C@1*D.z.l+D.z.i#e@(@z.z..+C@",
":*>@e@-@(@D.C..+C.Z+o+D.D.D.-@1+i#-@` q+.+U#@+t@o@(@o@:*6$I$1+6 t@t@X@j,k,l,z.>@i#C#K@/@ .&;O..+m+C>( ( ( ( ( ( ( ( ( ( ( ( ( ( ( ( ( ( ( ( ( ( ( ( ( ( ( ( ( ( ( ( ( |,1+t+c.O.t@=@C#t@(@-@m,n,o,p,z.1+-@z.>@O D.t@>@D.z.(@C#-@)+Y C@C@-@e@q,y.C.P#` C.C.z.D.D.z..+.+1*",
"C@(@z.i#>@(@D.C.1*)+,+.+.+z.-@1+>@>@l+&.1*(@o@@+-@-@z.C@n-.%i#t@=@D#O&r,s,t,q,>@i#>@o@>@^$W.P.!+l+C>( ( ( ( ( ( ( ( ( ( ( ( ( ( ( ( ( ( ( ( ( ( ( ( ( ( ( ( ( ( ( ( ( u,(@T _+:+1+=@/@C#>@/@v,w,x,y,D*@+e@(@>@O z./@>@z..+-@C#-@C.r+C..+C.C.1*5$1*D.` C.C@-@C@e@.+:*D..+",
"C@-@D.D.(@>@>@z.C.)+l+.+C.e@i#>@(@z. .p+1*e@-@o@E=:*E=C@p+..>@i#-@@+Q+z,A,B,z.>@7 @+@+D.&.X.P.D. %C>( ( ( ( ( ( ( ( ( ( ( ( ( ( ( ( ( ( ( ( ( ( ( ( ( ( ( ( ( ( ( ( ( C,`$Q b=:+1+g@=@t@=@=@3&D,E,F,6+-@E=:*i#O i#@+e@C@1*D.(@z. +=.C.C..+1*1*5$1*D. ..+z.(@(@-@.+z.D.C@",
"C@-@z.e@-@i#(@e@.+l+l+.+C.e@-@(@e@.+ .p+)+C.-@(@C@C@-@C@p+..>@-@e@>@G,H,I,},-@;@;@i#1+e@t+(+:+.+l+J,( ( ( ( ( ( ( ( ( ( ( ( ( ( ( ( ( ( ( ( ( ( ( ( ( ( ( ( ( ( ( ( ( C,`$O U.Q.1+g@K@t@/@=@K,L,M,*>=@z.-@:*>@O .+z.T;-@V+C.z.N$ .T l+1*C.1*)+y.)+!+ .C.D.z.i#D..+D.z.C.",
"e@z.D.8@z.D.D.z.D.Z+l+.+C.z.C@C.1*1*~+}+` y.C.:*.+E=-@C@t+,+z.e@e@>@N,H,O,V>o@Z$7 i#i#D.e$T.O.I$m+J,( ( ( ( ( ( ( ( ( ( ( ( ( ( ( ( ( ( ( ( ( ( ( ( ( ( ( ( ( ( ( ( ( C,i#s+U.Q.n$K@o@>@(@K@P,(,Q,R,U#z.(@e@C@s+)+C@:*.+V+.+.+C.*.O l+)+1*1*)+Z+l+.+,+n+C.C.C.C.C..+z.8@",
"D.z.D.D.P#:*D.e@.+` o+.+C.C.1*5$Z+l+^$}+` 1*y.1*V+E=C@1*e$o+.+z.(@(@G,S,T,U,=@d@t@1+i#.+<+X.O. %m+J,( ( ( ( ( ( ( ( ( ( ( ( ( ( ( ( ( ( ( ( ( ( ( ( ( ( ( ( ( ( ( ( ( V,z.[+c.O.z.i#e@-@z.-@`;W,X,3,=@o@@+C#z.[+5$C..+)+.+.+C.` r+S ` l+1*1*)+l+)+D...` l+)+5$` ` C.8@D.",
"1*D..+D.z..+D.D.C.,+Z$e@C.y.5$` )+1*~+}+` 5$Z+C.:*C@V+1*}+I$8@z.(@(@Z&],Y,U,=@G$7 1+C#z.T (+O. + +J,( ( ( ( ( ( ( ( ( ( ( ( ( ( ( ( ( ( ( ( ( ( ( ( ( ( ( ( ( ( ( ( ( Z,z.Z.7.O.D.i#-@C@V+-@`,W, '.'u=C#K@(@i#).C.C.:*)+z.C.1*` ^$O 5$1*)+)+y.l+.+n$r$l+C.C.1*B>3$)+.+C.",
"C.:*C.D.z.:*z..+l+`$D.C.l+` ~+t+` n+Y p+l+1*` )+.+:*V+.+++o+D.z.z.(@Z&],+'@'U#6 Z$i#>@z.++]>P..+M$J,( ( ( ( ( ( ( ( ( ( ( ( ( ( ( ( ( ( ( ( ( ( ( ( ( ( ( ( ( ( ( ( ( Z,n$J c.O.D.e@:*D.z.T;#'W, '$'u=@+>@C#C#s+.+C.D.l+.+C.C.y.r+O |+l+T ` y.)+)+z.1+ .C.C.C@5$3$)+.+ +",
")+.+:*e@z.-@z..+r+ +.+)+ .~+%'H$~+,@P }+T ++}+x.&.p+}+ .&.` D.-@z.C#Z&&'^,V>o@t@t@Z$`$D.q+/*O.(=I$*'( ( ( ( ( ( ( ( ( ( ( ( ( ( ( ( ( ( ( ( ( ( ( ( ( ( ( ( ( ( ( ( ( ='z.P 8.-'D.C@.+e@z.o@;'>','3,M#>@1+t@C#`.)+O r+=.O ++++O p+F '+^$O P  .y.)+D.n$++)+.+.+~+ .l+1*)+",
"l+C.C@.+.+z.C@Z+p+l+C.l+~+!.>.,+q+P O ;$>.U.I '.]+%'W.l+p+~+.+E=D.1+>+'')'!'-@7 t@>@i#z.&.(+O. +m+*'( ( ( ( ( ( ( ( ( ( ( ( ( ( ( ( ( ( ( ( ( ( ( ( ( ( ( ( ( ( ( ( ( ~'`$J b.{'D.E=.+z.e@e@#'(,]'^'@#>@(@i#>@`.l+{+G /'('_'F L Y.O I &.%.O P ..y.D.i#T ` C.C.` l+C.C.5$",
"C..+.+C@1*N$N$~+p+l+)+` &.P Z t+F `.p+O S.!.F ]>%'S.F 6$<+~+D.C@.+-@J&:'<'['-@7 1+i#-@e@++(+O.l+o+*'( ( ( ( ( ( ( ( ( ( ( ( ( ( ( ( ( ( ( ( ( ( ( ( ( ( ( ( ( ( ( ( ( V=D.Z.8.}'z.e@e@>@>@(@b-(,|'^'K@i#z.z.i#`...I 1'L B=('>&2'3').`.I t+'+P &.C..+P#O ` C.C.C.)+.+C.|+",
"l+)+C.1*l+.+.+ .p+o+)+~+,+~+++P !.++t+4'F H Y.%'p=>&]+^$<+,+>@e@:*>@+#5'6'7'-@1+t@z.z.1*t%T.O. %p$*'( ( ( ( ( ( ( ( ( ( ( ( ( ( ( ( ( ( ( ( ( ( ( ( ( ( ( ( ( ( ( ( ( 8'o$G b=:+D.z.>@1+1+C#9'0'a'b't@-@C@D.i#M  .Z.H c'%']>d'H p=Z.t+&.>&O &.y.` C.P#O ~+)+C.1*C..+.+l+",
"l+` ` l+` n+C. .q+o$.+~+q+++Z.M e'..&.t%'+6$q+t+++++}+r$Z C.1+-@>@t@=@f'g'h'z.>@1+D.z.C.<+(+b. +Z *'( ( ( ( ( ( ( ( ( ( ( ( ( ( ( ( ( ( ( ( ( ( ( ( ( ( ( ( ( ( ( ( ( i'C.P U.R.!+D.e@i#1+o@j'Z*k'l'G$i#C@i#>@).n$++=>p+r+K=++}+T }+Y m'H$I p+^$5$)+>@<+^$l+1*)+l+C.D.C.",
"l+` ` l+l+l+l+~+r+'#}@>+'#j#` p+++x.x.O `.`.x./=[+Z.{+O T n$>@z.1+6 z.n'o'p'z.i#z..+D.C.<+W.Z `$.%*'( ( ( ( ( ( ( ( ( ( ( ( ( ( ( ( ( ( ( ( ( ( ( ( ( ( ( ( ( ( ( ( ( i'n+` I R.n+z.D.(@>@z. $w=q'v=Z$P#D.(@Z$=>t+O /+/=).`.M `.).s+`.O s+&.:#Z&&%r'W%&.r+l+C.C.l+l+o$D.",
")+)+)+)+C.l+` ^$O m+!+D.D.>@)*Q+z$j#S$'#D#u=)#u=[#}&s't'd@`$i#D.t@C.u'**l,{-C.z..+C..+1*}+Q g@z.Z *'( ( ( ( ( ( ( ( ( ( ( ( ( ( ( ( ( ( ( ( ( ( ( ( ( ( ( ( ( ( ( ( ( v'l+i#Z U.1*D.-@C#-@1*);w'x'y'Z i#(@1+>@-@z'A'B'K@}&'#)*j#c*s%>+3=Z&>+B n$D.(@>@`.r+l+l+Z+5$|+ +!+",
"` )+C.l+C.)+` 4$Q m+C..+C@.+i#@+z.>@t@1+z.D.D.y..+1*1*z.D.z.i#z.t@)+C'D'/=O C.z.C.1*1*)+<+J .+D.Z *'( ( ( ( ( ( ( ( ( ( ( ( ( ( ( ( ( ( ( ( ( ( ( ( ( ( ( ( ( ( ( ( ( E'.+o$++c.C..+:*>@>@1*F'G'H'I'++Z$1+1+7 C@z.z.-@(@-@.+(@t@>@i#.+.+.+e@D.C.C..+z.Z.^$5$`  . .`  +C.",
"` )+l+` l+5$5$3$O I$`$D..+.+D.i#C.i#t@(@i#z.z.C..+C.C.i#1+.+D.z.i#` ',J'[+T C.D.C.1*)+)+<+P 1*.+%.K'( ( ( ( ( ( ( ( ( ( ( ( ( ( ( ( ( ( ( ( ( ( ( ( ( ( ( ( ( ( ( ( ( L'C..+t+8.C.C..+-@>@1*n-',I ',Q z.>@>@(@1+i#z.z.>@i#C.D.z.i#D.8@.+l+)+.+)+)+D.D.Z.Y ~+3$ .z>`  +)+",
"~+l+` l+)+`  .^$O o+D..+C..+C.o$C.z.z.z.o$C.D.C.C.z.>@1+z..+C.8@D...M'N'`.T C.z.C.l+n+l+O P )+C.=.K'( ( ( ( ( ( ( ( ( ( ( ( ( ( ( ( ( ( ( ( ( ( ( ( ( ( ( ( ( ( ( ( ( O'C.C.Q 8.)+.+)+D.i#C.r+y>;$T.T o$i#z.>@7 Z$(@>@7 i#C.D.8@P#C.C.l+` 1*.+D.C.e@P#).q+~+^$r+r+ . +C.",
"~+` ` ` ` l+3$^$S  %D.N$)+)+C.l+)+o$P'D..+o$o$8@D.>@t@i#D.D.C.C.C...T.Q.H*>.n+C.C.l+l+Q'O Z.` C.V K'( ( ( ( ( ( ( ( ( ( ( ( ( ( ( ( ( ( ( ( ( ( ( ( ( ( ( ( ( ( ( ( ( R' %n+R 8.)+C.l+ +i#C.Y /+;$X.t+(@(@i#P#i#D.6 >@>@z..+D.C.D.o$o$l+C.:*.+-@.+D.i#Z.q+~+^$r+&.Z l+ +",
"^$ . .~+z> .3$4$O  %D.C.l+l+.+I$l+C.D.i#D.o$C.C.D.>@(@z.D.8@C.)+ +Z U.J'[+M o+C.y.` l+l+O G  .I$Q S'( ( ( ( ( ( ( ( ( ( ( ( ( ( ( ( ( ( ( ( ( ( ( ( ( ( ( ( ( ( ( ( ( R'C.n+Q P.` l+Q')+C.)+Y T'I {*T D.P#P#;@P#C#t@Z$D..+)+D.o$D.o$o$l+y.:*.+C.z.D.i#Z.&.z>*.r+p+Z l+)+",
"M+ ...z>^$^$ .r+O m+D.C.)+o$D.l+l+n+z.Z$Z$o$n+C.C.P#P#D.z.z.D..+)+^$U.Q.).O  .)+` ~+ .|+O H  .I$Q S'( ( ( ( ( ( ( ( ( ( ( ( ( ( ( ( ( ( ( ( ( ( ( ( ( ( ( ( ( ( ( ( ( R'C.l+O Q.` )+l+y.` ~+p+/+;${*O n+C.C.D.8@;@i#`$o$C..+D.C.D.o$o$z.C.i#o$.+z.D.Z$Z.&.^$^$q+p+Z ,+..",
"r+ .^$/$/$Z ^$r+`.@%C.l+.+z..+1*C.C.C.U'P#o$n+C.C..+z.z.D.C.n+C.n+Z H /+T O ..I$` ..` ..`.I .. .Q S'( ( ( ( ( ( ( ( ( ( ( ( ( ( ( ( ( ( ( ( ( ( ( ( ( ( ( ( ( ( ( ( ( V'o+` O b.,+l+ .7+~+~+t+I M !.T l+l+C.C.8@D.Z$i#z.C.C.D.C.C.C.C.8@o$P#D.D.D.D.6 Z.p+^$r+r+q+^$ .^$",
"q+^$q+r+Z r+r+&.O !+ + +C.C..+)+C.C.o$o$8@C.C.C.z.C.n+o$D.n+I$)+n+Z /+O ++Q ..W' .~+ .r+`.G Z ..Q S'( ( ( ( ( ( ( ( ( ( ( ( ( ( ( ( ( ( ( ( ( ( ( ( ( ( ( ( ( ( ( ( ( X'....O 8.~+,+~+7+~+Z t+O .%).T l+ .` l+)+.+D.o$i#Y'n+C.)+n+Q'y.n+C.8@C.n+C.)+z.T T r+^$q+q+^$Z Y ",
"t+&.&.&.q+q+&.O !+C.C.l+C.)+C.I$)+C.C.P'n+n+n+C.C.C.C.o$)+l+ .m+v@Z ;$Z'%.O Z  .M+,@ .M+).I .%..Q S'( ( ( ( ( ( ( ( ( ( ( ( ( ( ( ( ( ( ( ( ( ( ( ( ( ( ( ( ( ( ( ( ( `'....O 8.~+`  .~+ .~+&.Q %+Z.H${%` `  .` )+)+C..+I$l+I$l+W'W'Q'y.l+l+n+I$C.` l+.+{-++&.p+}+W &.&.",
"Z.P P P Z.).Z...,+....Z  .....Z .. . . . ......... . . . ...Z .%p$Q ]+!.F ^$^$..,@Y ^$ .P E Z ..M S'( ( ( ( ( ( ( ( ( ( ( ( ( ( ( ( ( ( ( ( ( ( ( ( ( ( ( ( ( ( ( ( (  ).%..).:+`  .~+ . .r+^$P H /+`. %Z r+^$..,+ .,@~+Z Z ~+Z ,@Z  ...Z Z Z Z Z Y =.Y ` Z./=Z.=-P Z.Z.",
"p+t%&.&.&.4$Z O U.P.}'{'.)}'O.O.:+P.O.O.:+:+:+:+P.O.Q.b=/*]+Y.]>V.]+`.<+..r+&.W ++t+'.%.E +)Z ..M S'( ( ( ( ( ( ( ( ( ( ( ( ( ( ( ( ( ( ( ( ( ( ( ( ( ( ( ( ( ( ( ( (  )..@)M Q.l+T O q+'+++'+Z x.<+I Y.U.U.V.(+c.8.:+}'#)O.O..){'}'}'.)#)}'O.Q.O.O.:+8.Z.);~+3$/$4$4$^$",
"$)%)&)%)$)%)*)%)=)o.=)L.-)J.;)M.;)$)%)$)%)$)M.o.o.o.$)$)%)$)$);)$)%)$);)$)o.L.K.J.o.o.>),)I r+Y J S'( ( ( ( ( ( ( ( ( ( ( ( ( ( ( ( ( ( ( ( ( ( ( ( ( ( ( ( ( ( ( ( ( ')Y Y {+))!)=)o.L.~)L.o.=)$){){){)%)$)$);)o.L.=)$)M.M.$)$)$)$);)L.J.o.=)o.=)o.;)$){)])^){)$)$)o.=)",
"8.T.T./)_+_+_+d._+U.8.d.Q.R.8.8.8.c.T._+8.d.Q.d.d.d.()()8.8.8.8._+_+8.8.U.W.',_)_+_+G':)<)[)s+P ]>S'( ( ( ( ( ( ( ( ( ( ( ( ( ( ( ( ( ( ( ( ( ( ( ( ( ( ( ( ( ( ( ( ( })>&J =-|)1)2)',U._)7.()_+_)U.T.^+T.U.d.()_+8.8._+()_+/)T.T.U._+8.d.d.8.d.7.8.d.d._)T.3)4)d.5)d.d.",
"G$Y&-+D t@6 6 6 {%h M-6 6 {%0 0 z v Y&h z =+t@d@G$G$C C B -+z -+z -+j -+j -+-+A C {%G$D g@=+A -+[*_=( ( ( ( ( ( ( ( ( ( ( ( ( ( ( ( ( ( ( ( ( ( ( ( ( ( ( ( ( ( ( ( ( 6)7*A f@]$k+=+3+-+w z b*f@f@J@f@7)w z C 8)d d@G$=@G$f@z z h M-A -+[*[*f@z ]$[*d@t@t@G$=+>*Z$i#7 Z$",
"9)0)a)b)c)d)e)f)g)h)i)a)j)n=a)i)k)h)l)m)n)k)a)n=n=n=a)n=a)n)o)p)o)q)q)q)0)i)i)a)n=9)r)n=n=n=s)p)t)$-( ( ( ( ( ( ( ( ( ( ( ( ( ( ( ( ( ( ( ( ( ( ( ( ( ( ( ( ( ( ( ( ( u)a)s)s)g)g)g)i)n)v)w)i)o)x)g)i)q)y)n)0)z)i)a)n=n=n=0)q)n)n)i)g)i)g)p)y)o)q)i)0)n=n=n=n=b)A)A)b)A)"};
