/* XPM */
static char * so_door30_tex_xpm[] = {
"132 132 1115 2",
"  	c #2F3B46",
". 	c #2F3A45",
"+ 	c #2F3A46",
"@ 	c #303B46",
"# 	c #303C47",
"$ 	c #303A45",
"% 	c #313D4A",
"& 	c #313E4A",
"* 	c #323E4A",
"= 	c #323F4A",
"- 	c #313D48",
"; 	c #35393C",
"> 	c #393939",
", 	c #383939",
"' 	c #303B45",
") 	c #323F4B",
"! 	c #313D49",
"~ 	c #303C48",
"{ 	c #2E3843",
"] 	c #283949",
"^ 	c #283948",
"/ 	c #293949",
"( 	c #293B4B",
"_ 	c #293A4A",
": 	c #293A49",
"< 	c #2A3B4B",
"[ 	c #2A3B4A",
"} 	c #2B3D4C",
"| 	c #2C3F4F",
"1 	c #2D3F4F",
"2 	c #2C3F50",
"3 	c #2D4151",
"4 	c #2C3D4C",
"5 	c #33393E",
"6 	c #37383A",
"7 	c #2B3C4B",
"8 	c #2A3C4B",
"9 	c #293C4B",
"0 	c #2D4050",
"a 	c #293B4A",
"b 	c #273848",
"c 	c #273847",
"d 	c #1A2732",
"e 	c #1A2733",
"f 	c #1A2833",
"g 	c #1B2833",
"h 	c #1B2834",
"i 	c #1B2934",
"j 	c #1C2934",
"k 	c #1C2A35",
"l 	c #1C2A36",
"m 	c #1D2A36",
"n 	c #1D2B38",
"o 	c #1E2D39",
"p 	c #1F2F3C",
"q 	c #1F2E3B",
"r 	c #1F2E3A",
"s 	c #1F2C39",
"t 	c #313437",
"u 	c #303337",
"v 	c #1F2C38",
"w 	c #1E2C38",
"x 	c #1C2B37",
"y 	c #1D2D3A",
"z 	c #1D2B37",
"A 	c #1C2935",
"B 	c #1B2733",
"C 	c #080E14",
"D 	c #080F14",
"E 	c #080E13",
"F 	c #090E14",
"G 	c #091015",
"H 	c #09131B",
"I 	c #091C2B",
"J 	c #0F1E29",
"K 	c #131F27",
"L 	c #131E27",
"M 	c #131C24",
"N 	c #2F3031",
"O 	c #2E2F31",
"P 	c #131E26",
"Q 	c #141F28",
"R 	c #121E27",
"S 	c #091C29",
"T 	c #08151F",
"U 	c #081015",
"V 	c #090F14",
"W 	c #0D151B",
"X 	c #0C151B",
"Y 	c #0C141A",
"Z 	c #0C141B",
"` 	c #0B1319",
" .	c #0A1117",
"..	c #0A1116",
"+.	c #090F15",
"@.	c #0C1319",
"#.	c #0E1821",
"$.	c #0F1E2A",
"%.	c #192733",
"&.	c #20303E",
"*.	c #223341",
"=.	c #303336",
"-.	c #2F3236",
";.	c #21313F",
">.	c #223340",
",.	c #101E28",
"'.	c #0E1A23",
").	c #0B151B",
"!.	c #0A1218",
"~.	c #0B1218",
"{.	c #0D151C",
"].	c #0E171E",
"^.	c #0F161E",
"/.	c #0E161D",
"(.	c #17232D",
"_.	c #18242E",
":.	c #182530",
"<.	c #192631",
"[.	c #192732",
"}.	c #192530",
"|.	c #21313E",
"1.	c #21323F",
"2.	c #1C2B36",
"3.	c #233644",
"4.	c #1E303F",
"5.	c #273948",
"6.	c #293C4C",
"7.	c #233340",
"8.	c #313438",
"9.	c #2F3337",
"0.	c #263947",
"a.	c #283B4A",
"b.	c #192834",
"c.	c #263B4B",
"d.	c #1F2F3B",
"e.	c #1D2C38",
"f.	c #20313E",
"g.	c #22333F",
"h.	c #1E2E3A",
"i.	c #1F303C",
"j.	c #243644",
"k.	c #273949",
"l.	c #283B4B",
"m.	c #2A3E4E",
"n.	c #2C4253",
"o.	c #243847",
"p.	c #1E2E3B",
"q.	c #283C4C",
"r.	c #2A3F4F",
"s.	c #243442",
"t.	c #313538",
"u.	c #303438",
"v.	c #283A4B",
"w.	c #293D4D",
"x.	c #273B4C",
"y.	c #2D4253",
"z.	c #2B4050",
"A.	c #2B3F4F",
"B.	c #2B4051",
"C.	c #2A3E4D",
"D.	c #263948",
"E.	c #20303D",
"F.	c #202F3B",
"G.	c #21303E",
"H.	c #20303C",
"I.	c #32495B",
"J.	c #32495C",
"K.	c #31485B",
"L.	c #31485A",
"M.	c #2C4354",
"N.	c #1E303E",
"O.	c #1E2D3A",
"P.	c #293E4E",
"Q.	c #2A3E4F",
"R.	c #2C4152",
"S.	c #2E4455",
"T.	c #2E4557",
"U.	c #263C4C",
"V.	c #2A3F50",
"W.	c #263744",
"X.	c #323639",
"Y.	c #303539",
"Z.	c #2B4153",
"`.	c #203240",
" +	c #2D4354",
".+	c #2D4353",
"++	c #2E4354",
"@+	c #2D4355",
"#+	c #293D4E",
"$+	c #2B3F51",
"%+	c #1F2F3D",
"&+	c #293D4B",
"*+	c #344B5E",
"=+	c #314658",
"-+	c #304759",
";+	c #344C5F",
">+	c #2D4457",
",+	c #1E313F",
"'+	c #243745",
")+	c #233443",
"!+	c #2A3D4E",
"~+	c #2E4558",
"{+	c #2E4659",
"]+	c #294052",
"^+	c #293E4F",
"/+	c #2B4052",
"(+	c #273745",
"_+	c #32363A",
":+	c #30353A",
"<+	c #293D4C",
"[+	c #2C4355",
"}+	c #213443",
"|+	c #2F4558",
"1+	c #223240",
"2+	c #374F62",
"3+	c #304658",
"4+	c #30485B",
"5+	c #31495D",
"6+	c #2D4659",
"7+	c #1F3342",
"8+	c #223543",
"9+	c #223542",
"0+	c #2D4557",
"a+	c #30475A",
"b+	c #2B4254",
"c+	c #243645",
"d+	c #2C4254",
"e+	c #273846",
"f+	c #33373B",
"g+	c #37393A",
"h+	c #30363B",
"i+	c #213343",
"j+	c #2F4659",
"k+	c #2A4052",
"l+	c #2C4153",
"m+	c #213240",
"n+	c #253847",
"o+	c #223645",
"p+	c #31485C",
"q+	c #30485A",
"r+	c #31495C",
"s+	c #324A5E",
"t+	c #1B2F3D",
"u+	c #142029",
"v+	c #2B4152",
"w+	c #2A3F51",
"x+	c #293E50",
"y+	c #2E4456",
"z+	c #273947",
"A+	c #30373C",
"B+	c #2D4254",
"C+	c #203341",
"D+	c #32495E",
"E+	c #304659",
"F+	c #1D2C39",
"G+	c #1A2B38",
"H+	c #30495C",
"I+	c #334A5E",
"J+	c #324B5F",
"K+	c #334C61",
"L+	c #2E485B",
"M+	c #1D3140",
"N+	c #182631",
"O+	c #263A49",
"P+	c #253949",
"Q+	c #2D4356",
"R+	c #253846",
"S+	c #33373C",
"T+	c #30373D",
"U+	c #1F303F",
"V+	c #2F4557",
"W+	c #233645",
"X+	c #1D2E3B",
"Y+	c #334B5F",
"Z+	c #334C60",
"`+	c #344D62",
" @	c #314A5F",
".@	c #1F3241",
"+@	c #273A4A",
"@@	c #2D4357",
"#@	c #283A49",
"$@	c #34383D",
"%@	c #31383F",
"&@	c #2E4457",
"*@	c #1F303E",
"=@	c #31475A",
"-@	c #243746",
";@	c #1E2F3D",
">@	c #324A5F",
",@	c #30475B",
"'@	c #324C5F",
")@	c #2F485C",
"!@	c #1F3140",
"~@	c #1A2834",
"{@	c #273A49",
"]@	c #253746",
"^@	c #2E4658",
"/@	c #2E4458",
"(@	c #34393D",
"_@	c #31393F",
":@	c #1E303D",
"<@	c #2D4558",
"[@	c #2C4052",
"}@	c #223442",
"|@	c #314A5E",
"1@	c #32495D",
"2@	c #334D61",
"3@	c #2F495D",
"4@	c #203140",
"5@	c #253948",
"6@	c #35393D",
"7@	c #313940",
"8@	c #2A4051",
"9@	c #233746",
"0@	c #344D61",
"a@	c #344C61",
"b@	c #334B60",
"c@	c #2F475B",
"d@	c #1B2A35",
"e@	c #253947",
"f@	c #233545",
"g@	c #1C2B39",
"h@	c #2B4154",
"i@	c #2D4456",
"j@	c #243846",
"k@	c #344E62",
"l@	c #344B60",
"m@	c #1E3140",
"n@	c #1B2A36",
"o@	c #253747",
"p@	c #283E4F",
"q@	c #233543",
"r@	c #35393E",
"s@	c #313A41",
"t@	c #293D4F",
"u@	c #1B2C39",
"v@	c #2F4658",
"w@	c #233646",
"x@	c #354D62",
"y@	c #344C60",
"z@	c #203444",
"A@	c #233544",
"B@	c #2F475A",
"C@	c #17242E",
"D@	c #353A3E",
"E@	c #313A42",
"F@	c #182734",
"G@	c #223544",
"H@	c #2B3F50",
"I@	c #334B5E",
"J@	c #314C60",
"K@	c #2B475C",
"L@	c #213D51",
"M@	c #243E50",
"N@	c #17242F",
"O@	c #18252F",
"P@	c #2A3D4D",
"Q@	c #1D2E3C",
"R@	c #253B4D",
"S@	c #253E52",
"T@	c #2A465A",
"U@	c #30485C",
"V@	c #37546B",
"W@	c #1F4965",
"X@	c #1A74A2",
"Y@	c #2A495E",
"Z@	c #2A4153",
"`@	c #1A2935",
" #	c #38393A",
".#	c #323B43",
"+#	c #1A2A36",
"@#	c #1C2D3A",
"##	c #2C4659",
"$#	c #2A5B7B",
"%#	c #265F82",
"&#	c #305069",
"*#	c #365064",
"=#	c #355065",
"-#	c #1D4864",
";#	c #127BB7",
">#	c #2A4A61",
",#	c #2C4356",
"'#	c #283E4E",
")#	c #2B3E4E",
"!#	c #38393B",
"~#	c #1C2C38",
"{#	c #1B2B38",
"]#	c #2E4A5E",
"^#	c #286388",
"/#	c #246287",
"(#	c #2F4E66",
"_#	c #385268",
":#	c #1E4864",
"<#	c #137BB9",
"[#	c #2B4B61",
"}#	c #273C4C",
"|#	c #303941",
"1#	c #1A2934",
"2#	c #2F4A5E",
"3#	c #296489",
"4#	c #236389",
"5#	c #2F4F66",
"6#	c #30485D",
"7#	c #2D4455",
"8#	c #1E4966",
"9#	c #0F7CC1",
"0#	c #2B4A61",
"a#	c #283D4D",
"b#	c #2B4151",
"c#	c #2B404F",
"d#	c #363A3D",
"e#	c #383A3C",
"f#	c #313B43",
"g#	c #1C2C39",
"h#	c #28658A",
"i#	c #23668D",
"j#	c #2F5067",
"k#	c #2E475A",
"l#	c #334C5F",
"m#	c #385368",
"n#	c #1F4966",
"o#	c #0E7DC4",
"p#	c #2C4B62",
"q#	c #192630",
"r#	c #36393D",
"s#	c #313A43",
"t#	c #1C2B38",
"u#	c #2A6488",
"v#	c #22668F",
"w#	c #2F5069",
"x#	c #365267",
"y#	c #1E4765",
"z#	c #1279C2",
"A#	c #2D4A61",
"B#	c #303A44",
"C#	c #2A668B",
"D#	c #216690",
"E#	c #2F526B",
"F#	c #324A5D",
"G#	c #30465A",
"H#	c #365167",
"I#	c #1277C2",
"J#	c #2B3E4F",
"K#	c #383A3B",
"L#	c #2F485D",
"M#	c #2B658A",
"N#	c #206692",
"O#	c #30526B",
"P#	c #31495E",
"Q#	c #354F65",
"R#	c #1E4967",
"S#	c #107AC4",
"T#	c #2E4C63",
"U#	c #2C4456",
"V#	c #283D4C",
"W#	c #1B2935",
"X#	c #363A3E",
"Y#	c #313B45",
"Z#	c #293E4D",
"`#	c #1B2B36",
" $	c #2F495E",
".$	c #2B658C",
"+$	c #1F6693",
"@$	c #30536D",
"#$	c #344F64",
"$$	c #0F7BC7",
"%$	c #2D4C63",
"&$	c #2F3A43",
"*$	c #1B2933",
"=$	c #2C658B",
"-$	c #1F6692",
";$	c #30526C",
">$	c #2D4458",
",$	c #1E4763",
"'$	c #0F7AC6",
")$	c #2C4C63",
"!$	c #2F4A5F",
"~$	c #21668F",
"{$	c #2F5169",
"]$	c #204763",
"^$	c #0F7CC6",
"/$	c #303B44",
"($	c #273B4B",
"_$	c #192731",
":$	c #216790",
"<$	c #1F4763",
"[$	c #0E7DC5",
"}$	c #2C4D64",
"|$	c #2F3B45",
"1$	c #2B4253",
"2$	c #304A5F",
"3$	c #22658F",
"4$	c #1F4864",
"5$	c #0D7EC7",
"6$	c #2D4E65",
"7$	c #2B6386",
"8$	c #23648C",
"9$	c #1D445F",
"0$	c #127CBC",
"a$	c #2B4B62",
"b$	c #18252E",
"c$	c #36393C",
"d$	c #2F3A44",
"e$	c #2E4559",
"f$	c #2D475B",
"g$	c #2B6081",
"h$	c #266083",
"i$	c #2B4A60",
"j$	c #1F3A4E",
"k$	c #2A5875",
"l$	c #253F53",
"m$	c #2E3943",
"n$	c #254A62",
"o$	c #224862",
"p$	c #1C3040",
"q$	c #2C4759",
"r$	c #244055",
"s$	c #254F69",
"t$	c #243C4E",
"u$	c #2E3A43",
"v$	c #2A4050",
"w$	c #273E50",
"x$	c #25485E",
"y$	c #254962",
"z$	c #294458",
"A$	c #304758",
"B$	c #1D4561",
"C$	c #1B73A7",
"D$	c #28485F",
"E$	c #37393C",
"F$	c #2E3A44",
"G$	c #293F51",
"H$	c #294356",
"I$	c #2A5F80",
"J$	c #255F83",
"K$	c #2C4960",
"L$	c #1D4764",
"M$	c #127BBD",
"N$	c #2A4B62",
"O$	c #2E3A45",
"P$	c #2C475B",
"Q$	c #236289",
"R$	c #2E4D65",
"S$	c #1E4A67",
"T$	c #107CC4",
"U$	c #2A4A62",
"V$	c #2C4457",
"W$	c #17222D",
"X$	c #293E4C",
"Y$	c #2E3A46",
"Z$	c #2C485D",
"`$	c #29668C",
" %	c #216590",
".%	c #2F4759",
"+%	c #1E4866",
"@%	c #107BC4",
"#%	c #192632",
"$%	c #16222C",
"%%	c #2D3A44",
"&%	c #293F50",
"*%	c #29668A",
"=%	c #206792",
"-%	c #2D4F68",
";%	c #304859",
">%	c #1E4A68",
",%	c #107BC3",
"'%	c #2A4961",
")%	c #37393B",
"!%	c #2D3943",
"~%	c #2B475B",
"{%	c #1D4966",
"]%	c #1279BD",
"^%	c #2A485F",
"/%	c #16232D",
"(%	c #2D3A45",
"_%	c #17242D",
":%	c #2B4559",
"<%	c #296386",
"[%	c #236489",
"}%	c #2D4F67",
"|%	c #1579B5",
"1%	c #29485E",
"2%	c #2B4558",
"3%	c #296082",
"4%	c #256083",
"5%	c #1A384C",
"6%	c #21526E",
"7%	c #253E51",
"8%	c #253848",
"9%	c #2C3842",
"0%	c #2B4252",
"a%	c #214962",
"b%	c #204962",
"c%	c #2B4457",
"d%	c #2C4252",
"e%	c #1A2A37",
"f%	c #1A3040",
"g%	c #2C3742",
"h%	c #1D303F",
"i%	c #1C2E3D",
"j%	c #263845",
"k%	c #17232E",
"l%	c #2C3944",
"m%	c #223441",
"n%	c #253A48",
"o%	c #2D3B45",
"p%	c #1B2A34",
"q%	c #15212A",
"r%	c #1E2D38",
"s%	c #2B3944",
"t%	c #152029",
"u%	c #1F2D39",
"v%	c #253745",
"w%	c #15212B",
"x%	c #273C4A",
"y%	c #18242D",
"z%	c #273A48",
"A%	c #2C3945",
"B%	c #172B39",
"C%	c #182833",
"D%	c #1D2D39",
"E%	c #2B3844",
"F%	c #233542",
"G%	c #2A4152",
"H%	c #172936",
"I%	c #213647",
"J%	c #284155",
"K%	c #1B3F56",
"L%	c #255A77",
"M%	c #1F394B",
"N%	c #273B49",
"O%	c #293F4E",
"P%	c #2A3843",
"Q%	c #293F4F",
"R%	c #223746",
"S%	c #285773",
"T%	c #1B445D",
"U%	c #223E53",
"V%	c #1D4159",
"W%	c #1973A8",
"X%	c #24648A",
"Y%	c #2B495F",
"Z%	c #293642",
"`%	c #2E4353",
" &	c #275471",
".&	c #0F7DC0",
"+&	c #1E4964",
"@&	c #1C6F9F",
"#&	c #1E6D9C",
"$&	c #2D536D",
"%&	c #14202A",
"&&	c #293743",
"*&	c #16222B",
"=&	c #304D64",
"-&	c #285E81",
";&	c #0980C9",
">&	c #1A72A5",
",&	c #2D5570",
"'&	c #142028",
")&	c #192833",
"!&	c #2A3844",
"~&	c #24638A",
"{&	c #2B536D",
"]&	c #293844",
"^&	c #2F4D65",
"/&	c #293845",
"(&	c #16212B",
"_&	c #273B4A",
":&	c #283C4B",
"<&	c #21333F",
"[&	c #182630",
"}&	c #21323E",
"|&	c #263641",
"1&	c #15222A",
"2&	c #263440",
"3&	c #141F27",
"4&	c #24323F",
"5&	c #233642",
"6&	c #141E26",
"7&	c #1E2E39",
"8&	c #2C4151",
"9&	c #263A4A",
"0&	c #1C2933",
"a&	c #151F27",
"b&	c #1C2C37",
"c&	c #333537",
"d&	c #282D32",
"e&	c #283C4A",
"f&	c #101C25",
"g&	c #141D26",
"h&	c #353738",
"i&	c #252E35",
"j&	c #283C4D",
"k&	c #152531",
"l&	c #122C3E",
"m&	c #103C55",
"n&	c #383839",
"o&	c #212F3A",
"p&	c #263B4C",
"q&	c #273D4C",
"r&	c #1C303D",
"s&	c #162C3B",
"t&	c #124361",
"u&	c #11688D",
"v&	c #103447",
"w&	c #35383A",
"x&	c #29343E",
"y&	c #18242F",
"z&	c #273C4B",
"A&	c #1B3140",
"B&	c #153143",
"C&	c #134B6C",
"D&	c #0B729B",
"E&	c #10394F",
"F&	c #35383B",
"G&	c #293640",
"H&	c #2C4558",
"I&	c #1A3141",
"J&	c #163449",
"K&	c #144D6E",
"L&	c #0A749E",
"M&	c #103B52",
"N&	c #283641",
"O&	c #284255",
"P&	c #1A2933",
"Q&	c #253A4A",
"R&	c #153449",
"S&	c #154D6F",
"T&	c #0774A3",
"U&	c #103B53",
"V&	c #253A49",
"W&	c #294051",
"X&	c #1B303F",
"Y&	c #153247",
"Z&	c #144C6E",
"`&	c #0675A5",
" *	c #0F3A52",
".*	c #284256",
"+*	c #153347",
"@*	c #144C6D",
"#*	c #0973A0",
"$*	c #28343F",
"%*	c #274053",
"&*	c #283E4D",
"**	c #1C3141",
"=*	c #153043",
"-*	c #144A6B",
";*	c #0975A1",
">*	c #103B51",
",*	c #263E51",
"'*	c #233643",
")*	c #1D3241",
"!*	c #152D3D",
"~*	c #144764",
"{*	c #0D7299",
"]*	c #11384D",
"^*	c #35373A",
"/*	c #28323C",
"(*	c #283F51",
"_*	c #243543",
":*	c #1A2C3A",
"<*	c #15364A",
"[*	c #124D69",
"}*	c #212F3B",
"|*	c #1B2D3A",
"1*	c #172A3A",
"2*	c #2D373F",
"3*	c #1E2C37",
"4*	c #20313F",
"5*	c #2F3439",
"6*	c #333639",
"7*	c #2A3D4C",
"8*	c #253946",
"9*	c #15202A",
"0*	c #2F363C",
"a*	c #273A4B",
"b*	c #33363A",
"c*	c #2E343A",
"d*	c #17252F",
"e*	c #1D2E39",
"f*	c #2E3439",
"g*	c #1F303D",
"h*	c #17252E",
"i*	c #33373A",
"j*	c #2E353B",
"k*	c #34373B",
"l*	c #2F353C",
"m*	c #34373A",
"n*	c #2E353C",
"o*	c #283D4E",
"p*	c #2B3F4E",
"q*	c #234258",
"r*	c #1B2B35",
"s*	c #233442",
"t*	c #264256",
"u*	c #23648E",
"v*	c #24435A",
"w*	c #16212A",
"x*	c #34383B",
"y*	c #2E363C",
"z*	c #274357",
"A*	c #235572",
"B*	c #0083DD",
"C*	c #265C82",
"D*	c #234157",
"E*	c #152129",
"F*	c #2D353C",
"G*	c #264054",
"H*	c #224F6C",
"I*	c #0588D4",
"J*	c #265474",
"K*	c #0181DA",
"L*	c #255372",
"M*	c #253F54",
"N*	c #273D4F",
"O*	c #0882CF",
"P*	c #27597A",
"Q*	c #2E516A",
"R*	c #245170",
"S*	c #1774AD",
"T*	c #1E3C51",
"U*	c #2D343B",
"V*	c #20313D",
"W*	c #1E3546",
"X*	c #206A99",
"Y*	c #294D66",
"Z*	c #2A485C",
"`*	c #203E52",
" =	c #192A38",
".=	c #15222C",
"+=	c #172733",
"@=	c #1F3C4F",
"#=	c #28455A",
"$=	c #2C353B",
"%=	c #2C333B",
"&=	c #233341",
"*=	c #22323F",
"==	c #343739",
"-=	c #2C333A",
";=	c #263745",
">=	c #293B4C",
",=	c #15222D",
"'=	c #1E2F3B",
")=	c #182834",
"!=	c #233745",
"~=	c #1E2F3C",
"{=	c #353739",
"]=	c #182632",
"^=	c #283B4C",
"/=	c #162D3D",
"(=	c #17455B",
"_=	c #1D3342",
":=	c #18384B",
"<=	c #16394E",
"[=	c #23394A",
"}=	c #163E57",
"|=	c #1A7198",
"1=	c #204054",
"2=	c #253645",
"3=	c #2B3239",
"4=	c #243544",
"5=	c #131D27",
"6=	c #253D4F",
"7=	c #255673",
"8=	c #1F5978",
"9=	c #244257",
"0=	c #263949",
"a=	c #17425D",
"b=	c #147AAD",
"c=	c #204359",
"d=	c #253F52",
"e=	c #295D7D",
"f=	c #235E7F",
"g=	c #25455B",
"h=	c #184461",
"i=	c #107CB7",
"j=	c #22445B",
"k=	c #2A3239",
"l=	c #2A5E7F",
"m=	c #225F82",
"n=	c #18435F",
"o=	c #107CB8",
"p=	c #21445B",
"q=	c #263847",
"r=	c #2A323A",
"s=	c #2A5F7F",
"t=	c #235F83",
"u=	c #24445B",
"v=	c #18425E",
"w=	c #0F7DBB",
"x=	c #21445C",
"y=	c #14212B",
"z=	c #243F53",
"A=	c #295F7F",
"B=	c #236084",
"C=	c #202F3C",
"D=	c #233342",
"E=	c #17415D",
"F=	c #117CB9",
"G=	c #131D26",
"H=	c #243E52",
"I=	c #2A5F7E",
"J=	c #226084",
"K=	c #25394A",
"L=	c #17405B",
"M=	c #147AB1",
"N=	c #204257",
"O=	c #15212C",
"P=	c #293138",
"Q=	c #121D26",
"R=	c #223C4E",
"S=	c #2A5E7C",
"T=	c #234359",
"U=	c #223443",
"V=	c #173D57",
"W=	c #1677AA",
"X=	c #204155",
"Y=	c #2A3139",
"Z=	c #121C25",
"`=	c #233B4D",
" -	c #2A5C79",
".-	c #255D7D",
"+-	c #214055",
"@-	c #1D2F3D",
"#-	c #17354A",
"$-	c #21607E",
"%-	c #1D394C",
"&-	c #293139",
"*-	c #121D25",
"=-	c #243646",
"--	c #203646",
";-	c #204F6A",
">-	c #1E506B",
",-	c #1A3345",
"'-	c #182D3B",
")-	c #1F3E52",
"!-	c #1C2F3D",
"~-	c #16222D",
"{-	c #1F3340",
"]-	c #1E384B",
"^-	c #1F394D",
"/-	c #1A2B39",
"(-	c #1A3F57",
"_-	c #1C6A8D",
":-	c #1D3C4F",
"<-	c #213241",
"[-	c #293038",
"}-	c #131F28",
"|-	c #21394A",
"1-	c #23536F",
"2-	c #1F5471",
"3-	c #27455A",
"4-	c #273C4D",
"5-	c #153F59",
"6-	c #1578A7",
"7-	c #1F4055",
"8-	c #21303D",
"9-	c #283038",
"0-	c #233441",
"a-	c #2A5C7A",
"b-	c #225978",
"c-	c #224258",
"d-	c #213341",
"e-	c #213340",
"f-	c #263A4B",
"g-	c #16415C",
"h-	c #137AB0",
"i-	c #363739",
"j-	c #233C4E",
"k-	c #2A5E7E",
"l-	c #235A7A",
"m-	c #253849",
"n-	c #127BB1",
"o-	c #223B4D",
"p-	c #225B7C",
"q-	c #234257",
"r-	c #17425E",
"s-	c #117CB4",
"t-	c #20445A",
"u-	c #373839",
"v-	c #273037",
"w-	c #213A4C",
"x-	c #2B5F7F",
"y-	c #235D7E",
"z-	c #107DB7",
"A-	c #272F37",
"B-	c #223A4C",
"C-	c #245C7E",
"D-	c #244359",
"E-	c #243948",
"F-	c #107DB9",
"G-	c #20435A",
"H-	c #21313D",
"I-	c #213441",
"J-	c #223C4D",
"K-	c #24445A",
"L-	c #17405C",
"M-	c #363738",
"N-	c #272F36",
"O-	c #111C23",
"P-	c #233C4D",
"Q-	c #2B607F",
"R-	c #235C7F",
"S-	c #163F5B",
"T-	c #127AB7",
"U-	c #204258",
"V-	c #262E35",
"W-	c #111B23",
"X-	c #235B7E",
"Y-	c #224157",
"Z-	c #153E59",
"`-	c #1379AF",
" ;	c #1E4156",
".;	c #121C24",
"+;	c #225C7E",
"@;	c #143D57",
"#;	c #1279A9",
"$;	c #1D4056",
"%;	c #1F2E39",
"&;	c #242C33",
"*;	c #223A4B",
"=;	c #2B5E7B",
"-;	c #225B7D",
";;	c #223F54",
">;	c #133A51",
",;	c #167198",
"';	c #1C3D51",
");	c #232B32",
"!;	c #21384A",
"~;	c #285A77",
"{;	c #205978",
"];	c #213C4F",
"^;	c #142B3C",
"/;	c #184057",
"(;	c #1B2E3D",
"_;	c #193950",
":;	c #17384E",
"<;	c #1E3241",
"[;	c #142430",
"};	c #232C33",
"|;	c #1C2D39",
"1;	c #172835",
"2;	c #1F3749",
"3;	c #182F3E",
"4;	c #111F2A",
"5;	c #0F1A23",
"6;	c #242C34",
"7;	c #1B2A37",
"8;	c #131F29",
"9;	c #15232D",
"0;	c #12202A",
"a;	c #111C25",
"b;	c #373738",
"c;	c #232B34",
"d;	c #1B2B37",
"e;	c #14212A",
"f;	c #111D25",
"g;	c #232B33",
"h;	c #202F3D",
"i;	c #222B33",
"j;	c #373838",
"k;	c #16232E",
"l;	c #222A32",
"m;	c #1F2E3C",
"n;	c #202A32",
"o;	c #23333F",
"p;	c #1E2C39",
"q;	c #202931",
"r;	c #1F272E",
"s;	c #1A2731",
"t;	c #17222C",
"u;	c #202E3B",
"v;	c #0F1820",
"w;	c #0F171F",
"x;	c #0F1920",
"y;	c #0E171D",
"z;	c #0D161C",
"A;	c #0F1921",
"B;	c #111E28",
"C;	c #1E262D",
"D;	c #121F28",
"E;	c #111C26",
"F;	c #0E181F",
"G;	c #0D161E",
"H;	c #101A21",
"I;	c #132029",
"J;	c #13222D",
"K;	c #132939",
"L;	c #162530",
"M;	c #1B2229",
"N;	c #142938",
"O;	c #132431",
"P;	c #14222C",
"Q;	c #131E28",
"R;	c #263846",
"S;	c #25323D",
"T;	c #253845",
"U;	c #2B3E4D",
"V;	c #263542",
"W;	c #253542",
"X;	c #263643",
"Y;	c #263543",
"Z;	c #253440",
"`;	c #253441",
" >	c #24333F",
".>	c #24313E",
"+>	c #23323E",
"@>	c #24343F",
"#>	c #25343F",
"$>	c #242F38",
"%>	c #243440",
"&>	c #273543",
"*>	c #253541",
"=>	c #243441",
"->	c #253442",
"    . . +   .   @ # $ # # # % & * * = - ; > > > > > > > > > > > > > > > > > > > > > > > > > > > > > > > > > > > > > > > > > > > > > > > > > > > > > > > > > > > > > > > > > , > > > > > > > > > > > > > > > > > > > > > > > > > ; ' # # * * * ) * & ! @ # # ~ # @ . . { ",
"] ] ^ ] / ( _ : _ < [ < [ } | 1 | 2 3 4 5 > > > > > > > > > > > > > > > > > > > > > > > > > > > > > > > > > > > > > > > > > > > > > > > > > > > > > > > > > > > > > > > > > 6 > > > > > > > > > > > > > > > > > > > > > > > > > 5 7 8 9 2 3 0 1 } } a : [ 8 [ ] ^ ^ b c ",
"d d e f g h g i j k l m l n o p q r r s t > > > > > > > > > > > > > > > > > > > > > > > > > > > > > > > > > > > > > > > > > > > > > > > > > > > > > > > > > > > > > > > > > 6 > > > > > > > > > > > > > > > > > > > > > > > > > u v w x y o w w z l A g k m k B B g g g ",
"C C C D D C E E E C C F D G H I J K L M N > > > > > > > > > > > > > > > > > > > > > > > > > > > > > > > > > > > > > > > > > > > > > > > > > > > > > > > > > > > > > > > > > 6 > > > > > > > > > > > > > > > > > > > > > > > > > O P Q R S T U V V V F C F V V C D D D D ",
"W X Y Z Y `  ...V +...@.Y Y #.$.%.&.*.s =.> > > > > > > > > > > > > > > > > > > > > > > > > > > > > > > > > > > > > > > > > > > > > > > > > > > > > > > > > > > > > > > > > 6 > > > > > > > > > > > > > > > > > > > > > > > > > -.;.>.o ,.'.).!.` ` ~.....!.Y {.].^./.X ",
"(._.:.<.[.:.}.k z r |.1.r 2.3.4.x 5.6.7.8.> > > > > > > > > > > > > > > > > > > > > > > > > > > > > > > > > > > > > > > > > > > > > > > > > > > > > > > > > > > > > > > > > 6 > > > > > > > > > > > > > > > > > > > > > > > > > 9.0.a.3.b.c.d.e.f.g.h.o r [.f i i g h f ",
"o o r i.d.h.r j.5.k.l.6.m.6.n.o.p.q.r.s.t.> > > > > > > > > > > > > > > > > > > > > > > > > > > > > > > > > > > > > > > > > > > > > > > > > > > > > > > > > > > > > > > > > 6 > > > > > > > > > > > > > > > > > > > > > > > > > u.v.w.x.y y.z.A.B.C.l.D.a.E.F.E.1.G.H.r ",
"I.J.K.L.M.N.O.k k.P.Q.w.R.S.T.U.>.P.V.W.X.> > > > > > > > > > > > > > > > > > > > > > > > > > > > > > > > > > > > > > > > > > > > > > > > > > > > > > > > > > > > > > > > > 6 > > > > > > > > > > > > > > > > > > > > > > > > > Y.l.Q.Z.`. +.+++@+#+$+w.r q %+&+L.*+I.=+",
"-+-+K.;+>+,+'+)+6.r.!+6.r.~+{+]+j.^+/+(+_+> > > > > > > > > > > > > > > > > > > > > > > > > > > > > > > > > > > > > > > > > > > > > > > > > > > > > > > > > > > > > > > > > 6 > > > > > > > > > > > > > > > > > > > > > > > > > :+<+/+[+}+{+T.|+n.m.n.R.1+0.`.6.2+K.3+|+",
"J.4+4+5+6+7+8+9+q.Q.Q.P.^+0+a+b+c+V.d+e+f+> > > > > > > > > > > > > > > > > > > > > > > > > > > > > > > > > > > > > > > > > > > > > > > > > > > > > > > > > > > > > > > > > g+> > > > > > > > > > > > > > > > > > > > > > > > > h+!+n.d+i+j+a+{+k+6.l+/+m+n+o+q.p+j+q+r+",
"s+5+p+s+6+t+u+9+x.v+/+w+x+@+p+[+c+/+y+z+f+> > > > > > > > > > > > > > > > > > > > > > > > > > > > > > > > > > > > > > > > > > > > > > > > > > > > > > > > > > > > > > > > > g+> > > > > > > > > > > > > > > > > > > > > > > > > A+$+B+/+C+a+D+E+w+P.T.$+;.F+G+x.H+~+K.s+",
"I+I+J+K+L+M+N+O+P+/+d+/+/+Q+a+b+R+n.@+z+S+> > > > > > > > > > > > > > > > > > > > > > > > > > > > > > > > > > > > > > > > > > > > > > > > > > > > > > > > > > > > > > > > > 6 > > > > > > > > > > > > > > > > > > > > > > > > > T+/+@+/+U+a+p+V+n.n.E+V.W+`.X+^+s+-+5+D+",
"I+Y+Z+`+ @.@b.+@k./+~+|+d+@+4+[+D.@@@+#@$@> > > > > > > > > > > > > > > > > > > > > > > > > > > > > > > > > > > > > > > > > > > > > > > > > > > > > > > > > > > > > > > > > g+> > > > > > > > > > > > > > > > > > > > > > > > > %@/+&@n.*@{+~+T.d+@+=@R.-@m+;@r.Y+>@,@5+",
"Y+Z+Y+'@)@!@~@{@]@$+~+j+~+^@a+Z.]@/@&@9 (@> > > > > > > > > > > > > > > > > > > > > > > > > > > > > > > > > > > > > > > > > > > > > > > > > > > > > > > > > > > > > > > > > g+> > > > > > > > > > > > > > > > > > > > > > > > > _@n.&@/+:@<@>+[+>+j+a+[@o.}@N.P.J+I+4+|@",
"1@>@Z+2@3@4@~@5@-@#+Q+E+&@~+~+k+c+>+~+9 6@> > > > > > > > > > > > > > > > > > > > > > > > > > > > > > > > > > > > > > > > > > > > > > > > > > > > > > > > > > > > > > > > > g+> > > > > > > > > > > > > > > > > > > > > > > > > 7@ +^@8@y [+[+Z.~+p+-+B.9@}@N.r.0@a@5+5+",
"s+J+b@`+c@!@d@e@f@#+l+|+4+~+>+^+c+T.Q+( (@> > > > > > > > > > > > > > > > > > > > > > > > > > > > > > > > > > > > > > > > > > > > > > > > > > > > > > > > > > > > > > > > > g+> > > > > > > > > > > > > > > > > > > > > > > > > %@y+V+V.g@h@[+i@a+a+&@V.j@8+`.Q.k@k@K+Z+",
"l@a@K+Z+,@m@n@o@]@k+l+a+5+K.^@p@q@d+@+8 r@> > > > > > > > > > > > > > > > > > > > > > > > > > > > > > > > > > > > > > > > > > > > > > > > > > > > > > > > > > > > > > > > > g+> > > > > > > > > > > > > > > > > > > > > > > > > s@@+i@t@u@<@>+~+a+^@v@/+w@)+*@#+Y+x@0@y@",
"p+Z+s+Y+3@z@A@q.n+/+>+B@q+s+4+8@C@]@v+8 D@> > > > > > > > > > > > > > > > > > > > > > > > > > > > > > > > > > > > > > > > > > > > > > > > > > > > > > > > > > > > > > > > > g+> > > > > > > > > > > > > > > > > > > > > > > > > E@l+V.f F@a+j+j+&@@+T./+5@+@G@H@b@0@0@J+",
"3+I@J+J+J@K@L@M@x.~+j+a+a+p+4+k+N@O@v+P@D@> > > > > > > > > > > > > > > > > > > > > > > > > > > > > > > > > > > > > > > > > > > > > > > > > > > > > > > > > > > > > > > > > g+> > > > > > > > > > > > > > > > > > > > > > > > > s@n.c+C@Q@H+a+j+Q+[@@+d+R@S@T@s+I+I+Y+Z+",
"V+K.s+U@Y+V@W@X@Y@>+j+E+4+E+~+Z@`@d@v+C.D@> > > > > > > > > > > > > > > > > > > > > > > > > > > > > > > > > > > > > > > > > > > > > > > > > > > > > > > > > > > > > > > > >  #> > > > > > > > > > > > > > > > > > > > > > > > > .#B.q.+#@#4+^@>+Q+n.Q+##$#%#&#*#y@5+p+I@",
"V+,@,@B@J+=#-#;#>#,#>+~+Q+Q+[+'#+#d@V.)#6@> > > > > > > > > > > > > > > > > > > > > > > > > > > > > > > > > > > > > > > > > > > > > > > > > > > > > > > > > > > > > > > > > !#> > > > > > > > > > > > > > > > > > > > > > > > > E@V.P.~#{#v@>+[+d+[+~+]#^#/#(#J+a+^@U@I@",
"y+a+,@{+H+_#:#<#[#Q+y+d+/+@+/+}#`@f B.z.6@> > > > > > > > > > > > > > > > > > > > > > > > > > > > > > > > > > > > > > > > > > > > > > > > > > > > > > > > > > > > > > > > > !#> > > > > > > > > > > > > > > > > > > > > > > > > |#/+m.~#1#^@<@Q+d+,#^@2#3#4#5#6#{+{+4+Z+",
"7#4+U@{+4+_#8#9#0#[+@+l+l+d+d+a#`@[.b#c#d#> > > > > > > > > > > > > > > > > > > > > > > > > > > > > > > > > > > > > > > > > > > > > > > > > > > > > > > > > > > > > > > > > e#> > > > > > > > > > > > > > > > > > > > > > > > > f#/+m.g#i ~+^@~+<@~+~+3@h#i#j# @k#{+H+l#",
"7#4+U@B@U@m#n#o#p#Q+>+[+Z.d+B+q.`@q#z.)#r#> > > > > > > > > > > > > > > > > > > > > > > > > > > > > > > > > > > > > > > > > > > > > > > > > > > > > > > > > > > > > > > > > e#> > > > > > > > > > > > > > > > > > > > > > > > > s#B.w.t#f 0+^@~+i@^@j+2#u#v#w# @B@B@4+s+",
"S.5+5+,@)@x#y#z#A#~+j+Q+[+[+v+q.`@O@H@A.r#> > > > > > > > > > > > > > > > > > > > > > > > > > > > > > > > > > > > > > > > > > > > > > > > > > > > > > > > > > > > > > > > > e#> > > > > > > > > > > > > > > > > > > > > > > > > B#/+w.x f 0+{+{+>+~+a+3@C#D#E# @4+B@)@F#",
"y+a+p+G#U@H#8#I#A#E+-+^@i@v+v+q.1#C@m.J#r#> > > > > > > > > > > > > > > > > > > > > > > > > > > > > > > > > > > > > > > > > > > > > > > > > > > > > > > > > > > > > > > > > K#> > > > > > > > > > > > > > > > > > > > > > > > > B#R.w.x f 0+>+>+[+>+H+L#M#N#O#J+P#B@j+r+",
"R.&@|+v@4+Q#R#S#T#q+K.|+~+Q+U#V#W#:.m.m.X#> > > > > > > > > > > > > > > > > > > > > > > > > > > > > > > > > > > > > > > > > > > > > > > > > > > > > > > > > > > > > > > > > K#> > > > > > > > > > > > > > > > > > > > > > > > > Y#M.Z#`#g 0+Q+>+>+a+,@ $.$+$@$J+|@B@B@5+",
"R.Q+@@E+4+#$R#$$%$j+p+K.j+^@Q+#+n@O@m.C.r#> > > > > > > > > > > > > > > > > > > > > > > > > > > > > > > > > > > > > > > > > > > > > > > > > > > > > > > > > > > > > > > > > e#> > > > > > > > > > > > > > > > > > > > > > > > > &$v+V#n@*$0+~+~+j+B@B@2#=$-$;$J+6#>$B@F#",
"V.@+@@/@a+k@,$'$)${+a+a+-+0+d+w.W#_.r.m.r#> > > > > > > > > > > > > > > > > > > > > > > > > > > > > > > > > > > > > > > > > > > > > > > > > > > > > > > > > > > > > > > > > K#> > > > > > > > > > > > > > > > > > > > > > > > > &$/+l.W#f b+U#U#^@B@)@!$=$~${$|@{+>+{+F#",
"m.l+@+@+j+0@]$^$)$^@-+=@|+i@[+w.W#C@r.r.d#> > > > > > > > > > > > > > > > > > > > > > > > > > > > > > > > > > > > > > > > > > > > > > > > > > > > > > > > > > > > > > > > > K#> > > > > > > > > > > > > > > > > > > > > > > > > /$8@($1#_$n.Z.Z.~+a+U@ $=$:${$|@>${+j+F#",
"$+d+Z.Z.j+0@<$[$}$G#=@-+T.>+[+<+W#O@r.r.d#> > > > > > > > > > > > > > > > > > > > > > > > > > > > > > > > > > > > > > > > > > > > > > > > > > > > > > > > > > > > > > > > > e#> > > > > > > > > > > > > > > > > > > > > > > > > |$/+a.1#q#1$v+/+>+{+4+2$M#3$j#5+>+^@B@s+",
"/+d+w+v+|+Z+4$5$6$j+3+|+i@[+1$V#W#O@H@r.r#> > > > > > > > > > > > > > > > > > > > > > > > > > > > > > > > > > > > > > > > > > > > > > > > > > > > > > > > > > > > > > > > > e#> > > > > > > > > > > > > > > > > > > > > > > > > . B.l.1#<.v+v+k+Q+^@a+]#7$8$5#U@<@^@a+I@",
"V.n.v+0+E+{+9$0$a$>$~+&@@+@+Z.($W#b$V.C.c$> > > > > > > > > > > > > > > > > > > > > > > > > > > > > > > > > > > > > > > > > > > > > > > > > > > > > > > > > > > > > > > > > e#> > > > > > > > > > > > > > > > > > > > > > > > > d$V.k.d@f [+k+w+@+~+e$f$g$h$i$a+j+~+4+I@",
"P.d+Z.i@{+,+j$k$l$b+i@&@@+M.k+q.W#_.r.C.c$> > > > > > > > > > > > > > > > > > > > > > > > > > > > > > > > > > > > > > > > > > > > > > > > > > > > > > > > > > > > > > > > > K#> > > > > > > > > > > > > > > > > > > > > > > > > m$r.k.n@_$M.v+v+[+[+M.Z@n$o$p$8@j+0+j+J.",
"P.d+v+[+4+q$r$s$t$/+n. +n.d+v+{@f (.r.Z#c$> > > > > > > > > > > > > > > > > > > > > > > > > > > > > > > > > > > > > > > > > > > > > > > > > > > > > > > > > > > > > > > > > K#> > > > > > > > > > > > > > > > > > > > > > > > > u$v$D.W#O@M.M.d+ +n.k+w$x$y$z${+^@[+{+K.",
"Q.1$k+d+A$|@B$C$D$@+S.d+v+v+v+R+f _.P.<+E$> > > > > > > > > > > > > > > > > > > > > > > > > > > > > > > > > > > > > > > > > > > > > > > > > > > > > > > > > > > > > > > > > !#> > > > > > > > > > > > > > > > > > > > > > > > > F$r.0.1#}.T.>+i@i@[+G$H$I$J$K$q+~+[+~+J.",
"P.v+v+n.~+Z+L$M$N$<@~+@+B./+$+]@f (.m.6.E$> > > > > > > > > > > > > > > > > > > > > > > > > > > > > > > > > > > > > > > > > > > > > > > > > > > > > > > > > > > > > > > > > !#> > > > > > > > > > > > > > > > > > > > > > > > > O$V.0.1#}.S.i@v+[+i@1$P$3#Q$R$j+^@i@T.K.",
"P./+v+n.T.k@S$T$U$V$V+y+R.v+Q.-@%.W$m.X$E$> > > > > > > > > > > > > > > > > > > > > > > > > > > > > > > > > > > > > > > > > > > > > > > > > > > > > > > > > > > > > > > > > !#> > > > > > > > > > > > > > > > > > > > > > > > > Y$P.0.f O@ +v+8@n.7#[+Z$`$ %{$k#j+~+~+.%",
"r.v+k+Z.0+5++%@%>#[+>+d+d+/+V.-@#%$%Z#<+E$> > > > > > > > > > > > > > > > > > > > > > > > > > > > > > > > > > > > > > > > > > > > > > > > > > > > > > > > > > > > > > > > > !#> > > > > > > > > > > > > > > > > > > > > > > > > %%w.D.f O@n.8@&%v+M.[+K@*%=%-%k#v@@+T.;%",
"q.^+V.v+[+U@>%,%'%v+d+/+8@/+8@n+%.$%P.l.)%> > > > > > > > > > > > > > > > > > > > > > > > > > > > > > > > > > > > > > > > > > > > > > > > > > > > > > > > > > > > > > > > > !#> > > > > > > > > > > > > > > > > > > > > > > > > !%w.D.f O@n.V.^+/+d+d+~%*%~$-%c@q+M.>+-+",
"e@}#8@8@v+)@{%]%^%8@v+/+/+k+v+D.f /%Z#+@)%> > > > > > > > > > > > > > > > > > > > > > > > > > > > > > > > > > > > > > > > > > > > > > > > > > > > > > > > > > > > > > > > > !#> > > > > > > > > > > > > > > > > > > > > > > > > (%r.5.f _%7#k+^+8@v+d+:%<%[%}%k#^@[+d+|+",
"{@^+k+8@v+K.-#|%1%&%k+v+v+v+v+5@f W$<+5.)%> > > > > > > > > > > > > > > > > > > > > > > > > > > > > > > > > > > > > > > > > > > > > > > > > > > > > > > > > > > > > > > > > K#> > > > > > > > > > > > > > > > > > > > > > > > > %%r.5.1#C@[+v+#+^+8@v+2%3%4%}${+i@U#T.A$",
"q.$+v+x+n.3+5%6%7%r.B.V.8@k+k+8%%.W$<+a.)%> > > > > > > > > > > > > > > > > > > > > > > > > > > > > > > > > > > > > > > > > > > > > > > > > > > > > > > > > > > > > > > > > !#> > > > > > > > > > > > > > > > > > > > > > > > > 9%P.k.f _%M.k+#+Q./+0%]+a%b%c%~+d+d+T.v@",
"B.R./+/+d%d%e%f%n+^+V.k+8@v+V.n+e (.Z#( )%> > > > > > > > > > > > > > > > > > > > > > > > > > > > > > > > > > > > > > > > > > > > > > > > > > > > > > > > > > > > > > > > > !#> > > > > > > > > > > > > > > > > > > > > > > > > g%r.{@%._%[+M.k+$+v+n.w.h%i%r.~+0+k+v+ +",
"y.R.B.8@z.E.(.1#j%v$/+v+Z.1$/+k.e k%H@( )%> > > > > > > > > > > > > > > > > > > > > > > > > > > > > > > > > > > > > > > > > > > > > > > > > > > > > > > > > > > > > > > > >  #> > > > > > > > > > > > > > > > > > > > > > > > > l%H@R+f O@[+1$Z.n.@+@+r.2.[.2.d%@+w+Z.@+",
"n. +d%a#m%u+<.o b#1$/+Z.M.M.v+n%f _%r.l.!#> > > > > > > > > > > > > > > > > > > > > > > > > > > > > > > > > > > > > > > > > > > > > > > > > > > > > > > > > > > > > > > > >  #> > > > > > > > > > > > > > > > > > > > > > > > > o%r.]@f b$n.1$n.[+>+T.y+j.p%u+o v+v+1$n.",
" +d%r.q@q%#%r%V#V.8@v+8@v+/+8@-@f _.q.a.g+> > > > > > > > > > > > > > > > > > > > > > > > > > > > > > > > > > > > > > > > > > > > > > > > > > > > > > > > > > > > > > > > >  #> > > > > > > > > > > > > > > > > > > > > > > > > s%Q.c+[.b$v+k+[+Q+[+d+T. +*.p%t%u%V.B.v+",
"n.v+v%w%O@o x%#+q.#+/+'#&%V.w.-@f y%q.z% #> > > > > > > > > > > > > > > > > > > > > > > > > > > > > > > > > > > > > > > > > > > > > > > > > > > > > > > > > > > > > > > > > g+> > > > > > > > > > > > > > > > > > > > > > > > > A%m.)+#%b$b#&%Z.Z.d+[+v+B.b#1.f u+d.m. +",
"n.w$B%C%D%Z#a##+^+^+B.r.v$a#D.f <.q#C.0. #> > > > > > > > > > > > > > > > > > > > > > > > > > > > > > > > > > > > > > > > > > > > > > > > > > > > > > > > > > > > > > > > > g+> > > > > > > > > > > > > > > > > > > > > > > > > E%m.F%[.C@>.($G%k+k+M./+8@r.v+|.W#H%I%d+",
"J%K%L%M%m.z.q.a#k+k+v+v+B.+@q#C@i N%O%0. #> > > > > > > > > > > > > > > > > > > > > > > > > > > > > > > > > > > > > > > > > > > > > > > > > > > > > > > > > > > > > > > > > !#> > > > > > > > > > > > > > > > > > > > > > > > > P%Z#R.D%:.Q m%Q%Z.Z.U#d+v+V#b# +R%S%T%U%",
"V%W%X%Y%B.H@P.&%8@G%/+/+<+f $%d@0.r.w.0. #> > > > > > > > > > > > > > > > > > > > > > > > > > > > > > > > > > > > > > > > > > > > > > > > > > > > > > > > > > > > > > > > > !#> > > > > > > > > > > > > > > > > > > > > > > > > Z%Z#v+V.g#C@q%c+v+w+Z.i@M.8@H@`%3@ &.&+&",
"@&#&$&V$R.v+V.#+Q%V.8@Z#*$%&f R+B.B.w.0. #> > > > > > > > > > > > > > > > > > > > > > > > > > > > > > > > > > > > > > > > > > > > > > > > > > > > > > > > > > > > > > > > > )%> > > > > > > > > > > > > > > > > > > > > > > > > &&#+B.k+0%F+/%*&e@V.v+1$k+M./+v+~+=&-&;&",
">&,&6+n./+G%k+V.&%^+a#d@'&)&q@H@8@8@a#0. #> > > > > > > > > > > > > > > > > > > > > > > > > > > > > > > > > > > > > > > > > > > > > > > > > > > > > > > > > > > > > > > > > !#> > > > > > > > > > > > > > > > > > > > > > > > > !&Q./+^+/+r.g#/%$%-@8@v+8@G%1$1$n.~+(#~&",
"{&##7#d%v+k+k+'#'#w.x '&<.q@V.^+#+V.w.0. #> > > > > > > > > > > > > > > > > > > > > > > > > > > > > > > > > > > > > > > > > > > > > > > > > > > > > > > > > > > > > > > > > !#> > > > > > > > > > > > > > > > > > > > > > > > > ]&V.v+8@k+8@Z#x $%(.l.r.&%G$M.[+M.n.<@^&",
"##8@/+/+k+k+V.P.P.D%u+N+>.v$P.Q%V.&%w.0. #> > > > > > > > > > > > > > > > > > > > > > > > > > > > > > > > > > > > > > > > > > > > > > > > > > > > > > > > > > > > > > > > > !#> > > > > > > > > > > > > > > > > > > > > > > > > /&/+n.v+k+V.B.<+2.(&O@_&P.P.8@Q+[+v+w+[+",
"k+&%/+G%8@v+V.r.H.q%[.1.V.w+P.v$k+8@#+R+ #> > > > > > > > > > > > > > > > > > > > > > > > > > > > > > > > > > > > > > > > > > > > > > > > > > > > > > > > > > > > > > > > > K#> > > > > > > > > > > > > > > > > > > > > > > > > ]&B.d%1$Z.8@V.b#{@1#*&q#:&P.a#8@1$k+&%k+",
"a#&%w+k+8@v+O%<&w%[&}&B.w.^+V.&%8@8@^+v%, > > > > > > > > > > > > > > > > > > > > > > > > > > > > > > > > > > > > > > > > > > > > > > > > > > > > > > > > > > > > > > > > > !#> > > > > > > > > > > > > > > > > > > > > > > > > |&/+n.v+[+/+^+^+0%5.f u+f V#Q%'#k+k+V.^+",
"V#&%w+^+8@k+>.1&O@d.b#P.}#^+8@k+/+/+^+q@, > > > > > > > > > > > > > > > > > > > > > > > > > > > > > > > > > > > > > > > > > > > > > > > > > > > > > > > > > > > > > > > > > !#> > > > > > > > > > > > > > > > > > > > > > > > > 2&r.0%v+d+k+8@'#w.d%e@<.3&i V#'#'#V./+&%",
"}#x+8@V.P.c+q%_%r r.^+}#x.a#P./+v+8@q.g.> > > > > > > > > > > > > > > > > > > > > > > > > > > > > > > > > > > > > > > > > > > > > > > > > > > > > > > > > > > > > > > > > > !#> > > > > > > > > > > > > > > > > > > > > > > > > 4&q.v+1$/+w+V.^+}#V.d%5&:.6&z V#x+Z.V.8@",
"'#Q%^+'#'+/%(.7&8&v$a#9&c.#+Q%B.v$O%D.k , > > > > > > > > > > > > > > > > > > > > > > > > > > > > > > > > > > > > > > > > > > > > > > > > > > > > > > > > > > > > > > > > > !#> > > > > > > > > > > > > > > > > > > > > > > > > 0&)+r.v+k+k+V.^+^+V.Z#b#>._%a&r #+1$/+&%",
"&%&%a#e@_%$%e.R.r.a##+c.}#8@v$v$V#:&b&_$c&> > > > > > > > > > > > > > > > > > > > > > > > > > > > > > > > > > > > > > > > > > > > > > > > > > > > > > > > > > > > > > > > > !#> > > > > > > > > > > > > > > > > > > > > > > > > d&i _&P.8@0%&%a##+^+V#P.v+f._.t%g./+G%^+",
"w+&%x.8+}.i e&w.q.V#a#}#x.&%O%a#P.h.1#f&g&h&> > > > > > > > > > > > > > > > > > > > > > > > > > > > > > > > > > > > > > > > > > > > > > > > > > > > > > > > > > > > > > > > !#> > > > > > > > > > > > > > > > > > > > > > > > > > i&e.V#r.B.^+a#a#^+a#+@V#z.W#:.o w.p@#+",
"a#'#q.}@d@[.z+{@c.}#a#'#j&r.Z#a#/+X+k&l&m&f n&> > > > > > > > > > > > > > > > > > > > > > > > > > > > > > > > > > > > > > > > > > > > > > > > > > > > > > > > > > > > > > > !#> > > > > > > > > > > > > > > > > > > > > > > > > > , o&v+k+&%Q%a#'#V#V#9&O+v+<.#%i P.V.#+",
"a#^+#+m%d@O@R+:&q.+@p&a#q&V#P.V#k+r&s&t&u&v&w&> > > > > > > > > > > > > > > > > > > > > > > > > > > > > > > > > > > > > > > > > > > > > > > > > > > > > > > > > > > > > > > )%> > > > > > > > > > > > > > > > > > > > > > > > > > > x&{+0%v$P.}#a#}#}#c.5@r.y&[.p%m.P.P.",
"}#a#V.*.W#:.j%z&_&c.9&}#V#w.:&}#G$A&B&C&D&E&F&> > > > > > > > > > > > > > > > > > > > > > > > > > > > > > > > > > > > > > > > > > > > > > > > > > > > > > > > > > > > > > > )%> > > > > > > > > > > > > > > > > > > > > > > > > > > G&H&&%x.w.V#V#V#9&P+O+w.y&1#j C.V#V#",
"}#c.P.1.1#:.c++@}#}#9&c.c.+@h.f@]+I&J&K&L&M&F&> > > > > > > > > > > > > > > > > > > > > > > > > > > > > > > > > > > > > > > > > > > > > > > > > > > > > > > > > > > > > > > g+> > > > > > > > > > > > > > > > > > > > > > > > > > > N&O&}#O@V#}#x.p&5@o.P+V#C@P&j :&a#a#",
"}#Q&w.;.P&:.c+O+x.c.9&q.V#{@~#8+b+I&R&S&T&U&F&> > > > > > > > > > > > > > > > > > > > > > > > > > > > > > > > > > > > > > > > > > > > > > > > > > > > > > > > > > > > > > > g+> > > > > > > > > > > > > > > > > > > > > > > > > > > N&J%a#N@^+V#9&V&P+n+O+V#(.f f _&($^+",
"V#c.Z#1.W#O@F%O+q.q.V#a##+:&h.q@W&X&Y&Z&`& *F&> > > > > > > > > > > > > > > > > > > > > > > > > > > > > > > > > > > > > > > > > > > > > > > > > > > > > > > > > > > > > > > !#> > > > > > > > > > > > > > > > > > > > > > > > > > > N&.*P.N+v$w.c.9&V&9&c.Z#/%f j q.Z#a#",
"#+}#r.>.2.:.F%O+q.q.w.w.P.6.f.W+&%t++*@*#*M&F&> > > > > > > > > > > > > > > > > > > > > > > > > > > > > > > > > > > > > > > > > > > > > > > > > > > > > > > > > > > > > > > !#> > > > > > > > > > > > > > > > > > > > > > > > > > > $*%*&*P&v$V#V#}#U.p&c.P.(.f 2.m.P.#+",
"q.a#P.>.1#(.F%O+q.V#Z#P.V#6.b#a#G%**=*-*;*>*F&> > > > > > > > > > > > > > > > > > > > > > > > > > > > > > > > > > > > > > > > > > > > > > > > > > > > > > > > > > > > > > > !#> > > > > > > > > > > > > > > > > > > > > > > > > > > $*,*q&q.Q%+@V#a#c.9&9&Z#(.f p%m.P.q.",
"w.x+V.F%i (.'*O+x.V#V#P.V#V#v$Q%b+)*!*~*{*]*^*> > > > > > > > > > > > > > > > > > > > > > > > > > > > > > > > > > > > > > > > > > > > > > > > > > > > > > > > > > > > > > > !#> > > > > > > > > > > > > > > > > > > > > > > > > > > /*(*'#a#a#l.q.w.($O+O+r.C@f k m.a#a#",
"w.r.P.F%1#O@_*+@x.V#w.r.P.w.a#w.r.X+:*<*[*t+n&> > > > > > > > > > > > > > > > > > > > > > > > > > > > > > > > > > > > > > > > > > > > > > > > > > > > > > > > > > > > > > > !#> > > > > > > > > > > > > > > > > > > > > > > > > > > }*O+a#p&a#<+q.P.q.k.+@A.O@h k m.V.P.",
"Q%w.q.q@1#:.j.D.q.($V#P.q.w.V#r.a#9&3.|*1*F&> > > > > > > > > > > > > > > > > > > > > > > > > > > > > > > > > > > > > > > > > > > > > > > > > > > > > > > > > > > > > > > > )%> > > > > > > > > > > > > > > > > > > > > > > > > > 2*v%Z#P.V#P.q.q.r.w._&q.:&O@i 3*m.V.m.",
"x.q.q.D.n@#%p%n+q.V#}#x.+@V#m.w.x._&:&4*5*> > > > > > > > > > > > > > > > > > > > > > > > > > > > > > > > > > > > > > > > > > > > > > > > > > > > > > > > > > > > > > > > > !#> > > > > > > > > > > > > > > > > > > > > > > > > 6*j%7*($V#r.w.O++@P.V#+@_&p C@W#1.m.r.w.",
"9&9&x.d%8*x 9*i D.q.($($c.q.<+P.V#w.q.3.f+> > > > > > > > > > > > > > > > > > > > > > > > > > > > > > > > > > > > > > > > > > > > > > > > > > > > > > > > > > > > > > > > > )%> > > > > > > > > > > > > > > > > > > > > > > > > 0*9 :&a*r.P.w.+@+@V#w.k.f.q%%.f.R.m.P.}#",
"c.c.c.V#n.3.f Q n +@V#($q.V#P.P.P.V#D.E.b*> > > > > > > > > > > > > > > > > > > > > > > > > > > > > > > > > > > > > > > > > > > > > > > > > > > > > > > > > > > > > > > > > !#> > > > > > > > > > > > > > > > > > > > > > > > > c*e@($w.P.a#w.+@_&:&<+m%q%d*e*z.Z#V##+q.",
"p&x.9&9&q.v+4*q#Q h.+@q.V#<+r.w.V#w.+@f.6*> > > > > > > > > > > > > > > > > > > > > > > > > > > > > > > > > > > > > > > > > > > > > > > > > > > > > > > > > > > > > > > > > )%> > > > > > > > > > > > > > > > > > > > > > > > > f*D.Z#P.Q%a##+l.q.6.q@*&/%d@C.m.w.q.w.w.",
"}#p&}#c.+@($v$g*h*'&E.($:&<+m.V#V#q.+@>.i*> > > > > > > > > > > > > > > > > > > > > > > > > > > > > > > > > > > > > > > > > > > > > > > > > > > > > > > > > > > > > > > > > g+> > > > > > > > > > > > > > > > > > > > > > > > > j*k.q.q.P.P.P.:&q.j.W$(.i a.($($a#q.w.q.",
"^+a#a#}#q.+@_&z.D%(.Q E.0.q.w.q.w.V#e@*.k*> > > > > > > > > > > > > > > > > > > > > > > > > > > > > > > > > > > > > > > > > > > > > > > > > > > > > > > > > > > > > > > > > 6 > > > > > > > > > > > > > > > > > > > > > > > > > l*a.q.q.q.6.6.:&q@$%*&1#z+D.9&V#P.w.q.O+",
"'#a#a#a#q.q.{@q.Z#`#/%P p D.l.6.V#q.-@*.m*> > > > > > > > > > > > > > > > > > > > > > > > > > > > > > > > > > > > > > > > > > > > > > > > > > > > > > > > > > > > > > > > > g+> > > > > > > > > > > > > > > > > > > > > > > > > n*{@:&l.q.V#+@-@_%*&*$0.:&]@5@q.m.V#V#($",
"o*#+q.c.($c.+@k.a.p*d@q%P 1.{@_&+@+@-@>.m*> > > > > > > > > > > > > > > > > > > > > > > > > > > > > > > > > > > > > > > > > > > > > > > > > > > > > > > > > > > > > > > > > g+> > > > > > > > > > > > > > > > > > > > > > > > > n*z%($q.w.V#-@O@(&f v%l.($n+k.q.a#c.a#a#",
"q*w$q.+@($($q.+@k.:&:&r**&'&*.k.+@_&]@}@m*> > > > > > > > > > > > > > > > > > > > > > > > > > > > > > > > > > > > > > > > > > > > > > > > > > > > > > > > > > > > > > > > > g+> > > > > > > > > > > > > > > > > > > > > > > > > n*{@+@q.q.D.<.9*[.s*l.a.O+D.+@($V#P.x+t*",
"u*v*U._&D._&q.+@_&l.a.a.x q%w*F%{@_&R+s*x*> > > > > > > > > > > > > > > > > > > > > > > > > > > > > > > > > > > > > > > > > > > > > > > > > > > > > > > > > > > > > > > > > g+> > > > > > > > > > > > > > > > > > > > > > > > > y*5.+@+@D.f %&)&F%6.:&+@+@+@k.q.P.'#z*A*",
"B*C*D*'#+@:&:&q.q.l.z%&+z+*$E**&s*+@-@m%m*> > > > > > > > > > > > > > > > > > > > > > > > > > > > > > > > > > > > > > > > > > > > > > > > > > > > > > > > > > > > > > > > > g+> > > > > > > > > > > > > > > > > > > > > > > > > F*0.D.D.d@u+[.>.<++@_&k.l.+@:&V#Q%G*H*I*",
"J*K*L*M*c.:&a.+@+@{@D.{@6.c+f Q $%j.c+*.m*> > > > > > > > > > > > > > > > > > > > > > > > > > > > > > > > > > > > > > > > > > > > > > > > > > > > > > > > > > > > > > > > > g+> > > > > > > > > > > > > > > > > > > > > > > > > F*v%0.2.3&<.>.m.{@n+D.+@q.V#q.a#N*]$O*P*",
"Q*R*S*T*A@5.l.+@l.+@e@0.0.6.j.[.a&_.j.*.m*> > > > > > > > > > > > > > > > > > > > > > > > > > > > > > > > > > > > > > > > > > > > > > > > > > > > > > > > > > > > > > > > > g+> > > > > > > > > > > > > > > > > > > > > > > > > U*5.d.K d*V*z.D.]@n+{@{@l.($+@5.W*X*P*Y*",
"G$Z*`* =C@s*k.O+{@a.{@k.-@R+q.1.b$Q 3.m%m*> > > > > > > > > > > > > > > > > > > > > > > > > > > > > > > > > > > > > > > > > > > > > > > > > > > > > > > > > > > > > > > > > g+> > > > > > > > > > > > > > > > > > > > > > > > > U*0.o .=f z.5.]@e@l.q.(${@{@D.2.+=@=#=b+",
"{@w.:&x .=b$j.R+{@{@{@0.v%v%R+h.(.u+m%1.m*> > > > > > > > > > > > > > > > > > > > > > > > > > > > > > > > > > > > > > > > > > > > > > > > > > > > > > > > > > > > > > > > > g+> > > > > > > > > > > > > > > > > > > > > > > > > $=]@t#(.$%R+D.e@5@($V#+@N%e@F+/%W#5@/+V#",
"-@k.)#0.d@$%q#j.D.{@k.n+]@-@v%o /%u+*.>.m*> > > > > > > > > > > > > > > > > > > > > > > > > > > > > > > > > > > > > > > > > > > > > > > > > > > > > > > > > > > > > > > > > g+> > > > > > > > > > > > > > > > > > > > > > > > > %=R+x .=Q c+-@-@n++@q.k.5.o /%f <&V.l.($",
"R+]@k.Z#R+f u+d ]@+@_&n+-@e@R+F+/%Q &=*===> > > > > > > > > > > > > > > > > > > > > > > > > > > > > > > > > > > > > > > > > > > > > > > > > > > > > > > > > > > > > > > > > g+> > > > > > > > > > > > > > > > > > > > > > > > > -=;=2..=Q c+n+c+W+D.>={@f.q%)&>.R.q.O+o.",
"0.3.c+a.A.'+N+u+H.e@5.n+R+e@D.p ,=K >.1.==> > > > > > > > > > > > > > > > > > > > > > > > > > > > > > > > > > > > > > > > > > > > > > > > > > > > > > > > > > > > > > > > > g+> > > > > > > > > > > > > > > > > > > > > > > > > -=]@d@.=Q -@-@A@A@-@k.c+W$O@'=r.6.{@n+R+",
"R+n+-@D.a.m.)&)=r 0.e@!=c+]@]@~=.=L *.4*{=> > > > > > > > > > > > > > > > > > > > > > > > > > > > > > > > > > > > > > > > > > > > > > > > > > > > > > > > > > > > > > > > > g+> > > > > > > > > > > > > > > > > > > > > > > > > -=c+f w%K '+W+W+j.j.D.j.]=b.($w.q.5@n+D.",
"s*v%]@v%k.^=/=(=_=R+R+c+j.]@-@D%.=P >.1.{=> > > > > > > > > > > > > > > > > > > > > > > > > > > > > > > > > > > > > > > > > > > > > > > > > > > > > > > > > > > > > > > > > g+> > > > > > > > > > > > > > > > > > > > > > > > > -=c+f (&L j.'+W+-@n+{@o.:=<=[=+@a*O+D.n+",
"g*)+-@'+k.^+}=|=1=2=R+R+-@n+-@y /%L *.;.==> > > > > > > > > > > > > > > > > > > > > > > > > > > > > > > > > > > > > > > > > > > > > > > > > > > > > > > > > > > > > > > > > 6 > > > > > > > > > > > > > > > > > > > > > > > > > 3=4=f 9*5=q@-@W+-@5@+@6=7=8=9=q.0=j@n+-@",
"q )+3.q@R+#+a=b=c=-@0.5.0.R+R+r /%5=>.|.{=> > > > > > > > > > > > > > > > > > > > > > > > > > > > > > > > > > > > > > > > > > > > > > > > > > > > > > > > > > > > > > > > > 6 > > > > > > > > > > > > > > > > > > > > > > > > > 3=c+i (&L q@-@c+9@-@D.d=e=f=g=x.5@!=W+W+",
";.'+q@}@n+Q.h=i=j=W+2=5.0.k.0.D%/%K >.H.{=> > > > > > > > > > > > > > > > > > > > > > > > > > > > > > > > > > > > > > > > > > > > > > > > > > > > > > > > > > > > > > > > > 6 > > > > > > > > > > > > > > > > > > > > > > > > > k=j.f ,=L q@-@3.W+c+]@d=l=m=g=c.-@W+c+-@",
"E.q@)+A@R+#+n=o=p=f@v%5.q=D.5.x $%K *=G.{=> > > > > > > > > > > > > > > > > > > > > > > > > > > > > > > > > > > > > > > > > > > > > > > > > > > > > > > > > > > > > > > > > 6 > > > > > > > > > > > > > > > > > > > > > > > > > r=j.f .=L q@3.)+q@q@-@d=s=t=u=9&-@W+A@'+",
"p }@3.'+q@^=v=w=x=f@v%0.D.5@D.t#.=P G.E.{=> > > > > > > > > > > > > > > > > > > > > > > > > > > > > > > > > > > > > > > > > > > > > > > > > > > > > > > > > > > > > > > > > 6 > > > > > > > > > > > > > > > > > > > > > > > > > r=-@f y=5=s*)+}@q@)+w@z=A=B=u=Q&-@W+A@c+",
"C=D=A@3.A@x.E=F=j=w@c+-@k.5@-@F+.=G=|.d.{=> > > > > > > > > > > > > > > > > > > > > > > > > > > > > > > > > > > > > > > > > > > > > > > > > > > > > > > > > > > > > > > > > 6 > > > > > > > > > > > > > > > > > > > > > > > > > k=c+f %&L }@)+3.A@)+w@H=I=J=u=K=-@8+G@c+",
"G.j.A@8+c++@L=M=N=8+'+R+D.n+c+F+O=G=;.E.{=> > > > > > > > > > > > > > > > > > > > > > > > > > > > > > > > > > > > > > > > > > > > > > > > > > > > > > > > > > > > > > > > > g+> > > > > > > > > > > > > > > > > > > > > > > > > P=c+i w%Q=s*A@W+-@-@w@R=S=t=T=n+A@U=W+]@",
"|.c+q@}@]@+@V=W=X=U=3.v%e@-@c+'=O=G=*=E.{=> > > > > > > > > > > > > > > > > > > > > > > > > > > > > > > > > > > > > > > > > > > > > > > > > > > > > > > > > > > > > > > > > 6 > > > > > > > > > > > > > > > > > > > > > > > > > Y=4=d@w%Z=s*!=c+-@c+G@`= -.-+--@c+8+c+c+",
";.2=j.c+n+@-#-$-%-m%q@c+v%]@c+'=.=G=*=C={=> > > > > > > > > > > > > > > > > > > > > > > > > > > > > > > > > > > > > > > > > > > > > > > > > > > > > > > > > > > > > > > > > 6 > > > > > > > > > > > > > > > > > > > > > > > > > &-j.d@u+*-q@-@3.=-A@q@--;->-,-8+c+}@)+A@",
"C=j.2=c+c+G+'-)-!-*.q@s*A@W+'+q ~-Z=1.F.{=> > > > > > > > > > > > > > > > > > > > > > > > > > > > > > > > > > > > > > > > > > > > > > > > > > > > > > > > > > > > > > > > > 6 > > > > > > > > > > > > > > > > > > > > > > > > > P=j.d@Q Z=c+-@A@c+)+}@{-]-^-/-*.j.}@*.q@",
"u%s*c+-@5@:%(-_-:-<-q@s*q@8+q@D%.=G=g.E.{=> > > > > > > > > > > > > > > > > > > > > > > > > > > > > > > > > > > > > > > > > > > > > > > > > > > > > > > > > > > > > > > > > 6 > > > > > > > > > > > > > > > > > > > > > > > > > [-)+i }-*-j.-@'+A@q@'+|-1-2-3-4-3.m%)+q@",
"r q@s*}@3.U.5-6-7-*.q@4=3.3.>.x w%G=>.8-{=> > > > > > > > > > > > > > > > > > > > > > > > > > > > > > > > > > > > > > > > > > > > > > > > > > > > > > > > > > > > > > > > > 6 > > > > > > > > > > > > > > > > > > > > > > > > > 9-0-g 3&*-j.n+-@c+-@-@t$a-b-c-o.}@d-e-s*",
"r q@}@m%q@f-g-h-N=}@D=D=s*j.m%d@9**-1.E.i-> > > > > > > > > > > > > > > > > > > > > > > > > > > > > > > > > > > > > > > > > > > > > > > > > > > > > > > > > > > > > > > > > 6 > > > > > > > > > > > > > > > > > > > > > > > > > 9-0-f u+Q=j.n+W+c+'+-@j-k-l-q*-@*.}@e-q@",
"d.*.m%m%q@m-g-n-c=8+_*4=s*s*>.`@%&Z=C=F.i-> > > > > > > > > > > > > > > > > > > > > > > > > > > > > > > > > > > > > > > > > > > > > > > > > > > > > > > > > > > > > > > > > 6 > > > > > > > > > > > > > > > > > > > > > > > > > 9-s*#%u+Q=F%W+8+q@)+W+o-I=p-q-f@*.)+m%m+",
"H.1.*.)+)+f-r-s-t--@R+c+j.s*1.1#w%Z=8-F.i-> > > > > > > > > > > > > > > > > > > > > > > > > > > > > > > > > > > > > > > > > > > > > > > > > > > > > > > > > > > > > > > > > u-> > > > > > > > > > > > > > > > > > > > > > > > > v-*.N+Q Z=*.s*m%}@*.}@w-x-y-T=-@8+3.A@*.",
"C=1+*.)+)+p&E=z-t--@v%4=j.A@*.i 9*Z=|.|.i-> > > > > > > > > > > > > > > > > > > > > > > > > > > > > > > > > > > > > > > > > > > > > > > > > > > > > > > > > > > > > > > > > u-> > > > > > > > > > > > > > > > > > > > > > > > > A-*.:.K Z=>.s*}@m+`.}@B-x-C-D-E-A@W+)+s*",
"H.>.*.*.)+p&E=F-G-f@2=_*s*q@*.2.w*G=1.H-i-> > > > > > > > > > > > > > > > > > > > > > > > > > > > > > > > > > > > > > > > > > > > > > > > > > > > > > > > > > > > > > > > > u-> > > > > > > > > > > > > > > > > > > > > > > > > A-F%}.Q Z=>.m%e->.*.I-J-x-C-K-E-3.q@A@A@",
"p >.}@*.A@p&L-F=c=8+c+c+_*0->.t#t%Z=}&C=M-> > > > > > > > > > > > > > > > > > > > > > > > > > > > > > > > > > > > > > > > > > > > > > > > > > > > > > > > > > > > > > > > > u-> > > > > > > > > > > > > > > > > > > > > > > > > N-*.O@L O->.m+1.m%*.8+P-Q-R-T=9@q@j.c+A@",
"h.1.d->.j.c.S-T-U-}@4=c+q@s**.x 9*Z=|.F.M-> > > > > > > > > > > > > > > > > > > > > > > > > > > > > > > > > > > > > > > > > > > > > > > > > > > > > > > > > > > > > > > > > u-> > > > > > > > > > > > > > > > > > > > > > > > > V-0-}.P W->.d-1.*.m%m%J-I=X-Y-w@q@)+s*q@",
"h.>.m+1.}@0=Z-`- ;}@4=j.s*}@m%2.9*Z=E.H.M-> > > > > > > > > > > > > > > > > > > > > > > > > > > > > > > > > > > > > > > > > > > > > > > > > > > > > > > > > > > > > > > > > u-> > > > > > > > > > > > > > > > > > > > > > > > > i&>.:.L .;*.m%m%q@q@)+`=I=+;Y-W+s**.*.s*",
"d.q@m%e-q@8%@;#;$;}@j.c+*.*.4*`#%&Z=8-%;M-> > > > > > > > > > > > > > > > > > > > > > > > > > > > > > > > > > > > > > > > > > > > > > > > > > > > > > > > > > > > > > > > > u-> > > > > > > > > > > > > > > > > > > > > > > > > &;*=_.3&*->.*.q@j.j.A@*;=;-;;;c+}@m+>.s*",
";.j.}@q@c+-@>;,;';*.q@j.>.*.;.1#9*P |.o M-> > > > > > > > > > > > > > > > > > > > > > > > > > > > > > > > > > > > > > > > > > > > > > > > > > > > > > > > > > > > > > > > > u-> > > > > > > > > > > > > > > > > > > > > > > > > );;.O@u+5=g.>.m%s*j.8+!;~;{;];v%s*m+s*q@",
"F%q@*.j.2=*.^;/;(;*.s**.1.>.;.1#.=o 0-u%M-> > > > > > > > > > > > > > > > > > > > > > > > > > > > > > > > > > > > > > > > > > > > > > > > > > > > > > > > > > > > > > > > > u-> > > > > > > > > > > > > > > > > > > > > > > > > );G.p (.5=G.*.>.)+q@*.m@_;:;<;_*&=>.)+_*",
"0-s*>.c+;.[;f%!-P&;.*.1.;.1.4*W#g n+*.o M-> > > > > > > > > > > > > > > > > > > > > > > > > > > > > > > > > > > > > > > > > > > > > > > > > > > > > > > > > > > > > > > > > u-> > > > > > > > > > > > > > > > > > > > > > > > > };E.s*o u+4*>.}@A@}@4*|;1;2;3;o s*)+j.q@",
"*.s**.c+f.4;5;[&f ;.*.;.4*4*f.1#}.1.>.o M-> > > > > > > > > > > > > > > > > > > > > > > > > > > > > > > > > > > > > > > > > > > > > > > > > > > > > > > > > > > > > > > > > u-> > > > > > > > > > > > > > > > > > > > > > > > > 6;1.*=2.Q ;.1.e-q@q@4*7;8;9;0;2._*j.j.4=",
"1.>.*.s*p y=a;N+i ;.>.;.4*f.f.1#O@4*1.w b;> > > > > > > > > > > > > > > > > > > > > > > > > > > > > > > > > > > > > > > > > > > > > > > > > > > > > > > > > > > > > > > > > u-> > > > > > > > > > > > > > > > > > > > > > > > > c;;.1.d@L ;.;.1.}@q@4*d;y=(.y=g *.q@q@)+",
"1.;.1+>.r e;f;[.i ;.*.;.E.G.E.f O@f.;.z b;> > > > > > > > > > > > > > > > > > > > > > > > > > > > > > > > > > > > > > > > > > > > > > > > > > > > > > > > > > > > > > > > > u-> > > > > > > > > > > > > > > > > > > > > > > > > g;;.;.g L f.1.f.>.s*;.F+,=C@%&i *=s**.q@",
">.;.;.;.r %&Q=)&*$G.;.;.E.E.h;f :.p ;.k b;> > > > > > > > > > > > > > > > > > > > > > > > > > > > > > > > > > > > > > > > > > > > > > > > > > > > > > > > > > > > > > > > > u-> > > > > > > > > > > > > > > > > > > > > > > > > i;8-G.h L f.;.E.|.s*;.n /%C@w%d@)+)+s*&=",
"1+;.f.|.o u+a;N+d H.;.&.p E.E.f _.q C=g j;> > > > > > > > > > > > > > > > > > > > > > > > > > > > > > > > > > > > > > > > > > > > > > > > > > > > > > > > > > > > > > > > > u-> > > > > > > > > > > > > > > > > > > > > > > > > i;;.G.g G=p E.h;f.;.f.n k;(.q%i >.&=&=D=",
"*.>.1.f.D%u+Q=<.f q f.p h.q i.f _%q C=g j;> > > > > > > > > > > > > > > > > > > > > > > > > > > > > > > > > > > > > > > > > > > > > > > > > > > > > > > > > > > > > > > > > u-> > > > > > > > > > > > > > > > > > > > > > > > > i;;.E.f Q=p f.E.&.p h.n@/%C@q%f G.;.;.>.",
";.G.;.G.o _%/%i f r C=p r p r [.(.r q g j;> > > > > > > > > > > > > > > > > > > > > > > > > > > > > > > > > > > > > > > > > > > > > > > > > > > > > > > > > > > > > > > > > u-> > > > > > > > > > > > > > > > > > > > > > > > > l;H.p f P d.E.q p.h.h.d@(.d q#i E.E.;.;.",
"G.C=f.G.o /%f 2.g r m;q h.q F+[._.o r g j;> > > > > > > > > > > > > > > > > > > > > > > > > > > > > > > > > > > > > > > > > > > > > > > > > > > > > > > > > > > > > > > > > j;> > > > > > > > > > > > > > > > > > > > > > > > > n;r r f L h.d.h.p.h.o d@f u%<.i E.q p E.",
"E.q F.e+o C@o;w f o q O.p;q O.<.(.u%r g j;> > > > > > > > > > > > > > > > > > > > > > > > > > > > > > > > > > > > > > > > > > > > > > > > > > > > > > > > > > > > > > > > > j;> > > > > > > > > > > > > > > > > > > > > > > > > q;r r f L h.p q h.q h.x g 7.:.p%;=p p q ",
"r o u%%;g $%q#y%D%D%r p;n D%q O@W$o r d j;> > > > > > > > > > > > > > > > > > > > > > > > > > > > > > > > > > > > > > > > > > > > > > > > > > > > > > > > > > > > > > > > > j;> > > > > > > > > > > > > > > > > > > > > > > > > r;u%r <.*-p q h.q q F+D%O@_%/%[.8-o F+D%",
"$%*&w*(&$%[.1#r F+x l 2.d@s;w W$t;o r d j;> > > > > > > > > > > > > > > > > > > > > > > > > > > > > > > > > > > > > > > > > > > > > > > > > > > > > > > > > > > > > > > > > j;> > > > > > > > > > > > > > > > > > > > > > > > > r;r u;d Q=E.i f t#e.2.e.o %.1#(.*&u+u+(&",
"v;v;w;v;x;v;w;v;].y;z;/.].].A;B;(.F+n }.j;> > > > > > > > > > > > > > > > > > > > > > > > > > > > > > > > > > > > > > > > > > > > > > > > > > > > > > > > > > > > > > > > > j;> > > > > > > > > > > > > > > > > > > > > > > > > C;n n _$D;E;F;].y;G;y;].F;v;H;H;H;x;v;v;",
"L L L }-}-L L u+.=y=I;}-}-8;J;K;L;#%O@w*j;> > > > > > > > > > > > > > > > > > > > > > > > > > > > > > > > > > > > > > > > > > > > > > > > > > > > > > > > > > > > > > > > > j;> > > > > > > > > > > > > > > > > > > > > > > > > M;b$}.d*N;O;P;y=u+I;K Q;}-I;u+%&O=%&u+R ",
"a.#@a.#@a.( a.( a.a.5.R;;=v%]@n+0.5.a.z%, > > > > > > > > > > > > > > > > > > > > > > > > > > > > > > > > > > > > > > > > > > > > > > > > > > > > > > > > > > > > > > > > > 6 > > > > > > > > > > > > > > > > > > > > > > > > > S;T;5.{@:&D.0.l.a.9 #@N%{@{@+@{@U;9 #@R;",
"V;W;X;W;Y;Y;Y;Z;`;`; >4&.>+>4&4&4&@>X;#>n&> > > > > > > > > > > > > > > > > > > > > > > > > > > > > > > > > > > > > > > > > > > > > > > > > > > > > > > > > > > > > > > > > u-> > > > > > > > > > > > > > > > > > > > > > > > > $> >@>@>%>%>%>`;V;&>*>`;W;=>%>`;Y;->V;Z;"};
