/* XPM */
static char * so_door27_tex_xpm[] = {
"132 132 1377 2",
"  	c #2F3944",
". 	c #2F3A46",
"+ 	c #303C46",
"@ 	c #2F3A45",
"# 	c #303B46",
"$ 	c #303C47",
"% 	c #2F3B46",
"& 	c #303A45",
"* 	c #313D4A",
"= 	c #313E4A",
"- 	c #323E4A",
"; 	c #323F4A",
"> 	c #313D48",
", 	c #35393C",
"' 	c #393939",
") 	c #383939",
"! 	c #303B45",
"~ 	c #323F4B",
"{ 	c #313D49",
"] 	c #303C48",
"^ 	c #2E3843",
"/ 	c #283948",
"( 	c #283847",
"_ 	c #283949",
": 	c #263746",
"< 	c #273848",
"[ 	c #293B4A",
"} 	c #293949",
"| 	c #293B4B",
"1 	c #293A4A",
"2 	c #293A49",
"3 	c #2A3B4B",
"4 	c #2A3B4A",
"5 	c #2B3D4C",
"6 	c #2C3F4F",
"7 	c #2D3F4F",
"8 	c #2C3F50",
"9 	c #2D4151",
"0 	c #2C3D4C",
"a 	c #33393E",
"b 	c #37383A",
"c 	c #2B3C4B",
"d 	c #2A3C4B",
"e 	c #293C4B",
"f 	c #2D4050",
"g 	c #273847",
"h 	c #283848",
"i 	c #1A2631",
"j 	c #1A2732",
"k 	c #1A2833",
"l 	c #18252F",
"m 	c #192530",
"n 	c #1B2833",
"o 	c #1B2834",
"p 	c #1A2733",
"q 	c #1B2934",
"r 	c #1C2934",
"s 	c #1C2A35",
"t 	c #1C2A36",
"u 	c #1D2A36",
"v 	c #1D2B38",
"w 	c #1E2D39",
"x 	c #1F2F3C",
"y 	c #1F2E3B",
"z 	c #1F2E3A",
"A 	c #1F2C39",
"B 	c #313437",
"C 	c #303337",
"D 	c #1F2C38",
"E 	c #1E2C38",
"F 	c #1C2B37",
"G 	c #1D2D3A",
"H 	c #1D2B37",
"I 	c #1C2935",
"J 	c #1B2733",
"K 	c #1B2933",
"L 	c #1A2632",
"M 	c #080D12",
"N 	c #080E13",
"O 	c #080F14",
"P 	c #070D13",
"Q 	c #080D13",
"R 	c #080E14",
"S 	c #090E14",
"T 	c #091015",
"U 	c #09131B",
"V 	c #091C2B",
"W 	c #0F1E29",
"X 	c #131F27",
"Y 	c #131E27",
"Z 	c #131C24",
"` 	c #2F3031",
" .	c #2E2F31",
"..	c #131E26",
"+.	c #141F28",
"@.	c #121E27",
"#.	c #091C29",
"$.	c #08151F",
"%.	c #081015",
"&.	c #090F14",
"*.	c #090F15",
"=.	c #0B1319",
"-.	c #0B131A",
";.	c #0C141A",
">.	c #0D151B",
",.	c #0D151C",
"'.	c #0C151B",
").	c #0C141B",
"!.	c #0A1117",
"~.	c #0A1116",
"{.	c #0C1319",
"].	c #0E1821",
"^.	c #0F1E2A",
"/.	c #192733",
"(.	c #20303E",
"_.	c #223341",
":.	c #303336",
"<.	c #2F3236",
"[.	c #21313F",
"}.	c #223340",
"|.	c #101E28",
"1.	c #0E1A23",
"2.	c #0B151B",
"3.	c #0A1218",
"4.	c #0B1218",
"5.	c #0E171E",
"6.	c #0F161E",
"7.	c #0E161D",
"8.	c #0D161C",
"9.	c #16212B",
"0.	c #15222C",
"a.	c #15212B",
"b.	c #142029",
"c.	c #16222B",
"d.	c #17232D",
"e.	c #18242E",
"f.	c #182530",
"g.	c #192631",
"h.	c #192732",
"i.	c #21313E",
"j.	c #21323F",
"k.	c #1C2B36",
"l.	c #233644",
"m.	c #1E303F",
"n.	c #273948",
"o.	c #293C4C",
"p.	c #233340",
"q.	c #313438",
"r.	c #2F3337",
"s.	c #263947",
"t.	c #283B4A",
"u.	c #192834",
"v.	c #263B4B",
"w.	c #1F2F3B",
"x.	c #1D2C38",
"y.	c #20313E",
"z.	c #22333F",
"A.	c #1E2E3A",
"B.	c #192731",
"C.	c #17222D",
"D.	c #16222C",
"E.	c #15212C",
"F.	c #1B2935",
"G.	c #1F303C",
"H.	c #243644",
"I.	c #273949",
"J.	c #283B4B",
"K.	c #2A3E4E",
"L.	c #2C4253",
"M.	c #243847",
"N.	c #1E2E3B",
"O.	c #283C4C",
"P.	c #2A3F4F",
"Q.	c #243442",
"R.	c #313538",
"S.	c #303438",
"T.	c #283A4B",
"U.	c #293D4D",
"V.	c #273B4C",
"W.	c #2D4253",
"X.	c #2B4050",
"Y.	c #2B3F4F",
"Z.	c #2B4051",
"`.	c #2A3E4D",
" +	c #263948",
".+	c #20303D",
"++	c #202F3B",
"@+	c #21303E",
"#+	c #20303C",
"$+	c #1B2A36",
"%+	c #1C2B38",
"&+	c #1D2C39",
"*+	c #2F4456",
"=+	c #2D4354",
"-+	c #2D4454",
";+	c #2C4152",
">+	c #2D4353",
",+	c #32485A",
"'+	c #324A5C",
")+	c #32495B",
"!+	c #32495C",
"~+	c #31485B",
"{+	c #31485A",
"]+	c #2C4354",
"^+	c #1E303E",
"/+	c #1E2D3A",
"(+	c #293E4E",
"_+	c #2A3E4F",
":+	c #2E4455",
"<+	c #2E4557",
"[+	c #263C4C",
"}+	c #2A3F50",
"|+	c #263744",
"1+	c #323639",
"2+	c #303539",
"3+	c #2B4153",
"4+	c #203240",
"5+	c #2E4354",
"6+	c #2D4355",
"7+	c #293D4E",
"8+	c #2B3F51",
"9+	c #1F2F3D",
"0+	c #293D4B",
"a+	c #344B5E",
"b+	c #314658",
"c+	c #314859",
"d+	c #2F4557",
"e+	c #304658",
"f+	c #2E4355",
"g+	c #2E4353",
"h+	c #2B4152",
"i+	c #304759",
"j+	c #344C5F",
"k+	c #2D4457",
"l+	c #1E313F",
"m+	c #243745",
"n+	c #233443",
"o+	c #2A3D4E",
"p+	c #2E4558",
"q+	c #2E4659",
"r+	c #294052",
"s+	c #293E4F",
"t+	c #2B4052",
"u+	c #273745",
"v+	c #32363A",
"w+	c #30353A",
"x+	c #293D4C",
"y+	c #2C4355",
"z+	c #213443",
"A+	c #2F4558",
"B+	c #223240",
"C+	c #374F62",
"D+	c #2E4456",
"E+	c #2F4457",
"F+	c #2D4455",
"G+	c #2E4457",
"H+	c #2D4152",
"I+	c #30485B",
"J+	c #31495D",
"K+	c #2D4659",
"L+	c #1F3342",
"M+	c #223543",
"N+	c #223542",
"O+	c #2D4557",
"P+	c #30475A",
"Q+	c #2B4254",
"R+	c #243645",
"S+	c #2C4254",
"T+	c #273846",
"U+	c #33373B",
"V+	c #37393A",
"W+	c #30363B",
"X+	c #213343",
"Y+	c #2F4659",
"Z+	c #2A4052",
"`+	c #2C4153",
" @	c #213240",
".@	c #253847",
"+@	c #223645",
"@@	c #31485C",
"#@	c #30485A",
"$@	c #31495C",
"%@	c #31475A",
"&@	c #2E4658",
"*@	c #304659",
"=@	c #32495D",
"-@	c #324A5E",
";@	c #1B2F3D",
">@	c #2A3F51",
",@	c #293E50",
"'@	c #273947",
")@	c #30373C",
"!@	c #2D4254",
"~@	c #203341",
"{@	c #32495E",
"]@	c #1A2B38",
"^@	c #30495C",
"/@	c #324A5D",
"(@	c #334B5E",
"_@	c #344C60",
":@	c #334A5E",
"<@	c #324B5F",
"[@	c #334C61",
"}@	c #2E485B",
"|@	c #1D3140",
"1@	c #182631",
"2@	c #263A49",
"3@	c #253949",
"4@	c #2D4356",
"5@	c #253846",
"6@	c #33373C",
"7@	c #30373D",
"8@	c #1F303F",
"9@	c #233645",
"0@	c #1D2E3B",
"a@	c #334A5D",
"b@	c #344D61",
"c@	c #334B5F",
"d@	c #334C60",
"e@	c #344D62",
"f@	c #314A5F",
"g@	c #1F3241",
"h@	c #273A4A",
"i@	c #2D4357",
"j@	c #283A49",
"k@	c #34383D",
"l@	c #31383F",
"m@	c #1F303E",
"n@	c #243746",
"o@	c #1E2F3D",
"p@	c #324A5F",
"q@	c #30475B",
"r@	c #344D60",
"s@	c #354E61",
"t@	c #354D61",
"u@	c #344E62",
"v@	c #354D62",
"w@	c #324C5F",
"x@	c #2F485C",
"y@	c #1F3140",
"z@	c #1A2834",
"A@	c #273A49",
"B@	c #253746",
"C@	c #2E4458",
"D@	c #34393D",
"E@	c #31393F",
"F@	c #1E303D",
"G@	c #2D4558",
"H@	c #2C4052",
"I@	c #223442",
"J@	c #314A5E",
"K@	c #344C61",
"L@	c #354E62",
"M@	c #354E63",
"N@	c #334D61",
"O@	c #2F495D",
"P@	c #203140",
"Q@	c #253948",
"R@	c #35393D",
"S@	c #313940",
"T@	c #2A4051",
"U@	c #233746",
"V@	c #334B60",
"W@	c #2F475B",
"X@	c #1B2A35",
"Y@	c #253947",
"Z@	c #233545",
"`@	c #1C2B39",
" #	c #2B4154",
".#	c #2D4456",
"+#	c #243846",
"@#	c #344B60",
"##	c #1E3140",
"$#	c #253747",
"%#	c #283E4F",
"&#	c #233543",
"*#	c #35393E",
"=#	c #313A41",
"-#	c #293D4F",
";#	c #1B2C39",
">#	c #2F4658",
",#	c #233646",
"'#	c #203444",
")#	c #233544",
"!#	c #2F475A",
"~#	c #17242E",
"{#	c #353A3E",
"]#	c #313A42",
"^#	c #182734",
"/#	c #223544",
"(#	c #2B3F50",
"_#	c #18242F",
":#	c #1D2D39",
"<#	c #1E2C39",
"[#	c #1C2C39",
"}#	c #314C60",
"|#	c #2B475C",
"1#	c #213D51",
"2#	c #243E50",
"3#	c #17242F",
"4#	c #2A3D4D",
"5#	c #1D2E3C",
"6#	c #253B4D",
"7#	c #253E52",
"8#	c #2A465A",
"9#	c #1E2F3B",
"0#	c #1D2E39",
"a#	c #2B3E4E",
"b#	c #30485C",
"c#	c #37546B",
"d#	c #1F4965",
"e#	c #1A74A2",
"f#	c #2A495E",
"g#	c #2A4153",
"h#	c #1A2935",
"i#	c #38393A",
"j#	c #323B43",
"k#	c #1A2A36",
"l#	c #1C2D3A",
"m#	c #2C4659",
"n#	c #2A5B7B",
"o#	c #265F82",
"p#	c #305069",
"q#	c #365064",
"r#	c #233542",
"s#	c #233442",
"t#	c #1E2D38",
"u#	c #20313D",
"v#	c #20303B",
"w#	c #1D2C37",
"x#	c #22323F",
"y#	c #355065",
"z#	c #1D4864",
"A#	c #127BB7",
"B#	c #2A4A61",
"C#	c #2C4356",
"D#	c #283E4E",
"E#	c #38393B",
"F#	c #1C2C38",
"G#	c #1B2B38",
"H#	c #2E4A5E",
"I#	c #286388",
"J#	c #246287",
"K#	c #2F4E66",
"L#	c #2C4252",
"M#	c #192630",
"N#	c #1F2E39",
"O#	c #202F3A",
"P#	c #233440",
"Q#	c #1D2C36",
"R#	c #21303B",
"S#	c #21313D",
"T#	c #21333F",
"U#	c #385268",
"V#	c #1E4864",
"W#	c #137BB9",
"X#	c #2B4B61",
"Y#	c #273C4C",
"Z#	c #303941",
"`#	c #1A2934",
" $	c #2F4A5E",
".$	c #296489",
"+$	c #236389",
"@$	c #2F4F66",
"#$	c #30485D",
"$$	c #1B2A34",
"%$	c #1F2D39",
"&$	c #243542",
"*$	c #21303C",
"=$	c #283D4C",
"-$	c #1E4966",
";$	c #0F7CC1",
">$	c #2B4A61",
",$	c #283D4D",
"'$	c #2B4151",
")$	c #2B404F",
"!$	c #363A3D",
"~$	c #383A3C",
"{$	c #313B43",
"]$	c #28658A",
"^$	c #23668D",
"/$	c #2F5067",
"($	c #2E475A",
"_$	c #334C5F",
":$	c #233643",
"<$	c #223440",
"[$	c #283B4C",
"}$	c #2E4253",
"|$	c #385368",
"1$	c #1F4966",
"2$	c #0E7DC4",
"3$	c #2C4B62",
"4$	c #36393D",
"5$	c #313A43",
"6$	c #2A6488",
"7$	c #22668F",
"8$	c #2F5069",
"9$	c #243646",
"0$	c #2A3E50",
"a$	c #365267",
"b$	c #1E4765",
"c$	c #1279C2",
"d$	c #2D4A61",
"e$	c #303A44",
"f$	c #2A668B",
"g$	c #216690",
"h$	c #2F526B",
"i$	c #2C4456",
"j$	c #253848",
"k$	c #30465A",
"l$	c #365167",
"m$	c #1277C2",
"n$	c #2B3E4F",
"o$	c #383A3B",
"p$	c #2F485D",
"q$	c #2B658A",
"r$	c #206692",
"s$	c #30526B",
"t$	c #31495E",
"u$	c #293F50",
"v$	c #233745",
"w$	c #354F65",
"x$	c #1E4967",
"y$	c #107AC4",
"z$	c #2E4C63",
"A$	c #363A3E",
"B$	c #313B45",
"C$	c #293E4D",
"D$	c #1B2B36",
"E$	c #2F495E",
"F$	c #2B658C",
"G$	c #1F6693",
"H$	c #30536D",
"I$	c #2C4457",
"J$	c #344F64",
"K$	c #0F7BC7",
"L$	c #2D4C63",
"M$	c #2F3A43",
"N$	c #2C658B",
"O$	c #1F6692",
"P$	c #30526C",
"Q$	c #2D4458",
"R$	c #26394A",
"S$	c #1E4763",
"T$	c #0F7AC6",
"U$	c #2C4C63",
"V$	c #2F4A5F",
"W$	c #21668F",
"X$	c #2F5169",
"Y$	c #2C4255",
"Z$	c #263A4A",
"`$	c #204763",
" %	c #0F7CC6",
".%	c #303B44",
"+%	c #273B4B",
"@%	c #216790",
"#%	c #2A4152",
"$%	c #1F4763",
"%%	c #0E7DC5",
"&%	c #2C4D64",
"*%	c #2F3B45",
"=%	c #2B4253",
"-%	c #304A5F",
";%	c #22658F",
">%	c #2F4759",
",%	c #1F4864",
"'%	c #0D7EC7",
")%	c #2D4E65",
"!%	c #2B6386",
"~%	c #23648C",
"{%	c #1D445F",
"]%	c #127CBC",
"^%	c #2B4B62",
"/%	c #18252E",
"(%	c #36393C",
"_%	c #2F3A44",
":%	c #2E4559",
"<%	c #2D475B",
"[%	c #2B6081",
"}%	c #266083",
"|%	c #2B4A60",
"1%	c #2A3F52",
"2%	c #1F3A4E",
"3%	c #2A5875",
"4%	c #253F53",
"5%	c #2E3943",
"6%	c #254A62",
"7%	c #224862",
"8%	c #1C3040",
"9%	c #253A49",
"0%	c #2C4759",
"a%	c #244055",
"b%	c #254F69",
"c%	c #243C4E",
"d%	c #2E3A43",
"e%	c #2A4050",
"f%	c #273E50",
"g%	c #25485E",
"h%	c #254962",
"i%	c #294458",
"j%	c #304758",
"k%	c #1D4561",
"l%	c #1B73A7",
"m%	c #28485F",
"n%	c #37393C",
"o%	c #2E3A44",
"p%	c #293F51",
"q%	c #294356",
"r%	c #2A5F80",
"s%	c #255F83",
"t%	c #2C4960",
"u%	c #1D4764",
"v%	c #127BBD",
"w%	c #2A4B62",
"x%	c #2E3A45",
"y%	c #2C475B",
"z%	c #236289",
"A%	c #2E4D65",
"B%	c #1E4A67",
"C%	c #107CC4",
"D%	c #2A4A62",
"E%	c #293E4C",
"F%	c #2E3A46",
"G%	c #2C485D",
"H%	c #29668C",
"I%	c #216590",
"J%	c #1E4866",
"K%	c #107BC4",
"L%	c #192632",
"M%	c #2D3A44",
"N%	c #29668A",
"O%	c #206792",
"P%	c #2D4F68",
"Q%	c #304859",
"R%	c #1E4A68",
"S%	c #107BC3",
"T%	c #2A4961",
"U%	c #37393B",
"V%	c #2D3943",
"W%	c #2B475B",
"X%	c #283D4E",
"Y%	c #1D4966",
"Z%	c #1279BD",
"`%	c #2A485F",
" &	c #16232D",
".&	c #2D3A45",
"+&	c #17242D",
"@&	c #2B4559",
"#&	c #296386",
"$&	c #236489",
"%&	c #2D4F67",
"&&	c #2B4252",
"*&	c #1579B5",
"=&	c #29485E",
"-&	c #2B4558",
";&	c #296082",
">&	c #256083",
",&	c #263B4C",
"'&	c #1D2F3B",
")&	c #1A384C",
"!&	c #21526E",
"~&	c #253E51",
"{&	c #2C3842",
"]&	c #214962",
"^&	c #204962",
"/&	c #2B4457",
"(&	c #293F4F",
"_&	c #283C4D",
":&	c #1A2A37",
"<&	c #1A3040",
"[&	c #2C3742",
"}&	c #1D303F",
"|&	c #1C2E3D",
"1&	c #223441",
"2&	c #263845",
"3&	c #17232E",
"4&	c #2C3944",
"5&	c #253A48",
"6&	c #2D3B45",
"7&	c #15212A",
"8&	c #2B3944",
"9&	c #152029",
"0&	c #1F303B",
"a&	c #213442",
"b&	c #213340",
"c&	c #253745",
"d&	c #273C4A",
"e&	c #18242D",
"f&	c #273A48",
"g&	c #2C3945",
"h&	c #20313F",
"i&	c #172B39",
"j&	c #182833",
"k&	c #2B3844",
"l&	c #172936",
"m&	c #213647",
"n&	c #253845",
"o&	c #284155",
"p&	c #1B3F56",
"q&	c #255A77",
"r&	c #1F394B",
"s&	c #273B49",
"t&	c #293F4E",
"u&	c #2A3843",
"v&	c #223746",
"w&	c #285773",
"x&	c #1B445D",
"y&	c #223E53",
"z&	c #294357",
"A&	c #1D4159",
"B&	c #1973A8",
"C&	c #24648A",
"D&	c #2B495F",
"E&	c #293642",
"F&	c #275471",
"G&	c #0F7DC0",
"H&	c #1E4964",
"I&	c #264257",
"J&	c #294153",
"K&	c #1D3F56",
"L&	c #1C6F9F",
"M&	c #1E6D9C",
"N&	c #2D536D",
"O&	c #14202A",
"P&	c #293743",
"Q&	c #304D64",
"R&	c #285E81",
"S&	c #0980C9",
"T&	c #1E4863",
"U&	c #264055",
"V&	c #273C4D",
"W&	c #1B3648",
"X&	c #1A72A5",
"Y&	c #2D5570",
"Z&	c #142028",
"`&	c #192833",
" *	c #2A3844",
".*	c #24638A",
"+*	c #147AB2",
"@*	c #1C3E54",
"#*	c #1A3141",
"$*	c #1D3B4F",
"%*	c #285D7C",
"&*	c #2B536D",
"**	c #293844",
"=*	c #2F4D65",
"-*	c #285A78",
";*	c #1F425A",
">*	c #1A3346",
",*	c #253C4E",
"'*	c #1B394F",
")*	c #275876",
"!*	c #285A77",
"~*	c #2A4C62",
"{*	c #293845",
"]*	c #273B4A",
"^*	c #2D4A60",
"/*	c #224D68",
"(*	c #206A96",
"_*	c #1C4057",
":*	c #253F52",
"<*	c #1D3C53",
"[*	c #275777",
"}*	c #127DBD",
"|*	c #283C4B",
"1*	c #2C4E65",
"2*	c #1971A8",
"3*	c #216692",
"4*	c #1B3E56",
"5*	c #263E51",
"6*	c #283E51",
"7*	c #1E3D54",
"8*	c #265474",
"9*	c #2D5774",
"0*	c #2B465B",
"a*	c #182630",
"b*	c #21323E",
"c*	c #263641",
"d*	c #2C4559",
"e*	c #2E526D",
"f*	c #1474B3",
"g*	c #236189",
"h*	c #1B3D56",
"i*	c #263C4F",
"j*	c #283F50",
"k*	c #1D3C54",
"l*	c #234E6C",
"m*	c #0782D3",
"n*	c #2B5B7B",
"o*	c #2C485E",
"p*	c #15222A",
"q*	c #263440",
"r*	c #141F27",
"s*	c #2C4458",
"t*	c #2D5470",
"u*	c #0E7ABF",
"v*	c #265B7D",
"w*	c #1A3A4F",
"x*	c #243A4B",
"y*	c #273A4B",
"z*	c #1E3B50",
"A*	c #1F4C6A",
"B*	c #0382DA",
"C*	c #2A5C7E",
"D*	c #2C4A60",
"E*	c #24323F",
"F*	c #233642",
"G*	c #141E26",
"H*	c #0E7CC3",
"I*	c #275676",
"J*	c #193549",
"K*	c #25394B",
"L*	c #1E3241",
"M*	c #193950",
"N*	c #295F82",
"O*	c #2C4A62",
"P*	c #1E2E39",
"Q*	c #2C4151",
"R*	c #1C2933",
"S*	c #151F27",
"T*	c #2B5471",
"U*	c #1A2C3A",
"V*	c #253A4B",
"W*	c #162936",
"X*	c #1A3447",
"Y*	c #2B516C",
"Z*	c #2D4B61",
"`*	c #1C2C37",
" =	c #333537",
".=	c #282D32",
"+=	c #284F69",
"@=	c #1E4256",
"#=	c #162733",
"$=	c #162835",
"%=	c #243948",
"&=	c #283C4A",
"*=	c #101C25",
"==	c #141D26",
"-=	c #353738",
";=	c #252E35",
">=	c #24394A",
",=	c #1A2D3A",
"'=	c #172430",
")=	c #16242E",
"!=	c #182732",
"~=	c #233441",
"{=	c #253A4A",
"]=	c #152531",
"^=	c #122C3E",
"/=	c #103C55",
"(=	c #383839",
"_=	c #212F3A",
":=	c #243543",
"<=	c #17252F",
"[=	c #273D4C",
"}=	c #1C303D",
"|=	c #162C3B",
"1=	c #124361",
"2=	c #11688D",
"3=	c #103447",
"4=	c #35383A",
"5=	c #29343E",
"6=	c #1A2933",
"7=	c #273C4B",
"8=	c #1B3140",
"9=	c #153143",
"0=	c #134B6C",
"a=	c #0B729B",
"b=	c #10394F",
"c=	c #35383B",
"d=	c #293640",
"e=	c #2C4558",
"f=	c #273D4E",
"g=	c #213645",
"h=	c #245570",
"i=	c #27455C",
"j=	c #263C4D",
"k=	c #163449",
"l=	c #144D6E",
"m=	c #0A749E",
"n=	c #103B52",
"o=	c #283641",
"p=	c #284255",
"q=	c #263F52",
"r=	c #205371",
"s=	c #233B4D",
"t=	c #202F3C",
"u=	c #233B4C",
"v=	c #127CA8",
"w=	c #274F6C",
"x=	c #263D4F",
"y=	c #153449",
"z=	c #154D6F",
"A=	c #0774A3",
"B=	c #103B53",
"C=	c #29495F",
"D=	c #0E7BAD",
"E=	c #234358",
"F=	c #1B2B37",
"G=	c #243E4F",
"H=	c #0A84B7",
"I=	c #28516F",
"J=	c #273E51",
"K=	c #294051",
"L=	c #1B303F",
"M=	c #153247",
"N=	c #144C6E",
"O=	c #0675A5",
"P=	c #0F3A52",
"Q=	c #284256",
"R=	c #283E4D",
"S=	c #2A4B61",
"T=	c #0783B8",
"U=	c #24455B",
"V=	c #0E81B0",
"W=	c #28506C",
"X=	c #153347",
"Y=	c #144C6D",
"Z=	c #0973A0",
"`=	c #28343F",
" -	c #274053",
".-	c #2A495F",
"+-	c #0C7EAC",
"@-	c #233848",
"#-	c #275E7C",
"$-	c #29475D",
"%-	c #1C3141",
"&-	c #153043",
"*-	c #144A6B",
"=-	c #0975A1",
"--	c #103B51",
";-	c #284154",
">-	c #275B77",
",-	c #243C4F",
"'-	c #253645",
")-	c #263F51",
"!-	c #1D3241",
"~-	c #152D3D",
"{-	c #144764",
"]-	c #0D7299",
"^-	c #11384D",
"/-	c #35373A",
"(-	c #28323C",
"_-	c #283F51",
":-	c #273F51",
"<-	c #16222D",
"[-	c #15364A",
"}-	c #124D69",
"|-	c #212F3B",
"1-	c #1B2D3A",
"2-	c #172A3A",
"3-	c #2D373F",
"4-	c #1E2C37",
"5-	c #1C2D39",
"6-	c #2F3439",
"7-	c #333639",
"8-	c #2A3D4C",
"9-	c #1E3749",
"0-	c #27526E",
"a-	c #27455B",
"b-	c #253946",
"c-	c #15202A",
"d-	c #2F363C",
"e-	c #204A63",
"f-	c #214A60",
"g-	c #1B2E3C",
"h-	c #2E4759",
"i-	c #224259",
"j-	c #0880D0",
"k-	c #285C7E",
"l-	c #254259",
"m-	c #33363A",
"n-	c #2E343A",
"o-	c #24526F",
"p-	c #088ACD",
"q-	c #254E68",
"r-	c #2A4254",
"s-	c #2F4C62",
"t-	c #285372",
"u-	c #008AE3",
"v-	c #275675",
"w-	c #254156",
"x-	c #2E3439",
"y-	c #283F53",
"z-	c #244E69",
"A-	c #0683D2",
"B-	c #276083",
"C-	c #2F5168",
"D-	c #295979",
"E-	c #0087E2",
"F-	c #265270",
"G-	c #253F54",
"H-	c #1F303D",
"I-	c #17252E",
"J-	c #33373A",
"K-	c #2E353B",
"L-	c #273D4F",
"M-	c #254A63",
"N-	c #0A7ECC",
"O-	c #216997",
"P-	c #294E68",
"Q-	c #2B4356",
"R-	c #2B4E66",
"S-	c #266088",
"T-	c #0188DB",
"U-	c #25516E",
"V-	c #263F53",
"W-	c #34373B",
"X-	c #2F353C",
"Y-	c #1479B7",
"Z-	c #1B71A7",
"`-	c #284E68",
" ;	c #2D475C",
".;	c #2B4F67",
"+;	c #236692",
"@;	c #117EBB",
"#;	c #234C66",
"$;	c #274052",
"%;	c #34373A",
"&;	c #2E353C",
"*;	c #26475D",
"=;	c #1D6F9E",
"-;	c #1577B4",
";;	c #28506B",
">;	c #2D485D",
",;	c #2D485B",
"';	c #2B4F68",
");	c #226994",
"!;	c #256487",
"~;	c #213E51",
"{;	c #2B3F4E",
"];	c #213A4C",
"^;	c #205571",
"/;	c #137AB1",
"(;	c #274F69",
"_;	c #304D63",
":;	c #2E495D",
"<;	c #27465C",
"[;	c #224358",
"};	c #224A66",
"|;	c #234258",
"1;	c #1B2B35",
"2;	c #264256",
"3;	c #1E4B64",
"4;	c #204157",
"5;	c #24465C",
"6;	c #2E4C61",
"7;	c #244155",
"8;	c #0C7EC5",
"9;	c #23648E",
"0;	c #24435A",
"a;	c #16212A",
"b;	c #34383B",
"c;	c #2E363C",
"d;	c #274357",
"e;	c #235572",
"f;	c #0886C7",
"g;	c #23475E",
"h;	c #2F4B60",
"i;	c #26516F",
"j;	c #0083DD",
"k;	c #265C82",
"l;	c #234157",
"m;	c #152129",
"n;	c #2D353C",
"o;	c #264054",
"p;	c #224F6C",
"q;	c #0588D4",
"r;	c #265471",
"s;	c #2F4D63",
"t;	c #0181DA",
"u;	c #255372",
"v;	c #0882CF",
"w;	c #27597A",
"x;	c #2C4C64",
"y;	c #2E516A",
"z;	c #245170",
"A;	c #1774AD",
"B;	c #1E3C51",
"C;	c #2D343B",
"D;	c #1E3546",
"E;	c #206A99",
"F;	c #294D66",
"G;	c #213441",
"H;	c #213341",
"I;	c #1D2D38",
"J;	c #2A485C",
"K;	c #203E52",
"L;	c #192A38",
"M;	c #172733",
"N;	c #1F3C4F",
"O;	c #28455A",
"P;	c #1F313E",
"Q;	c #2C353B",
"R;	c #2C333B",
"S;	c #233341",
"T;	c #343739",
"U;	c #2C333A",
"V;	c #263745",
"W;	c #293B4C",
"X;	c #15222D",
"Y;	c #1D2E3A",
"Z;	c #182834",
"`;	c #1E2F3C",
" >	c #353739",
".>	c #182632",
"+>	c #162D3D",
"@>	c #17455B",
"#>	c #1D3342",
"$>	c #18384B",
"%>	c #16394E",
"&>	c #23394A",
"*>	c #163E57",
"=>	c #1A7198",
"->	c #204054",
";>	c #2B3239",
">>	c #243544",
",>	c #131D27",
"'>	c #253D4F",
")>	c #255673",
"!>	c #1F5978",
"~>	c #244257",
"{>	c #263949",
"]>	c #223342",
"^>	c #213342",
"/>	c #17425D",
"(>	c #147AAD",
"_>	c #204359",
":>	c #295D7D",
"<>	c #235E7F",
"[>	c #25455B",
"}>	c #184461",
"|>	c #107CB7",
"1>	c #22445B",
"2>	c #2A3239",
"3>	c #2A5E7F",
"4>	c #225F82",
"5>	c #18435F",
"6>	c #107CB8",
"7>	c #21445B",
"8>	c #263847",
"9>	c #2A323A",
"0>	c #2A5F7F",
"a>	c #235F83",
"b>	c #24445B",
"c>	c #18425E",
"d>	c #0F7DBB",
"e>	c #21445C",
"f>	c #14212B",
"g>	c #243F53",
"h>	c #295F7F",
"i>	c #236084",
"j>	c #233342",
"k>	c #17415D",
"l>	c #117CB9",
"m>	c #131D26",
"n>	c #243E52",
"o>	c #2A5F7E",
"p>	c #226084",
"q>	c #25394A",
"r>	c #17405B",
"s>	c #147AB1",
"t>	c #204257",
"u>	c #293138",
"v>	c #121D26",
"w>	c #223C4E",
"x>	c #2A5E7C",
"y>	c #234359",
"z>	c #223443",
"A>	c #173D57",
"B>	c #1677AA",
"C>	c #204155",
"D>	c #2A3139",
"E>	c #121C25",
"F>	c #2A5C79",
"G>	c #255D7D",
"H>	c #214055",
"I>	c #1D2F3D",
"J>	c #17354A",
"K>	c #21607E",
"L>	c #1D394C",
"M>	c #293139",
"N>	c #121D25",
"O>	c #203646",
"P>	c #204F6A",
"Q>	c #1E506B",
"R>	c #1A3345",
"S>	c #182D3B",
"T>	c #1F3E52",
"U>	c #1C2F3D",
"V>	c #1F3340",
"W>	c #1E384B",
"X>	c #1F394D",
"Y>	c #1A2B39",
"Z>	c #1A3F57",
"`>	c #1C6A8D",
" ,	c #1D3C4F",
".,	c #213241",
"+,	c #293038",
"@,	c #131F28",
"#,	c #21394A",
"$,	c #23536F",
"%,	c #1F5471",
"&,	c #27455A",
"*,	c #153F59",
"=,	c #1578A7",
"-,	c #1F4055",
";,	c #21303D",
">,	c #283038",
",,	c #2A5C7A",
"',	c #225978",
"),	c #224258",
"!,	c #263A4B",
"~,	c #16415C",
"{,	c #137AB0",
"],	c #363739",
"^,	c #233C4E",
"/,	c #2A5E7E",
"(,	c #235A7A",
"_,	c #253849",
":,	c #127BB1",
"<,	c #223B4D",
"[,	c #225B7C",
"},	c #234257",
"|,	c #17425E",
"1,	c #117CB4",
"2,	c #20445A",
"3,	c #373839",
"4,	c #273037",
"5,	c #2B5F7F",
"6,	c #235D7E",
"7,	c #107DB7",
"8,	c #272F37",
"9,	c #223A4C",
"0,	c #245C7E",
"a,	c #244359",
"b,	c #107DB9",
"c,	c #20435A",
"d,	c #223C4D",
"e,	c #24445A",
"f,	c #17405C",
"g,	c #363738",
"h,	c #272F36",
"i,	c #111C23",
"j,	c #233C4D",
"k,	c #2B607F",
"l,	c #235C7F",
"m,	c #1A2731",
"n,	c #192730",
"o,	c #163F5B",
"p,	c #127AB7",
"q,	c #204258",
"r,	c #262E35",
"s,	c #111B23",
"t,	c #235B7E",
"u,	c #224157",
"v,	c #152028",
"w,	c #1B2832",
"x,	c #18232C",
"y,	c #1A2630",
"z,	c #153E59",
"A,	c #1379AF",
"B,	c #1E4156",
"C,	c #121C24",
"D,	c #225C7E",
"E,	c #17222B",
"F,	c #17232C",
"G,	c #19252E",
"H,	c #142129",
"I,	c #143D57",
"J,	c #1279A9",
"K,	c #1D4056",
"L,	c #242C33",
"M,	c #223A4B",
"N,	c #2B5E7B",
"O,	c #225B7D",
"P,	c #223F54",
"Q,	c #162129",
"R,	c #19262F",
"S,	c #133A51",
"T,	c #167198",
"U,	c #1C3D51",
"V,	c #232B32",
"W,	c #21384A",
"X,	c #205978",
"Y,	c #213C4F",
"Z,	c #142B3C",
"`,	c #184057",
" '	c #1B2E3D",
".'	c #17384E",
"+'	c #243848",
"@'	c #253C4C",
"#'	c #142430",
"$'	c #232C33",
"%'	c #172835",
"&'	c #1F3749",
"*'	c #182F3E",
"='	c #263D4E",
"-'	c #263D4D",
";'	c #233846",
">'	c #111F2A",
",'	c #0F1A23",
"''	c #242C34",
")'	c #1B2A37",
"!'	c #131F29",
"~'	c #15232D",
"{'	c #12202A",
"]'	c #111C25",
"^'	c #373738",
"/'	c #232B34",
"('	c #14212A",
"_'	c #111D25",
":'	c #232B33",
"<'	c #202F3D",
"['	c #222B33",
"}'	c #373838",
"|'	c #16232E",
"1'	c #233240",
"2'	c #222A32",
"3'	c #1F2E3C",
"4'	c #202A32",
"5'	c #21303F",
"6'	c #22313F",
"7'	c #23333F",
"8'	c #202931",
"9'	c #1F272E",
"0'	c #17222C",
"a'	c #202E3B",
"b'	c #111C24",
"c'	c #111B24",
"d'	c #0F1820",
"e'	c #0F1920",
"f'	c #0F181F",
"g'	c #0F171F",
"h'	c #0E171D",
"i'	c #0F1921",
"j'	c #111E28",
"k'	c #1E262D",
"l'	c #121F28",
"m'	c #111C26",
"n'	c #0E181F",
"o'	c #0D161E",
"p'	c #101A21",
"q'	c #131E28",
"r'	c #132029",
"s'	c #13222D",
"t'	c #132939",
"u'	c #162530",
"v'	c #1B2229",
"w'	c #142938",
"x'	c #132431",
"y'	c #14222C",
"z'	c #141F29",
"A'	c #263846",
"B'	c #25323D",
"C'	c #2B3E4D",
"D'	c #273746",
"E'	c #273643",
"F'	c #263542",
"G'	c #263442",
"H'	c #24333F",
"I'	c #253542",
"J'	c #263643",
"K'	c #263543",
"L'	c #253440",
"M'	c #253441",
"N'	c #24313E",
"O'	c #23323E",
"P'	c #24343F",
"Q'	c #25343F",
"R'	c #242F38",
"S'	c #243440",
"T'	c #273543",
"U'	c #253541",
"V'	c #243441",
"W'	c #253442",
"X'	c #25333F",
"      . . + @ # $ + % % @ @ . % @ % # $ & $ $ $ * = - - ; > , ' ' ' ' ' ' ' ' ' ' ' ' ' ' ' ' ' ' ' ' ' ' ' ' ' ' ' ' ' ' ' ' ' ' ' ' ' ' ' ' ' ' ' ' ' ' ' ' ' ' ' ' ' ' ' ' ' ' ' ' ' ' ' ' ' ) ' ' ' ' ' , ! $ $ - - - ~ - = { # $ $ ] $ # @ @ ^ @ $ @ @ @ @ . @ @ @ ",
"/ ( ( _ _ _ : < [ [ _ _ / _ } | 1 2 1 3 4 3 4 5 6 7 6 8 9 0 a ' ' ' ' ' ' ' ' ' ' ' ' ' ' ' ' ' ' ' ' ' ' ' ' ' ' ' ' ' ' ' ' ' ' ' ' ' ' ' ' ' ' ' ' ' ' ' ' ' ' ' ' ' ' ' ' ' ' ' ' ' ' ' ' ' b ' ' ' ' ' a c d e 8 9 f 7 5 5 [ 2 4 d 4 _ / / < g _ d 1 } _ / 2 h h _ ",
"i i i j k j l m n o j j p k n o n q r s t u t v w x y z z A B ' ' ' ' ' ' ' ' ' ' ' ' ' ' ' ' ' ' ' ' ' ' ' ' ' ' ' ' ' ' ' ' ' ' ' ' ' ' ' ' ' ' ' ' ' ' ' ' ' ' ' ' ' ' ' ' ' ' ' ' ' ' ' ' ' b ' ' ' ' ' C D E F G w E E H t I n s u s J J n n n K q n j j i L i J j ",
"M N N N N O P Q R O R R R O O R N N N R R S O T U V W X Y Z ` ' ' ' ' ' ' ' ' ' ' ' ' ' ' ' ' ' ' ' ' ' ' ' ' ' ' ' ' ' ' ' ' ' ' ' ' ' ' ' ' ' ' ' ' ' ' ' ' ' ' ' ' ' ' ' ' ' ' ' ' ' ' ' ' ' b ' ' ' ' '  ...+.@.#.$.%.&.&.&.S R S &.&.R O O O O &.*.R N R M Q N R R ",
"=.-.;.=.;.>.;.=.;.,.>.'.;.).;.=.!.~.&.*.~.{.;.;.].^./.(._.A :.' ' ' ' ' ' ' ' ' ' ' ' ' ' ' ' ' ' ' ' ' ' ' ' ' ' ' ' ' ' ' ' ' ' ' ' ' ' ' ' ' ' ' ' ' ' ' ' ' ' ' ' ' ' ' ' ' ' ' ' ' ' ' ' ' b ' ' ' ' ' <.[.}.w |.1.2.3.=.=.4.~.~.3.;.,.5.6.7.'.,.7.5.).;.).;.).8.7.",
"9.0.0.0.a.a.b.b.c.d.d.e.f.g.h.f.m s H z i.j.z k.l.m.F n.o.p.q.' ' ' ' ' ' ' ' ' ' ' ' ' ' ' ' ' ' ' ' ' ' ' ' ' ' ' ' ' ' ' ' ' ' ' ' ' ' ' ' ' ' ' ' ' ' ' ' ' ' ' ' ' ' ' ' ' ' ' ' ' ' ' ' ' b ' ' ' ' ' r.s.t.l.u.v.w.x.y.z.A.w z h.k q q n o k B.k C.9.D.9.a.E.0.d.",
"F t k.t F.F.k k t w w w z G.w.A.z H.n.I.J.o.K.o.L.M.N.O.P.Q.R.' ' ' ' ' ' ' ' ' ' ' ' ' ' ' ' ' ' ' ' ' ' ' ' ' ' ' ' ' ' ' ' ' ' ' ' ' ' ' ' ' ' ' ' ' ' ' ' ' ' ' ' ' ' ' ' ' ' ' ' ' ' ' ' ' b ' ' ' ' ' S.T.U.V.G W.X.Y.Z.`.J. +t..+++.+j.@+#+z w z k.$+F F %+x.x.&+",
"*+=+-+=+;+>+;+>+,+'+)+!+~+{+]+^+/+s I.(+_+U.;+:+<+[+}.(+}+|+1+' ' ' ' ' ' ' ' ' ' ' ' ' ' ' ' ' ' ' ' ' ' ' ' ' ' ' ' ' ' ' ' ' ' ' ' ' ' ' ' ' ' ' ' ' ' ' ' ' ' ' ' ' ' ' ' ' ' ' ' ' ' ' ' ' b ' ' ' ' ' 2+J._+3+4+=+>+5+6+7+8+U.z y 9+0+{+a+)+b+c+d+:+>+*+e+*+d+5+:+",
"f+=+g+L.;+h+;+;+6+i+i+i+~+j+k+l+m+n+o.P.o+o.P.p+q+r+H.s+t+u+v+' ' ' ' ' ' ' ' ' ' ' ' ' ' ' ' ' ' ' ' ' ' ' ' ' ' ' ' ' ' ' ' ' ' ' ' ' ' ' ' ' ' ' ' ' ' ' ' ' ' ' ' ' ' ' ' ' ' ' ' ' ' ' ' ' b ' ' ' ' ' w+x+t+y+z+q+<+A+L.K.L.;+B+s.4+o.C+~+e+A+D+E+:+F+d+i+e+<+D+=+",
"d+i+d+A+G+6+=+H+d+{+!+I+I+J+K+L+M+N+O._+_+(+s+O+P+Q+R+}+S+T+U+' ' ' ' ' ' ' ' ' ' ' ' ' ' ' ' ' ' ' ' ' ' ' ' ' ' ' ' ' ' ' ' ' ' ' ' ' ' ' ' ' ' ' ' ' ' ' ' ' ' ' ' ' ' ' ' ' ' ' ' ' ' ' ' ' V+' ' ' ' ' W+o+L.S+X+Y+P+q+Z+o.`+t+ @.@+@O.@@Y+#@$@e+e+d+D+i+%@i+~+i+&@",
"*@=@P+~+P+&@&@A+P+!+-@J+@@-@K+;@b.N+V.h+t+>@,@6+@@y+R+t+D+'@U+' ' ' ' ' ' ' ' ' ' ' ' ' ' ' ' ' ' ' ' ' ' ' ' ' ' ' ' ' ' ' ' ' ' ' ' ' ' ' ' ' ' ' ' ' ' ' ' ' ' ' ' ' ' ' ' ' ' ' ' ' ' ' ' ' V+' ' ' ' ' )@8+!@t+~@P+{@*@>@(+<+8+[.&+]@V.^@p+~+-@~+/@~+e+!+~+%@(@-@J+",
"_@:@=@-@J+~+~+~+~+/@:@:@<@[@}@|@1@2@3@t+S+t+t+4@P+Q+5@L.6+'@6@' ' ' ' ' ' ' ' ' ' ' ' ' ' ' ' ' ' ' ' ' ' ' ' ' ' ' ' ' ' ' ' ' ' ' ' ' ' ' ' ' ' ' ' ' ' ' ' ' ' ' ' ' ' ' ' ' ' ' ' ' ' ' ' ' b ' ' ' ' ' 7@t+6+t+8@P+@@d+L.L.*@}+9@4+0@s+-@i+J+{@-@(@(@a@:@~+~+b@b@_@",
"b@:@=@-@c@-@-@=@J+{@:@c@d@e@f@g@u.h@I.t+p+A+S+6+I+y+ +i@6+j@k@' ' ' ' ' ' ' ' ' ' ' ' ' ' ' ' ' ' ' ' ' ' ' ' ' ' ' ' ' ' ' ' ' ' ' ' ' ' ' ' ' ' ' ' ' ' ' ' ' ' ' ' ' ' ' ' ' ' ' ' ' ' ' ' ' V+' ' ' ' ' l@t+G+L.m@q+p+<+S+6+%@;+n@ @o@P.c@p@q@J+c@r@b@s@t@J+~+:@u@v@",
":@-@A+~+-@b@<@=@-@<@c@d@c@w@x@y@z@A@B@8+p+Y+p+&@P+3+B@C@G+e D@' ' ' ' ' ' ' ' ' ' ' ' ' ' ' ' ' ' ' ' ' ' ' ' ' ' ' ' ' ' ' ' ' ' ' ' ' ' ' ' ' ' ' ' ' ' ' ' ' ' ' ' ' ' ' ' ' ' ' ' ' ' ' ' ' V+' ' ' ' ' E@L.G+t+F@G@k+y+k+Y+P+H@M.I@^+(+<@:@I+J@u@K@_@L@M@d@J+<@c@u@",
":@#@G+k+Y+:@-@@@:@c@=@p@d@N@O@P@z@Q@n@7+4@*@G+p+p+Z+R+k+p+e R@' ' ' ' ' ' ' ' ' ' ' ' ' ' ' ' ' ' ' ' ' ' ' ' ' ' ' ' ' ' ' ' ' ' ' ' ' ' ' ' ' ' ' ' ' ' ' ' ' ' ' ' ' ' ' ' ' ' ' ' ' ' ' ' ' V+' ' ' ' ' S@=+&@T@G y+y+3+p+@@i+Z.U@I@^+P.b@K@J+J+d@_@L@_@v@j+@@@@~+(@",
"(@i+D+p+P+-@!+=@<@c@-@<@V@e@W@y@X@Y@Z@7+`+A+I+p+k+s+R+<+4@| D@' ' ' ' ' ' ' ' ' ' ' ' ' ' ' ' ' ' ' ' ' ' ' ' ' ' ' ' ' ' ' ' ' ' ' ' ' ' ' ' ' ' ' ' ' ' ' ' ' ' ' ' ' ' ' ' ' ' ' ' ' ' ' ' ' V+' ' ' ' ' l@D+d+}+`@ #y+.#P+P+G+}++#M+4+_+u@u@[@d@c@d@_@~+(@:@P+!+P+~+",
"!+~+A+p+i+!+i+@@=@-@@#K@[@d@q@##$+$#B@Z+`+P+J+~+&@%#&#S+6+d *#' ' ' ' ' ' ' ' ' ' ' ' ' ' ' ' ' ' ' ' ' ' ' ' ' ' ' ' ' ' ' ' ' ' ' ' ' ' ' ' ' ' ' ' ' ' ' ' ' ' ' ' ' ' ' ' ' ' ' ' ' ' ' ' ' V+' ' ' ' ' =#6+.#-#;#G@k+p+P+&@>#t+,#n+m@7+c@v@b@_@<@<@-@~+_@j+%@P+#@Y+",
"m l d.d.e.l l g.q 5@@@d@-@c@O@'#)#O..@t+k+!##@-@I+T@~#B@h+d {#' ' ' ' ' ' ' ' ' ' ' ' ' ' ' ' ' ' ' ' ' ' ' ' ' ' ' ' ' ' ' ' ' ' ' ' ' ' ' ' ' ' ' ' ' ' ' ' ' ' ' ' ' ' ' ' ' ' ' ' ' ' ' ' ' V+' ' ' ' ' ]#`+}+k ^#P+Y+Y+G+6+<+t+Q@h@/#(#V@b@b@<@Z.&+k /.k k l ~#~#_#",
":#<#:#[#&+z N.y H.y e+(@<@<@}#|#1#2#V.p+Y+P+P+@@I+Z+3#l h+4#{#' ' ' ' ' ' ' ' ' ' ' ' ' ' ' ' ' ' ' ' ' ' ' ' ' ' ' ' ' ' ' ' ' ' ' ' ' ' ' ' ' ' ' ' ' ' ' ' ' ' ' ' ' ' ' ' ' ' ' ' ' ' ' ' ' V+' ' ' ' ' =#L.R+~#5#^@P+Y+4@H@6+S+6#7#8#-@:@:@c@d@.+}.[.[#9#w.:#:#0#G ",
"#+[.[.A._.@+(.5@a#| d+~+-@b#c@c#d#e#f#k+Y+*@I+*@p+g#h#X@h+`.{#' ' ' ' ' ' ' ' ' ' ' ' ' ' ' ' ' ' ' ' ' ' ' ' ' ' ' ' ' ' ' ' ' ' ' ' ' ' ' ' ' ' ' ' ' ' ' ' ' ' ' ' ' ' ' ' ' ' ' ' ' ' ' ' ' i#' ' ' ' ' j#Z.O.k#l#I+&@k+4@L.4@m#n#o#p#q#_@J+@@(@r#5+s.y y.[.@+s#y x ",
"t#u#K v#w#j x#w U.h@d+q@q@!#<@y#z#A#B#C#k+p+4@4@y+D#k#X@}+a#R@' ' ' ' ' ' ' ' ' ' ' ' ' ' ' ' ' ' ' ' ' ' ' ' ' ' ' ' ' ' ' ' ' ' ' ' ' ' ' ' ' ' ' ' ' ' ' ' ' ' ' ' ' ' ' ' ' ' ' ' ' ' ' ' ' E#' ' ' ' ' ]#}+(+F#G#>#k+y+S+y+p+H#I#J#K#<@P+&@b#(@n@L#w.x#M#++N#K O#j ",
"w t#P#Q#R#S#r T#}+.@D+P+q@q+^@U#V#W#X#4@D+S+t+6+t+Y#h#k Z.X.R@' ' ' ' ' ' ' ' ' ' ' ' ' ' ' ' ' ' ' ' ' ' ' ' ' ' ' ' ' ' ' ' ' ' ' ' ' ' ' ' ' ' ' ' ' ' ' ' ' ' ' ' ' ' ' ' ' ' ' ' ' ' ' ' ' E#' ' ' ' ' Z#t+K.F#`#&@G@4@S+C#&@ $.$+$@$#$q+q+I+d@R+;+l.$$++w O#z.K x#",
"s#@+%$&$++*$&$x.=$h@F+I+b#q+I+U#-$;$>$y+6+`+`+S+S+,$h#h.'$)$!$' ' ' ' ' ' ' ' ' ' ' ' ' ' ' ' ' ' ' ' ' ' ' ' ' ' ' ' ' ' ' ' ' ' ' ' ' ' ' ' ' ' ' ' ' ' ' ' ' ' ' ' ' ' ' ' ' ' ' ' ' ' ' ' ' ~$' ' ' ' ' {$t+K.[#q p+&@p+G@p+p+O@]$^$/$f@($q+^@_$n@L.A.:$:#.+|+N#<$i.",
"R+[$;+}$5+e+>+U.h+O.F+I+b#!#b#|$1$2$3$4@k+y+3+S+!@O.h#M#X.a#4$' ' ' ' ' ' ' ' ' ' ' ' ' ' ' ' ' ' ' ' ' ' ' ' ' ' ' ' ' ' ' ' ' ' ' ' ' ' ' ' ' ' ' ' ' ' ' ' ' ' ' ' ' ' ' ' ' ' ' ' ' ' ' ' ' ~$' ' ' ' ' 5$Z.U.%+k O+&@p+.#&@Y+ $6$7$8$f@!#!#I+-@B@F+P.h+T@;+W.Y.P.[$",
"9$0$S+S+S+<+k+3+3+2@:+J+J+q@x@a$b$c$d$p+Y+4@y+y+h+O.h#l (#Y.4$' ' ' ' ' ' ' ' ' ' ' ' ' ' ' ' ' ' ' ' ' ' ' ' ' ' ' ' ' ' ' ' ' ' ' ' ' ' ' ' ' ' ' ' ' ' ' ' ' ' ' ' ' ' ' ' ' ' ' ' ' ' ' ' ' ~$' ' ' ' ' e$t+U.F k O+q+q+k+p+P+O@f$g$h$f@I+!#x@/@I@h+6+i$y+=+.#!@t+}+",
"$#}+S+6+!@`+C#3+h+j$D+P+@@k$b#l$-$m$d$*@i+&@.#h+h+O.`#~#K.n$4$' ' ' ' ' ' ' ' ' ' ' ' ' ' ' ' ' ' ' ' ' ' ' ' ' ' ' ' ' ' ' ' ' ' ' ' ' ' ' ' ' ' ' ' ' ' ' ' ' ' ' ' ' ' ' ' ' ' ' ' ' ' ' ' ' o$' ' ' ' ' e$;+U.F k O+k+k+y+k+^@p$q$r$s$<@t$!#Y+$@n@y+4@k+y+.#.#G+h+}+",
"h@t+6+G@>#k+y+u$u$v$;+G+A+>#I+w$x$y$z$#@~+A+p+4@i$=$F.f.K.K.A$' ' ' ' ' ' ' ' ' ' ' ' ' ' ' ' ' ' ' ' ' ' ' ' ' ' ' ' ' ' ' ' ' ' ' ' ' ' ' ' ' ' ' ' ' ' ' ' ' ' ' ' ' ' ' ' ' ' ' ' ' ' ' ' ' o$' ' ' ' ' B$]+C$D$n O+4@k+k+P+q@E$F$G$H$<@J@!#!#J+n@y+&@&@p+p+4@4@h+t+",
"j$h+S+i$G@I$C#Z+>@,#;+4@i@*@I+J$x$K$L$Y+@@~+Y+&@4@7+$+l K.`.4$' ' ' ' ' ' ' ' ' ' ' ' ' ' ' ' ' ' ' ' ' ' ' ' ' ' ' ' ' ' ' ' ' ' ' ' ' ' ' ' ' ' ' ' ' ' ' ' ' ' ' ' ' ' ' ' ' ' ' ' ' ' ' ' ' ~$' ' ' ' ' M$h+=$$+K O+p+p+Y+!#!# $N$O$P$<@#$Q$!#/@9@y+&@q+&@O+4@S+L.t+",
"R$t+S+S+C#y+C#Z+Z+)#}+6+i@C@P+u@S$T$U$q+P+P+i+O+S+U.F.e.P.K.4$' ' ' ' ' ' ' ' ' ' ' ' ' ' ' ' ' ' ' ' ' ' ' ' ' ' ' ' ' ' ' ' ' ' ' ' ' ' ' ' ' ' ' ' ' ' ' ' ' ' ' ' ' ' ' ' ' ' ' ' ' ' ' ' ' o$' ' ' ' ' M$t+J.F.k Q+i$i$&@!#x@V$N$W$X$J@q+k+q+/@Z@Y$!#!#p+y+y+L.t+}+",
"Z$>@S+y+C#3+3+u$Z+,#K.`+6+6+Y+b@`$ %U$&@i+%@A+.#y+U.F.~#P.P.!$' ' ' ' ' ' ' ' ' ' ' ' ' ' ' ' ' ' ' ' ' ' ' ' ' ' ' ' ' ' ' ' ' ' ' ' ' ' ' ' ' ' ' ' ' ' ' ' ' ' ' ' ' ' ' ' ' ' ' ' ' ' ' ' ' o$' ' ' ' ' .%T@+%`#B.L.3+3+p+P+b#E$N$@%X$J@Q$q+Y+/@n@4@q@!#&@y+Q+h+Z+,@",
"Z$T@S+Q+Q+Q+#%u$u$n@8+S+3+3+Y+b@$%%%&%k$%@i+<+k+y+x+F.l P.P.!$' ' ' ' ' ' ' ' ' ' ' ' ' ' ' ' ' ' ' ' ' ' ' ' ' ' ' ' ' ' ' ' ' ' ' ' ' ' ' ' ' ' ' ' ' ' ' ' ' ' ' ' ' ' ' ' ' ' ' ' ' ' ' ' ' ~$' ' ' ' ' *%t+t.`#M#=%h+t+k+q+I+-%q$;%/$J+k+&@!#-@5@.#Y+>%!#Q$Q+3+Z+>@",
"3@u$T@u$3+S+3+Z+Z+,#t+S+>@h+A+d@,%'%)%Y+e+A+.#y+=%=$F.l (#P.4$' ' ' ' ' ' ' ' ' ' ' ' ' ' ' ' ' ' ' ' ' ' ' ' ' ' ' ' ' ' ' ' ' ' ' ' ' ' ' ' ' ' ' ' ' ' ' ' ' ' ' ' ' ' ' ' ' ' ' ' ' ' ' ' ' ~$' ' ' ' ' @ Z.J.`#g.h+h+Z+4@&@P+H#!%~%@$b#G@&@P+(@n@.#P+#@&@k+3+Z+T@>@",
"3@7+Z+=%]+S+3+#%s+9@}+L.h+O+*@q+{%]%^%Q$p+G+6+6+3++%F./%}+`.(%' ' ' ' ' ' ' ' ' ' ' ' ' ' ' ' ' ' ' ' ' ' ' ' ' ' ' ' ' ' ' ' ' ' ' ' ' ' ' ' ' ' ' ' ' ' ' ' ' ' ' ' ' ' ' ' ' ' ' ' ' ' ' ' ' ~$' ' ' ' ' _%}+I.X@k y+Z+>@6+p+:%<%[%}%|%P+Y+p+I+(@R+4@A+Y+Y+.#Q+#%}+,@",
"3@}+t+]+S+ #Z+1%s+)#(+S+3+.#q+l+2%3%4%Q+.#G+6+]+Z+O.F.e.P.`.(%' ' ' ' ' ' ' ' ' ' ' ' ' ' ' ' ' ' ' ' ' ' ' ' ' ' ' ' ' ' ' ' ' ' ' ' ' ' ' ' ' ' ' ' ' ' ' ' ' ' ' ' ' ' ' ' ' ' ' ' ' ' ' ' ' o$' ' ' ' ' 5%P.I.$+B.]+h+h+y+y+]+g#6%7%8%T@Y+O+Y+!+m+.#p+p+&@k+=%=%Z+T@",
"9%=%L.S+k+y+Z+>@s+/#(+S+h+y+I+0%a%b%c%t+L.=+L.S+h+A@k d.P.C$(%' ' ' ' ' ' ' ' ' ' ' ' ' ' ' ' ' ' ' ' ' ' ' ' ' ' ' ' ' ' ' ' ' ' ' ' ' ' ' ' ' ' ' ' ' ' ' ' ' ' ' ' ' ' ' ' ' ' ' ' ' ' ' ' ' o$' ' ' ' ' d%e% +F.l ]+]+S+=+L.Z+f%g%h%i%q+&@y+q+~+n@.#p+S+k+Q+]+]+]+}+",
"3@y+y+Q+O+Q+Z+,@s+)#_+=%Z+S+j%J@k%l%m%6+:+S+h+h+h+5@k e.(+x+n%' ' ' ' ' ' ' ' ' ' ' ' ' ' ' ' ' ' ' ' ' ' ' ' ' ' ' ' ' ' ' ' ' ' ' ' ' ' ' ' ' ' ' ' ' ' ' ' ' ' ' ' ' ' ' ' ' ' ' ' ' ' ' ' ' E#' ' ' ' ' o%P.s.`#m <+k+.#.#y+p%q%r%s%t%#@p+y+p+!+n+y+k+T@#%i$S+Z+=%}+",
"9%3+k+k+G@y+h+Z+u$U@(+h+h+L.p+d@u%v%w%G@p+6+Z.t+8+B@k d.K.o.n%' ' ' ' ' ' ' ' ' ' ' ' ' ' ' ' ' ' ' ' ' ' ' ' ' ' ' ' ' ' ' ' ' ' ' ' ' ' ' ' ' ' ' ' ' ' ' ' ' ' ' ' ' ' ' ' ' ' ' ' ' ' ' ' ' E#' ' ' ' ' x%}+s.`#m :+.#h+y+.#=%y%.$z%A%Y+&@.#<+~+)#S+y+u$u$h+Q+Z+Z+T@",
"Q@T@]+]+i$Q$y+h+s+)#(+t+h+L.<+u@B%C%D%I$d+D+;+h+_+n@/.C.K.E%n%' ' ' ' ' ' ' ' ' ' ' ' ' ' ' ' ' ' ' ' ' ' ' ' ' ' ' ' ' ' ' ' ' ' ' ' ' ' ' ' ' ' ' ' ' ' ' ' ' ' ' ' ' ' ' ' ' ' ' ' ' ' ' ' ' E#' ' ' ' ' F%(+s.k l =+h+T@L.F+y+G%H%I%X$($Y+p+p+>%s#h+=%Z+u$3+S+3+3+s+",
"+#,$}+T@Z+h+Z+>@7+/#P.h+Z+3+O+J+J%K%B#y+k+S+S+t+}+n@L%D.C$x+n%' ' ' ' ' ' ' ' ' ' ' ' ' ' ' ' ' ' ' ' ' ' ' ' ' ' ' ' ' ' ' ' ' ' ' ' ' ' ' ' ' ' ' ' ' ' ' ' ' ' ' ' ' ' ' ' ' ' ' ' ' ' ' ' ' E#' ' ' ' ' M%U. +k l L.T@u$h+]+y+|#N%O%P%($>#6+<+Q%&#Z+L.=%h+3+h+Z+T@,$",
"U@,$7+,@u$u$p%7+D#,#O.s+}+h+y+b#R%S%T%h+S+t+T@t+T@.@/.D.(+J.U%' ' ' ' ' ' ' ' ' ' ' ' ' ' ' ' ' ' ' ' ' ' ' ' ' ' ' ' ' ' ' ' ' ' ' ' ' ' ' ' ' ' ' ' ' ' ' ' ' ' ' ' ' ' ' ' ' ' ' ' ' ' ' ' ' E#' ' ' ' ' V%U. +k l L.}+s+t+S+S+W%N%W$P%W@#@]+k+i+9@u$t+Z+#%L.>@s+u$,$",
"Z@,$,$O.D#X%,@h+p%,#Y@Y#T@T@h+x@Y%Z%`%T@h+t+t+Z+h+ +k  &C$h@U%' ' ' ' ' ' ' ' ' ' ' ' ' ' ' ' ' ' ' ' ' ' ' ' ' ' ' ' ' ' ' ' ' ' ' ' ' ' ' ' ' ' ' ' ' ' ' ' ' ' ' ' ' ' ' ' ' ' ' ' ' ' ' ' ' E#' ' ' ' ' .&P.n.k +&F+Z+s+T@h+S+@&#&$&%&($&@y+S+A+9@T@h+Z+T@&&}+u$s+[+",
"9@Y#v.Z$v.V.}+=%D#~@A@s+Z+T@h+~+z#*&=&u$Z+h+h+h+h+Q@k C.x+n.U%' ' ' ' ' ' ' ' ' ' ' ' ' ' ' ' ' ' ' ' ' ' ' ' ' ' ' ' ' ' ' ' ' ' ' ' ' ' ' ' ' ' ' ' ' ' ' ' ' ' ' ' ' ' ' ' ' ' ' ' ' ' ' ' ' o$' ' ' ' ' M%P.n.`#~#y+h+7+s+T@h+-&;&>&&%q+.#i$<+j%N+e%S+t+,$T@s+P.s+Y#",
"M+Y#,$O.V.V.t+h+,&'&O.8+h+,@L.e+)&!&~&P.Z.}+T@Z+Z+j$/.C.x+t.U%' ' ' ' ' ' ' ' ' ' ' ' ' ' ' ' ' ' ' ' ' ' ' ' ' ' ' ' ' ' ' ' ' ' ' ' ' ' ' ' ' ' ' ' ' ' ' ' ' ' ' ' ' ' ' ' ' ' ' ' ' ' ' ' ' E#' ' ' ' ' {&(+I.k +&]+Z+7+_+t+&&r+]&^&/&p+S+S+<+>#[.P.L.t+Y#s+}+(&U.v.",
"9@=$7+7+v._&T@s+M+Y@Z.;+t+t+L#L#:&<&.@s+}+Z+T@h+}+.@p d.C$| U%' ' ' ' ' ' ' ' ' ' ' ' ' ' ' ' ' ' ' ' ' ' ' ' ' ' ' ' ' ' ' ' ' ' ' ' ' ' ' ' ' ' ' ' ' ' ' ' ' ' ' ' ' ' ' ' ' ' ' ' ' ' ' ' ' E#' ' ' ' ' [&P.A@/.+&y+]+Z+8+h+L.U.}&|&P.p+O+Z+h+=+X.1&K.T@V.,&s+s+s+s+",
"9@s+s+e%+#n@7+9@&#K.W.;+Z.T@X..+d.`#2&e%t+h+3+=%t+I.p 3&(#| U%' ' ' ' ' ' ' ' ' ' ' ' ' ' ' ' ' ' ' ' ' ' ' ' ' ' ' ' ' ' ' ' ' ' ' ' ' ' ' ' ' ' ' ' ' ' ' ' ' ' ' ' ' ' ' ' ' ' ' ' ' ' ' ' ' i#' ' ' ' ' 4&(#5@k l y+=%3+L.6+6+P.k.h.k.L#6+>@3+6+:+o.s#U.Q@1&O.7+}+s+",
"9@D#}+O.0#Y@&#r#+%h+L.=+L#,$1&b.g.w '$=%t+3+]+]+h+5&k +&P.J.E#' ' ' ' ' ' ' ' ' ' ' ' ' ' ' ' ' ' ' ' ' ' ' ' ' ' ' ' ' ' ' ' ' ' ' ' ' ' ' ' ' ' ' ' ' ' ' ' ' ' ' ' ' ' ' ' ' ' ' ' ' ' ' ' ' i#' ' ' ' ' 6&P.B@k /%L.=%L.y+k+<+D+H.$$b.w h+h+=%L.F+=+A@T#O.#+m+(+U.O.",
"M+,$+%w.5@v$I@=$s+T@=+L#P.&#7&L%t#=$}+T@h+T@h+t+T@n@k e.O.t.V+' ' ' ' ' ' ' ' ' ' ' ' ' ' ' ' ' ' ' ' ' ' ' ' ' ' ' ' ' ' ' ' ' ' ' ' ' ' ' ' ' ' ' ' ' ' ' ' ' ' ' ' ' ' ' ' ' ' ' ' ' ' ' ' ' i#' ' ' ' ' 8&_+R+h./%h+Z+y+4@y+S+<+=+_.$$9&%$}+Z.h+;+=+T@s._.A@0&l.h@v.",
"a&Q@A.Z$.@b&}+T@s+T@L.h+c&a.l w d&7+O.7+t+D#u$}+U.n@k e&O.f&i#' ' ' ' ' ' ' ' ' ' ' ' ' ' ' ' ' ' ' ' ' ' ' ' ' ' ' ' ' ' ' ' ' ' ' ' ' ' ' ' ' ' ' ' ' ' ' ' ' ' ' ' ' ' ' ' ' ' ' ' ' ' ' ' ' V+' ' ' ' ' g&K.n+L%/%'$u$3+3+S+y+h+Z.'$j.k b.w.K.=+L#]+h+(+m+}.A@w 1&3@",
"I@:#n@+#h&V.h+T@}+T@L.f%i&j&:#C$,$7+s+s+Z.P.e%,$ +k g.M#`.s.i#' ' ' ' ' ' ' ' ' ' ' ' ' ' ' ' ' ' ' ' ' ' ' ' ' ' ' ' ' ' ' ' ' ' ' ' ' ' ' ' ' ' ' ' ' ' ' ' ' ' ' ' ' ' ' ' ' ' ' ' ' ' ' ' ' V+' ' ' ' ' k&K.r#h.~#}.+%#%Z+Z+]+t+T@P.h+i.F.l&m&S+h+L.(&8+(+I@j.n&$$Q@",
"1&Y@n@y.2@=$T@7+;+!@o&p&q&r&K.X.O.,$Z+Z+h+h+Z.h@M#~#q s&t&s.i#' ' ' ' ' ' ' ' ' ' ' ' ' ' ' ' ' ' ' ' ' ' ' ' ' ' ' ' ' ' ' ' ' ' ' ' ' ' ' ' ' ' ' ' ' ' ' ' ' ' ' ' ' ' ' ' ' ' ' ' ' ' ' ' ' E#' ' ' ' ' u&C$;+:#f.+.1&(&3+3+i$S+h+=$'$=+v&w&x&y&4@=+(+T@Z.s+N+1&n&h@",
"s.n&0#+%7+,$U.7+h+z&A&B&C&D&Z.(#(+u$T@#%t+t+x+k D.X@s.P.U.s.i#' ' ' ' ' ' ' ' ' ' ' ' ' ' ' ' ' ' ' ' ' ' ' ' ' ' ' ' ' ' ' ' ' ' ' ' ' ' ' ' ' ' ' ' ' ' ' ' ' ' ' ' ' ' ' ' ' ' ' ' ' ' ' ' ' E#' ' ' ' ' E&C$h+}+[#~#7&R+h+>@3+.#]+T@(#g+O@F&G&H&I&S+P.(&s+u$e%y.}.o.",
"j.w.Q@-#O.V.,$}+J&K&L&M&N&I$;+h+}+7+(&}+T@C$K O&k 5@Z.Z.U.s.i#' ' ' ' ' ' ' ' ' ' ' ' ' ' ' ' ' ' ' ' ' ' ' ' ' ' ' ' ' ' ' ' ' ' ' ' ' ' ' ' ' ' ' ' ' ' ' ' ' ' ' ' ' ' ' ' ' ' ' ' ' ' ' ' ' U%' ' ' ' ' P&7+Z.Z+&&&+ &c.Y@}+h+=%Z+]+t+h+p+Q&R&S&T&U&_+P.7+O.e%=$F@<$",
"T@D#U.V.O.O.X%V&W&@%X&Y&K+L.t+#%Z+}+u$s+,$X@Z&`&&#(#T@T@,$s.i#' ' ' ' ' ' ' ' ' ' ' ' ' ' ' ' ' ' ' ' ' ' ' ' ' ' ' ' ' ' ' ' ' ' ' ' ' ' ' ' ' ' ' ' ' ' ' ' ' ' ' ' ' ' ' ' ' ' ' ' ' ' ' ' ' E#' ' ' ' '  *_+t+s+t+P.[# &D.n@T@h+T@#%=%=%L.p+K#.*+*@*3@7+=$O.7+,$=$#%",
"=$(+O.2@,$,$[+#*$*%*&*m#F+L#h+Z+Z+D#D#U.F Z&g.&#}+s+7+}+U.s.i#' ' ' ' ' ' ' ' ' ' ' ' ' ' ' ' ' ' ' ' ' ' ' ' ' ' ' ' ' ' ' ' ' ' ' ' ' ' ' ' ' ' ' ' ' ' ' ' ' ' ' ' ' ' ' ' ' ' ' ' ' ' ' ' ' E#' ' ' ' ' **}+h+T@Z+T@C$F D.d.J.P.u$p%]+y+]+L.G@=*-*;*>*,*s+U.U.O.,$U.",
"O.O.V.V.,$f%'*)*!*~*m#T@t+t+Z+Z+}+(+(+:#b.1@}.e%(+(&}+u$U.s.i#' ' ' ' ' ' ' ' ' ' ' ' ' ' ' ' ' ' ' ' ' ' ' ' ' ' ' ' ' ' ' ' ' ' ' ' ' ' ' ' ' ' ' ' ' ' ' ' ' ' ' ' ' ' ' ' ' ' ' ' ' ' ' ' ' E#' ' ' ' ' {*t+L.h+Z+}+Z.x+k.9.l ]*(+(+T@4@y+h+>@y+^*/*(*_*:*}+P.V.O.O.",
"V.O.,$V.f%<*[*}*&*-&Z+u$t+#%T@h+}+P.#+7&h.j.}+>@(+e%Z+T@7+5@i#' ' ' ' ' ' ' ' ' ' ' ' ' ' ' ' ' ' ' ' ' ' ' ' ' ' ' ' ' ' ' ' ' ' ' ' ' ' ' ' ' ' ' ' ' ' ' ' ' ' ' ' ' ' ' ' ' ' ' ' ' ' ' ' ' o$' ' ' ' ' **Z.L#=%3+T@}+'$A@`#c.M#|*(+,$T@=%Z+u$Z+y+1*2*3*4*5*s+=$Y#A@",
"+%U.}+6*7*8*'%9*0*T@,$u$>@Z+T@h+t&T#a.a*b*Z.U.s+}+u$T@T@s+c&) ' ' ' ' ' ' ' ' ' ' ' ' ' ' ' ' ' ' ' ' ' ' ' ' ' ' ' ' ' ' ' ' ' ' ' ' ' ' ' ' ' ' ' ' ' ' ' ' ' ' ' ' ' ' ' ' ' ' ' ' ' ' ' ' ' E#' ' ' ' ' c*t+L.h+y+t+s+s+&&n.k b.k =$(&D#Z+Z+}+s+,@d*e*f*g*h*i*[$,$h@",
"O.,$j*k*l*m*n*o*,@(+=$u$>@s+T@Z+}.p*l w.'$(+Y#s+T@Z+t+t+s+&#) ' ' ' ' ' ' ' ' ' ' ' ' ' ' ' ' ' ' ' ' ' ' ' ' ' ' ' ' ' ' ' ' ' ' ' ' ' ' ' ' ' ' ' ' ' ' ' ' ' ' ' ' ' ' ' ' ' ' ' ' ' ' ' ' ' E#' ' ' ' ' q*P.&&h+S+Z+T@D#U.L#Y@g.r*q =$D#D#}+t+u$}+s+s*t*u*v*w*x*V.Z$",
"y*X%z*A*B*C*D*Z+s+,$Y#,@T@}+(+R+7&+&z P.s+Y#V.,$(+t+h+T@O.z.' ' ' ' ' ' ' ' ' ' ' ' ' ' ' ' ' ' ' ' ' ' ' ' ' ' ' ' ' ' ' ' ' ' ' ' ' ' ' ' ' ' ' ' ' ' ' ' ' ' ' ' ' ' ' ' ' ' ' ' ' ' ' ' ' ' E#' ' ' ' ' E*O.h+=%t+>@}+s+Y#}+L#F*f.G*H =$,@3+}+T@T@,$T@d*t*H*I*J*K*Q@",
"9%L*M*K%N*O*#%(+,$=$D#(&s+D#m+ &d.P*Q*e%,$Z$v.7+(&Z.e%t& +s ) ' ' ' ' ' ' ' ' ' ' ' ' ' ' ' ' ' ' ' ' ' ' ' ' ' ' ' ' ' ' ' ' ' ' ' ' ' ' ' ' ' ' ' ' ' ' ' ' ' ' ' ' ' ' ' ' ' ' ' ' ' ' ' ' ' E#' ' ' ' ' R*n+P.h+Z+Z+}+s+s+}+C$'$}.+&S*z 7+=%t+u$Z+}+7+7+@&T*}*]&U*+#",
"V*W*X*Y*Z*g#7+X%O.D#u$u$,$Y@+&D.x.;+P.,$7+v.Y#T@e%e%=$|*`*B. =' ' ' ' ' ' ' ' ' ' ' ' ' ' ' ' ' ' ' ' ' ' ' ' ' ' ' ' ' ' ' ' ' ' ' ' ' ' ' ' ' ' ' ' ' ' ' ' ' ' ' ' ' ' ' ' ' ' ' ' ' ' ' ' ' E#' ' ' ' ' .=q ]*(+T@&&u$,$7+s+=$(+h+y.e.9&z.t+#%s+T@}+s+O.,$@&+=@=#=]*",
"3@$=:&%=U.O.+%,&Y#s+>@u$V.M+m q &=U.O.=$,$Y#V.u$t&,$(+A.`#*===-=' ' ' ' ' ' ' ' ' ' ' ' ' ' ' ' ' ' ' ' ' ' ' ' ' ' ' ' ' ' ' ' ' ' ' ' ' ' ' ' ' ' ' ' ' ' ' ' ' ' ' ' ' ' ' ' ' ' ' ' ' ' ' ' E#' ' ' ' ' ' ;=x.=$P.Z.s+,$,$s+,$h@=$X.F.f.w U.%#7+T@u$,$v.|*=$>=,='=h@",
".@)=!=~=J.v.{=Z$v.,$,$D#O.I@X@h.'@A@v.Y#,$D#_&P.C$,$t+0@]=^=/=k (=' ' ' ' ' ' ' ' ' ' ' ' ' ' ' ' ' ' ' ' ' ' ' ' ' ' ' ' ' ' ' ' ' ' ' ' ' ' ' ' ' ' ' ' ' ' ' ' ' ' ' ' ' ' ' ' ' ' ' ' ' ' ' E#' ' ' ' ' ' ) _=h+Z+u$(&,$D#=$=$Z$2@h+g.L%q (+}+7+,$X%V.Z$A@h@R+/. &:=",
"J.<=h.~=o.O.V.v.V.,$,$s+7+1&X@l 5@|*O.h@,&,$[==$(+=$Z+}=|=1=2=3=4=' ' ' ' ' ' ' ' ' ' ' ' ' ' ' ' ' ' ' ' ' ' ' ' ' ' ' ' ' ' ' ' ' ' ' ' ' ' ' ' ' ' ' ' ' ' ' ' ' ' ' ' ' ' ' ' ' ' ' ' ' ' ' U%' ' ' ' ' ' ' 5=q+&&e%(+Y#,$Y#Y#v.Q@P._#h.$$K.(+(+V.,$=$v.A@J.H.h.0.~=",
"|*~#6=}.s+s+,$O.V.X%Y#,$}+_.F.f.2&7=]*v.Z$Y#=$U.|*Y#p%8=9=0=a=b=c=' ' ' ' ' ' ' ' ' ' ' ' ' ' ' ' ' ' ' ' ' ' ' ' ' ' ' ' ' ' ' ' ' ' ' ' ' ' ' ' ' ' ' ' ' ' ' ' ' ' ' ' ' ' ' ' ' ' ' ' ' ' ' U%' ' ' ' ' ' ' d=e=u$V.U.=$=$=$Z$3@2@U._#`#r `.=$=$O.=$,$v.Z$f=Z@L%0..+",
"s. &`&g=h=i=j=,&D#s+Y#v.(+j.`#f.R+h@Y#Y#Z$v.v.h@A.Z@r+#*k=l=m=n=c=' ' ' ' ' ' ' ' ' ' ' ' ' ' ' ' ' ' ' ' ' ' ' ' ' ' ' ' ' ' ' ' ' ' ' ' ' ' ' ' ' ' ' ' ' ' ' ' ' ' ' ' ' ' ' ' ' ' ' ' ' ' ' V+' ' ' ' ' ' ' o=p=Y#l =$Y#V.,&Q@M.3@=$~#6=r |*,$,$s+(+,$,&q=r=s=k  &t=",
"s.~#h#u=v=w=x=,&V.7+Y#{=U.[.6=f.R+2@V.v.Z$O.=$A@F#M+Q+#*y=z=A=B=c=' ' ' ' ' ' ' ' ' ' ' ' ' ' ' ' ' ' ' ' ' ' ' ' ' ' ' ' ' ' ' ' ' ' ' ' ' ' ' ' ' ' ' ' ' ' ' ' ' ' ' ' ' ' ' ' ' ' ' ' ' ' ' V+' ' ' ' ' ' ' o=o&,$3#s+=$Z$9%3@.@2@=$d.k k ]*+%s+s+,$Y#V&C=D=E=$+_#[.",
"n.~#F=G=H=I=J=v.v.7+=$v.C$j.F.l r#2@O.O.=$,$7+|*A.&#K=L=M=N=O=P=c=' ' ' ' ' ' ' ' ' ' ' ' ' ' ' ' ' ' ' ' ' ' ' ' ' ' ' ' ' ' ' ' ' ' ' ' ' ' ' ' ' ' ' ' ' ' ' ' ' ' ' ' ' ' ' ' ' ' ' ' ' ' ' E#' ' ' ' ' ' ' o=Q=(+1@e%U.v.Z$9%Z$v.C$ &k r O.C$,$s+(+O.R=S=T=U=$+e.[.",
"s.f.F G=V=W=f=2@_&s+7+Y#P.}.k.f.r#2@O.O.U.U.(+o.y.9@u$;@X=Y=Z=n=c=' ' ' ' ' ' ' ' ' ' ' ' ' ' ' ' ' ' ' ' ' ' ' ' ' ' ' ' ' ' ' ' ' ' ' ' ' ' ' ' ' ' ' ' ' ' ' ' ' ' ' ' ' ' ' ' ' ' ' ' ' ' ' E#' ' ' ' ' ' ' `= -R=6=e%=$=$Y#[+,&v.(+d.k k.K.(+7+U.}+O.Y#.-+-U=$+~#}.",
"B@d.$+@-#-$-[+Z$O.s+O.,$(+}.`#d.r#2@O.=$C$(+=$o.'$,$#%%-&-*-=---c=' ' ' ' ' ' ' ' ' ' ' ' ' ' ' ' ' ' ' ' ' ' ' ' ' ' ' ' ' ' ' ' ' ' ' ' ' ' ' ' ' ' ' ' ' ' ' ' ' ' ' ' ' ' ' ' ' ' ' ' ' ' ' E#' ' ' ' ' ' ' `=5*[=O.(&h@=$,$v.Z$Z$C$d.k $$K.(+O.7+(+,$,&;->-,-F.l s#",
"'- &F._.)-X%v.v.v.7+U.,@}+r#q d.:$2@V.=$=$(+=$=$e%(&Q+!-~-{-]-^-/-' ' ' ' ' ' ' ' ' ' ' ' ' ' ' ' ' ' ' ' ' ' ' ' ' ' ' ' ' ' ' ' ' ' ' ' ' ' ' ' ' ' ' ' ' ' ' ' ' ' ' ' ' ' ' ' ' ' ' ' ' ' ' E#' ' ' ' ' ' ' (-_-D#,$,$J.O.U.+%2@2@P.~#k s K.,$,$(+D#Y#v.v.:-n@q _#r#",
"5@<-`#j.h@+%v.v.Q@=$U.P.(+r#`#l :=h@V.=$U.P.(+U.,$U.P.0@U*[-}-;@(=' ' ' ' ' ' ' ' ' ' ' ' ' ' ' ' ' ' ' ' ' ' ' ' ' ' ' ' ' ' ' ' ' ' ' ' ' ' ' ' ' ' ' ' ' ' ' ' ' ' ' ' ' ' ' ' ' ' ' ' ' ' ' E#' ' ' ' ' ' ' |-2@,$,&,$x+O.(+O.I.h@Y.l o s K.}+(+Z.7+Y#M.2@o.R+k /%~=",
"R+0.F.}.t.O.3@3@Z$Y#(&U.O.&#`#f.H. +O.+%=$(+O.U.=$P.,$Z$l.1-2-c=' ' ' ' ' ' ' ' ' ' ' ' ' ' ' ' ' ' ' ' ' ' ' ' ' ' ' ' ' ' ' ' ' ' ' ' ' ' ' ' ' ' ' ' ' ' ' ' ' ' ' ' ' ' ' ' ' ' ' ' ' ' ' ' U%' ' ' ' ' ' 3-c&C$(+=$(+O.O.P.U.]*O.|*l q 4-K.}+K.}+(+O.Q@h@o.c&k  &~=",
"c&3#5-/#U.O.h@Q@v.Y#V.O.O. +$+L%$$.@O.=$Y#V.h@=$K.U.V.]*|*h&6-' ' ' ' ' ' ' ' ' ' ' ' ' ' ' ' ' ' ' ' ' ' ' ' ' ' ' ' ' ' ' ' ' ' ' ' ' ' ' ' ' ' ' ' ' ' ' ' ' ' ' ' ' ' ' ' ' ' ' ' ' ' ' ' ' E#' ' ' ' ' 7-2&8-+%=$P.U.2@h@(+=$h@]*x ~#F.j.K.P.U.s+O.O.h@o.`.j$l#3#:=",
"o.;#9-0-a-,&Q@Q@V.2@Z$Z$V.L#b-F c-q  +O.+%+%v.O.x+(+=$U.O.l.U+' ' ' ' ' ' ' ' ' ' ' ' ' ' ' ' ' ' ' ' ' ' ' ' ' ' ' ' ' ' ' ' ' ' ' ' ' ' ' ' ' ' ' ' ' ' ' ' ' ' ' ' ' ' ' ' ' ' ' ' ' ' ' ' ' U%' ' ' ' ' d-e |*y*P.(+U.h@h@=$U.I.y.7&/.y.;+K.(+Y#=$+%J.J.7+p=e-f-g-J.",
"j@h-i-j-k-l-,&+%v.2@v.v.v.=$L.l.k +.v h@=$+%O.=$(+(+(+=$ +.+m-' ' ' ' ' ' ' ' ' ' ' ' ' ' ' ' ' ' ' ' ' ' ' ' ' ' ' ' ' ' ' ' ' ' ' ' ' ' ' ' ' ' ' ' ' ' ' ' ' ' ' ' ' ' ' ' ' ' ' ' ' ' ' ' ' E#' ' ' ' ' n-Y@+%U.(+,$U.h@]*|*x+1&7&<=0#X.C$=$7+O.+%v.[$O.Q=o-p-q-r-o.",
"5@_+s-t-u-v-w-[+Z$,&,&V.Z$Z$O.h+h&M#+.A.h@O.=$x+P.U.=$U.h@y.7-' ' ' ' ' ' ' ' ' ' ' ' ' ' ' ' ' ' ' ' ' ' ' ' ' ' ' ' ' ' ' ' ' ' ' ' ' ' ' ' ' ' ' ' ' ' ' ' ' ' ' ' ' ' ' ' ' ' ' ' ' ' ' ' ' U%' ' ' ' ' x- +C$(+(&,$7+J.O.o.&#c. &X@`.K.U.O.U.U.U.O.V.y-z-A-B-T%Z+I.",
".@n.Z+C-D-E-F-G-v.v.Y#,&Y#v.h@+%e%H-I-Z&.++%|*x+K.=$=$O.h@}.J-' ' ' ' ' ' ' ' ' ' ' ' ' ' ' ' ' ' ' ' ' ' ' ' ' ' ' ' ' ' ' ' ' ' ' ' ' ' ' ' ' ' ' ' ' ' ' ' ' ' ' ' ' ' ' ' ' ' ' ' ' ' ' ' ' V+' ' ' ' ' K-I.O.O.(+(+(+|*O.H.C.d.q t.+%+%,$O.U.O.o.+%L-M-N-O-P-m#|*n.",
"I.s. +Q-R-S-T-U-V-%#s+,$,$Y#O.h@]*X.:#d.+..+s.O.U.O.U.=$Y@_.W-' ' ' ' ' ' ' ' ' ' ' ' ' ' ' ' ' ' ' ' ' ' ' ' ' ' ' ' ' ' ' ' ' ' ' ' ' ' ' ' ' ' ' ' ' ' ' ' ' ' ' ' ' ' ' ' ' ' ' ' ' ' ' ' ' b ' ' ' ' ' X-t.O.O.O.o.o.|*&#D.c.`#'@ +Z$=$(+U.O.2@U.p%h%Y-Z-`- ;V.Q@A@",
"I. +.@2@I$.;+;@;#;$;D#,$,$,$O.O.A@O.C$D$ &..x  +J.o.=$O.n@_.%;' ' ' ' ' ' ' ' ' ' ' ' ' ' ' ' ' ' ' ' ' ' ' ' ' ' ' ' ' ' ' ' ' ' ' ' ' ' ' ' ' ' ' ' ' ' ' ' ' ' ' ' ' ' ' ' ' ' ' ' ' ' ' ' ' V+' ' ' ' ' &;A@|*J.O.=$h@n@+&c.K s.|*B@Q@O.K.=$=$+%=$*;=;-;;;>;O.$#3@h@",
"n@2@h@h@+%,;';);!;~;X%7+O.v.+%v.h@I.t.{;X@7&..j.A@]*h@h@n@}.%;' ' ' ' ' ' ' ' ' ' ' ' ' ' ' ' ' ' ' ' ' ' ' ' ' ' ' ' ' ' ' ' ' ' ' ' ' ' ' ' ' ' ' ' ' ' ' ' ' ' ' ' ' ' ' ' ' ' ' ' ' ' ' ' ' V+' ' ' ' ' &;f&+%O.U.=$n@l 9.k c&J.+%.@I.O.,$v.,$,$];^;/;(;_;,$2@R+.@Q@",
"}..@h@+%h@O.:;<;[;};|;f%O.h@+%+%O.h@I.|*|*1;c.Z&_.I.h@]*B@I@%;' ' ' ' ' ' ' ' ' ' ' ' ' ' ' ' ' ' ' ' ' ' ' ' ' ' ' ' ' ' ' ' ' ' ' ' ' ' ' ' ' ' ' ' ' ' ' ' ' ' ' ' ' ' ' ' ' ' ' ' ' ' ' ' ' V+' ' ' ' ' &;A@h@O.O. +g.c-h.s#J.t.2@ +h@+%=$(+,@2;3;4;5;6;s+.@.@.@n@l.",
"T#}.Y@]*v.Q@]*i$7;8;9;0;[+]* +]*O.h@]*J.t.t.F 7&a;r#A@]*5@s#b;' ' ' ' ' ' ' ' ' ' ' ' ' ' ' ' ' ' ' ' ' ' ' ' ' ' ' ' ' ' ' ' ' ' ' ' ' ' ' ' ' ' ' ' ' ' ' ' ' ' ' ' ' ' ' ' ' ' ' ' ' ' ' ' ' V+' ' ' ' ' c;n.h@h@ +k O&`&r#o.|*h@h@h@I.O.(+D#d;e;f;g;($,$.@n@n@n@1&1&",
"H.P*.+m+Q@.@B@I.h;i;j;k;l;D#h@|*|*O.O.J.f&0+'@K m;c.s#h@n@1&%;' ' ' ' ' ' ' ' ' ' ' ' ' ' ' ' ' ' ' ' ' ' ' ' ' ' ' ' ' ' ' ' ' ' ' ' ' ' ' ' ' ' ' ' ' ' ' ' ' ' ' ' ' ' ' ' ' ' ' ' ' ' ' ' ' V+' ' ' ' ' n;s. + +X@b.h.}.x+h@]*I.J.h@|*=$(&o;p;q;r;s;=$m+n@.@n@1&%+5@",
"h&:$k..+Z@n@j$B@V&%&8*t;u;G-v.|*t.h@h@A@ +A@o.R+k +.D.H.R+_.%;' ' ' ' ' ' ' ' ' ' ' ' ' ' ' ' ' ' ' ' ' ' ' ' ' ' ' ' ' ' ' ' ' ' ' ' ' ' ' ' ' ' ' ' ' ' ' ' ' ' ' ' ' ' ' ' ' ' ' ' ' ' ' ' ' V+' ' ' ' ' n;c&s.k.r*g.}.K.A@.@ +h@O.=$O.,$L-`$v;w;x;u$n@+#n@R+_.X@I@)#",
"9#j.b&X@[.B@I.s.Y@u$y;z;A;B;)#n.J.h@J.h@Y@s.s.o.H.h.S*e.H._.%;' ' ' ' ' ' ' ' ' ' ' ' ' ' ' ' ' ' ' ' ' ' ' ' ' ' ' ' ' ' ' ' ' ' ' ' ' ' ' ' ' ' ' ' ' ' ' ' ' ' ' ' ' ' ' ' ' ' ' ' ' ' ' ' ' V+' ' ' ' ' C;n.w.X <=u#X. +B@.@A@A@J.+%h@n.D;E;w;F;=% +n@n@B@}.F.G;}.H;",
"y I;}.I@q z.B@n.n.2@p%J;K;L;~#s#I.2@A@t.A@I.n@5@O.j./%+.l.1&%;' ' ' ' ' ' ' ' ' ' ' ' ' ' ' ' ' ' ' ' ' ' ' ' ' ' ' ' ' ' ' ' ' ' ' ' ' ' ' ' ' ' ' ' ' ' ' ' ' ' ' ' ' ' ' ' ' ' ' ' ' ' ' ' ' V+' ' ' ' ' C;s.w 0.k X.n.B@Y@J.O.+%A@A@ +k.M;N;O;Q+A@ +.@R+H.k.}.l.k.b&",
"P;s&#+I@1&q j..@ +.@A@U.|*F 0./%H.5@A@A@A@s.c&c&5@A.d.b.1&j.%;' ' ' ' ' ' ' ' ' ' ' ' ' ' ' ' ' ' ' ' ' ' ' ' ' ' ' ' ' ' ' ' ' ' ' ' ' ' ' ' ' ' ' ' ' ' ' ' ' ' ' ' ' ' ' ' ' ' ' ' ' ' ' ' ' V+' ' ' ' ' Q;B@%+d.D.5@ +Y@Q@+%=$h@s&Y@&+ &F.Q@t+=$h@ +R+_.F h&H.0#Y@I@",
"m@n@n..+&#s#X@[.R+B@n@I.a#s.X@D.M#H. +A@I..@B@n@c&w  &b._.}.%;' ' ' ' ' ' ' ' ' ' ' ' ' ' ' ' ' ' ' ' ' ' ' ' ' ' ' ' ' ' ' ' ' ' ' ' ' ' ' ' ' ' ' ' ' ' ' ' ' ' ' ' ' ' ' ' ' ' ' ' ' ' ' ' ' V+' ' ' ' ' R;5@F 0.+.R+n@n@.@h@O.I.n.w  &k T#}+J.+%h@B@_.k.b&l.z m+R+I@",
"x )#Y@x+P*I@4+k [.R+5@B@I.C$5@k b.j B@h@]*.@n@Y@5@&+ &+.S;x#T;' ' ' ' ' ' ' ' ' ' ' ' ' ' ' ' ' ' ' ' ' ' ' ' ' ' ' ' ' ' ' ' ' ' ' ' ' ' ' ' ' ' ' ' ' ' ' ' ' ' ' ' ' ' ' ' ' ' ' ' ' ' ' ' ' V+' ' ' ' ' U;V;k.0.+.R+.@R+9@ +W;A@y.7&`&}.;+O.2@M.j$R+F .+R+F c&R+l.1&",
"9#M+n@2@A@n@n@y.k.&#s.l.R+t.Y.m+1@b.#+Y@n..@5@Y@ +x X;X }.j.T;' ' ' ' ' ' ' ' ' ' ' ' ' ' ' ' ' ' ' ' ' ' ' ' ' ' ' ' ' ' ' ' ' ' ' ' ' ' ' ' ' ' ' ' ' ' ' ' ' ' ' ' ' ' ' ' ' ' ' ' ' ' ' ' ' V+' ' ' ' ' U;B@X@0.+.n@n@)#)#n@I.R+C.l 9#P.o.A@.@5@n@.+A.n@s.&#c&&#M+H;",
"Y;b&M+n@n@)#n@M+H-F 5@.@n@ +t.K.`&Z;z s.Y@v$R+B@B@`;0.Y _.h& >' ' ' ' ' ' ' ' ' ' ' ' ' ' ' ' ' ' ' ' ' ' ' ' ' ' ' ' ' ' ' ' ' ' ' ' ' ' ' ' ' ' ' ' ' ' ' ' ' ' ' ' ' ' ' ' ' ' ' ' ' ' ' ' ' V+' ' ' ' ' U;R+k a.X m+9@9@H.H. +H..>u.+%U.O.Q@.@ +.+A.M+n@.@M+R+9@I@H;",
"&+b&I@n@n@n+n@l.G;5-s#c&B@c&I.[$+>@>#>5@5@R+H.B@n@:#0...}.j. >' ' ' ' ' ' ' ' ' ' ' ' ' ' ' ' ' ' ' ' ' ' ' ' ' ' ' ' ' ' ' ' ' ' ' ' ' ' ' ' ' ' ' ' ' ' ' ' ' ' ' ' ' ' ' ' ' ' ' ' ' ' ' ' ' V+' ' ' ' ' U;R+k 9.Y H.m+9@n@.@A@M.$>%>&>h@y*2@ +.@q  @)#n@.@n+n+)#I@I@",
"[#_.M+R+n@)#)#N+I@Y;H-n+n@m+I.s+*>=>->'-5@5@n@.@n@G  &Y _.[.T;' ' ' ' ' ' ' ' ' ' ' ' ' ' ' ' ' ' ' ' ' ' ' ' ' ' ' ' ' ' ' ' ' ' ' ' ' ' ' ' ' ' ' ' ' ' ' ' ' ' ' ' ' ' ' ' ' ' ' ' ' ' ' ' ' b ' ' ' ' ' ;>>>k c-,>&#n@9@n@Q@h@'>)>!>~>O.{>+#.@n@$+b&M+.@Y@&#]>M+N+1&",
":#I@l.9$n@9@M+^>a&0#y n+l.&#5@7+/>(>_>n@s.n.s.5@5@z  &,>}.i. >' ' ' ' ' ' ' ' ' ' ' ' ' ' ' ' ' ' ' ' ' ' ' ' ' ' ' ' ' ' ' ' ' ' ' ' ' ' ' ' ' ' ' ' ' ' ' ' ' ' ' ' ' ' ' ' ' ' ' ' ' ' ' ' ' b ' ' ' ' ' ;>R+q 9.Y &#n@R+U@n@ +:*:><>[>V.Q@v$9@9@F#1&n+.@Y@M+H;I@I@_.",
"Y;/#)#)#n@9@M+M+I@:#[.m+&#I@.@_+}>|>1>9@'-n.s.I.s.:# &X }.#+ >' ' ' ' ' ' ' ' ' ' ' ' ' ' ' ' ' ' ' ' ' ' ' ' ' ' ' ' ' ' ' ' ' ' ' ' ' ' ' ' ' ' ' ' ' ' ' ' ' ' ' ' ' ' ' ' ' ' ' ' ' ' ' ' ' b ' ' ' ' ' 2>H.k X;Y &#n@l.9@R+B@:*3>4>[>v.n@9@R+n@F &#n@Q@.@n+I@I@I@_.",
":#H;n+)#9@9@)#M+I@&+.+&#n+)#5@7+5>6>7>Z@c&n.8> +n.F D.X x#@+ >' ' ' ' ' ' ' ' ' ' ' ' ' ' ' ' ' ' ' ' ' ' ' ' ' ' ' ' ' ' ' ' ' ' ' ' ' ' ' ' ' ' ' ' ' ' ' ' ' ' ' ' ' ' ' ' ' ' ' ' ' ' ' ' ' b ' ' ' ' ' 9>H.k 0.Y &#l.n+&#&#n@:*0>a>b>Z$n@9@)#m+`#)#R+n@B@&#I@_.&#s#",
"N. @I@,#n@n@v$M+I@[#x I@l.m+&#[$c>d>e>Z@c&s. +Q@ +%+0...@+.+ >' ' ' ' ' ' ' ' ' ' ' ' ' ' ' ' ' ' ' ' ' ' ' ' ' ' ' ' ' ' ' ' ' ' ' ' ' ' ' ' ' ' ' ' ' ' ' ' ' ' ' ' ' ' ' ' ' ' ' ' ' ' ' ' ' b ' ' ' ' ' 9>n@k f>,>s#n+I@&#n+,#g>h>i>b>{=n@9@)#R+q H.l.9@R+I@&#)#&#_.",
"y _.I@9@+#n@9@n+H;&+t=j>)#l.)#V.k>l>1>,#R+n@I.Q@n@&+0.m>i.w. >' ' ' ' ' ' ' ' ' ' ' ' ' ' ' ' ' ' ' ' ' ' ' ' ' ' ' ' ' ' ' ' ' ' ' ' ' ' ' ' ' ' ' ' ' ' ' ' ' ' ' ' ' ' ' ' ' ' ' ' ' ' ' ' ' b ' ' ' ' ' 2>R+k O&Y I@n+l.)#n+,#n>o>p>b>q>n@M+/#R+q )#R+&#I@1&j>&#I@b&",
"A.b&&#R+m+Z@M+I@1&[#@+H.)#M+R+h@r>s>t>M+m+5@ +.@R+&+E.m>[..+ >' ' ' ' ' ' ' ' ' ' ' ' ' ' ' ' ' ' ' ' ' ' ' ' ' ' ' ' ' ' ' ' ' ' ' ' ' ' ' ' ' ' ' ' ' ' ' ' ' ' ' ' ' ' ' ' ' ' ' ' ' ' ' ' ' V+' ' ' ' ' u>R+q a.v>s#)#9@n@n@,#w>x>a>y>.@)#z>9@B@o )#'-)#I@}._.s#b&[.",
"A.I@l.&#9@)#I@I@_.:#i.R+&#I@B@h@A>B>C>z>l.c&Y@n@R+9#E.m>x#.+ >' ' ' ' ' ' ' ' ' ' ' ' ' ' ' ' ' ' ' ' ' ' ' ' ' ' ' ' ' ' ' ' ' ' ' ' ' ' ' ' ' ' ' ' ' ' ' ' ' ' ' ' ' ' ' ' ' ' ' ' ' ' ' ' ' b ' ' ' ' ' D>>>X@a.E>s#v$R+n@R+/#s=F>G>H>n@R+M+R+R+k s#'-H._._.I@}.b&[.",
"&+I@R+&#)#&#n+I@I@%+[.'-H.R+.@I>J>K>L>1&&#R+c&B@R+9#0.m>x#t= >' ' ' ' ' ' ' ' ' ' ' ' ' ' ' ' ' ' ' ' ' ' ' ' ' ' ' ' ' ' ' ' ' ' ' ' ' ' ' ' ' ' ' ' ' ' ' ' ' ' ' ' ' ' ' ' ' ' ' ' ' ' ' ' ' b ' ' ' ' ' M>H.X@b.N>&#n@l.9$)#&#O>P>Q>R>M+R+I@n+)#k }.R+H.}._.I@_.b&[.",
"%+j.Z@l.R+M+n+M+b&F#t=H.'-R+R+]@S>T>U>_.&#s#)#9@m+y <-E>j.++ >' ' ' ' ' ' ' ' ' ' ' ' ' ' ' ' ' ' ' ' ' ' ' ' ' ' ' ' ' ' ' ' ' ' ' ' ' ' ' ' ' ' ' ' ' ' ' ' ' ' ' ' ' ' ' ' ' ' ' ' ' ' ' ' ' b ' ' ' ' ' u>H.X@+.E>R+n@)#R+n+I@V>W>X>Y>_.H.I@_.&#k }.R+&#}._.n+)#I@y.",
"F h&n+M+l.I@I@_. @F=%$s#R+n@Q@@&Z>`> ,.,&#s#&#M+&#:#0.m>z..+ >' ' ' ' ' ' ' ' ' ' ' ' ' ' ' ' ' ' ' ' ' ' ' ' ' ' ' ' ' ' ' ' ' ' ' ' ' ' ' ' ' ' ' ' ' ' ' ' ' ' ' ' ' ' ' ' ' ' ' ' ' ' ' ' ' b ' ' ' ' ' +,n+q @,N>H.n@m+)#&#m+#,$,%,&,V&l.1&n+&#k _.m+&#_.j.I@)#I@[.",
"$+h&1&I@M+H;b&H; @$+z &#s#I@l.[+*,=,-,_.&#>>l.l.}.F a.m>}.;, >' ' ' ' ' ' ' ' ' ' ' ' ' ' ' ' ' ' ' ' ' ' ' ' ' ' ' ' ' ' ' ' ' ' ' ' ' ' ' ' ' ' ' ' ' ' ' ' ' ' ' ' ' ' ' ' ' ' ' ' ' ' ' ' ' b ' ' ' ' ' >,~=n r*N>H..@n@R+n@n@c%,,',),M.I@H;b&s#k s#l.1& @h&}.n+_.i.",
"$+y.[.I@n+ @ @I@ @$+z &#I@1&&#!,~,{,t>I@j>j>s#H.1&X@c-N>j..+],' ' ' ' ' ' ' ' ' ' ' ' ' ' ' ' ' ' ' ' ' ' ' ' ' ' ' ' ' ' ' ' ' ' ' ' ' ' ' ' ' ' ' ' ' ' ' ' ' ' ' ' ' ' ' ' ' ' ' ' ' ' ' ' ' b ' ' ' ' ' >,~=k b.v>H..@9@R+m+n@^,/,(,|;n@_.I@b&&#k j._.G;I@4+[._.T#y ",
"F.x (.[.b&j.H;I@ @X@w._.1&1&&#_,~,:,_>M+:=>>s#s#}.h#O&E>t=++],' ' ' ' ' ' ' ' ' ' ' ' ' ' ' ' ' ' ' ' ' ' ' ' ' ' ' ' ' ' ' ' ' ' ' ' ' ' ' ' ' ' ' ' ' ' ' ' ' ' ' ' ' ' ' ' ' ' ' ' ' ' ' ' ' b ' ' ' ' ' >,s#L%b.v>r#9@M+&#n+9@<,o>[,},Z@_.n+1& @L%y. @b&j.4+j.j.[.G ",
"F.x h&(.h&4+H; @h&h##+j._.n+n+!,|,1,2,n@5@R+H.s#j.`#a.E>;,++],' ' ' ' ' ' ' ' ' ' ' ' ' ' ' ' ' ' ' ' ' ' ' ' ' ' ' ' ' ' ' ' ' ' ' ' ' ' ' ' ' ' ' ' ' ' ' ' ' ' ' ' ' ' ' ' ' ' ' ' ' ' ' ' ' 3,' ' ' ' ' 4,_.1@+.E>_.s#1&I@_.I@];5,6,y>n@M+l.)#_.1@H-[.j.y.j.j.[.x &+",
"F.x H-9+[.b& @4+h&F.t=B+_.n+n+,&k>7,2,n@c&>>H.)#_.q c-E>i.i.],' ' ' ' ' ' ' ' ' ' ' ' ' ' ' ' ' ' ' ' ' ' ' ' ' ' ' ' ' ' ' ' ' ' ' ' ' ' ' ' ' ' ' ' ' ' ' ' ' ' ' ' ' ' ' ' ' ' ' ' ' ' ' ' ' 3,' ' ' ' ' 8,_.f.X E>}.s#I@ @4+I@9,5,0,a,%=)#9@n+s#g.[.[.b&y._.[.h&x :#",
"$+.+h&x y.j.b&4+j.k.#+}._._.n+,&k>b,c,Z@'-:=s#&#_.k.a;m>j.S#],' ' ' ' ' ' ' ' ' ' ' ' ' ' ' ' ' ' ' ' ' ' ' ' ' ' ' ' ' ' ' ' ' ' ' ' ' ' ' ' ' ' ' ' ' ' ' ' ' ' ' ' ' ' ' ' ' ' ' ' ' ' ' ' ' 3,' ' ' ' ' 8,r#m +.E>}.1&b&}._.G;d,5,0,e,%=l.&#)#)#L%j.[.}..+j.[.[.(.&+",
"F.q k.F./.F $+F.y F x }.I@_.)#,&f,l>_>M+R+R+:=~=}.%+9&E>b*t=g,' ' ' ' ' ' ' ' ' ' ' ' ' ' ' ' ' ' ' ' ' ' ' ' ' ' ' ' ' ' ' ' ' ' ' ' ' ' ' ' ' ' ' ' ' ' ' ' ' ' ' ' ' ' ' ' ' ' ' ' ' ' ' ' ' 3,' ' ' ' ' h,_.l Y i,}. @j.1&_.M+j,k,l,y>U@&#H.R+)#h.y.k &+H k k.k.k $+",
"~#K b.d.m,D.n,0..+$+A.j.H;}.H.v.o,p,q,I@>>R+&#s#_.F c-E>i.++g,' ' ' ' ' ' ' ' ' ' ' ' ' ' ' ' ' ' ' ' ' ' ' ' ' ' ' ' ' ' ' ' ' ' ' ' ' ' ' ' ' ' ' ' ' ' ' ' ' ' ' ' ' ' ' ' ' ' ' ' ' ' ' ' ' 3,' ' ' ' ' r,~=m ..s,}.H;j._.1&1&d,o>t,u,,#&#n+s#&#h..+B.e.v,w,x,e&y,c.",
"k Z&M#e&a;n,Z&e&F#`#A.}. @j.I@{>z,A,B,I@>>H.s#I@1&k.c-E>.+#+g,' ' ' ' ' ' ' ' ' ' ' ' ' ' ' ' ' ' ' ' ' ' ' ' ' ' ' ' ' ' ' ' ' ' ' ' ' ' ' ' ' ' ' ' ' ' ' ' ' ' ' ' ' ' ' ' ' ' ' ' ' ' ' ' ' 3,' ' ' ' ' ;=}.f.Y C,_.1&1&&#&#n+s=o>D,u,9@s#_._.s#h.z d.E,y,S*w,/%F,G,",
"H,e&+&c.n,G*/%D.:#`#w.&#1&b&&#j$I,J,K,I@H.R+_._.h&D$O&E>;,N#g,' ' ' ' ' ' ' ' ' ' ' ' ' ' ' ' ' ' ' ' ' ' ' ' ' ' ' ' ' ' ' ' ' ' ' ' ' ' ' ' ' ' ' ' ' ' ' ' ' ' ' ' ' ' ' ' ' ' ' ' ' ' ' ' ' 3,' ' ' ' ' L,x#e.r*N>}._.&#H.H.)#M,N,O,P,R+I@ @}.s#j y f.+&Q,n,a;R,+&G*",
"D$x.F#%+X@k.k.F.u#w [.H.I@&#R+n@S,T,U,_.&#H.}._.[.`#c-..i.w g,' ' ' ' ' ' ' ' ' ' ' ' ' ' ' ' ' ' ' ' ' ' ' ' ' ' ' ' ' ' ' ' ' ' ' ' ' ' ' ' ' ' ' ' ' ' ' ' ' ' ' ' ' ' ' ' ' ' ' ' ' ' ' ' ' 3,' ' ' ' ' V,[.l b.,>z.}.1&s#H.M+W,!*X,Y,c&s# @s#&#g.r#k.1;$+&+`*k.F.q ",
"k h.h./.a*1@f.B.k q r#&#_.H.'-_.Z,`, '_.s#_.j.}.[.`#0.w ~=%$g,' ' ' ' ' ' ' ' ' ' ' ' ' ' ' ' ' ' ' ' ' ' ' ' ' ' ' ' ' ' ' ' ' ' ' ' ' ' ' ' ' ' ' ' ' ' ' ' ' ' ' ' ' ' ' ' ' ' ' ' ' ' ' ' ' 3,' ' ' ' ' V,@+x d.,>@+_.}.n+&#_.##M*.'L*:=S;}.n+:=1;X@k  &a*g.h.j h.g.",
"2@Q@%=3@%=Z$9%+'@'5@~=s#}.R+[.#'<&U>6=[._.j.[.j.h&F.n .@_.w g,' ' ' ' ' ' ' ' ' ' ' ' ' ' ' ' ' ' ' ' ' ' ' ' ' ' ' ' ' ' ' ' ' ' ' ' ' ' ' ' ' ' ' ' ' ' ' ' ' ' ' ' ' ' ' ' ' ' ' ' ' ' ' ' ' 3,' ' ' ' ' $'.+s#w b.h&}.I@)#I@h&5-%'&'*'w s#n+H.&#I@='-';'9@9%2@5&=$t&",
"H._.}.}.(.j.h&h&_.}._.s#_.R+y.>','a*k [._.[.h&h&y.`#m j.}.w g,' ' ' ' ' ' ' ' ' ' ' ' ' ' ' ' ' ' ' ' ' ' ' ' ' ' ' ' ' ' ' ' ' ' ' ' ' ' ' ' ' ' ' ' ' ' ' ' ' ' ' ' ' ' ' ' ' ' ' ' ' ' ' ' ' 3,' ' ' ' ' ''j.x#k.+.[.j.b&&#&#h&)'!'~'{'k.:=H.H.>> @_._.I@n+I@j.n+R+&#",
"n+s#_._.[.j.[.[.s#H.j.}._.s#x f>]'1@q [.}.[.h&y.y.`#l h&j.E ^'' ' ' ' ' ' ' ' ' ' ' ' ' ' ' ' ' ' ' ' ' ' ' ' ' ' ' ' ' ' ' ' ' ' ' ' ' ' ' ' ' ' ' ' ' ' ' ' ' ' ' ' ' ' ' ' ' ' ' ' ' ' ' ' ' 3,' ' ' ' ' /'[.j.X@Y [.[.j.I@&#h&F=f>d.f>n _.&#&#n+H.s#_._.&#s#[.}._.s#",
"_.x#[.}.[.[._.&#H._.j.[.B+}.z ('_'h.q [._.[..+@+.+k l y.[.H ^'' ' ' ' ' ' ' ' ' ' ' ' ' ' ' ' ' ' ' ' ' ' ' ' ' ' ' ' ' ' ' ' ' ' ' ' ' ' ' ' ' ' ' ' ' ' ' ' ' ' ' ' ' ' ' ' ' ' ' ' ' ' ' ' ' 3,' ' ' ' ' :'[.[.n Y y.j.y.}.s#[.&+X;~#O&q x#s#_.&#>>:=n+&#>>s#[.}.B+S;",
"}.j.x#x#B+}.&#R+s#}.}.[.[.[.z O&v>`&K @+[.[..+.+<'k f.x [.s ^'' ' ' ' ' ' ' ' ' ' ' ' ' ' ' ' ' ' ' ' ' ' ' ' ' ' ' ' ' ' ' ' ' ' ' ' ' ' ' ' ' ' ' ' ' ' ' ' ' ' ' ' ' ' ' ' ' ' ' ' ' ' ' ' ' 3,' ' ' ' ' [';,@+o Y y.[..+i.s#[.v  &~#a.X@n+n+s#S;s#}.'-&#&#_.j.}.[.}.",
"s#}.x#[.[.}.&#n+_.}.B+[.y.i.w b.]'1@j #+[.(.x .+.+k e.y t=n }'' ' ' ' ' ' ' ' ' ' ' ' ' ' ' ' ' ' ' ' ' ' ' ' ' ' ' ' ' ' ' ' ' ' ' ' ' ' ' ' ' ' ' ' ' ' ' ' ' ' ' ' ' ' ' ' ' ' ' ' ' ' ' ' ' 3,' ' ' ' ' ['[.@+n m>x .+<'y.[.y.v |'d.7&q }.S;S;j>S;)#R+:=}.j.y.}.x#}.",
":=:=x#@+[.[.S;S;}._._.}.j.y.:#b.v>g.k y y.x A.y G.k +&y t=n }'' ' ' ' ' ' ' ' ' ' ' ' ' ' ' ' ' ' ' ' ' ' ' ' ' ' ' ' ' ' ' ' ' ' ' ' ' ' ' ' ' ' ' ' ' ' ' ' ' ' ' ' ' ' ' ' ' ' ' ' ' ' ' ' ' 3,' ' ' ' ' ['[..+k v>x y..+(.x A.$+ &~#7&k @+[.[.}.B+j>s#~=x#[.j.}.[.}.",
"1'S;x#@+[.[.j._._.}.[.@+[.@+w +& &q k z t=x z x z h.d.z y n }'' ' ' ' ' ' ' ' ' ' ' ' ' ' ' ' ' ' ' ' ' ' ' ' ' ' ' ' ' ' ' ' ' ' ' ' ' ' ' ' ' ' ' ' ' ' ' ' ' ' ' ' ' ' ' ' ' ' ' ' ' ' ' ' ' 3,' ' ' ' ' 2'#+x k ..w..+y N.A.A.X@d.j M#q .+.+[.[.B+}.:=s#_.[.[.}.[.[.",
"x#B+[.[.[._.[.@+x#}.@+t=y.@+w  &k k.n z 3'y A.y &+h.e.w z n }'' ' ' ' ' ' ' ' ' ' ' ' ' ' ' ' ' ' ' ' ' ' ' ' ' ' ' ' ' ' ' ' ' ' ' ' ' ' ' ' ' ' ' ' ' ' ' ' ' ' ' ' ' ' ' ' ' ' ' ' ' ' ' ' ' }'' ' ' ' ' 4'z z k Y A.w.A.N.A.w X@k %$g.q .+y x .+y.j.}.x#s#5'@+[.y.@+",
"6'@+@+@+[.[.[.[.x#y..+y ++T+w ~#7'E k w y /+<#y /+g.d.%$z n }'' ' ' ' ' ' ' ' ' ' ' ' ' ' ' ' ' ' ' ' ' ' ' ' ' ' ' ' ' ' ' ' ' ' ' ' ' ' ' ' ' ' ' ' ' ' ' ' ' ' ' ' ' ' ' ' ' ' ' ' ' ' ' ' ' }'' ' ' ' ' 8'z z k Y A.x y A.y A.F n p.f.$$V;x x y x y.y.[.j.t=.+t=.+3'",
"y y z z z z y y y y z w %$N#n D.M#e&:#:#z <#v :#y l C.w z j }'' ' ' ' ' ' ' ' ' ' ' ' ' ' ' ' ' ' ' ' ' ' ' ' ' ' ' ' ' ' ' ' ' ' ' ' ' ' ' ' ' ' ' ' ' ' ' ' ' ' ' ' ' ' ' ' ' ' ' ' ' ' ' ' ' }'' ' ' ' ' 9'%$z g.N>x y A.y y &+:#l +& &h.;,w &+:#z w.y <#A.w w A.w <#",
"E>N>N>N>N>m>E>v>r*9&D.c.a;9.D.h.`#z &+F t k.X@m,E C.0'w z j }'' ' ' ' ' ' ' ' ' ' ' ' ' ' ' ' ' ' ' ' ' ' ' ' ' ' ' ' ' ' ' ' ' ' ' ' ' ' ' ' ' ' ' ' ' ' ' ' ' ' ' ' ' ' ' ' ' ' ' ' ' ' ' ' ' }'' ' ' ' ' 9'z a'j v>.+q k %+x.k.x.w /.`#d.c.b.b.9.c-+.Y N>C,b'E>E>c's,",
"d'e'd'f'5.5.5.d'd'e'd'd'g'd'e'd'g'd'5.h'8.7.5.5.i'j'd.&+v m }'' ' ' ' ' ' ' ' ' ' ' ' ' ' ' ' ' ' ' ' ' ' ' ' ' ' ' ' ' ' ' ' ' ' ' ' ' ' ' ' ' ' ' ' ' ' ' ' ' ' ' ' ' ' ' ' ' ' ' ' ' ' ' ' ' }'' ' ' ' ' k'v v B.l'm'n'5.h'o'h'5.n'd'p'p'p'e'd'd'g'5.h'n'd'f'f'd'd'd'",
"@,Y @.v>@.@.@.q'q'Y Y Y Y @,@,Y Y b.0.f>r'@,@,!'s't'u'L%l a;}'' ' ' ' ' ' ' ' ' ' ' ' ' ' ' ' ' ' ' ' ' ' ' ' ' ' ' ' ' ' ' ' ' ' ' ' ' ' ' ' ' ' ' ' ' ' ' ' ' ' ' ' ' ' ' ' ' ' ' ' ' ' ' ' ' }'' ' ' ' ' v'/%m <=w'x'y'f>b.r'X q'@,r'b.O&E.O&b.@.q'@,Y Y @,q'@,z'O&O&",
"[ j@s.R+5@c&c&A'A''@t.j@t.j@t.| t.| t.t.n.A'V;c&B@.@s.n.t.f&) ' ' ' ' ' ' ' ' ' ' ' ' ' ' ' ' ' ' ' ' ' ' ' ' ' ' ' ' ' ' ' ' ' ' ' ' ' ' ' ' ' ' ' ' ' ' ' ' ' ' ' ' ' ' ' ' ' ' ' ' ' ' ' ' ' b ' ' ' ' ' B'n&n.A@|* +s.J.t.e j@s&A@A@h@A@C'e j@A'D'/ 5@c&n@c&A@j@j@[ ",
"E'F'G'H'E*E*E*H'E*H'F'I'J'I'K'K'K'L'M'M'H'E*N'O'E*E*E*P'J'Q'(=' ' ' ' ' ' ' ' ' ' ' ' ' ' ' ' ' ' ' ' ' ' ' ' ' ' ' ' ' ' ' ' ' ' ' ' ' ' ' ' ' ' ' ' ' ' ' ' ' ' ' ' ' ' ' ' ' ' ' ' ' ' ' ' ' 3,' ' ' ' ' R'H'P'P'S'S'S'M'F'T'U'M'I'V'S'M'K'W'F'L'X'M'H'E*E*E*L'K'F'F'"};
