/* XPM */
static char * so_door10_tex_xpm[] = {
"132 132 1465 2",
"  	c #2D3640",
". 	c #2C353E",
"+ 	c #2C3640",
"@ 	c #2D3741",
"# 	c #2E3841",
"$ 	c #2D3641",
"% 	c #2D3842",
"& 	c #2E3944",
"* 	c #2E3943",
"= 	c #2F3A45",
"- 	c #2E3842",
"; 	c #2F3B46",
"> 	c #2F3944",
", 	c #2F3A46",
"' 	c #303C46",
") 	c #303B46",
"! 	c #303C47",
"~ 	c #303A45",
"{ 	c #313D4A",
"] 	c #313E4A",
"^ 	c #323E4A",
"/ 	c #323F4A",
"( 	c #313D48",
"_ 	c #35393C",
": 	c #393939",
"< 	c #303B45",
"[ 	c #323F4B",
"} 	c #313D49",
"| 	c #303C48",
"1 	c #2E3843",
"2 	c #2E3A44",
"3 	c #2E3942",
"4 	c #2C363F",
"5 	c #2E3741",
"6 	c #243341",
"7 	c #233341",
"8 	c #243342",
"9 	c #233240",
"0 	c #243543",
"a 	c #243443",
"b 	c #253544",
"c 	c #253646",
"d 	c #253645",
"e 	c #243544",
"f 	c #253545",
"g 	c #263746",
"h 	c #273847",
"i 	c #263645",
"j 	c #273645",
"k 	c #283847",
"l 	c #283948",
"m 	c #293A49",
"n 	c #283949",
"o 	c #273848",
"p 	c #293B4A",
"q 	c #293949",
"r 	c #293B4B",
"s 	c #293A4A",
"t 	c #2A3B4B",
"u 	c #2A3B4A",
"v 	c #2B3D4C",
"w 	c #2C3F4F",
"x 	c #2D3F4F",
"y 	c #2C3F50",
"z 	c #2D4151",
"A 	c #2C3D4C",
"B 	c #33393E",
"C 	c #2B3C4B",
"D 	c #2A3C4B",
"E 	c #293C4B",
"F 	c #2D4050",
"G 	c #283848",
"H 	c #283A49",
"I 	c #273948",
"J 	c #273947",
"K 	c #263846",
"L 	c #253746",
"M 	c #253543",
"N 	c #17222C",
"O 	c #17222D",
"P 	c #17232D",
"Q 	c #18222D",
"R 	c #18242D",
"S 	c #18242E",
"T 	c #17242D",
"U 	c #192530",
"V 	c #19242F",
"W 	c #1A2630",
"X 	c #1A2732",
"Y 	c #1A2631",
"Z 	c #1A2833",
"` 	c #18252F",
" .	c #1B2833",
"..	c #1B2834",
"+.	c #1A2733",
"@.	c #1B2934",
"#.	c #1C2934",
"$.	c #1C2A35",
"%.	c #1C2A36",
"&.	c #1D2A36",
"*.	c #1D2B38",
"=.	c #1E2D39",
"-.	c #1F2F3C",
";.	c #1F2E3B",
">.	c #1F2E3A",
",.	c #1F2C39",
"'.	c #313437",
").	c #303337",
"!.	c #1F2C38",
"~.	c #1E2C38",
"{.	c #1C2B37",
"].	c #1D2D3A",
"^.	c #1D2B37",
"/.	c #1C2935",
"(.	c #1B2733",
"_.	c #1B2933",
":.	c #1A2632",
"<.	c #1A2731",
"[.	c #192631",
"}.	c #192630",
"|.	c #19252F",
"1.	c #18232D",
"2.	c #060C10",
"3.	c #070C11",
"4.	c #070B10",
"5.	c #070C10",
"6.	c #070D11",
"7.	c #070D12",
"8.	c #080D12",
"9.	c #070D13",
"0.	c #080E12",
"a.	c #080E13",
"b.	c #080F14",
"c.	c #080D13",
"d.	c #080E14",
"e.	c #090E14",
"f.	c #091015",
"g.	c #09131B",
"h.	c #091C2B",
"i.	c #0F1E29",
"j.	c #131F27",
"k.	c #131E27",
"l.	c #131C24",
"m.	c #2F3031",
"n.	c #2E2F31",
"o.	c #131E26",
"p.	c #141F28",
"q.	c #121E27",
"r.	c #091C29",
"s.	c #08151F",
"t.	c #081015",
"u.	c #090F14",
"v.	c #090F15",
"w.	c #0C141A",
"x.	c #0B1219",
"y.	c #0B1218",
"z.	c #0C131A",
"A.	c #0B1319",
"B.	c #0D151B",
"C.	c #0C141B",
"D.	c #0B131A",
"E.	c #0D151C",
"F.	c #0E171E",
"G.	c #0C151B",
"H.	c #0A1117",
"I.	c #0A1116",
"J.	c #0C1319",
"K.	c #0E1821",
"L.	c #0F1E2A",
"M.	c #192733",
"N.	c #20303E",
"O.	c #223341",
"P.	c #303336",
"Q.	c #2F3236",
"R.	c #21313F",
"S.	c #223340",
"T.	c #101E28",
"U.	c #0E1A23",
"V.	c #0B151B",
"W.	c #0A1218",
"X.	c #0F161E",
"Y.	c #0E161D",
"Z.	c #0D161C",
"`.	c #0E171D",
" +	c #0F181F",
".+	c #0B141A",
"++	c #0A1217",
"@+	c #121D26",
"#+	c #121C24",
"$+	c #111B23",
"%+	c #121D25",
"&+	c #121C25",
"*+	c #131D26",
"=+	c #131D27",
"-+	c #142028",
";+	c #14202A",
">+	c #142029",
",+	c #16212B",
"'+	c #15222C",
")+	c #15212B",
"!+	c #16222B",
"~+	c #182530",
"{+	c #192732",
"]+	c #21313E",
"^+	c #21323F",
"/+	c #1C2B36",
"(+	c #233644",
"_+	c #1E303F",
":+	c #293C4C",
"<+	c #233340",
"[+	c #313438",
"}+	c #2F3337",
"|+	c #263947",
"1+	c #283B4A",
"2+	c #192834",
"3+	c #263B4B",
"4+	c #1F2F3B",
"5+	c #1D2C38",
"6+	c #20313E",
"7+	c #22333F",
"8+	c #1E2E3A",
"9+	c #192731",
"0+	c #16222C",
"a+	c #15212C",
"b+	c #16232D",
"c+	c #15202A",
"d+	c #131F28",
"e+	c #111B24",
"f+	c #1B2A35",
"g+	c #1B2A36",
"h+	c #1A2934",
"i+	c #182631",
"j+	c #1B2935",
"k+	c #1F303C",
"l+	c #243644",
"m+	c #273949",
"n+	c #283B4B",
"o+	c #2A3E4E",
"p+	c #2C4253",
"q+	c #243847",
"r+	c #1E2E3B",
"s+	c #283C4C",
"t+	c #2A3F4F",
"u+	c #243442",
"v+	c #313538",
"w+	c #303438",
"x+	c #283A4B",
"y+	c #293D4D",
"z+	c #273B4C",
"A+	c #2D4253",
"B+	c #2B4050",
"C+	c #2B3F4F",
"D+	c #2B4051",
"E+	c #2A3E4D",
"F+	c #263948",
"G+	c #20303D",
"H+	c #202F3B",
"I+	c #21303E",
"J+	c #20303C",
"K+	c #1C2B38",
"L+	c #1D2C39",
"M+	c #192632",
"N+	c #1E2C39",
"O+	c #263744",
"P+	c #2C4151",
"Q+	c #2C4152",
"R+	c #2A3F4E",
"S+	c #2E4354",
"T+	c #2E4455",
"U+	c #2D4353",
"V+	c #2F4456",
"W+	c #2D4354",
"X+	c #2D4454",
"Y+	c #32485A",
"Z+	c #324A5C",
"`+	c #32495B",
" @	c #32495C",
".@	c #31485B",
"+@	c #31485A",
"@@	c #2C4354",
"#@	c #1E303E",
"$@	c #1E2D3A",
"%@	c #293E4E",
"&@	c #2A3E4F",
"*@	c #2E4557",
"=@	c #263C4C",
"-@	c #2A3F50",
";@	c #323639",
">@	c #303539",
",@	c #2B4153",
"'@	c #203240",
")@	c #2D4355",
"!@	c #293D4E",
"~@	c #2B3F51",
"{@	c #1F2F3D",
"]@	c #293D4B",
"^@	c #344B5E",
"/@	c #314658",
"(@	c #314859",
"_@	c #2F4557",
":@	c #304658",
"<@	c #2D4252",
"[@	c #2B4151",
"}@	c #2B3F50",
"|@	c #2C4051",
"1@	c #253846",
"2@	c #243746",
"3@	c #233544",
"4@	c #233342",
"5@	c #223442",
"6@	c #233543",
"7@	c #2E4355",
"8@	c #2E4353",
"9@	c #2B4152",
"0@	c #304759",
"a@	c #344C5F",
"b@	c #2D4457",
"c@	c #1E313F",
"d@	c #243745",
"e@	c #233443",
"f@	c #2A3D4E",
"g@	c #2E4558",
"h@	c #2E4659",
"i@	c #294052",
"j@	c #293E4F",
"k@	c #2B4052",
"l@	c #273745",
"m@	c #32363A",
"n@	c #30353A",
"o@	c #293D4C",
"p@	c #2C4355",
"q@	c #213443",
"r@	c #2F4558",
"s@	c #223240",
"t@	c #374F62",
"u@	c #2E4456",
"v@	c #2F4457",
"w@	c #2D4455",
"x@	c #2B3E4F",
"y@	c #223441",
"z@	c #233444",
"A@	c #243645",
"B@	c #253745",
"C@	c #253847",
"D@	c #273A49",
"E@	c #304558",
"F@	c #2E4457",
"G@	c #2D4152",
"H@	c #30485B",
"I@	c #31495D",
"J@	c #2D4659",
"K@	c #1F3342",
"L@	c #223543",
"M@	c #223542",
"N@	c #2D4557",
"O@	c #30475A",
"P@	c #2B4254",
"Q@	c #2C4254",
"R@	c #273846",
"S@	c #33373B",
"T@	c #30363B",
"U@	c #213343",
"V@	c #2F4659",
"W@	c #2A4052",
"X@	c #2C4153",
"Y@	c #213240",
"Z@	c #223645",
"`@	c #31485C",
" #	c #30485A",
".#	c #31495C",
"+#	c #31475A",
"@#	c #2E4658",
"##	c #273A4A",
"$#	c #233645",
"%#	c #334A5C",
"&#	c #304557",
"*#	c #2D4254",
"=#	c #304659",
"-#	c #32495D",
";#	c #324A5E",
">#	c #1B2F3D",
",#	c #2A3F51",
"'#	c #293E50",
")#	c #30373C",
"!#	c #203341",
"~#	c #32495E",
"{#	c #1A2B38",
"]#	c #30495C",
"^#	c #324A5D",
"/#	c #334B5E",
"(#	c #2F4658",
"_#	c #374E62",
":#	c #253848",
"<#	c #233646",
"[#	c #243646",
"}#	c #273A4B",
"|#	c #344A5D",
"1#	c #304657",
"2#	c #314759",
"3#	c #334A5E",
"4#	c #344C60",
"5#	c #324B5F",
"6#	c #334C61",
"7#	c #2E485B",
"8#	c #1D3140",
"9#	c #263A49",
"0#	c #253949",
"a#	c #2D4356",
"b#	c #33373C",
"c#	c #30373D",
"d#	c #1F303F",
"e#	c #1D2E3B",
"f#	c #334A5D",
"g#	c #344D61",
"h#	c #375063",
"i#	c #273B4B",
"j#	c #263A4A",
"k#	c #283B4C",
"l#	c #293C4D",
"m#	c #314758",
"n#	c #334B5F",
"o#	c #334C60",
"p#	c #344D62",
"q#	c #314A5F",
"r#	c #1F3241",
"s#	c #2D4357",
"t#	c #34383D",
"u#	c #31383F",
"v#	c #1F303E",
"w#	c #1E2F3D",
"x#	c #324A5F",
"y#	c #30475B",
"z#	c #344D60",
"A#	c #354E61",
"B#	c #354D61",
"C#	c #344E62",
"D#	c #354D62",
"E#	c #385164",
"F#	c #233442",
"G#	c #283D4C",
"H#	c #293B4C",
"I#	c #283A4A",
"J#	c #344C5E",
"K#	c #324C5F",
"L#	c #2F485C",
"M#	c #1F3140",
"N#	c #1A2834",
"O#	c #2E4458",
"P#	c #34393D",
"Q#	c #31393F",
"R#	c #1E303D",
"S#	c #2D4558",
"T#	c #2C4052",
"U#	c #314A5E",
"V#	c #344C61",
"W#	c #354E62",
"X#	c #354E63",
"Y#	c #385165",
"Z#	c #253948",
"`#	c #263848",
" $	c #273B4A",
".$	c #334B5D",
"+$	c #334D61",
"@$	c #2F495D",
"#$	c #203140",
"$$	c #35393D",
"%$	c #313940",
"&$	c #2A4051",
"*$	c #233746",
"=$	c #3A5368",
"-$	c #2A3D4D",
";$	c #2C4252",
">$	c #334B60",
",$	c #2F475B",
"'$	c #253947",
")$	c #233545",
"!$	c #1C2B39",
"~$	c #2B4154",
"{$	c #2D4456",
"]$	c #243846",
"^$	c #395367",
"/$	c #344B60",
"($	c #1E3140",
"_$	c #253747",
":$	c #283E4F",
"<$	c #35393E",
"[$	c #313A41",
"}$	c #293D4F",
"|$	c #1B2C39",
"1$	c #30465A",
"2$	c #375064",
"3$	c #33495B",
"4$	c #17242E",
"5$	c #203444",
"6$	c #2F475A",
"7$	c #353A3E",
"8$	c #313A42",
"9$	c #182734",
"0$	c #223544",
"a$	c #18242F",
"b$	c #283C4B",
"c$	c #1D2D39",
"d$	c #1C2C39",
"e$	c #314C60",
"f$	c #2B475C",
"g$	c #213D51",
"h$	c #243E50",
"i$	c #17242F",
"j$	c #1D2E3C",
"k$	c #253B4D",
"l$	c #253E52",
"m$	c #2A465A",
"n$	c #1E2F3B",
"o$	c #1D2E39",
"p$	c #1F303D",
"q$	c #1C2C38",
"r$	c #2E4352",
"s$	c #2B3E4E",
"t$	c #30485C",
"u$	c #37546B",
"v$	c #1F4965",
"w$	c #1A74A2",
"x$	c #2A495E",
"y$	c #2A4153",
"z$	c #1A2935",
"A$	c #323B43",
"B$	c #1A2A36",
"C$	c #1C2D3A",
"D$	c #2C4659",
"E$	c #2A5B7B",
"F$	c #265F82",
"G$	c #305069",
"H$	c #365064",
"I$	c #233542",
"J$	c #22323F",
"K$	c #1F2E39",
"L$	c #1E2D38",
"M$	c #20313D",
"N$	c #20303B",
"O$	c #1D2C37",
"P$	c #355065",
"Q$	c #1D4864",
"R$	c #127BB7",
"S$	c #2A4A61",
"T$	c #2C4356",
"U$	c #283E4E",
"V$	c #1B2B38",
"W$	c #2E4A5E",
"X$	c #286388",
"Y$	c #246287",
"Z$	c #2F4E66",
"`$	c #202F3A",
" %	c #1B2A34",
".%	c #202F3C",
"+%	c #233440",
"@%	c #1D2C36",
"#%	c #21303B",
"$%	c #21313D",
"%%	c #21333F",
"&%	c #385268",
"*%	c #1E4864",
"=%	c #137BB9",
"-%	c #2B4B61",
";%	c #273C4C",
">%	c #303941",
",%	c #2F4A5E",
"'%	c #296489",
")%	c #236389",
"!%	c #2F4F66",
"~%	c #30485D",
"{%	c #233441",
"]%	c #21303D",
"^%	c #1F2D39",
"/%	c #243542",
"(%	c #21303C",
"_%	c #1E4966",
":%	c #0F7CC1",
"<%	c #2B4A61",
"[%	c #283D4D",
"}%	c #2B404F",
"|%	c #363A3D",
"1%	c #313B43",
"2%	c #28658A",
"3%	c #23668D",
"4%	c #2F5067",
"5%	c #2E475A",
"6%	c #334C5F",
"7%	c #233643",
"8%	c #223440",
"9%	c #263745",
"0%	c #2E4253",
"a%	c #385368",
"b%	c #1F4966",
"c%	c #0E7DC4",
"d%	c #2C4B62",
"e%	c #36393D",
"f%	c #313A43",
"g%	c #2A6488",
"h%	c #22668F",
"i%	c #2F5069",
"j%	c #2A3E50",
"k%	c #365267",
"l%	c #1E4765",
"m%	c #1279C2",
"n%	c #2D4A61",
"o%	c #303A44",
"p%	c #2A668B",
"q%	c #216690",
"r%	c #2F526B",
"s%	c #2C4456",
"t%	c #32485B",
"u%	c #365167",
"v%	c #1277C2",
"w%	c #2F485D",
"x%	c #2B658A",
"y%	c #206692",
"z%	c #30526B",
"A%	c #31495E",
"B%	c #293F4F",
"C%	c #293F50",
"D%	c #233745",
"E%	c #354F65",
"F%	c #1E4967",
"G%	c #107AC4",
"H%	c #2E4C63",
"I%	c #363A3E",
"J%	c #313B45",
"K%	c #293E4D",
"L%	c #1B2B36",
"M%	c #2F495E",
"N%	c #2B658C",
"O%	c #1F6693",
"P%	c #30536D",
"Q%	c #2C4457",
"R%	c #344F64",
"S%	c #0F7BC7",
"T%	c #2D4C63",
"U%	c #2F3A43",
"V%	c #2C658B",
"W%	c #1F6692",
"X%	c #30526C",
"Y%	c #2D4458",
"Z%	c #283C4D",
"`%	c #26394A",
" &	c #1E4763",
".&	c #0F7AC6",
"+&	c #2C4C63",
"@&	c #2F4A5F",
"#&	c #21668F",
"$&	c #2F5169",
"%&	c #2C4255",
"&&	c #2A4050",
"*&	c #283D4E",
"=&	c #204763",
"-&	c #0F7CC6",
";&	c #303B44",
">&	c #216790",
",&	c #2A4152",
"'&	c #1F4763",
")&	c #0E7DC5",
"!&	c #2C4D64",
"~&	c #2F3B45",
"{&	c #2B4253",
"]&	c #304A5F",
"^&	c #22658F",
"/&	c #2F4759",
"(&	c #1F4864",
"_&	c #0D7EC7",
":&	c #2D4E65",
"<&	c #2B6386",
"[&	c #23648C",
"}&	c #1D445F",
"|&	c #127CBC",
"1&	c #2B4B62",
"2&	c #18252E",
"3&	c #36393C",
"4&	c #2F3A44",
"5&	c #2E4559",
"6&	c #2D475B",
"7&	c #2B6081",
"8&	c #266083",
"9&	c #2B4A60",
"0&	c #253A4A",
"a&	c #2A3F52",
"b&	c #1F3A4E",
"c&	c #2A5875",
"d&	c #253F53",
"e&	c #254A62",
"f&	c #224862",
"g&	c #1C3040",
"h&	c #263949",
"i&	c #253A49",
"j&	c #2C4759",
"k&	c #244055",
"l&	c #254F69",
"m&	c #243C4E",
"n&	c #2E3A43",
"o&	c #273E50",
"p&	c #25485E",
"q&	c #254962",
"r&	c #294458",
"s&	c #304758",
"t&	c #1D4561",
"u&	c #1B73A7",
"v&	c #28485F",
"w&	c #37393C",
"x&	c #293F51",
"y&	c #294356",
"z&	c #2A5F80",
"A&	c #255F83",
"B&	c #2C4960",
"C&	c #1D4764",
"D&	c #127BBD",
"E&	c #2A4B62",
"F&	c #2E3A45",
"G&	c #2C475B",
"H&	c #236289",
"I&	c #2E4D65",
"J&	c #1E4A67",
"K&	c #107CC4",
"L&	c #2A4A62",
"M&	c #293E4C",
"N&	c #2E3A46",
"O&	c #2C485D",
"P&	c #29668C",
"Q&	c #216590",
"R&	c #1E4866",
"S&	c #107BC4",
"T&	c #2D3A44",
"U&	c #29668A",
"V&	c #206792",
"W&	c #2D4F68",
"X&	c #304859",
"Y&	c #1E4A68",
"Z&	c #107BC3",
"`&	c #2A4961",
" *	c #37393B",
".*	c #2D3943",
"+*	c #2B475B",
"@*	c #1D4966",
"#*	c #1279BD",
"$*	c #2A485F",
"%*	c #2D3A45",
"&*	c #2B4559",
"**	c #296386",
"=*	c #236489",
"-*	c #2D4F67",
";*	c #2B4252",
">*	c #1579B5",
",*	c #29485E",
"'*	c #2B4558",
")*	c #296082",
"!*	c #256083",
"~*	c #2A3D4C",
"{*	c #263B4C",
"]*	c #1D2F3B",
"^*	c #1A384C",
"/*	c #21526E",
"(*	c #253E51",
"_*	c #2C3842",
":*	c #214962",
"<*	c #204962",
"[*	c #2B4457",
"}*	c #1A2A37",
"|*	c #1A3040",
"1*	c #2C3742",
"2*	c #1D303F",
"3*	c #1C2E3D",
"4*	c #263845",
"5*	c #17232E",
"6*	c #2C3944",
"7*	c #253A48",
"8*	c #38393B",
"9*	c #2D3B45",
"0*	c #15212A",
"a*	c #37393A",
"b*	c #2B3944",
"c*	c #152029",
"d*	c #1F303B",
"e*	c #213442",
"f*	c #213340",
"g*	c #273C4A",
"h*	c #273A48",
"i*	c #38393A",
"j*	c #2C3945",
"k*	c #20313F",
"l*	c #172B39",
"m*	c #182833",
"n*	c #2B3844",
"o*	c #172936",
"p*	c #213647",
"q*	c #253845",
"r*	c #284155",
"s*	c #1B3F56",
"t*	c #255A77",
"u*	c #1F394B",
"v*	c #273B49",
"w*	c #293F4E",
"x*	c #2A3843",
"y*	c #223746",
"z*	c #285773",
"A*	c #1B445D",
"B*	c #223E53",
"C*	c #294357",
"D*	c #1D4159",
"E*	c #1973A8",
"F*	c #24648A",
"G*	c #2B495F",
"H*	c #293642",
"I*	c #275471",
"J*	c #0F7DC0",
"K*	c #1E4964",
"L*	c #264257",
"M*	c #294153",
"N*	c #1D3F56",
"O*	c #1C6F9F",
"P*	c #1E6D9C",
"Q*	c #2D536D",
"R*	c #293743",
"S*	c #304D64",
"T*	c #285E81",
"U*	c #0980C9",
"V*	c #1E4863",
"W*	c #264055",
"X*	c #273C4D",
"Y*	c #1B3648",
"Z*	c #1A72A5",
"`*	c #2D5570",
" =	c #192833",
".=	c #2A3844",
"+=	c #24638A",
"@=	c #147AB2",
"#=	c #1C3E54",
"$=	c #273C4B",
"%=	c #1A3141",
"&=	c #1D3B4F",
"*=	c #285D7C",
"==	c #2B536D",
"-=	c #293844",
";=	c #2F4D65",
">=	c #285A78",
",=	c #1F425A",
"'=	c #1A3346",
")=	c #253C4E",
"!=	c #1B394F",
"~=	c #275876",
"{=	c #285A77",
"]=	c #2A4C62",
"^=	c #293845",
"/=	c #2D4A60",
"(=	c #224D68",
"_=	c #206A96",
":=	c #1C4057",
"<=	c #253F52",
"[=	c #253946",
"}=	c #263B4A",
"|=	c #1D3C53",
"1=	c #275777",
"2=	c #127DBD",
"3=	c #2C4E65",
"4=	c #1971A8",
"5=	c #216692",
"6=	c #1B3E56",
"7=	c #263E51",
"8=	c #283E51",
"9=	c #1E3D54",
"0=	c #265474",
"a=	c #2D5774",
"b=	c #2B465B",
"c=	c #182630",
"d=	c #21323E",
"e=	c #383939",
"f=	c #263641",
"g=	c #2C4559",
"h=	c #2E526D",
"i=	c #1474B3",
"j=	c #236189",
"k=	c #1B3D56",
"l=	c #263C4F",
"m=	c #283F50",
"n=	c #1D3C54",
"o=	c #234E6C",
"p=	c #0782D3",
"q=	c #2B5B7B",
"r=	c #2C485E",
"s=	c #15222A",
"t=	c #263440",
"u=	c #141F27",
"v=	c #2C4458",
"w=	c #2D5470",
"x=	c #0E7ABF",
"y=	c #265B7D",
"z=	c #1A3A4F",
"A=	c #243A4B",
"B=	c #243948",
"C=	c #1E3B50",
"D=	c #1F4C6A",
"E=	c #0382DA",
"F=	c #2A5C7E",
"G=	c #2C4A60",
"H=	c #24323F",
"I=	c #233642",
"J=	c #141E26",
"K=	c #0E7CC3",
"L=	c #275676",
"M=	c #193549",
"N=	c #25394B",
"O=	c #1E3241",
"P=	c #193950",
"Q=	c #295F82",
"R=	c #2C4A62",
"S=	c #1E2E39",
"T=	c #1C2933",
"U=	c #151F27",
"V=	c #2B5471",
"W=	c #1A2C3A",
"X=	c #213341",
"Y=	c #253A4B",
"Z=	c #162936",
"`=	c #1A3447",
" -	c #2B516C",
".-	c #2D4B61",
"+-	c #1C2C37",
"@-	c #333537",
"#-	c #282D32",
"$-	c #284F69",
"%-	c #1E4256",
"&-	c #162733",
"*-	c #162835",
"=-	c #283C4A",
"--	c #101C25",
";-	c #141D26",
">-	c #353738",
",-	c #252E35",
"'-	c #24394A",
")-	c #1A2D3A",
"!-	c #172430",
"~-	c #213342",
"{-	c #223443",
"]-	c #203340",
"^-	c #16242E",
"/-	c #182732",
"(-	c #152531",
"_-	c #122C3E",
":-	c #103C55",
"<-	c #383839",
"[-	c #212F3A",
"}-	c #2E4556",
"|-	c #2B4354",
"1-	c #17252F",
"2-	c #273D4C",
"3-	c #1C303D",
"4-	c #162C3B",
"5-	c #124361",
"6-	c #11688D",
"7-	c #103447",
"8-	c #35383A",
"9-	c #29343E",
"0-	c #1A2933",
"a-	c #1B3140",
"b-	c #153143",
"c-	c #134B6C",
"d-	c #0B729B",
"e-	c #10394F",
"f-	c #35383B",
"g-	c #293640",
"h-	c #2C4558",
"i-	c #273D4E",
"j-	c #213645",
"k-	c #245570",
"l-	c #27455C",
"m-	c #263C4D",
"n-	c #163449",
"o-	c #144D6E",
"p-	c #0A749E",
"q-	c #103B52",
"r-	c #283641",
"s-	c #284255",
"t-	c #263F52",
"u-	c #205371",
"v-	c #233B4D",
"w-	c #233B4C",
"x-	c #127CA8",
"y-	c #274F6C",
"z-	c #263D4F",
"A-	c #153449",
"B-	c #154D6F",
"C-	c #0774A3",
"D-	c #103B53",
"E-	c #29495F",
"F-	c #0E7BAD",
"G-	c #234358",
"H-	c #1B2B37",
"I-	c #243E4F",
"J-	c #0A84B7",
"K-	c #28516F",
"L-	c #273E51",
"M-	c #294051",
"N-	c #1B303F",
"O-	c #153247",
"P-	c #144C6E",
"Q-	c #0675A5",
"R-	c #0F3A52",
"S-	c #284256",
"T-	c #283E4D",
"U-	c #2A4B61",
"V-	c #0783B8",
"W-	c #24455B",
"X-	c #0E81B0",
"Y-	c #28506C",
"Z-	c #153347",
"`-	c #144C6D",
" ;	c #0973A0",
".;	c #28343F",
"+;	c #274053",
"@;	c #2A495F",
"#;	c #0C7EAC",
"$;	c #283A48",
"%;	c #233848",
"&;	c #275E7C",
"*;	c #29475D",
"=;	c #1C3141",
"-;	c #153043",
";;	c #144A6B",
">;	c #0975A1",
",;	c #103B51",
"';	c #284154",
");	c #275B77",
"!;	c #243C4F",
"~;	c #263F51",
"{;	c #1D3241",
"];	c #152D3D",
"^;	c #144764",
"/;	c #0D7299",
"(;	c #11384D",
"_;	c #35373A",
":;	c #28323C",
"<;	c #283F51",
"[;	c #273F51",
"};	c #16222D",
"|;	c #15364A",
"1;	c #124D69",
"2;	c #212F3B",
"3;	c #1B2D3A",
"4;	c #172A3A",
"5;	c #2D373F",
"6;	c #1E2C37",
"7;	c #1C2D39",
"8;	c #2F3439",
"9;	c #333639",
"0;	c #1E3749",
"a;	c #27526E",
"b;	c #27455B",
"c;	c #2F363C",
"d;	c #204A63",
"e;	c #214A60",
"f;	c #1B2E3C",
"g;	c #263847",
"h;	c #2E4759",
"i;	c #224259",
"j;	c #0880D0",
"k;	c #285C7E",
"l;	c #254259",
"m;	c #33363A",
"n;	c #2E343A",
"o;	c #24526F",
"p;	c #088ACD",
"q;	c #254E68",
"r;	c #2A4254",
"s;	c #2F4C62",
"t;	c #285372",
"u;	c #008AE3",
"v;	c #275675",
"w;	c #254156",
"x;	c #2E3439",
"y;	c #283F53",
"z;	c #244E69",
"A;	c #0683D2",
"B;	c #276083",
"C;	c #2F5168",
"D;	c #295979",
"E;	c #0087E2",
"F;	c #265270",
"G;	c #253F54",
"H;	c #17252E",
"I;	c #33373A",
"J;	c #2E353B",
"K;	c #273D4F",
"L;	c #254A63",
"M;	c #0A7ECC",
"N;	c #216997",
"O;	c #294E68",
"P;	c #2B4356",
"Q;	c #2B4E66",
"R;	c #266088",
"S;	c #0188DB",
"T;	c #25516E",
"U;	c #263F53",
"V;	c #34373B",
"W;	c #2F353C",
"X;	c #1479B7",
"Y;	c #1B71A7",
"Z;	c #284E68",
"`;	c #2D475C",
" >	c #2B4F67",
".>	c #236692",
"+>	c #117EBB",
"@>	c #234C66",
"#>	c #274052",
"$>	c #34373A",
"%>	c #2E353C",
"&>	c #26475D",
"*>	c #1D6F9E",
"=>	c #1577B4",
"->	c #28506B",
";>	c #2D485D",
">>	c #213441",
",>	c #223342",
"'>	c #2D485B",
")>	c #2B4F68",
"!>	c #226994",
"~>	c #256487",
"{>	c #213E51",
"]>	c #2B3F4E",
"^>	c #213A4C",
"/>	c #205571",
"(>	c #137AB1",
"_>	c #274F69",
":>	c #304D63",
"<>	c #2E495D",
"[>	c #27465C",
"}>	c #224358",
"|>	c #224A66",
"1>	c #234258",
"2>	c #1B2B35",
"3>	c #264256",
"4>	c #1E4B64",
"5>	c #204157",
"6>	c #24465C",
"7>	c #2E4C61",
"8>	c #244155",
"9>	c #0C7EC5",
"0>	c #23648E",
"a>	c #24435A",
"b>	c #16212A",
"c>	c #34383B",
"d>	c #2E363C",
"e>	c #274357",
"f>	c #235572",
"g>	c #0886C7",
"h>	c #23475E",
"i>	c #2F4B60",
"j>	c #26516F",
"k>	c #0083DD",
"l>	c #265C82",
"m>	c #234157",
"n>	c #152129",
"o>	c #2D353C",
"p>	c #264054",
"q>	c #224F6C",
"r>	c #0588D4",
"s>	c #265471",
"t>	c #2F4D63",
"u>	c #0181DA",
"v>	c #255372",
"w>	c #0882CF",
"x>	c #27597A",
"y>	c #2C4C64",
"z>	c #2E516A",
"A>	c #245170",
"B>	c #1774AD",
"C>	c #1E3C51",
"D>	c #2D343B",
"E>	c #1E3546",
"F>	c #206A99",
"G>	c #294D66",
"H>	c #1D2D38",
"I>	c #2A485C",
"J>	c #203E52",
"K>	c #192A38",
"L>	c #172733",
"M>	c #1F3C4F",
"N>	c #28455A",
"O>	c #1F313E",
"P>	c #2C353B",
"Q>	c #2C333B",
"R>	c #213241",
"S>	c #343739",
"T>	c #2C333A",
"U>	c #15222D",
"V>	c #1D2E3A",
"W>	c #182834",
"X>	c #1E2F3C",
"Y>	c #353739",
"Z>	c #182632",
"`>	c #162D3D",
" ,	c #17455B",
".,	c #1D3342",
"+,	c #18384B",
"@,	c #16394E",
"#,	c #23394A",
"$,	c #163E57",
"%,	c #1A7198",
"&,	c #204054",
"*,	c #2B3239",
"=,	c #253D4F",
"-,	c #255673",
";,	c #1F5978",
">,	c #244257",
",,	c #17425D",
"',	c #147AAD",
"),	c #204359",
"!,	c #295D7D",
"~,	c #235E7F",
"{,	c #25455B",
"],	c #184461",
"^,	c #107CB7",
"/,	c #22445B",
"(,	c #2A3239",
"_,	c #2A5E7F",
":,	c #225F82",
"<,	c #18435F",
"[,	c #107CB8",
"},	c #21445B",
"|,	c #2A323A",
"1,	c #2A5F7F",
"2,	c #235F83",
"3,	c #24445B",
"4,	c #18425E",
"5,	c #0F7DBB",
"6,	c #21445C",
"7,	c #14212B",
"8,	c #243F53",
"9,	c #295F7F",
"0,	c #236084",
"a,	c #20323F",
"b,	c #17415D",
"c,	c #117CB9",
"d,	c #243E52",
"e,	c #2A5F7E",
"f,	c #226084",
"g,	c #25394A",
"h,	c #17405B",
"i,	c #147AB1",
"j,	c #204257",
"k,	c #293138",
"l,	c #223C4E",
"m,	c #2A5E7C",
"n,	c #234359",
"o,	c #173D57",
"p,	c #1677AA",
"q,	c #204155",
"r,	c #2A3139",
"s,	c #2A5C79",
"t,	c #255D7D",
"u,	c #214055",
"v,	c #1D2F3D",
"w,	c #17354A",
"x,	c #21607E",
"y,	c #1D394C",
"z,	c #293139",
"A,	c #203646",
"B,	c #204F6A",
"C,	c #1E506B",
"D,	c #1A3345",
"E,	c #182D3B",
"F,	c #1F3E52",
"G,	c #1C2F3D",
"H,	c #1F3340",
"I,	c #1E384B",
"J,	c #1F394D",
"K,	c #1A2B39",
"L,	c #202F3D",
"M,	c #1A3F57",
"N,	c #1C6A8D",
"O,	c #1D3C4F",
"P,	c #293038",
"Q,	c #21394A",
"R,	c #23536F",
"S,	c #1F5471",
"T,	c #27455A",
"U,	c #153F59",
"V,	c #1578A7",
"W,	c #1F4055",
"X,	c #283038",
"Y,	c #2A5C7A",
"Z,	c #225978",
"`,	c #224258",
" '	c #263A4B",
".'	c #16415C",
"+'	c #137AB0",
"@'	c #363739",
"#'	c #233C4E",
"$'	c #2A5E7E",
"%'	c #235A7A",
"&'	c #253849",
"*'	c #127BB1",
"='	c #223B4D",
"-'	c #225B7C",
";'	c #234257",
">'	c #17425E",
",'	c #117CB4",
"''	c #20445A",
")'	c #273037",
"!'	c #2B5F7F",
"~'	c #235D7E",
"{'	c #107DB7",
"]'	c #272F37",
"^'	c #223A4C",
"/'	c #245C7E",
"('	c #244359",
"_'	c #107DB9",
":'	c #20435A",
"<'	c #223C4D",
"['	c #24445A",
"}'	c #192730",
"|'	c #17405C",
"1'	c #363738",
"2'	c #272F36",
"3'	c #111C23",
"4'	c #233C4D",
"5'	c #2B607F",
"6'	c #235C7F",
"7'	c #163F5B",
"8'	c #127AB7",
"9'	c #204258",
"0'	c #262E35",
"a'	c #235B7E",
"b'	c #224157",
"c'	c #152028",
"d'	c #1B2832",
"e'	c #18232C",
"f'	c #153E59",
"g'	c #1379AF",
"h'	c #1E4156",
"i'	c #225C7E",
"j'	c #17222B",
"k'	c #17232C",
"l'	c #19252E",
"m'	c #142129",
"n'	c #143D57",
"o'	c #1279A9",
"p'	c #1D4056",
"q'	c #242C33",
"r'	c #223A4B",
"s'	c #2B5E7B",
"t'	c #225B7D",
"u'	c #223F54",
"v'	c #162129",
"w'	c #19262F",
"x'	c #273946",
"y'	c #133A51",
"z'	c #167198",
"A'	c #1C3D51",
"B'	c #232B32",
"C'	c #21384A",
"D'	c #205978",
"E'	c #213C4F",
"F'	c #293B49",
"G'	c #142B3C",
"H'	c #184057",
"I'	c #1B2E3D",
"J'	c #17384E",
"K'	c #294050",
"L'	c #1F2E3C",
"M'	c #243848",
"N'	c #253C4C",
"O'	c #142430",
"P'	c #232C33",
"Q'	c #172835",
"R'	c #1F3749",
"S'	c #182F3E",
"T'	c #263D4E",
"U'	c #263D4D",
"V'	c #233846",
"W'	c #111F2A",
"X'	c #0F1A23",
"Y'	c #242C34",
"Z'	c #1B2A37",
"`'	c #131F29",
" )	c #15232D",
".)	c #12202A",
"+)	c #111C25",
"@)	c #373738",
"#)	c #232B34",
"$)	c #14212A",
"%)	c #111D25",
"&)	c #232B33",
"*)	c #22313F",
"=)	c #222B33",
"-)	c #373838",
";)	c #16232E",
">)	c #222A32",
",)	c #202A32",
"')	c #21303F",
"))	c #23333F",
"!)	c #202931",
"~)	c #1F272E",
"{)	c #202E3B",
"])	c #111C24",
"^)	c #0E181F",
"/)	c #0F1820",
"()	c #0F1920",
"_)	c #101920",
":)	c #101A20",
"<)	c #0E161C",
"[)	c #0F171F",
"})	c #0F1921",
"|)	c #111E28",
"1)	c #1E262D",
"2)	c #121F28",
"3)	c #111C26",
"4)	c #0D161E",
"5)	c #101A21",
"6)	c #101B23",
"7)	c #101B22",
"8)	c #0D181F",
"9)	c #141F29",
"0)	c #131E28",
"a)	c #132029",
"b)	c #13222D",
"c)	c #132939",
"d)	c #162530",
"e)	c #1B2229",
"f)	c #142938",
"g)	c #132431",
"h)	c #14222C",
"i)	c #13212A",
"j)	c #132028",
"k)	c #121D27",
"l)	c #25323D",
"m)	c #2B3E4D",
"n)	c #273746",
"o)	c #253644",
"p)	c #24343F",
"q)	c #24333F",
"r)	c #24313E",
"s)	c #253440",
"t)	c #23313D",
"u)	c #23313C",
"v)	c #22303C",
"w)	c #23303C",
"x)	c #23313E",
"y)	c #243440",
"z)	c #283845",
"A)	c #253441",
"B)	c #24313F",
"C)	c #263442",
"D)	c #283744",
"E)	c #273643",
"F)	c #263542",
"G)	c #253542",
"H)	c #263643",
"I)	c #263543",
"J)	c #23323E",
"K)	c #25343F",
"L)	c #242F38",
"M)	c #273543",
"N)	c #253541",
"O)	c #243441",
"P)	c #253442",
"Q)	c #25333F",
"R)	c #222F3B",
"S)	c #212C39",
"T)	c #232F3B",
"  . . + @ #     @ $ @ # @ % & * & = - # * = = = ; = > > > , , ' = ) ! ' ; ; = = , ; = ; ) ! ~ ! ! ! { ] ^ ^ / ( _ : : : : : : : : : : : : : : : : : : : _ < ! ! ^ ^ ^ [ ^ ] } ) ! ! | ! ) = = 1 = ! = = = = , = = = = ; = = = = = 2 * * % 3 * 2 - - * # -     4   5 #   ",
"6 7 8 9 0 a 8 a b b c d b e f d g h g i j k l l m n l k k n n n g o p p n n l n q r s m s t u t u v w x w y z A B : : : : : : : : : : : : : : : : : : : B C D E y z F x v v p m u D u n l l o h n D s q n l m G G n q p n G H H I J K L d d d L i g g d b f a 6 8 a M M ",
"N O O N P O Q O R R S S T O O P U U V V V U U W X X Y Y Y X Z X ` U  ...X X +.Z  ... .@.#.$.%.&.%.*.=.-.;.>.>.,.'.: : : : : : : : : : : : : : : : : : : ).!.~.{.].=.~.~.^.%./. .$.&.$.(.(. . . ._.@. .X X Y :.Y (.X  . .(.<.Z Z [.}.U U V ` S ` |.U |.S R S S O 1.O R R ",
"2.3.4.5.3.4.3.3.6.6.7.6.3.4.5.3.8.8.7.8.8.8.9.0.a.a.8.a.a.a.a.b.9.c.d.b.d.d.d.b.b.d.a.a.a.d.d.e.b.f.g.h.i.j.k.l.m.: : : : : : : : : : : : : : : : : : : n.o.p.q.r.s.t.u.u.u.e.d.e.u.u.d.b.b.b.b.u.v.d.a.d.8.c.a.d.d.e.e.d.a.d.d.a.a.a.a.a.c.7.7.a.a.c.7.6.7.7.3.3.2.5.3.",
"w.x.y.z.w.y.A.w.w.w.w.w.w.w.B.C.D.w.C.w.w.E.F.C.y.y.A.D.w.A.w.B.w.A.w.E.B.G.w.C.w.A.H.I.u.v.I.J.w.w.K.L.M.N.O.,.P.: : : : : : : : : : : : : : : : : : : Q.R.S.=.T.U.V.W.A.A.y.I.I.W.w.E.F.X.Y.G.E.Y.F.C.w.C.w.C.Z.Y.E.C.C.C.B.`. + +F.Y.B.G.w.C.C.w.D..+w.D.D.A.x.x.H.++",
"@+#+$+$+%+&+&+&+*+*+@+*+o.o.o.k.=+=+=+p.p.-+;+>+>+>+,+'+'+'+)+)+>+>+!+P P S ~+[.{+~+U $.^.>.]+^+>./+(+_+{.I :+<+[+: : : : : : : : : : : : : : : : : : : }+|+1+(+2+3+4+5+6+7+8+=.>.{+Z @.@. ...Z 9+Z O ,+0+,+)+a+'+P b+!+c+>+-+>+>+>+j.d+p.d+p.-+=+@+%+q.=+=+@+@+%+&+e+&+",
"{.$.Z Z f+g+f+h+@.@.Z +. .@. .[.` ` ` i+[.Z h+j+%.%.{.%./+%.j+j+Z Z %.=.=.=.>.k+4+8+>.l+I m+n+:+o+:+p+q+r+s+t+u+v+: : : : : : : : : : : : : : : : : : : w+x+y+z+].A+B+C+D+E+n+F+1+G+H+G+^+I+J+>.=.>./+g+{.{.K+5+5+L+K+/+j+..Z M.M+M.i+[.M+{.K+{.h+Z h+j+j+j+h+..Z Z Z Z ",
">.=.N+*.*.{.*.5+5+%...Z ..f+O+n+E+P+E+Q+R+o+B+S+T+U+V+W+X+W+Q+U+Q+U+Y+Z+`+ @.@+@@@#@$@$.m+%@&@y+Q+T+*@=@S.%@-@O+;@: : : : : : : : : : : : : : : : : : : >@n+&@,@'@W+U+S+)@!@~@y+>.;.{@]@+@^@`+/@(@_@T+U+V+:@V+_@S+T+<@[@B+D+Q+}@C+<@<@|@o+E+4+%.{.j+j+h+h+g+%.{.j+j+@.@.",
"1@2@L 3@4@e d d 2@l+5@4@6@5@N+m E+E+n+o+y+t+Q+W+W+Q+7@W+8@p+Q+9@Q+Q+)@0@0@0@.@a@b@c@d@e@:+t+f@:+t+g@h@i@l+j@k@l@m@: : : : : : : : : : : : : : : : : : : n@o@k@p@q@h@*@r@p+o+p+Q+s@|+'@:+t@.@:@r@u@v@T+w@_@0@:@*@u@W+Q+B+}@}@~@t+x@Q+<@D+E J+6@1@d@y@N.'@R.z@A@e l+d 6@6@",
"F+B@C@1@1@F+m+m+m+D@C@F+I C@N.$.|@}@t+D+D+D+Q+E@r@V+_@0@_@r@F@)@W+G@_@+@ @H@H@I@J@K@L@M@s+&@&@%@j@N@O@P@A@-@Q@R@S@: : : : : : : : : : : : : : : : : : : T@f@p+Q@U@V@O@h@W@:+X@k@Y@C@Z@s+`@V@ #.#:@:@_@u@0@+#0@.@0@@#u@p+Q@p+Q+9@k@W+W+:@J+6+m+:+##2@O.5@$#2@I F+C@F+F+C@",
"n+I I D@D@##n+n+##n+##m+n+##l+-.%#&#t+Q+Q+D+*#:@+#.@=#-#O@.@O@@#@#r@O@ @;#I@`@;#J@>#>+M@z+9@k@,#'#)@`@p@A@k@u@J S@: : : : : : : : : : : : : : : : : : : )#~@*#k@!#O@~#=#,#%@*@~@R.L+{#z+]#g@.@;#.@^#.@:@ @.@+#/#;#I@.@:@(#_@v@p+k@)@V+_#G+A@s+t+:+:#2@<#[#L }#m+m+m+F+F+",
"o@n+s+:+:+1+1+n+##s+:+s+s+##L R.|#1#Q+T+*#Q+w@_@2#3#4#3#-#;#I@.@.@.@.@^#3#3#5#6#7#8#i+9#0#k@Q@k@k@a#O@P@1@p+)@J b#: : : : : : : : : : : : : : : : : : : c#k@)@k@d#O@`@_@p+p+=#-@$#'@e#j@;#0@I@~#;#/#/#f#3#.@.@g#g#4#3#;#^#.@+#_@p+T+_@h#^+2@:+o+i#}#j#9###F+k#n+n+s+n+##",
":+####s+:+n+##1+n+n+s+:+l#n+C@s@^@m#W+)@_@_@:@.@.@/#g#3#-#;#n#;#;#-#I@~#3#n#o#p#q#r#2+##m+k@g@r@Q@)@H@p@F+s#)@H t#: : : : : : : : : : : : : : : : : : : u#k@F@p+v#h@g@*@Q@)@+#Q+2@Y@w#t+n#x#y#I@n#z#g#A#B#I@.@3#C#D#B#4#4#/# @r@*#)@:@E#F#L G#G###n+####n+m+k#:+n+n+H#s+",
"s+D@D@##:+:+n+n+I#####s+o+&@k#4@J#+@W+_@+#.@3#a@/#/#3#;#r@.@;#g#5#-#;#5#n#o#n#K#L#M#N#D@L ~@g@V@g@@#O@,@L O#F@E P#: : : : : : : : : : : : : : : : : : : Q#p+F@k@R#S#b@p@b@V@O@T#q+5@#@%@5#3#H@U#C#V#4#W#X#o#I@5#n#C#D#D#g#g#3#_@*#T+:@Y#3@I :+s+s+Z#C@Z#F+`###s+n+o@s+n+",
":+m+D@ $o@o+E+:+:+H#m+x+}@D+y+6@.$(@*#W+(#0@^#3#^@3#3# #F@b@V@3#;#`@3#n#-#x#o#+$@$#$N#Z#2@!@a#=#F@g@g@W@A@b@g@E $$: : : : : : : : : : : : : : : : : : : %$W+@#&$].p@p@,@g@`@0@D+*$5@#@t+g#V#I@I@o#4#W#4#D#a@`@`@.@/#n#n#o#C#/#g@Q@*#0@=$d n+o+t+o+y+######Z#9#s+:+:+:+H#",
"|+C@C@F+:+o+y+}@t+-$:+:+t+t+s+7 `+2#;$k@p+Q@g@ @^#^#/#0@u@g@O@;# @-#5#n#;#5#>$p#,$M#f+'$)$!@X@r@H@g@b@j@A@*@a#r P#: : : : : : : : : : : : : : : : : : : u#u@_@-@!$~$p@{$O@O@F@-@]$L@'@&@C#C#6#o#n#o#4#.@/#3#O@ @O@.@^#;#-#I@-#V@*#Q@0@^$2@:+Q+A+}@t+o+G#D@i#s+o+:+:+s+s+",
"L F+C@m+:+o+y+}@}@t+t+y+i#n+m+4@(@r@Q+-@9@9@-@{$.@`+ @.@r@g@0@ @0@`@-#;#/$V#6#o#y#($g+_$L W@X@O@I@.@@#:$6@Q@)@D <$: : : : : : : : : : : : : : : : : : : [$)@{$}$|$S#b@g@O@@#(#k@<#e@v#!@n#D#g#4#5#5#;#.@4#a@+#O@ #V@.#.@O@1$.@`@a#*#g@2$A@:+D+T#Q+-@}@:+i#y+o+t+t+y+y+s+",
"C@s+n+o+t+y+y+o+}@t+}@y+i# $|+F#3$(@-@!@y+L+0+4$[.[.U ` P P S ` ` [.@.1@`@o#;#n#@$5$3@s+C@k@b@6$ #;#H@&$4$L 9@D 7$: : : : : : : : : : : : : : : : : : : 8$X@-@Z 9$O@V@V@F@)@*@k@Z###0$}@>$g#g#5#D+L+Z M.Z Z ` 4$4$a$[.[.i+~+f+)@)@y+*#4#3@b$-@;$k@t+o+o@y+D+}@D+t+o+o+:+",
"##o+y+D+}@}@y+~@}@x@}@&@:+ $m+A@K G+g+g+g+g+8+>.c${.c$N+c$d$L+>.r+;.l+;.:@/#5#5#e$f$g$h$z+g@V@O@O@`@H@W@i$` 9@-$7$: : : : : : : : : : : : : : : : : : : [$p+A@4$j$]#O@V@a#T#)@Q@k$l$m$;#3#3#n#o#G+S.R.d$n$4+c$c$o$].d$8+6+p$].R.;.q$J+F+2@o+k@p+Q+-@D+}@}@|@D+Q+}@o+:+s+",
"n+o+o+y+s+o+&@}@B+E+E+t+:+s+m+C@m#o@##d@^+p$H+r$A@R.J+R.R.8+O.I+N.1@s$r _@.@;#t$n#u$v$w$x$b@V@=#H@=#g@y$z$f+9@E+7$: : : : : : : : : : : : : : : : : : : A$D+s+B$C$H@@#b@a#p+a#D$E$F$G$H$4#I@`@/#I$S+|+;.6+R.I+F#;.-.^+A@|@7+6+2@L n+C+(@:+%@9@Q@;$D+Q+D+Q+}@x@x@t+y+:+s+",
"n+E+s+s+m+n+-$D+}@}@t+-@:+s+j#5@1#:+}#C@7 S.J$K$5@d L$M$_.N$O$X J$=.y+##_@y#y#6$5#P$Q$R$S$T$b@g@a#a#p@U$B$f+-@s$$$: : : : : : : : : : : : : : : : : : : 8$-@%@q$V$(#b@p@Q@p@g@W$X$Y$Z$5#O@@#t$/#2@;$4+J$}.H+K$_.`$X 5@2@I$^+F#B@m+H#C+_@D@o+~@Q@Q+Q+Q+Q+D+o+o+o@:+s+n+k#",
"G#G#n+s+ $n+o+D+k@~@}@D+!@s+9#5@(@t+b$A@ %I$S..%>.B@=.L$+%@%#%$%#.%%-@C@u@O@y#h@]#&%*%=%-%a#u@Q@k@)@k@;%z$Z D+B+$$: : : : : : : : : : : : : : : : : : : >%k@o+q$h+@#S#a#Q@T$@#,%'%)%!%~%h@h@H@o#A@Q+(+ %H+=.`$7+_.J$S.F#J$1@1@H+0 :+o+:@I y+&$p+9@Q+p+Q+k@t+|@o+s+##n+:+",
":+y+y+:+y+:+&@y+-@-@k@D+Q+-@s+(+^@Q+s+}#B@H+I${%]%6+F#I+^%/%H+(%/%5+G###w@H@t$h@H@&%_%:%<%p@)@X@X@Q@Q@[%z${+[@}%|%: : : : : : : : : : : : : : : : : : : 1%k@o+d$@.g@@#g@S#g@g@@$2%3%4%q#5%h@]#6%2@p+8+7%c$G+O+K$8%]+2@R.I n+8%I$y+:+;$(@m+%@D+k@k@k@Q+;$W+p+A+}@o@##n+t+",
":+:+:+o+o+n+y+:+y+y+t+k@k@9@y+2@.$Q+s+s+G#B@>.A@9%J$A@k#Q+0%S+:@U+y+9@s+w@H@t$6$t$a%b%c%d%a#b@p@,@Q@*#s+z$}.B+s$e%: : : : : : : : : : : : : : : : : : : f%D+y+K+Z N@@#g@{$@#V@,%g%h%i%q#6$6$H@;#L w@t+9@&$Q+A+C+t+k#7 n+s+0 l+t+y+y+W++@m+s+-@k@k@k@k@k@;$D+T+;$t+y+o+o+",
"-$o+&@Q+t+n+y+~@D+&@o+j%j@~@%@2@Z+A+!@y+y+-@1@##I#`#[#j%Q@Q@Q@*@b@,@,@9#T+I@I@y#L#k%l%m%n%g@V@a#p@p@9@s+z$` }@C+e%: : : : : : : : : : : : : : : : : : : o%k@y+{.Z N@h@h@b@g@O@@$p%q%r%q#H@6$L#^#5@9@)@s%p@W+{$*#k@-@2@y+~@n+k@,#-@~@p@t%C@##!@&@-@&$D+D+t+s+Q+~@o+o+t+C+",
"s+:+}@9@9@y+%@~@&$&@y+y+j@j@y+C@+@W+t+-@-@Q+9@G#s+##_$-@Q@)@*#X@T$,@9@:#u@O@`@1$t$u%_%v%n%=#0@@#{$9@9@s+h+4$o+x@e%: : : : : : : : : : : : : : : : : : : o%Q+y+{.Z N@b@b@p@b@]#w%x%y%z%5#A%6$V@.#2@p@a#b@p@{${$F@9@-@L t+&$k@p+k@}$9@F@+#m+[%j@-@-@B%&$-@!@y+t+-@y+:+t+E+",
" $b$}@9@;$k@&@&$&$}$[%%@%@[%[%i#n+Q+k@,@Q@)@b@9@~@%@##k@)@S#(#b@p@C%C%D%Q+F@r@(#H@E%F%G%H% #.@r@g@a#s%G#j+~+o+o+I%: : : : : : : : : : : : : : : : : : : J%@@K%L% .N@a#b@b@O@y#M%N%O%P%5#U#6$6$I@2@p@@#@#g@g@a#a#9@k@C@k@k@k@p+Q@&$k@)@t+9#!@-@-@j@j@j@&$-@t+-@o+%@o+o+o@",
"D@##y+%@~@9@!@[%[%j@-@9@&$;%z+}#y@9@-@k@Q@p@p@a#*@-@:#9@Q@s%S#Q%T$W@,#<#Q+a#s#=#H@R%F%S%T%V@`@.@V@@#a#!@g+` o+E+e%: : : : : : : : : : : : : : : : : : : U%9@G#g+_.N@g@g@V@6$6$,%V%W%X%5#~%Y%6$^#$#p@@#h@@#N@a#Q@p+k@F+9@Q+Q@)@)@k@p+T+6@3+j@Z%&@!@j@-@-@&$%@%@n+s+s+s+n+",
"L :###z+[%j@!@s+y+}$,#&@9@[%j#z+C@p+-@j%9@Q@Q@b@g@,#`%k@Q@Q@T$p@T$W@W@3@-@)@s#O#O@C# &.&+&h@O@O@0@N@Q@y+j+S t+o+e%: : : : : : : : : : : : : : : : : : : U%k@n+j+Z P@s%s%@#6$L#@&V%#&$&U#h@b@h@^#)$%&6$6$g@p@p@p+k@-@m+p+Q@p@)@p+&$k@u@Z#Z%!@[%}$!@j@&@j@C%!@s+Z#F+m+D@m+",
"C@C@9#3+G#&@}$Z%j@j%}$'#&&[%j#*&z+p+-@-@9@Q@g@r@0@&$j#,#Q@p@T$,@,@C%W@<#o+X@)@)@V@g#=&-&+&@#0@+#r@{$p@y+j+4$t+t+|%: : : : : : : : : : : : : : : : : : : ;&&$i#h+9+p+,@,@g@O@t$M%V%>&$&U#Y%h@V@^#2@a#y#6$@#p@P@9@W@'#I#~@k@p@)@9@-@-@u@j#[%[%!@*&*&j@,#,#j@j@i#C@'$####I ",
"C@####z+y+~@!@[%!@!@!@j%j@G#0#*&z+Q+D+&$Q@Q@{$@#V@9@j#&$Q@P@P@P@,&C%C%2@~@Q@,@,@V@g#'&)&!&1$+#0@*@b@p@o@j+` t+t+|%: : : : : : : : : : : : : : : : : : : ~&k@1+h+}.{&9@k@b@h@H@]&x%^&4%I@b@@#6$;#1@{$V@/&6$Y%P@,@W@,#_$j@,@p+a#9@,#9@)@:#s+!@&$'#%@j@%@!@j@&$s+m+n+s+n+F+",
"1@m+9###G#-@-@}$j@!@!@j@%@%@z+j@[%U+D+&$p+p@)@*@g@9@0#C%&$C%,@Q@,@W@W@<#k@Q@,#9@r@o#(&_&:&V@:@r@{$p@{&G#j+` }@t+e%: : : : : : : : : : : : : : : : : : : = D+n+h+[.9@9@W@a#@#O@W$<&[&!%t$S#@#O@/#2@{$O@ #@#b@,@W@&$,#Z#-@,@,@b@9@'#W@X+9#[%G#-@j@,#&$[%[%-@p+y+i# $n+m+|+",
"L Z#k#s+s+G#z+j@!@j@j@j@j@'#!@[%z+Q+-@&$k@p+{$g@g@9@0#!@W@{&@@Q@,@,&j@$#-@p+9@N@=#h@}&|&1&Y%g@F@)@)@,@i#j+2&-@E+3&: : : : : : : : : : : : : : : : : : : 4&-@m+f+Z p@W@,#)@g@5&6&7&8&9&O@V@g@H@/#A@a#r@V@V@{$P@,&-@'#L j%W@9@)@W@j@'#W+i#[%[%j@;%j@-@j@%@D+9@%@s+n+m+m+F+",
"L '$s+G#z+##0&s+j@'#j@-@!@j@z+s+s+[@*&%@k@p@g@*@*@k@0#-@k@@@Q@~$W@a&j@3@%@Q@,@{$h@c@b&c&d&P@{$F@)@@@W@s+j+S t+E+3&: : : : : : : : : : : : : : : : : : : * t+m+g+9+@@9@9@p@p@@@y$e&f&g&&$V@N@V@ @d@{$g@g@@#b@{&{&W@&$A@!@-@k@p@k@[%-@;$##j@s+j#j#3+!@-@-@-@&$G#s+k###m+'$",
"C@'$Z#9#9#h&3+z+s+!@-@&$!@j@z+!@y+U+&$j@&$g@*@N@N@W@i&{&p+Q@b@p@W@,#j@0$%@Q@9@p@H@j&k&l&m&k@p+W+p+Q@9@D@Z P t+K%3&: : : : : : : : : : : : : : : : : : : n&&&F+j+` @@@@Q@W+p+W@o&p&q&r&h@@#p@h@.@2@{$g@Q@b@P@@@@@@@-@l+%@j%,#p+~@!@&$[@3+!@s+3+j#i#y+%@%@t+-@m+F+9#Z#9#'$",
"d@3@L 9#i#s+s+s+!@-@&$-@%@&$j@[%y+<@-@s+-@)@{${$b@-@0#p@p@P@N@P@W@'#j@3@&@{&W@Q@s&U#t&u&v&)@T+Q@9@9@9@1@Z S %@o@w&: : : : : : : : : : : : : : : : : : : 2 t+|+h+U *@b@{${$p@x&y&z&A&B& #g@p@g@ @e@p@b@&$,&s%Q@W@{&-@A@k@9@-@9@-@,#&@B+j#[%;%Z%[%[%G#[%G#k#y+##L 2@C@'$m+",
"A@A@C@##s+s+G#-@&$&$-@B%%@&$C%[%s+B+j@s+&&@@a#b@p@B%i&,@b@b@S#p@9@W@C%*$%@9@9@p+g@o#C&D&E&S#g@)@D+k@~@L Z P o+:+w&: : : : : : : : : : : : : : : : : : : F&-@|+h+U T+{$9@p@{${&G&'%H&I&V@@#{$*@.@3@Q@p@C%C%9@P@W@W@&$2@D+Q@&$W@-@9@&$Q+3+U$;%y+-@j@[%s+s+s+s+9#C@L L ####",
"3@2@h&s+[%i#j#s+j@!@3+[%!@t+C%[%z+C+t+z+W@p@p@w@p@y+Z#&$@@@@s%Y%p@9@j@3@%@k@9@p+*@C#J&K&L&Q%_@u@Q+9@&@2@M.O o+M&w&: : : : : : : : : : : : : : : : : : : N&%@|+Z ` W+9@&$p+w@p@O&P&Q&$&5%V@g@g@/&F#9@{&W@C%,@Q@,@,@j@3@-@k@k@W@j@,#9@9@##[%;%G#t+t+&@!@y+s+s+i#}#2@C@m+##",
"L@(+##j@j@i#i&z+z+[%0#j#G#G#[%[%##E+K%s+&$p@)@{$p+s+]$[%-@&$W@9@W@,#!@0$t+9@W@,@N@I@R&S&S$p@b@Q@Q@k@-@2@M+0+K%o@w&: : : : : : : : : : : : : : : : : : : T&y+F+Z ` p+&$C%9@@@p@f$U&V&W&5%(#)@*@X&6@W@p+{&9@,@9@W@&$[%e@D+;$&$j@j@j@9@[@Z#s+G#s+o@%@y+t+o+G###i#b$m+9#9#C@",
"3@2@##!@[%i#;%!@}$j@j#3+s+z+G#s+##E+t+%@%@9@k@{&&$3+*$[%!@'#C%C%x&!@U$<#s+j@-@9@p@t$Y&Z&`&9@Q@k@&$k@&$C@M.0+%@n+ *: : : : : : : : : : : : : : : : : : : .*y+F+Z ` p+-@j@k@Q@Q@+*U&#&W&,$ #@@b@0@$#C%k@W@,&p+,#j@C%[%e@9@9@~@&$!@[%Q+|@h&z+G#[%!@s+s+y+o@b$i#G#s+k###j#L ",
"$#C@##s+;%;%[%-@k@W@!@!@!@;%s+i###o+}@-@!@%@!@&$t+Z#)$[%[%s+U$*&'#9@x&<#'$;%&$&$9@L#@*#*$*&$9@k@k@W@9@F+Z b+K%## *: : : : : : : : : : : : : : : : : : : %*t+I Z T w@W@j@&$9@Q@&***=*-*5%@#p@Q@r@$#&$9@W@&$;*-@C%j@=@5@~@9@-@j@y+!@D+R+1@z+*&-@%@##s+G#s+i#G#G#k#s+n+Z#C@",
"2@2@F+}#s+ $[%&$k@~@&$j@t+G#s+z+j#o+t+%@%@%@-@p+B+Z#$#;%3+j#3+z+-@{&U$!#D@j@W@&$9@.@Q$>*,*C%W@9@9@9@9@Z#Z O o@I  *: : : : : : : : : : : : : : : : : : : T&t+I h+4$p@9@!@j@&$9@'*)*!*!&h@{$s%*@s&M@&&Q@k@[%&$j@t+j@;%F#D+k@%@%@[%y+y+B+9#y+&@D+t+k#}#n+s+G#y+s+n+G###C@2@",
"2@]$C@Z#F+Z#s+!@j@&$-@!@y+[%z+;%9#~*K%G#G#%@&@9@D+9#L@;%[%s+z+z+k@9@{*]*s+~@9@'#p+:@^*/*(*t+D+-@&$W@W@:#M.O o@1+ *: : : : : : : : : : : : : : : : : : : _*%@m+Z T @@W@!@&@k@;*i@:*<*[*g@Q@Q@*@(#R.t+p+k@;%j@-@B%y+3+6@}@-@s+!@[%s+y+[@F+k#s+-@y+i###3+s+y+y+s+s+:+##F+A@",
"2@2@$#C@2@2@j#s+z+%@%@y+!@y+i#;%Z#o@o@s+[%y+t+&&j@Z#$#G#!@!@3+Z%&$j@L@'$D+Q+k@k@;$;$}*|*C@j@-@W@&$9@-@C@+.P K%r  *: : : : : : : : : : : : : : : : : : : 1*t+D@M.T p@@@W@~@9@p+y+2*3*t+g@N@W@9@W+B+y@o+&$z+{*j@j@j@j@A@t+-@!@y+!@s+y+E+2@##s+o+s+i#G#m+##s+s+n+i#i###9#$#",
"d@3@5@2@C@Z#Z###3+s+-@j@j@[%z+z+:#M&o+s+s+%@%@j@j@9#$#j@j@&&]$2@!@$#6@o+A+Q+D+&$B+G+P h+4*&&k@9@,@{&k@m++.5*}@r  *: : : : : : : : : : : : : : : : : : : 6*}@1@Z ` p@{&,@p+)@)@t+/+{+/+;$)@,#,@)@T+:+F#y+Z#y@s+!@-@j@l+%@%@%@%@G#z+y+y+C@}#s+G###z+z+##Z#9#####9#9#Z#C@3@",
"2@3@5@$#q+9###3+z+i#!@&&&&[%[%s+Z#o@s+ $s+G#!@t+j@j#$#U$-@s+o$'$6@I$i#9@p+W+;$[%y@>+[.=.[@{&k@,@@@@@9@7*Z T t+n+8*: : : : : : : : : : : : : : : : : : : 9*t+L Z 2&p+{&p+p@b@*@u@l+ %>+=.9@9@{&p+w@W+D@%%s+J+d@%@y+s+0 o@[%[%y+[%z+[%t+C@##!@G#:#j#0#q+]$q+9#######C@2@6@",
"A@[#<#]$i&;%s+3+3+3+%@B%-@!@s+i#2@i#9#Z#i&j#[%y+!@Z#L@[%i#4+1@D%5@G#j@&$W+;$t+6@0*M+L$G#-@&$9@&$9@k@&$2@Z S s+1+a*: : : : : : : : : : : : : : : : : : : b*&@A@{+2&9@W@p@a#p@Q@*@W+O. %c*^%-@D+9@Q+W+&$|+O.D@d*(+##3+F#y+%@*&s+;%G#s+y+2@##G#y+9#Z#:#*$2@2@m+b$s+}#F+L L@",
"2@2@2@Z###i#s+z+##3+!@t+y+s+3+##C@D@Z#2@]$}#[%[%y+9#e*Z#8+j#C@f*-@&$j@&$p+9@B@)+` =.g*!@s+!@k@U$C%-@y+2@Z R s+h*i*: : : : : : : : : : : : : : : : : : : j*o+e@M+2&[@C%,@,@Q@p@9@D+[@^+Z >+4+o+W+;$@@9@%@d@S.D@=.y@0#5@y+G#z+3+{*3+##y+2@9###G#s+j#Z#*$2@$###s+s+9#9#L 6@",
"2@2@C@Z#j#####z+i#s+j@%@G#z+3+j#C@D@Z#9#j#s+s+s+j@7*5@c$2@]$k*z+9@&$-@&$p+o&l*m*c$K%[%!@j@j@D+t+&&[%F+Z [.}.E+|+i*: : : : : : : : : : : : : : : : : : : n*o+I${+4$S.i#,&W@W@@@k@&$t+9@]+j+o*p*Q@9@p+B%~@%@5@^+q* %Z#F###3+;%3+i#9#9#G#$#:#F+;%z+;%3+:#C@D%##3+i#2@C@2@2@",
"2@L 2@F+##3+3+k#s+s+y+y+[%z+i###q+D@9#s+s+##3+;%[%F+y@'$2@6+9#G#&$!@Q+*#r*s*t*u*o+B+s+[%W@W@9@9@D+##}.4$@.v*w*|+i*: : : : : : : : : : : : : : : : : : : x*K%Q+c$~+p.y@B%,@,@s%Q@9@G#[@W+y*z*A*B*a#W+%@&$D+j@M@y@q*##{%Z#3+;%s+s+}#F+s+L@2@2@j#j#s+z+Z#q+*$j#j#h&d@$#L@2@",
"C@C@2@Z#i&##;%i#i#i#z+s+3+9#j#9#2@ $j#{*s+9#####;%9#|+q*o$i#!@[%y+!@9@C*D*E*F*G*D+}@%@C%&$,&k@k@o@Z 0+f+|+t+y+|+i*: : : : : : : : : : : : : : : : : : : H*K%9@-@d$4$0*A@9@,#,@{$@@&$}@8@@$I*J*K*L*Q@t+B%j@C%&&6+S.:+y@9#z+3+{*3+3+##b$5@2@<#0#0#{*j#Z#q+2@9#i&Z#q+2@2@$#",
"Z#9#2@1@h&3+s+s+z+##9#3+0#q+q+Z#<#F+9#i#9#C@##i#9#R.^+4+Z#}$s+z+[%-@M*N*O*P*Q*Q%Q+9@-@!@B%-@&$K%_.;+Z 1@D+D+y+|+i*: : : : : : : : : : : : : : : : : : : R*!@D+W@;*L+b+!+'$-@9@{&W@@@k@9@g@S*T*U*V*W*&@t+!@s+&&G#R#8%6+2@3+j#s+s+:#j###5@$#$#]$C@j#0#2@2@]$j#9#9#h&:#$#L@",
"F+##9#Z#3+j#}#3+##j###j#j#q+2@Z#)$n+D@i#9#j# $D@y@K &$U$y+z+s+s+*&X*Y*>&Z*`*J@p+k@,&W@-@C%j@[%f+-+ =6@}@&$&$[%|+i*: : : : : : : : : : : : : : : : : : : .=&@k@j@k@t+d$b+0+2@&$9@&$,&{&{&p+g@Z$+=@=#=0#!@G#s+!@[%G#,&g*^+C@j#k#z+Z#j#$=3@L C@q+:#:#0#2@2@'$j#Z#Z#:#C@1@d@",
"##i#i#j#j#Z#j#i&Z#'$9#3+z+0#2@C@3@ $$=s+3+;%9#5@B@q*G#%@s+9#[%[%=@%=&=*===D$w@;$9@W@W@U$U$y+{.-+[.6@-@j@!@-@y+|+i*: : : : : : : : : : : : : : : : : : : -=-@9@&$W@&$K%{.0+P n+t+C%x&@@p@@@p+S#;=>=,='=)=j@y+y+s+[%y+]$%%k*2@i###Z#'$s+$#Z###j#C@C@q+C@2@C@##0#9#9#9#C@1@",
"##D@D@9#9#C@:#:#Z#]$q+:#j#0#q+C@6@I b$##i#j#6@Z#'$i#s+s+z+z+[%o&!=~={=]=D$&$k@k@W@W@-@%@%@c$>+i+S.&&%@B%-@C%y+|+i*: : : : : : : : : : : : : : : : : : : ^=k@p+9@W@-@D+o@/+,+`  $%@%@&$a#p@9@,#p@/=(=_=:=<=-@t+z+s+s+s+d@2@;.C@####j#n+3@Z#####Z#:#2@<#2@q+Z#:###F+Z#2@d@",
"9#h&9#F+C@q+q+:#:#Z#0#C@Z#3+Z#Z#)$ $##j###5@[=2@}=;%z+s+[%z+o&|=1=2==='*W@C%k@,&&$9@-@t+J+0*{+^+-@,#%@&&W@&$!@1@i*: : : : : : : : : : : : : : : : : : : -=D+;${&,@&$-@[@D@h+!+}.b$%@[%&${&W@C%W@p@3=4=5=6=7=j@G#;%D@9###6@l+]+9#j#j#o@e@h&Z###9#C@3@3@2@<#$#L Z#C@Z#C@2@",
"C@1@F+j#Z#C@Z#C@i&j#j#Z#j#i#i&9#3@s+i&j#i&3@[%*$j#;%i#y+-@8=9=0=_&a=b=&$[%C%,#W@&$9@w*%%)+c=d=D+y+j@-@C%&$&$j@B@e=: : : : : : : : : : : : : : : : : : : f=k@p+9@p@k@j@j@;*I Z >+Z G#B%U$W@W@-@j@'#g=h=i=j=k=l=k#[%######d@y+5@m+q+j#K%6@2@C@Z###C@$#*$*$]$2@Z#j#9#C@2@$#",
"2@C@Z#j#:#C@C@Z#Z#j#:#Z###}#h&C@t+%@i#3+9#0&;%5@j#i#s+[%m=n=o=p=q=r='#%@G#C%,#j@&$W@S.s=` 4+[@%@;%j@&$W@k@k@j@6@e=: : : : : : : : : : : : : : : : : : : t=t+;*9@Q@W@&$U$y+;$'$[.u=@.G#U$U$-@k@C%-@j@v=w=x=y=z=A=z+j#####3@y+d@Z#2@Z#G#E+0$2@2@Z#q+_$2@q+2@2@B=9#C@2@d@$#",
"2@m+##9#C@C@C@C@C@:#q+Z#Z#h&9#2@G#$=9#Z#Z#$#0#G+]$i#}#*&C=D=E=F=G=W@j@[%;%'#&$-@%@A@0*T >.t+j@;%z+[%%@k@9@&$s+7+: : : : : : : : : : : : : : : : : : : : H=s+9@{&k@,#-@j@;%-@;$I=~+J=^.G#'#,@-@&$&$[%&$g=w=K=L=M=N=Z#3+9#5@2@3@:#q+q+n+s+'$2@$#2@2@C@L C@q+_$2@L A@(+$#2@",
"B@m+9#m+Z#2@A@2@C@]$:#q+Z#Z#B=5@:#9#2@8+d@2@$#n$C@9#i&O=P=S&Q=R=,&%@[%G#U$B%j@U$d@b+P S=P+&&[%j#3+!@B%D+&&w*F+$.e=: : : : : : : : : : : : : : : : : : : T=e@t+9@W@W@-@j@j@-@K%[@S.T U=>.!@{&k@C%W@-@!@!@&*V=2=:*W=]$G#m+y@f*Y@i#{.0$C@##6@3@2@$#3@L L 2@1@1@2@(+A@2@2@d@",
"L C@Z#L :#2@*$2@q+i&q+*$]$0#0#6@Z#Z#X=L%F+2@*$8+C@F+Y=Z=`= -.-y$!@*&s+U$C%C%[%'$T 0+5+Q+t+[%!@3+;%&$&&&&G#b$+-9+@-: : : : : : : : : : : : : : : : : : : #-@. $%@&$;*C%[%!@j@G#%@9@6+S c*7+k@,&j@&$-@j@s+[%&*$-%-&- $n+##y@O.O.Z#L+o$]$Z#l+A@A@2@(+2@2@C@C@9#Z#2@d@2@A@2@",
"3@2@2@2@2@_$2@2@C@q+)$0$q+Z#:#d@7*j#f*'$ $C@e*M$C@##0#*-}*B=y+s+i#{*;%j@,#C%z+L@U @.=-y+s+G#[%;%z+C%w*[%%@8+h+--;->-: : : : : : : : : : : : : : : : : : : ,-5+G#t+D+j@[%[%j@[%##G#B+j+~+=.y+:$!@&$C%[%3+b$G#'-)-!-##1+'$X=Y@5@##Z#-.9###d@L@*$]$3@$#3@2@q+_$2@2@d@$#(+2@",
"k*f*^+f*X=~-X=L@{-X=X=]-L@L@X=C@3+F+s+##q+3@$#^+9#3+C@^-/-{%n+3+0&j#3+[%[%U$s+5@f+{+J D@3+;%[%U$Z%t+K%[%k@e#(-_-:-Z <-: : : : : : : : : : : : : : : : : : e=[-9@W@C%B%[%U$G#G#j#9#9@[.M+@.%@-@!@[%*&z+j#D@##A@M.b+0 D@9#L@S.y@9#i&G#i# $l+k*5@3@~-'@X=5@X=5@Y@O.Y@'@X=R.",
":@}-;*D+-@&$Q@w@*@w@|-{&&$&&%@;* $1@i&##Z#6@$#^+9#o+n+1-{+{%:+s+z+3+z+[%[%j@!@y@f+` 1@b$s+##{*[%2-G#%@G#W@3-4-5-6-7-8-: : : : : : : : : : : : : : : : : : : 9-h@;*&&%@;%[%;%;%3+Z#t+a${+ %o+%@%@z+[%G#3+D@n+l+{+'+{%D@##3@S.k*9#i#s+s+i#s+9@W+p+@@Q@U+Q+D+Q+A+<@<@|@8@s&",
"K%:+n+n+i#i#s+y+w*%@G###3+i#m+w*;%j#i&####l+Z >.b$-@b$4$0-S.j@j@[%s+z+*&;%[%-@O.j+~+4*$= $3+j#;%G#y+b$;%x&a-b-c-d-e-f-: : : : : : : : : : : : : : : : : : : g-h-C%z+y+G#G#G#j#0#9#y+a$h+#.E+G#G#s+G#[%3+j#i-)$M+'+G+F+k#5@` ;.##i#s+i#n+I y+o+o+o+E+:+n+s+s+:+:+:+s+o@t+",
"D@i#z+i#b$i#9#i#s+;%z+G#G#i#9#y+s+##i### $(+~+8+s+:+|+b+ =j-k-l-m-{*U$j@;%3+%@^+h+~+A@##;%;%j#3+3+##8+)$i@%=n-o-p-q-f-: : : : : : : : : : : : : : : : : : : r-s-;%` G#;%z+{*Z#q+0#G#4$0-#.b$[%[%j@%@[%{*t-u-v-Z b+.%D@##Y@b+G+##s+i#s+s+m+G#:+:+y+s+##s+K%##F+F+F+D@D@:+",
"n+G#s+}#s+ $F+##i#s+s+y+t+s+i#s+s+s+3+ $j#5@i+5+F+j#|+4$z$w-x-y-z-{*z+!@;%0&y+R.0-~+A@9#z+3+j#s+G#D@q$L@P@%=A-B-C-D-f-: : : : : : : : : : : : : : : : : : : r-r*[%i$j@G#j#i&0#C@9#G#P Z Z  $i#j@j@[%;%X*E-F-G-g+a$R.F+F+k*[.H+##s+##i###F+i#y+s+G#s+m+##s+D@m+:#9#F+F+n+",
"D@b$ $n+i#i#Z#i#i#i#[@[%i#s+s+ $####9#9#Z#y@i+{.L F+I 4$H-I-J-K-L-3+3+!@G#3+K%^+j+` I$9#s+s+G#[%!@b$8+6@M-N-O-P-Q-R-f-: : : : : : : : : : : : : : : : : : : r-S-%@i+&&y+3+j#i&j#3+K%b+Z #.s+K%[%j@%@s+T-U-V-W-g+S R.F+F+^+[.4+D@##i###D@A@m+:+G#i###Z#9###|+1@L L C@'$m+",
"h*D@D@1+1+C@Z#i#M&n+b$9#9###m+F+ $s+9#F+F+5@i+L+F+i#|+~+{.I-X-Y-i-9#Z%j@!@;%t+S./+~+I$9#s+s+y+y+%@:+6+$#C%>#Z-`- ;q-f-: : : : : : : : : : : : : : : : : : : .;+;T-0-&&G#G#;%=@{*3+%@P Z /+o+%@!@y+-@s+;%@;#;W-g+4$S.m+n+^+~+J$1+##n+i#m+A@L m+##j#C@9#s+I |+2@1@C@L 2@B@",
"H F#F#~*s$(+B@$;4*h*5@5@A@y@f*l+ $s+9#F+F+f*i+=.I }#L P g+%;&;*;=@j#s+j@s+[%%@S.h+P I$9#s+G#K%%@G#:+[@[%,&=;-;;;>;,;f-: : : : : : : : : : : : : : : : : : : .;7=2-s+B%##G#[%3+j#j#K%P Z  %o+%@s+!@%@[%{*';);!;j+` F#s+n+^+` ^+1+i#####m+l+0 ^+^+F#F#l+9%l+S.J$F#l+S.0 9%",
"=.f+g+%./+/+{.5+8+{.f+g+f+Z M.J+F+b$9###D@6@2@4+F+}#d b+j+O.~;*&3+3+3+!@y+'#-@I$@.P 7%9#z+G#G#%@G#G#&&B%P@{;];^;/;(;_;: : : : : : : : : : : : : : : : : : : :;<;U$[%[%n+s+y+i#9#9#t+4$Z $.o+[%[%%@U$;%3+3+[;2@@.a$I$n+m+Y@R.6@####i#i#F+6+{.h+h+Z Z g+/+{.f+{./+j+Z g+/+",
"O.5@l+e@3@L A@6@L A@6@l+6@O.S.{%m+s+######3@A@G+F+3+1@};h+^+##i#3+3+Z#G#y+t+%@I$h+` 0 ##z+G#y+t+%@y+[%y+t+e#W=|;1;>#<-: : : : : : : : : : : : : : : : : : : 2;9#[%{*[%o@s+%@s+m+##C+` ..$.o+-@%@D+!@;%q+9#:+A@Z 2&{%n+F+O.R.^+F+##D@}#D@^+5@2@2@(+5@5@6@6@l+L 2@F#5@F#S.",
"(+'$F+##9#Z#F+C@D@m+|+1@F+|+l+0 I i#6@C@9#6@5@G+D@##A@'+j+S.1+s+0#0#j#;%B%y+s+6@h+~+l+F+s+i#G#%@s+y+G#t+[%j#(+3;4;f-: : : : : : : : : : : : : : : : : : : 5;B@K%%@G#%@s+s+t+y+ $s+b$` @.6;o+-@o+-@%@s+Z###:+B@Z b+{% $n+S.J+6+D@Z#R.L F+f*d@9#9#C@C@C@F+C@2@F+Z#L B@A@3@",
"B@Z#C@##9#C@C@C@F+'$L Z#9#1@2@F###F+%%8+[#S.F#-.m+m+B@i$7;0$y+s+##Z#3+;%z+s+s+F+g+M+ %C@s+G#;%z+##G#o+y+z+ $b$k*8;: : : : : : : : : : : : : : : : : : : 9;4*~*i#G#t+y+9###%@G### $-.4$j+^+o+t+y+j@s+s+##:+E+:#C$i$0 ##D@]+J+G+C@G+>.L C@^+(+C@9#C@Z#q+F+L d@C@L '$1@A@(+",
"2@C@'$C@F+2@3@$#C@'$L C@q+2@3@S.s+L 1@^+C@S.X=;.I D@:+|$0;a;b;{*Z#Z#z+9#j#j#z+;$[={.c+@.F+s+i#i#3+s+o@%@G#y+s+(+S@: : : : : : : : : : : : : : : : : : : c;E b$}#t+%@y+####G#y+m+6+0*M.6+Q+o+%@;%G#i#n+n+!@s-d;e;f;n+I C@G+8+-.m+p$C@2@Z#^+y@2@C@C@C@Z#C@2@3@l+1@1@C@A@3@",
"6@d@2@A@L 2@3@L C@1@F+g;Z#L e@^+D@##2@Z#'$y@3@-.C@H H h;i;j;k;l;{*i#3+9#3+3+3+G#p+(+Z p.*.##G#i#s+G#%@%@%@G#F+G+m;: : : : : : : : : : : : : : : : : : : n;'$i#y+%@[%y+## $b$o@y@0*1-o$B+K%G#!@s+i#3+k#s+S-o;p;q;r;:+B@1@6+6+-.'$2@2@2@9#k*X=$#L A@2@2@2@(+3@3@1@L 1@1@2@",
"e@5@5@(+A@2@2@L 1@F+##F+m+1@6@^+C@s+C@F+1@5@s+Y@I I 1@&@s;t;u;v;w;=@j#{*{*z+j#j#s+9@k*}.p.8+##s+G#o@t+y+G#y+##6+9;: : : : : : : : : : : : : : : : : : : x;F+K%%@B%[%!@n+s+:+6@!+b+f+E+o+y+s+y+y+y+s+z+y;z;A;B;`&W@m+l+L k*1@6+2@2@2@2@Z#^+5@3@2@$#$#)$[#2@2@2@L A@$#2@3@",
"5@e*X=L@3@2@C@C@C@F+i&C@2@3@e*p$4+##n+F+A@O.i#O.I I C@I W@C;D;E;F;G;3+3+;%{*;%3+##i#&&p$H;-+G+i#b$o@o+G#G#s+##S.I;: : : : : : : : : : : : : : : : : : : J;m+s+s+%@%@%@b$s+l+O P @.1+i#i#[%s+y+s+:+i#K;L;M;N;O;D$b$I C@2@k*C@Y@2@1@2@C@S.n$X=$#$#L@L@L@$#2@2@A@2@)$5@6@5@",
"O.Y@5@6@$#2@C@2@2@C@Z#2@2@2@3@Y@K+e@m+F+'$I$I l+1@m+m+|+F+P;Q;R;S;T;U;:$j@[%[%;%s+## $B+c$P p.G+|+s+y+s+y+G#'$O.V;: : : : : : : : : : : : : : : : : : : W;1+s+s+s+:+:+b$6@0+!+h+J F+j#G#%@y+s+9#y+x&q&X;Y;Z;`;z+Z#D@Z#e@^+'$5@Z#2@$#d@H-'@3@2@]$Y@X={-3@2@$#{-L@L@f*5@e@",
"Y@5@3@3@A@2@2@2@3@A@2@$#$#2@3@0$f*3@m+F+F+ $d@'$y@1@m+F+C@9#Q% >.>+>@>#>U$[%[%[%s+s+D@s+K%L%b+o.-.F+n+:+G#s+2@O.$>: : : : : : : : : : : : : : : : : : : %>D@b$n+s+G###2@T !+_.|+b$L Z#s+o+G#G#i#G#&>*>=>->;>s+_$0###]$X='$2@i#9#C@2@$#R#e*$#*$(+>>X=)$2@L $#R.R.'@Y@O.O.",
"5@,>3@3@)$L@e@A@5@2@D%2@:#C@2@2@0$l+C@A@C@D@i#2@B@S.2@9#####i#'>)>!>~>{>*&!@s+3+i#3+##m+1+]>f+0*o.^+D@ $####2@S.$>: : : : : : : : : : : : : : : : : : : %>h*i#s+y+G#2@` ,+Z B@n+i#C@m+s+[%3+[%[%^>/>(>_>:>[%9#A@C@Z#5@(+2@Z#i&C@2@2@6@k*L@A@3@$#L@3@$#$#)$0$Y@f*X=X=O.L@",
"f*f*5@O.5@L@5@5@L@<#0$$#Z#:#2@2@0$(+2@$#L |+F+m+d@I$S.C@##i###s+<>[>}>|>1>o&s+##i#i#s+##m+b$b$2>!+-+O.m+## $L 5@$>: : : : : : : : : : : : : : : : : : : %>D@##s+s+F+[.c+{+F#n+1+9#F+##i#G#%@'#3>4>5>6>7>j@C@C@C@2@(+I$y@]$C@2@2@2@$#F#Y@3@3@3@)$$#(+2@3@5@5@L@L@L@L@L@e@",
"Y@^+^+X=5@5@5@f*e@L@5@)$C@C@$#0$5@6@2@$#2@C@A@2@##4*%%S.'$ $3+Z# $s%8>9>0>a>=@ $F+ $s+## $n+1+1+{.0*b>I$D@ $1@F#c>: : : : : : : : : : : : : : : : : : : d>I ####F+Z ;+ =I$:+b$######m+s+%@U$e>f>g>h>5%[%C@2@2@2@y@y@k+1@[=(+$#2@*$$#2@^+(+2@2@*$2@3@$#5@X=3@2@$#5@Y@f*5@",
"^+^+X=O.Y@X=f*5@L@5@L@3@A@$#)$3@5@6@2@$#2@A@6@e@F+b$l+S=G+d@Z#C@L m+i>j>k>l>m>U$##b$b$s+s+n+h*]@J _.n>!+F###2@y@$>: : : : : : : : : : : : : : : : : : : o>|+F+F+f+>+{+S.o@## $m+n+##b$G#B%p>q>r>s>t>G#d@2@C@2@y@K+1@d@1@(+3@d@2@3@3@(+k*6@2@2@q+2@L@5@y@f*(+)$5@X=v#k*O.",
"Y@X=L@5@X=5@X=0$$#3@L@Z@$#3@3@3@X=6@2@L 2@[#A@6@B@F#k*7%/+G+)$2@:#L X*-*0=u>v>G;3+b$1+####D@F+D@:+A@Z p.0+l+A@O.$>: : : : : : : : : : : : : : : : : : : o>B@|+/+u=[.S.o+D@C@F+##s+G#s+[%K;=&w>x>y>C%2@]$2@A@O.f+5@3@-.F#L@3@C@<#)$A@3@k*5@3@*$2@3@5@5@5@X=3@0$Y@Y@R.'@Y@",
"O.X=L@3@5@~-L@0$<#3@3@L@3@3@L@L@k*6@1@L L $#d@l+A@R.n$^+f*f+R.L m+|+'$C%z>A>B>C>3@I n+##n+##'$|+|+:+l+{+U=S l+O.$>: : : : : : : : : : : : : : : : : : : D>I 4+j.1-M$B+F+L C@D@D@n+i###I E>F>x>G>{&F+2@2@L S.j+>>S.X=c$5@3@A@C@2@3@$#F#{@Y@3@0$2@L@X=L@5@5@3@5@Y@y@O.Y@X=",
"O.L@L@3@5@X=L@)$2@3@3@L@L@L@5@e*k*O.2@A@B@3@$#2@L O.;.H>S.5@@.7+L I I 9#x&I>J>K>4$F#m+9#D@1+D@m+2@1@s+^+2&p.(+y@$>: : : : : : : : : : : : : : : : : : : D>|+=.'+Z B+I L '$n+s+i#D@D@F+/+L>M>N>P@D@F+C@A@l+/+S.(+/+f*=.5@(+A@$#$#6@A@F#w#X=L@L@D%3@5@L@5@5@3@L@M@X=Y@Y@f*",
"^+5@f*X=L@~-M@L@5@Y@L@5@L@L@X='@p$^+2@2@C@2@2@A@B@5@O>v*J+5@y@@.^+C@F+C@D@y+b${.'+2&l+1@D@D@D@|+B@B@1@8+P >+y@^+$>: : : : : : : : : : : : : : : : : : : P>L K+P 0+1@F+'$Z#i#G###v*'$L+b+j+Z#k@G###F+A@O.{.k*l+o$'$5@c$6@3@3@3@$#3@$#F#w#Y@X=M@(+$#3@L@L@^+L@X=e*X=Y@^+k*",
"Y@O.^+X=5@X=L@5@X=O.L@X=X=X=Y@6+-.R.e@3@C@C@2@1@|+6@v#2@I G+6@F#f+R.A@L 2@m+s$|+f+0+}.l+F+D@m+C@L 2@B@=.b+>+O.S.$>: : : : : : : : : : : : : : : : : : : Q>1@{.'+p.A@2@2@C@##s+m+I =.b+Z %%-@n+i###L O./+f*(+>.d@A@5@c$F#3@L@3@3@3@e@5@w#Y@f*3@$#2@0$3@{-Y@~-Y@e*Y@k*N.v#",
"O.y@'@R>~-L@e@$#3@3@3@~-Y@5@X=]-v#6+f*y@3@$#A@2@D@6@-.3@'$o@S=5@'@Z R.A@1@L m+K%1@Z >+X L ## $C@2@'$1@L+b+p.7 J$S>: : : : : : : : : : : : : : : : : : : T>9%/+'+p.A@C@A@$#F+H#D@6+0* =S.Q+s+9#q+:#A@{.G+A@{.B@A@(+y@L+5@L@e@A@2@)$3@5@w#'@X=*$$#[#)$$#3@e*{-5@X=R.Y@k*k*",
"f*Y@k*k*X=6@$#2@2@(+$#3@L@5@5@{-Y@^+3@3@A@A@L '$|+S.n$L@2@9#D@2@2@6+/+6@|+(+A@1+C+d@i+>+J+'$I C@1@'$F+-.U>j.S.^+S>: : : : : : : : : : : : : : : : : : : T>L f+'+p.2@2@3@3@2@m+A@O ` n$t+:+D@C@1@2@G+8+2@|+6@B@6@L@X=*.5@L@6@3@(+2@5@F#6+Y@X=2@$#(+L@$#$#5@5@e@5@S.X=R.k*",
"R.^+k*k*f*e@3@3@$#$#3@6@3@0$L@L@'@'@e@e@d@2@1@L 1@S.V>f*L@2@2@3@2@L@p${.1@C@2@F+1+o+ =W>>.|+'$D%A@L L X>'+k.O.k*Y>: : : : : : : : : : : : : : : : : : : T>A@Z )+j.d@$#$#l+l+F+l+Z>2+i#y+s+Z#C@F+G+8+L@2@C@L@A@$#5@X=L+5@5@X=Y@5@L@'@y@^+5@X=3@3@3@e*L@3@3@L@5@O.S.f*f*R.",
"R.R.'@X=X=L@5@e@6@L@L@3@6@3@~-Y@v#^+e@3@3@l+d@L d@R.L+f*5@2@2@e@2@(+>>7;F#B@L B@m+k#`> ,.,1@1@A@l+L 2@c$'+o.S.^+Y>: : : : : : : : : : : : : : : : : : : T>A@Z ,+k.l+d@$#2@C@D@q++,@,#,##}#9#F+C@@.Y@3@2@C@e@e@3@5@5@L+O.e@5@X=5@5@Y@O.k*L@3@{-5@5@Y@X=5@3@L@X=f*R.R.^+R.",
"k*'@'@X=L@5@5@3@3@e@3@2@3@L@Y@k*v#^+6@3@A@2@d@A@2@Y@d$O.L@A@2@3@3@M@5@V>p$e@2@d@m+j@$,%,&,d 1@1@2@C@2@].b+k.O.R.S>: : : : : : : : : : : : : : : : : : : *,e Z c+=+6@2@$#2@Z###=,-,;,>,s+h&]$C@2@g+f*L@C@'$6@,>L@M@y@c$5@e@L@5@X=Y@Y@S.^+6@3@5@5@L@X=X=L@5@L@O.O.S.S.S.R.",
"R.k*f*L@5@X=q@L@L@6@L@A@6@X=k*'@N.R.6@3@A@A@d@2@2@^+c$5@(+[#2@$#L@~-e*o$;.e@(+6@1@!@,,',),2@|+I |+1@1@>.b+=+S.]+Y>: : : : : : : : : : : : : : : : : : : *,A@@.,+k.6@2@A@*$2@F+<=!,~,{,z+Z#D%$#$#q$y@e@C@'$L@X=5@5@O.c$S.(+d@d@5@f*Y@y@^+3@L@5@5@3@3@3@6@e@F#f*R.^+f*O.^+",
"k*v#X=O.y@f*X=5@O.5@O.L@3@f*k*'@p$]+6@3@5@O.O.3@l+6+V>0$3@3@2@$#L@L@5@c$R.d@6@5@C@&@],^,/,$#d I |+m+|+c$b+j.S.J+Y>: : : : : : : : : : : : : : : : : : : (,l+Z U>k.6@2@(+$#A@L <=_,:,{,3+2@$#A@2@{.6@2@Z#C@e@5@5@5@O.8+S.3@2@L 3@5@X=O.^+5@X=X=y@L@3@(+6@e@3@e@S.^+Y@f*6+",
"N.e#k*Y@Y@5@O.e@S.Y@O.O.F#f*k*R.{@]+I$O.5@O.5@6@A@R.c$X=e@3@$#$#3@L@5@L+G+6@e@3@1@!@<,[,},)$B@I g;F+I {.0+j.J$I+Y>: : : : : : : : : : : : : : : : : : : |,l+Z '+k.6@(+e@6@6@2@<=1,2,3,j#2@$#3@d@h+3@A@2@L 6@5@O.6@F#c$5@3@2@L A@Y@e@O.k*^+'@Y@Y@5@O.O.O.6@F#F#F#O.y@y@6+",
"N.X>-.k*O.e@5@3@y@Y@Y@5@y@O.Y@R.{@G+F#S.X=F#y@3@2@Y@r+Y@5@<#2@2@D%L@5@d$-.5@(+d@6@k#4,5,6,)$B@|+F+Z#F+K+'+o.I+G+Y>: : : : : : : : : : : : : : : : : : : |,2@Z 7,=+F#e@5@6@e@<#8,9,0,3,0&2@$#3@A@@.l+(+$#A@5@6@3@6@O.=.S.3@6@d@L@X=(+e@p$O>'@'@>>e@5@O.F#F#O.O.O.S.5@S.-.",
"G+-.6+k*O.3@3@(+y@^+y@5@S.'@a,R.{@J+S.S.5@O.S.6@A@^+;.O.5@$#]$2@$#e@X=L+.%4@3@(+3@z+b,c,/,<#A@2@m+Z#2@L+'+*+]+4+Y>: : : : : : : : : : : : : : : : : : : (,A@Z ;+k.5@e@(+3@e@<#d,e,f,3,g,2@L@0$A@@.3@A@6@5@y@4@6@5@f*=.O.5@e@5@5@f*5@F#N.k*v#^+6@(+y@S.S.R.S.S.S.y@f*S.-.",
"G+^+Y@R.O.e@e@5@R.Y@5@F#O.R.Y@O.G+G+S.F#e@y@F#O.5@k*8+f*6@A@d@)$L@5@y@d$I+l+3@L@A@##h,i,j,L@d@1@F+C@A@L+a+*+R.G+Y>: : : : : : : : : : : : : : : : : : : k,A@@.)+@+F#3@$#2@2@<#l,m,2,n,C@3@{-$#L ..3@d 3@5@S.O.F#f*R.K+^+F#5@y@y@'@5@F#6+S.Y@5@(+3@F#Y@R.R.S.^+R.k*^+S.G+",
"R.S.^+R.R.Y@Y@'@k*k*R.5@y@R.Y@'@G+]+O.y@6@5@3@5@^+-.8+5@(+6@$#3@5@5@O.c$]+A@6@5@L ##o,p,q,{-(+B@'$2@A@n$a+*+J$G+Y>: : : : : : : : : : : : : : : : : : : r,e f+)+&+F#D%A@2@A@0$v-s,t,u,2@A@L@A@A@Z F#d l+O.O.5@S.f*R.{.y@y@3@6@Y@O>S.O.6+O.F#5@5@3@F#Y@R.O.O.f*^+-.G+-.;.",
"6+^+^+^+k*k*k*^+S.^+R.O.Y@R.k*k*{@G+S.O.6@3@A@5@^+p$L+5@A@6@3@6@e@5@5@K+R.d l+A@C@v,w,x,y,y@6@A@B@L A@n$'+*+J$.%Y>: : : : : : : : : : : : : : : : : : : z,l+f+>+%+6@2@(+[#3@6@A,B,C,D,L@A@5@e@3@Z S.A@l+S.O.5@O.f*R.*.^+5@(+3@Y@k*S.O.G+S.O.F#y@e@O.O.^+Y@R.k*^+6+-.V>c$",
"G+6+6+R.Y@Y@R.f*6@y@5@e@S.R.^+R.{@J+S.S.S.5@l+F#5@-.K+^+)$(+A@L@e@L@f*q$.%l+d A@A@{#E,F,G,O.6@F#3@$#d@;.};&+^+H+Y>: : : : : : : : : : : : : : : : : : : k,l+f+p.&+A@2@3@A@e@5@H,I,J,K,O.l+5@O.6@Z S.A@6@S.O.e@3@5@6+*.Y@Y@5@y@R>N.R.7 -.R.R.O.S.S.O.^+^+k*R.^+f*^+6+8+V>",
"L,6+6+R.O.Y@6+Y@e@O.F#6@e@S.R.k*6+4+^+^+O.5@l+6@6@G+{.k*e@L@(+5@5@O.Y@H-^%F#A@2@Z#&*M,N,O,R>6@F#6@L@6@c$'+*+7+G+Y>: : : : : : : : : : : : : : : : : : : P,e@@.d+%+l+2@d@3@6@d@Q,R,S,T,X*(+y@e@6@Z O.d@6@O.^+5@3@5@R.L+R.^+R.R.k*p$k*S.-.R.Y@5@Y@y@^+f*S.^+k*^+Y@R.{@n$-.",
"-.6+R.6+Y@Y@R.Y@5@S.S.e@6@6@O.R.6+G+^+R.y@F#6@e@O.;.g+k*y@5@L@X=f*X=Y@g+>.6@F#5@(+=@U,V,W,O.6@e (+(+S.{.)+*+S.]%Y>: : : : : : : : : : : : : : : : : : : X,{% .u=%+l+C@2@A@2@2@m&Y,Z,`,q+5@X=f*F#Z F#(+y@Y@k*S.e@O.]+^.R.R.^+k*k*p$k*S.;.^+O.e@e@5@^+O.S.Y@R.S.R.R.6+-.-.",
"-.-.N.p$k*'@f*Y@5@O.y@5@F#e@y@^+G+G+^+R.y@5@e@y@^+;.g+6+R.5@e@Y@Y@5@Y@g+>.6@5@y@6@ '.'+'j,5@4@4@F#l+y@f+c+%+^+G+@': : : : : : : : : : : : : : : : : : : X,{%Z >+@+l+C@$#A@d@2@#'$'%'1>2@O.5@f*6@Z ^+O.>>5@'@R.O.%%;.@.G+k*R.k*6+N.6+7+;.R.S.O.F#S.^+S.O.R.O.S.S.^+6+G+G+",
"-.G+-.-.p$R.f*y@O.S.s@O.S.S.O.S.{@G+^+R.O.Y@R.k*k*8+j+-.N.R.f*^+X=5@Y@f+4+O.y@y@6@&'.'*'),L@0 e F#F#S.z$;+&+.%H+@': : : : : : : : : : : : : : : : : : : X,F#M+>+@+I$$#L@6@e@$#='e,-';')$O.e@y@Y@M+6+Y@f*^+'@^+^+R.].Z G+6+k*k*6+{@G+^+4+I+R.R.R.R.R.^+O.s@O.R.6+^+6+R.N.",
";.G+N.{@N.'@k*S.O.S.S.7 f*S.y@^+-.J+^+R.R.k*p${@G+c$j+-.k*N.k*'@X=Y@k*z$J+^+O.e@e@ '>','''2@1@A@l+F#^+h+)+&+]%H+@': : : : : : : : : : : : : : : : : : : )'O.i+p.&+O.F#y@5@O.5@^>!'~'n,2@L@(+3@O.i+p$R.^+6+^+^+R.-.L++.-.G+k*k*6+G+6+S.>.-.G+6+p$-.-.R.s@S.S.^+N.Y@^+R.I+",
";.6+G+-.{@k*N.k*S.^+S.O.^+S.S.R.4+0 y@R.N.p$-.6+k*8+j+-.p${@R.f*Y@'@k*j+.%s@O.e@e@{*b,{'''2@B@e l+3@O.@.c+&+]+]+@': : : : : : : : : : : : : : : : : : : ]'O.~+j.&+S.F#5@Y@'@5@^'!'/'('B=3@$#e@F#[.R.R.f*6+O.R.k*-.c$Z p$k*6+6+N.G+^+I$M$G+R.R.k*X>n$6+^+R.S.R.R.^+^+R.R.",
";.J+G+N.R.R.N.R.f*R.S.O.f*O.^+G+{%S.R.G+-.8+f+-.I+*.g+G+k*-.6+^+f*'@^+/+J+S.O.O.e@{*b,_':')$d 0 F#6@O./+b>*+^+$%@': : : : : : : : : : : : : : : : : : : ]'I$U p.&+S.y@f*S.O.>><'!'/'['B=(+6@3@3@M+^+R.S.G+^+R.R.N.L+Z k+G+@.-.N.6+6+O.l+;.R.R.Y@p$n$6+^+]+^+R.^+6+G+6+G+",
"V>;..%I+R.R.6+6+^+f*y@O.5@O.^+L+]+^+6+;.8+}' %8+N+` j+@./+j+M.{.g+j+;.{.-.S.5@O.3@{*|'c,),L@A@A@0 {%S.K+c*&+d=.%1': : : : : : : : : : : : : : : : : : : 2'O.` k.3'S.Y@^+y@O.L@4'5'6'n,*$6@l+A@3@{+6+Z L+^.Z /+/+Z g+R 5+c$Z ` ;.N.6+S.I$/+6+^+^+8+;.G+k*6+G+R.R.G+6+6+;.",
"8+-.G+G+R.R.G+G+R.Y@^+^+O.Y@{@g+G+R.G+8+}._.4+K+` Z 4$_.>+P <.0+}''+G+g+8+^+X=S.l+3+7'8'9'5@e A@6@F#O.{.c+&+]+H+1': : : : : : : : : : : : : : : : : : : 0'{%U o.$+S.X=^+O.y@y@<'e,a'b'<#6@e@F#6@{+G+9+S c'd'e'R W !+Z P {.~.Z ` >.N.S.F#@.-.R.R.-.G+R.R.p$G+R.6+;.6+.%;.",
"].-.-.N.6+6+R.R.^+^+Y@k*%%%%8+g+G+6+-.{.` =.f+R {+g+Z -+}.R b>}'-+R q$h+8+S.Y@^+5@h&f'g'h'5@e l+F#5@y@/+c+&+G+J+1': : : : : : : : : : : : : : : : : : : ,-S.~+k.#+O.y@y@6@6@e@v-e,i'b'$#F#O.O.F#{+>.P j'W U=d'2&k'l'[.{+P f+5+` {.R.^+7 Z -.R.R.R.6+^+R.k+6+G+G+6+N.G+-.",
"L+;.;.G+G+I+G+G+6+R.k*G+^+^+;.g+J+6+8+4+8+/+` }./+f+m'R T !+}'J=2&0+c$h+4+6@y@f*6@:#n'o'p'5@l+A@O.O.k*L%;+&+]%K$1': : : : : : : : : : : : : : : : : : : q'J$S u=%+S.O.6@l+l+3@r's't'u'A@5@Y@S.F#X ;.~+T v'}'b>w'T J=~+f+{.2&Z {.N.-.R.7 Z 8+6+R.k*R.^+^+G+R.6+^+^+G+.%8+",
"c$c$c$-.k*^+R.G+-.-.G+-.I+R.;.K+J$^+8+K+/+~+X x'>.{.L%5+q$K+f+/+/+j+M$=.R.l+5@6@A@2@y'z'A'O.6@l+S.O.R.h+c+o.]+=.1': : : : : : : : : : : : : : : : : : : B'R.` >+=+7+S.y@F#l+L@C'{=D'E'B@F#Y@F#6@[.I$/+2>g+L++-/+j+@.j+*.F' %P g+c$p$6+6@h+c$G+k*6+G+R.S.R.7+%%S.^+6+8+L+",
"L+K+c$-.L,R.R.G+-.-.G+G+G+G+8+L+9#j@3+9#G#-.g+/+M.M.Z {+{+M.c=i+~+9+Z @.I$6@O.l+d O.G'H'I'O.F#O.^+S.R.h+'+=.{%^%1': : : : : : : : : : : : : : : : : : : B'I+-.P =+I+O.S.e@6@O.($P=J'O=0 7 S.e@0 2>f+Z b+c=[.{+X {+[.M+{+Z M+{.i#{*[%K',&{.L+G+R.R.G+G+J$S.7+6+R.G+-.8+8+",
"{.{.L+L'G+-.-.6+6+6+6+R.G+-.c$Z H+7+S.S.6@7*=@U$G#;%9#Z#B=0#B=j#i&M'N'1@{%F#S.A@R.O'|*G,0-R.O.^+R.^+k*j+ .C@O.=.1': : : : : : : : : : : : : : : : : : : P'G+F#=.>+k*S.5@3@5@k*7;Q'R'S'=.F#e@l+6@5@T'U'V'$#i&9#7*G#w*K%3+0&{*3+J I$S.e@6@{+L+G+G+{@p$k+]+7+]+G+R.]+-.4+8+",
"K+K+L+;.-.8+8+-.6+R.G+R.6+-.o$ .H+R.^+Y@^+F#(+O.6@A@l+O.S.S.N.^+k*k*O.S.O.F#O.A@6+W'X'c=Z R.O.R.k*k*6+h+U ^+S.=.1': : : : : : : : : : : : : : : : : : : Y'^+J$/+p.R.^+f*6@6@k*Z'`' ).)/+0 l+l+e Y@O.O.5@e@5@^+e@A@6@F#^+^+^+y@S.R.R.^+O.~+c$p$-.;.;.-.]+R.G+-.6+.%-.-.8+",
"K+{.L+-.;.8+c$-.6+G+-.G+p$p$n$Z .%{%S.^+^+S.F#R.F#A@e@F#O.O.R.^+R.R.F#l+^+S.O.F#-.7,+)i+@.R.S.R.k*6+6+h+` k*^+~.@): : : : : : : : : : : : : : : : : : : #)R.^+f+k.R.R.^+5@6@k*H-7,P 7, .O.6@6@e@l+F#O.O.6@F#R.S.O.F#S.s@^+G+6+^+6+6+S.S.~+*.8+n$;.V>-.]+6+-.>.J+-.;.=.c$",
"5+*.>.8+-.8+8+8+G+-.G+6+-.;.c$Z J+S.^+R.^+R.J$R.O.O.O.J$R.S.R.R.O.6@l+O.^+R.s@S.>.$)%){+@.R.O.R.G+I+G+Z ` 6+R.^.@): : : : : : : : : : : : : : : : : : : &)R.R. .k.6+^+6+S.F#R.L+U>4$;+@.J$F#O.6@e 0 e@6@e F#R.S.s@7 R.R.G+-.k*^+S.R.y@7 [.K+8+c$L+L+;.]+R.N.8+=.>.L,=.c$",
"=.=.c$c$-.8+c$8+-.-.-.-.G+n$c$+.]%S.%%6+6+R.G+6+J$*)S.^+J$J$s@S.6@A@F#S.S.R.R.R.>.;+@+ =_.I+R.R.G+G+L,Z ~+-.R.$.@): : : : : : : : : : : : : : : : : : : =)]%I+..k.6+R.G+]+F#R.*.b+4$)+f+e@e@F#7 F#S.d 6@6@O.^+S.R.S.J$J$G+R.f*^+5@^+S.F#~+K+8+c$L+{.=.G+]+6+;.8+c$8+L+N+",
"c$c$L+c$n$$@c$c$;.;.8+V>;.n$o$Z ]%S.R.G+G+^+.%G+R.S.F#S.J$R.R.S.6@e@O.S.s@R.6+]+=.>++)i+X J+R.N.-.G+G+Z S ;..% .-): : : : : : : : : : : : : : : : : : : =)R.I+ .*+-.G+L,6+R.6+*.;)P 0*@.S.7 7 4@7 3@A@0 S.^+6+S.J$S.J$J$G+N.f*^+R.O.S.F#~+{.V>].L+g+=.G+6+{@c$5+5+L+{./+",
"c$q$K+d$].L+c$$@;.>.V>c$c$;.L+Z H+S.R.6+J$S.G+G+I+O.0 0 J$I+R.R.7 7 S.O.O.S.^+6+c$>+@+[.Z ;.6+-.8+;.k+Z T ;..% .-): : : : : : : : : : : : : : : : : : : =)R.G+Z @+-.6+G+N.-.8+g+b+4$0*Z I+R.R.S.s@4@F#{%J$R.^+S.R.S.J$J$O.R.F#J$^+O.S.0 ~+{.c$c$K+g+=.4+>.4+=.*.5+{.{.{.",
"L+L+5+*.c$L+L+L+;.c$d$d$=.c$L+{+(%R.G+^+O.^+k*R.R.R.9 7 J$I+R.R.^+O.O.S.R.I+R.I+=.T b+@.Z >..%-.>.-.>.{+P >.;. .-): : : : : : : : : : : : : : : : : : : >)J+-.Z o.4+G+;.r+8+8+f+P X }.@.G+G+R.R.s@S.0 F#O.R.R.S.R.R.R.R.s@J$7 S.S.S.S.d ~+g+c$L+L+K+c$;.c$=.L+*.L+*.K+K+",
"{.K+K+*.K+K+{.K+c$K+L+=.L+L+{.Z 7+]+]+R.R.^+6+R.R.J$J$s@R.R.R.O.R.I+J$S.I+.%6+I+=.b+Z /+ .>.L';.8+;.L+{+S =.>. .-): : : : : : : : : : : : : : : : : : : ,)>.>.Z k.8+4+8+r+8+=.f+Z ^%[.@.G+;.-.G+6+^+S.J$F#')I+R.6+I+L,N.I+R.s@R.I+R.6+O.@.@.L+c$K+K+c$=.*.*.{.%./+K+K+f+",
"Z h+j+j+g+g+f+f+{.{.{.K+K+{.Z 7+R.R.G+R.6+R..%6+R.R.*)I+I+I+R.R.R.R.J$6+G+;.H+R@=.4$))~.Z =.;.$@N+;.$@[.P ^%>. .-): : : : : : : : : : : : : : : : : : : !)>.>.Z k.8+-.;.8+;.8+{. .<+~+ %9%-.-.;.-.6+6+R.^+.%G+.%G+L'L'L,N.G+G+I+.%R.-.G+^+0-/+{.g+j+%.{.{.f+j+h+h+Z @.Z ",
"P P 4$P 4$4$` ~+` ` ` ~+[.~+>.4+>.>.=.;.>.>.=.>.;.;.;.;.>.>.>.>.;.;.;.;.>.=.^%K$ .0+}.R c$c$>.N+*.c$;.` O =.>.X -): : : : : : : : : : : : : : : : : : : ~)^%>.[.%+-.;.8+;.;.L+c$` T b+{+]%=.L+c$>.4+;.N+8+=.=.8+=.N+=.;.>.=.=.=.=.=.*.^.*.-.~+c=~+1-` ~+~+4$4$4$P P P b+",
"g+H-c$q${.f+h+g+L%{.{.{.o$=.Z >+*+#+$+e+#+&+&+%+*+&+&+%+%+%+%+*+&+@+u=c*0+!+b>,+0+{+h+>.L+{.%./+f+<.~.O N =.>.X -): : : : : : : : : : : : : : : : : : : ~)>.{)X @+G+@.Z K+5+/+5+=.M.h+P !+>+>+,+c+p.k.%+#+])&+&+e+$+#+#+e+])#+&+@+&+&+%+k.~+7;8+n$d$o$o$c$d$c$L+{.L%h+f+",
"F.^)/)/)()/)/)/)()_)()/)():)()^)F.^)`.<)Y.[) +[)/)()/)()/) +F.F.F./)/)()/)/)[)/)()/)[)/)F.`.Z.Y.F.F.})|)P L+*.U -): : : : : : : : : : : : : : : : : : : 1)*.*.9+2)3)^)F.`.4)`.F.^)/)5)5)5)()/)/)[)F.`.^)/) + +/)/)/)/)[)`.Y.F.^)F.^)F.[)/)5)6)7)5)/)/)F.^)/)/)/)/)8)Z.Z.",
"&+@+q.q.d+d+k.k.;+;+9)d+d+d+q.d+>+k.q.@+=+k.k.k.p.;+d+k.q.@+q.q.q.0)0)k.k.k.k.d+d+k.k.>+'+7,a)d+d+`'b)c)d)M+` b>-): : : : : : : : : : : : : : : : : : : e)2&U 1-f)g)h)7,>+a)j.0)d+a)>+;+a+;+>+q.0)d+k.k.d+0)d+9);+;+>+d+k.q.q.k.q.j.k.q.q.a);+i)j)q.k)q.q.q.u=d+d+k.@+&+",
"b K l+B@K K 9%B@~*1+L A@d d d 9%p $;d d 9%h h H D ~*p H |+A@1@B@B@K K J 1+H 1+H 1+r 1+r 1+1+I K 9%B@L C@|+I 1+h*e=: : : : : : : : : : : : : : : : : : : l)q*I D@b$F+|+n+1+E H v*D@D@##D@m)E H K n)l 1@B@2@B@D@H H p $;I 1+h*h*D@H b$h*1@A@A@B@|+4*0 F#e 0 7 9%B@B@o)B@O+",
"H=p)p)q)q)p)r)r)s)q)t)u)v)w)x)y)z)A)q)B)H=q)A)C)z)D)E)F)C)q)H=H=H=q)H=q)F)G)H)G)I)I)I)s)A)A)q)H=r)J)H=H=H=p)H)K)<-: : : : : : : : : : : : : : : : : : : L)q)p)p)y)y)y)A)F)M)N)A)G)O)y)A)I)P)F)s)Q)A)q)H=H=H=s)I)F)F)A)y)A)y)H)P)G)I)A)s)H=H=H=H=t)R)R)t)R)S)T)w)w)w)H=r)"};
