/* XPM */
static char * so_door20_tex_xpm[] = {
"132 132 1441 2",
"  	c #2D3741",
". 	c #2E3841",
"+ 	c #2D3842",
"@ 	c #2E3944",
"# 	c #2E3943",
"$ 	c #2F3A45",
"% 	c #2E3842",
"& 	c #2F3B46",
"* 	c #2F3944",
"= 	c #2F3A46",
"- 	c #303C46",
"; 	c #303B46",
"> 	c #303C47",
", 	c #303A45",
"' 	c #313D4A",
") 	c #313E4A",
"! 	c #323E4A",
"~ 	c #323F4A",
"{ 	c #313D48",
"] 	c #35393C",
"^ 	c #393939",
"/ 	c #303B45",
"( 	c #323F4B",
"_ 	c #313D49",
": 	c #303C48",
"< 	c #2E3843",
"[ 	c #2E3A44",
"} 	c #2E3942",
"| 	c #253646",
"1 	c #253645",
"2 	c #253544",
"3 	c #243544",
"4 	c #253545",
"5 	c #263746",
"6 	c #273847",
"7 	c #263645",
"8 	c #273645",
"9 	c #283847",
"0 	c #283948",
"a 	c #293A49",
"b 	c #283949",
"c 	c #273848",
"d 	c #293B4A",
"e 	c #293949",
"f 	c #293B4B",
"g 	c #293A4A",
"h 	c #2A3B4B",
"i 	c #2A3B4A",
"j 	c #2B3D4C",
"k 	c #2C3F4F",
"l 	c #2D3F4F",
"m 	c #2C3F50",
"n 	c #2D4151",
"o 	c #2C3D4C",
"p 	c #33393E",
"q 	c #2B3C4B",
"r 	c #2A3C4B",
"s 	c #293C4B",
"t 	c #2D4050",
"u 	c #283848",
"v 	c #283A49",
"w 	c #273948",
"x 	c #273947",
"y 	c #263846",
"z 	c #253746",
"A 	c #18242E",
"B 	c #17242D",
"C 	c #17222D",
"D 	c #17232D",
"E 	c #192530",
"F 	c #19242F",
"G 	c #1A2630",
"H 	c #1A2732",
"I 	c #1A2631",
"J 	c #1A2833",
"K 	c #18252F",
"L 	c #1B2833",
"M 	c #1B2834",
"N 	c #1A2733",
"O 	c #1B2934",
"P 	c #1C2934",
"Q 	c #1C2A35",
"R 	c #1C2A36",
"S 	c #1D2A36",
"T 	c #1D2B38",
"U 	c #1E2D39",
"V 	c #1F2F3C",
"W 	c #1F2E3B",
"X 	c #1F2E3A",
"Y 	c #1F2C39",
"Z 	c #313437",
"` 	c #303337",
" .	c #1F2C38",
"..	c #1E2C38",
"+.	c #1C2B37",
"@.	c #1D2D3A",
"#.	c #1D2B37",
"$.	c #1C2935",
"%.	c #1B2733",
"&.	c #1B2933",
"*.	c #1A2632",
"=.	c #1A2731",
"-.	c #192631",
";.	c #192630",
">.	c #19252F",
",.	c #070D12",
"'.	c #070D11",
").	c #070C11",
"!.	c #070B10",
"~.	c #070C10",
"{.	c #080D12",
"].	c #070D13",
"^.	c #080E12",
"/.	c #080E13",
"(.	c #080F14",
"_.	c #080D13",
":.	c #080E14",
"<.	c #090E14",
"[.	c #091015",
"}.	c #09131B",
"|.	c #091C2B",
"1.	c #0F1E29",
"2.	c #131F27",
"3.	c #131E27",
"4.	c #131C24",
"5.	c #2F3031",
"6.	c #2E2F31",
"7.	c #131E26",
"8.	c #141F28",
"9.	c #121E27",
"0.	c #091C29",
"a.	c #08151F",
"b.	c #081015",
"c.	c #090F14",
"d.	c #090F15",
"e.	c #0C141A",
"f.	c #0D151B",
"g.	c #0C141B",
"h.	c #0B131A",
"i.	c #0D151C",
"j.	c #0E171E",
"k.	c #0B1218",
"l.	c #0B1319",
"m.	c #0C151B",
"n.	c #0A1117",
"o.	c #0A1116",
"p.	c #0C1319",
"q.	c #0E1821",
"r.	c #0F1E2A",
"s.	c #192733",
"t.	c #20303E",
"u.	c #223341",
"v.	c #303336",
"w.	c #2F3236",
"x.	c #21313F",
"y.	c #223340",
"z.	c #101E28",
"A.	c #0E1A23",
"B.	c #0B151B",
"C.	c #0A1218",
"D.	c #0F161E",
"E.	c #0E161D",
"F.	c #0D161C",
"G.	c #0E171D",
"H.	c #0F181F",
"I.	c #121D26",
"J.	c #131D26",
"K.	c #131D27",
"L.	c #142028",
"M.	c #14202A",
"N.	c #142029",
"O.	c #16212B",
"P.	c #15222C",
"Q.	c #15212B",
"R.	c #16222B",
"S.	c #182530",
"T.	c #192732",
"U.	c #21313E",
"V.	c #21323F",
"W.	c #1C2B36",
"X.	c #233644",
"Y.	c #1E303F",
"Z.	c #293C4C",
"`.	c #233340",
" +	c #313438",
".+	c #2F3337",
"++	c #263947",
"@+	c #283B4A",
"#+	c #192834",
"$+	c #263B4B",
"%+	c #1F2F3B",
"&+	c #1D2C38",
"*+	c #20313E",
"=+	c #22333F",
"-+	c #1E2E3A",
";+	c #192731",
">+	c #16222C",
",+	c #15212C",
"'+	c #16232D",
")+	c #15202A",
"!+	c #131F28",
"~+	c #182631",
"{+	c #1A2934",
"]+	c #1B2935",
"^+	c #1F303C",
"/+	c #243644",
"(+	c #273949",
"_+	c #283B4B",
":+	c #2A3E4E",
"<+	c #2C4253",
"[+	c #243847",
"}+	c #1E2E3B",
"|+	c #283C4C",
"1+	c #2A3F4F",
"2+	c #243442",
"3+	c #313538",
"4+	c #303438",
"5+	c #283A4B",
"6+	c #293D4D",
"7+	c #273B4C",
"8+	c #2D4253",
"9+	c #2B4050",
"0+	c #2B3F4F",
"a+	c #2B4051",
"b+	c #2A3E4D",
"c+	c #263948",
"d+	c #20303D",
"e+	c #202F3B",
"f+	c #21303E",
"g+	c #20303C",
"h+	c #1B2A36",
"i+	c #1C2B38",
"j+	c #1D2C39",
"k+	c #192632",
"l+	c #1B2A35",
"m+	c #263744",
"n+	c #2C4151",
"o+	c #2C4152",
"p+	c #2A3F4E",
"q+	c #2E4354",
"r+	c #2E4455",
"s+	c #2D4353",
"t+	c #2F4456",
"u+	c #2D4354",
"v+	c #2D4454",
"w+	c #32485A",
"x+	c #324A5C",
"y+	c #32495B",
"z+	c #32495C",
"A+	c #31485B",
"B+	c #31485A",
"C+	c #2C4354",
"D+	c #1E303E",
"E+	c #1E2D3A",
"F+	c #293E4E",
"G+	c #2A3E4F",
"H+	c #2E4557",
"I+	c #263C4C",
"J+	c #2A3F50",
"K+	c #323639",
"L+	c #303539",
"M+	c #2B4153",
"N+	c #203240",
"O+	c #2D4355",
"P+	c #293D4E",
"Q+	c #2B3F51",
"R+	c #1F2F3D",
"S+	c #293D4B",
"T+	c #344B5E",
"U+	c #314658",
"V+	c #314859",
"W+	c #2F4557",
"X+	c #304658",
"Y+	c #2D4252",
"Z+	c #2B4151",
"`+	c #2B3F50",
" @	c #2C4051",
".@	c #223442",
"+@	c #233342",
"@@	c #233543",
"#@	c #1E2C39",
"$@	c #2E4355",
"%@	c #2E4353",
"&@	c #2B4152",
"*@	c #304759",
"=@	c #344C5F",
"-@	c #2D4457",
";@	c #1E313F",
">@	c #243745",
",@	c #233443",
"'@	c #2A3D4E",
")@	c #2E4558",
"!@	c #2E4659",
"~@	c #294052",
"{@	c #293E4F",
"]@	c #2B4052",
"^@	c #273745",
"/@	c #32363A",
"(@	c #30353A",
"_@	c #293D4C",
":@	c #2C4355",
"<@	c #213443",
"[@	c #2F4558",
"}@	c #223240",
"|@	c #374F62",
"1@	c #2E4456",
"2@	c #2F4457",
"3@	c #2D4455",
"4@	c #2B3E4F",
"5@	c #253846",
"6@	c #223441",
"7@	c #253847",
"8@	c #304558",
"9@	c #2E4457",
"0@	c #2D4152",
"a@	c #30485B",
"b@	c #31495D",
"c@	c #2D4659",
"d@	c #1F3342",
"e@	c #223543",
"f@	c #223542",
"g@	c #2D4557",
"h@	c #30475A",
"i@	c #2B4254",
"j@	c #243645",
"k@	c #2C4254",
"l@	c #273846",
"m@	c #33373B",
"n@	c #30363B",
"o@	c #213343",
"p@	c #2F4659",
"q@	c #2A4052",
"r@	c #2C4153",
"s@	c #213240",
"t@	c #223645",
"u@	c #31485C",
"v@	c #30485A",
"w@	c #31495C",
"x@	c #31475A",
"y@	c #2E4658",
"z@	c #273A4A",
"A@	c #243746",
"B@	c #334A5C",
"C@	c #304557",
"D@	c #2D4254",
"E@	c #304659",
"F@	c #32495D",
"G@	c #324A5E",
"H@	c #1B2F3D",
"I@	c #2A3F51",
"J@	c #293E50",
"K@	c #30373C",
"L@	c #203341",
"M@	c #32495E",
"N@	c #1A2B38",
"O@	c #30495C",
"P@	c #324A5D",
"Q@	c #334B5E",
"R@	c #2F4658",
"S@	c #374E62",
"T@	c #253848",
"U@	c #344A5D",
"V@	c #304657",
"W@	c #314759",
"X@	c #334A5E",
"Y@	c #344C60",
"Z@	c #324B5F",
"`@	c #334C61",
" #	c #2E485B",
".#	c #1D3140",
"+#	c #263A49",
"@#	c #253949",
"##	c #2D4356",
"$#	c #33373C",
"%#	c #30373D",
"&#	c #1F303F",
"*#	c #233645",
"=#	c #1D2E3B",
"-#	c #334A5D",
";#	c #344D61",
">#	c #375063",
",#	c #273B4B",
"'#	c #273A4B",
")#	c #293C4D",
"!#	c #314758",
"~#	c #334B5F",
"{#	c #334C60",
"]#	c #344D62",
"^#	c #314A5F",
"/#	c #1F3241",
"(#	c #2D4357",
"_#	c #34383D",
":#	c #31383F",
"<#	c #1F303E",
"[#	c #1E2F3D",
"}#	c #324A5F",
"|#	c #30475B",
"1#	c #344D60",
"2#	c #354E61",
"3#	c #354D61",
"4#	c #344E62",
"5#	c #354D62",
"6#	c #385164",
"7#	c #233442",
"8#	c #283D4C",
"9#	c #283B4C",
"0#	c #344C5E",
"a#	c #324C5F",
"b#	c #2F485C",
"c#	c #1F3140",
"d#	c #1A2834",
"e#	c #273A49",
"f#	c #2E4458",
"g#	c #34393D",
"h#	c #31393F",
"i#	c #1E303D",
"j#	c #2D4558",
"k#	c #2C4052",
"l#	c #314A5E",
"m#	c #344C61",
"n#	c #354E62",
"o#	c #354E63",
"p#	c #385165",
"q#	c #233544",
"r#	c #253948",
"s#	c #334B5D",
"t#	c #334D61",
"u#	c #2F495D",
"v#	c #203140",
"w#	c #35393D",
"x#	c #313940",
"y#	c #2A4051",
"z#	c #233746",
"A#	c #3A5368",
"B#	c #233341",
"C#	c #2C4252",
"D#	c #334B60",
"E#	c #2F475B",
"F#	c #253947",
"G#	c #233545",
"H#	c #1C2B39",
"I#	c #2B4154",
"J#	c #2D4456",
"K#	c #243846",
"L#	c #395367",
"M#	c #344B60",
"N#	c #1E3140",
"O#	c #253747",
"P#	c #283E4F",
"Q#	c #35393E",
"R#	c #313A41",
"S#	c #293D4F",
"T#	c #1B2C39",
"U#	c #233646",
"V#	c #30465A",
"W#	c #375064",
"X#	c #273B4A",
"Y#	c #33495B",
"Z#	c #17242E",
"`#	c #203444",
" $	c #2F475A",
".$	c #353A3E",
"+$	c #313A42",
"@$	c #182734",
"#$	c #223544",
"$$	c #18242F",
"%$	c #283C4B",
"&$	c #1D2D39",
"*$	c #1C2C39",
"=$	c #314C60",
"-$	c #2B475C",
";$	c #213D51",
">$	c #243E50",
",$	c #17242F",
"'$	c #2A3D4D",
")$	c #1D2E3C",
"!$	c #253B4D",
"~$	c #253E52",
"{$	c #2A465A",
"]$	c #1E2F3B",
"^$	c #1D2E39",
"/$	c #1F303D",
"($	c #1C2C38",
"_$	c #2E4352",
":$	c #2B3E4E",
"<$	c #30485C",
"[$	c #37546B",
"}$	c #1F4965",
"|$	c #1A74A2",
"1$	c #2A495E",
"2$	c #2A4153",
"3$	c #1A2935",
"4$	c #323B43",
"5$	c #1A2A36",
"6$	c #1C2D3A",
"7$	c #2C4659",
"8$	c #2A5B7B",
"9$	c #265F82",
"0$	c #305069",
"a$	c #365064",
"b$	c #233542",
"c$	c #263A4A",
"d$	c #22323F",
"e$	c #1F2E39",
"f$	c #1E2D38",
"g$	c #20313D",
"h$	c #20303B",
"i$	c #1D2C37",
"j$	c #355065",
"k$	c #1D4864",
"l$	c #127BB7",
"m$	c #2A4A61",
"n$	c #2C4356",
"o$	c #283E4E",
"p$	c #1B2B38",
"q$	c #2E4A5E",
"r$	c #286388",
"s$	c #246287",
"t$	c #2F4E66",
"u$	c #202F3A",
"v$	c #253745",
"w$	c #293B4C",
"x$	c #1B2A34",
"y$	c #202F3C",
"z$	c #233440",
"A$	c #1D2C36",
"B$	c #21303B",
"C$	c #21313D",
"D$	c #21333F",
"E$	c #385268",
"F$	c #1E4864",
"G$	c #137BB9",
"H$	c #2B4B61",
"I$	c #273C4C",
"J$	c #303941",
"K$	c #2F4A5E",
"L$	c #296489",
"M$	c #236389",
"N$	c #2F4F66",
"O$	c #30485D",
"P$	c #243543",
"Q$	c #233441",
"R$	c #21303D",
"S$	c #1F2D39",
"T$	c #243542",
"U$	c #21303C",
"V$	c #1E4966",
"W$	c #0F7CC1",
"X$	c #2B4A61",
"Y$	c #283D4D",
"Z$	c #2B404F",
"`$	c #363A3D",
" %	c #313B43",
".%	c #28658A",
"+%	c #23668D",
"@%	c #2F5067",
"#%	c #2E475A",
"$%	c #334C5F",
"%%	c #233643",
"&%	c #223440",
"*%	c #263745",
"=%	c #2E4253",
"-%	c #385368",
";%	c #1F4966",
">%	c #0E7DC4",
",%	c #2C4B62",
"'%	c #36393D",
")%	c #313A43",
"!%	c #2A6488",
"~%	c #22668F",
"{%	c #2F5069",
"]%	c #2A3E50",
"^%	c #283A4A",
"/%	c #263848",
"(%	c #243646",
"_%	c #365267",
":%	c #1E4765",
"<%	c #1279C2",
"[%	c #2D4A61",
"}%	c #303A44",
"|%	c #2A668B",
"1%	c #216690",
"2%	c #2F526B",
"3%	c #2C4456",
"4%	c #32485B",
"5%	c #365167",
"6%	c #1277C2",
"7%	c #2F485D",
"8%	c #2B658A",
"9%	c #206692",
"0%	c #30526B",
"a%	c #31495E",
"b%	c #293F4F",
"c%	c #293F50",
"d%	c #233745",
"e%	c #354F65",
"f%	c #1E4967",
"g%	c #107AC4",
"h%	c #2E4C63",
"i%	c #363A3E",
"j%	c #313B45",
"k%	c #293E4D",
"l%	c #1B2B36",
"m%	c #2F495E",
"n%	c #2B658C",
"o%	c #1F6693",
"p%	c #30536D",
"q%	c #2C4457",
"r%	c #344F64",
"s%	c #0F7BC7",
"t%	c #2D4C63",
"u%	c #2F3A43",
"v%	c #2C658B",
"w%	c #1F6692",
"x%	c #30526C",
"y%	c #2D4458",
"z%	c #283C4D",
"A%	c #26394A",
"B%	c #1E4763",
"C%	c #0F7AC6",
"D%	c #2C4C63",
"E%	c #2F4A5F",
"F%	c #21668F",
"G%	c #2F5169",
"H%	c #2C4255",
"I%	c #2A4050",
"J%	c #283D4E",
"K%	c #204763",
"L%	c #0F7CC6",
"M%	c #303B44",
"N%	c #216790",
"O%	c #2A4152",
"P%	c #1F4763",
"Q%	c #0E7DC5",
"R%	c #2C4D64",
"S%	c #2F3B45",
"T%	c #2B4253",
"U%	c #304A5F",
"V%	c #22658F",
"W%	c #2F4759",
"X%	c #1F4864",
"Y%	c #0D7EC7",
"Z%	c #2D4E65",
"`%	c #2B6386",
" &	c #23648C",
".&	c #1D445F",
"+&	c #127CBC",
"@&	c #2B4B62",
"#&	c #18252E",
"$&	c #36393C",
"%&	c #2F3A44",
"&&	c #2E4559",
"*&	c #2D475B",
"=&	c #2B6081",
"-&	c #266083",
";&	c #2B4A60",
">&	c #2A3F52",
",&	c #1F3A4E",
"'&	c #2A5875",
")&	c #253F53",
"!&	c #254A62",
"~&	c #224862",
"{&	c #1C3040",
"]&	c #253A49",
"^&	c #2C4759",
"/&	c #244055",
"(&	c #254F69",
"_&	c #243C4E",
":&	c #2E3A43",
"<&	c #273E50",
"[&	c #25485E",
"}&	c #254962",
"|&	c #294458",
"1&	c #304758",
"2&	c #1D4561",
"3&	c #1B73A7",
"4&	c #28485F",
"5&	c #37393C",
"6&	c #293F51",
"7&	c #294356",
"8&	c #2A5F80",
"9&	c #255F83",
"0&	c #2C4960",
"a&	c #1D4764",
"b&	c #127BBD",
"c&	c #2A4B62",
"d&	c #2E3A45",
"e&	c #2C475B",
"f&	c #236289",
"g&	c #2E4D65",
"h&	c #1E4A67",
"i&	c #107CC4",
"j&	c #2A4A62",
"k&	c #293E4C",
"l&	c #2E3A46",
"m&	c #2C485D",
"n&	c #29668C",
"o&	c #216590",
"p&	c #1E4866",
"q&	c #107BC4",
"r&	c #2D3A44",
"s&	c #29668A",
"t&	c #206792",
"u&	c #2D4F68",
"v&	c #304859",
"w&	c #1E4A68",
"x&	c #107BC3",
"y&	c #2A4961",
"z&	c #37393B",
"A&	c #2D3943",
"B&	c #2B475B",
"C&	c #263949",
"D&	c #1D4966",
"E&	c #1279BD",
"F&	c #2A485F",
"G&	c #2D3A45",
"H&	c #2B4559",
"I&	c #296386",
"J&	c #236489",
"K&	c #2D4F67",
"L&	c #2B4252",
"M&	c #1579B5",
"N&	c #29485E",
"O&	c #2B4558",
"P&	c #296082",
"Q&	c #256083",
"R&	c #2A3D4C",
"S&	c #263B4C",
"T&	c #1D2F3B",
"U&	c #1A384C",
"V&	c #21526E",
"W&	c #253E51",
"X&	c #2C3842",
"Y&	c #214962",
"Z&	c #204962",
"`&	c #2B4457",
" *	c #1A2A37",
".*	c #1A3040",
"+*	c #2C3742",
"@*	c #1D303F",
"#*	c #1C2E3D",
"$*	c #263845",
"%*	c #17232E",
"&*	c #2C3944",
"**	c #253A48",
"=*	c #38393B",
"-*	c #2D3B45",
";*	c #15212A",
">*	c #37393A",
",*	c #2B3944",
"'*	c #152029",
")*	c #1F303B",
"!*	c #213442",
"~*	c #213340",
"{*	c #273C4A",
"]*	c #18242D",
"^*	c #273A48",
"/*	c #38393A",
"(*	c #2C3945",
"_*	c #20313F",
":*	c #172B39",
"<*	c #182833",
"[*	c #2B3844",
"}*	c #172936",
"|*	c #213647",
"1*	c #253845",
"2*	c #284155",
"3*	c #1B3F56",
"4*	c #255A77",
"5*	c #1F394B",
"6*	c #273B49",
"7*	c #293F4E",
"8*	c #2A3843",
"9*	c #223746",
"0*	c #285773",
"a*	c #1B445D",
"b*	c #223E53",
"c*	c #294357",
"d*	c #1D4159",
"e*	c #1973A8",
"f*	c #24648A",
"g*	c #2B495F",
"h*	c #293642",
"i*	c #275471",
"j*	c #0F7DC0",
"k*	c #1E4964",
"l*	c #264257",
"m*	c #294153",
"n*	c #1D3F56",
"o*	c #1C6F9F",
"p*	c #1E6D9C",
"q*	c #2D536D",
"r*	c #293743",
"s*	c #304D64",
"t*	c #285E81",
"u*	c #0980C9",
"v*	c #1E4863",
"w*	c #264055",
"x*	c #273C4D",
"y*	c #1B3648",
"z*	c #1A72A5",
"A*	c #2D5570",
"B*	c #192833",
"C*	c #2A3844",
"D*	c #24638A",
"E*	c #147AB2",
"F*	c #1C3E54",
"G*	c #273C4B",
"H*	c #1A3141",
"I*	c #1D3B4F",
"J*	c #285D7C",
"K*	c #2B536D",
"L*	c #293844",
"M*	c #2F4D65",
"N*	c #285A78",
"O*	c #1F425A",
"P*	c #1A3346",
"Q*	c #253C4E",
"R*	c #1B394F",
"S*	c #275876",
"T*	c #285A77",
"U*	c #2A4C62",
"V*	c #293845",
"W*	c #2D4A60",
"X*	c #224D68",
"Y*	c #206A96",
"Z*	c #1C4057",
"`*	c #253F52",
" =	c #253946",
".=	c #263B4A",
"+=	c #1D3C53",
"@=	c #275777",
"#=	c #127DBD",
"$=	c #2C4E65",
"%=	c #1971A8",
"&=	c #216692",
"*=	c #1B3E56",
"==	c #263E51",
"-=	c #283E51",
";=	c #1E3D54",
">=	c #265474",
",=	c #2D5774",
"'=	c #2B465B",
")=	c #182630",
"!=	c #21323E",
"~=	c #383939",
"{=	c #263641",
"]=	c #2C4559",
"^=	c #2E526D",
"/=	c #1474B3",
"(=	c #236189",
"_=	c #1B3D56",
":=	c #263C4F",
"<=	c #253A4A",
"[=	c #283F50",
"}=	c #1D3C54",
"|=	c #234E6C",
"1=	c #0782D3",
"2=	c #2B5B7B",
"3=	c #2C485E",
"4=	c #15222A",
"5=	c #263440",
"6=	c #141F27",
"7=	c #2C4458",
"8=	c #2D5470",
"9=	c #0E7ABF",
"0=	c #265B7D",
"a=	c #1A3A4F",
"b=	c #243A4B",
"c=	c #1E3B50",
"d=	c #1F4C6A",
"e=	c #0382DA",
"f=	c #2A5C7E",
"g=	c #2C4A60",
"h=	c #24323F",
"i=	c #233642",
"j=	c #141E26",
"k=	c #0E7CC3",
"l=	c #275676",
"m=	c #193549",
"n=	c #25394B",
"o=	c #243948",
"p=	c #1E3241",
"q=	c #193950",
"r=	c #295F82",
"s=	c #2C4A62",
"t=	c #1E2E39",
"u=	c #1C2933",
"v=	c #151F27",
"w=	c #2B5471",
"x=	c #1A2C3A",
"y=	c #213341",
"z=	c #253A4B",
"A=	c #162936",
"B=	c #1A3447",
"C=	c #2B516C",
"D=	c #2D4B61",
"E=	c #1C2C37",
"F=	c #333537",
"G=	c #282D32",
"H=	c #284F69",
"I=	c #1E4256",
"J=	c #162733",
"K=	c #162835",
"L=	c #283C4A",
"M=	c #101C25",
"N=	c #141D26",
"O=	c #353738",
"P=	c #252E35",
"Q=	c #24394A",
"R=	c #1A2D3A",
"S=	c #172430",
"T=	c #203340",
"U=	c #16242E",
"V=	c #182732",
"W=	c #152531",
"X=	c #122C3E",
"Y=	c #103C55",
"Z=	c #383839",
"`=	c #212F3A",
" -	c #213342",
".-	c #2B4354",
"+-	c #17252F",
"@-	c #273D4C",
"#-	c #1C303D",
"$-	c #162C3B",
"%-	c #124361",
"&-	c #11688D",
"*-	c #103447",
"=-	c #35383A",
"--	c #29343E",
";-	c #1A2933",
">-	c #1B3140",
",-	c #153143",
"'-	c #134B6C",
")-	c #0B729B",
"!-	c #10394F",
"~-	c #35383B",
"{-	c #293640",
"]-	c #2C4558",
"^-	c #273D4E",
"/-	c #213645",
"(-	c #245570",
"_-	c #27455C",
":-	c #263C4D",
"<-	c #163449",
"[-	c #144D6E",
"}-	c #0A749E",
"|-	c #103B52",
"1-	c #283641",
"2-	c #284255",
"3-	c #263F52",
"4-	c #205371",
"5-	c #233B4D",
"6-	c #233B4C",
"7-	c #127CA8",
"8-	c #274F6C",
"9-	c #263D4F",
"0-	c #153449",
"a-	c #154D6F",
"b-	c #0774A3",
"c-	c #103B53",
"d-	c #29495F",
"e-	c #0E7BAD",
"f-	c #234358",
"g-	c #1B2B37",
"h-	c #243E4F",
"i-	c #0A84B7",
"j-	c #28516F",
"k-	c #273E51",
"l-	c #294051",
"m-	c #1B303F",
"n-	c #153247",
"o-	c #144C6E",
"p-	c #0675A5",
"q-	c #0F3A52",
"r-	c #284256",
"s-	c #283E4D",
"t-	c #2A4B61",
"u-	c #0783B8",
"v-	c #24455B",
"w-	c #0E81B0",
"x-	c #28506C",
"y-	c #153347",
"z-	c #144C6D",
"A-	c #0973A0",
"B-	c #28343F",
"C-	c #274053",
"D-	c #2A495F",
"E-	c #0C7EAC",
"F-	c #233848",
"G-	c #275E7C",
"H-	c #29475D",
"I-	c #1C3141",
"J-	c #153043",
"K-	c #144A6B",
"L-	c #0975A1",
"M-	c #103B51",
"N-	c #284154",
"O-	c #275B77",
"P-	c #243C4F",
"Q-	c #263F51",
"R-	c #1D3241",
"S-	c #152D3D",
"T-	c #144764",
"U-	c #0D7299",
"V-	c #11384D",
"W-	c #35373A",
"X-	c #28323C",
"Y-	c #283F51",
"Z-	c #273F51",
"`-	c #16222D",
" ;	c #15364A",
".;	c #124D69",
"+;	c #212F3B",
"@;	c #1B2D3A",
"#;	c #172A3A",
"$;	c #2D373F",
"%;	c #1E2C37",
"&;	c #1C2D39",
"*;	c #2F3439",
"=;	c #333639",
"-;	c #1E3749",
";;	c #27526E",
">;	c #27455B",
",;	c #2F363C",
"';	c #204A63",
");	c #214A60",
"!;	c #1B2E3C",
"~;	c #263847",
"{;	c #2E4759",
"];	c #224259",
"^;	c #0880D0",
"/;	c #285C7E",
"(;	c #254259",
"_;	c #33363A",
":;	c #2E343A",
"<;	c #24526F",
"[;	c #088ACD",
"};	c #254E68",
"|;	c #2A4254",
"1;	c #2F4C62",
"2;	c #285372",
"3;	c #008AE3",
"4;	c #275675",
"5;	c #254156",
"6;	c #2E3439",
"7;	c #283F53",
"8;	c #244E69",
"9;	c #0683D2",
"0;	c #276083",
"a;	c #2F5168",
"b;	c #295979",
"c;	c #0087E2",
"d;	c #265270",
"e;	c #253F54",
"f;	c #17252E",
"g;	c #33373A",
"h;	c #2E353B",
"i;	c #273D4F",
"j;	c #254A63",
"k;	c #0A7ECC",
"l;	c #216997",
"m;	c #294E68",
"n;	c #2B4356",
"o;	c #2B4E66",
"p;	c #266088",
"q;	c #0188DB",
"r;	c #25516E",
"s;	c #263F53",
"t;	c #34373B",
"u;	c #2F353C",
"v;	c #1479B7",
"w;	c #1B71A7",
"x;	c #284E68",
"y;	c #2D475C",
"z;	c #2B4F67",
"A;	c #236692",
"B;	c #117EBB",
"C;	c #234C66",
"D;	c #274052",
"E;	c #34373A",
"F;	c #2E353C",
"G;	c #26475D",
"H;	c #1D6F9E",
"I;	c #1577B4",
"J;	c #28506B",
"K;	c #2D485D",
"L;	c #213441",
"M;	c #2D485B",
"N;	c #2B4F68",
"O;	c #226994",
"P;	c #256487",
"Q;	c #213E51",
"R;	c #2B3F4E",
"S;	c #213A4C",
"T;	c #205571",
"U;	c #137AB1",
"V;	c #274F69",
"W;	c #304D63",
"X;	c #2E495D",
"Y;	c #27465C",
"Z;	c #224358",
"`;	c #224A66",
" >	c #234258",
".>	c #1B2B35",
"+>	c #264256",
"@>	c #1E4B64",
"#>	c #204157",
"$>	c #24465C",
"%>	c #2E4C61",
"&>	c #244155",
"*>	c #0C7EC5",
"=>	c #23648E",
"->	c #24435A",
";>	c #16212A",
">>	c #34383B",
",>	c #2E363C",
"'>	c #274357",
")>	c #235572",
"!>	c #0886C7",
"~>	c #23475E",
"{>	c #2F4B60",
"]>	c #26516F",
"^>	c #0083DD",
"/>	c #265C82",
"(>	c #234157",
"_>	c #152129",
":>	c #2D353C",
"<>	c #264054",
"[>	c #224F6C",
"}>	c #0588D4",
"|>	c #265471",
"1>	c #2F4D63",
"2>	c #0181DA",
"3>	c #255372",
"4>	c #0882CF",
"5>	c #27597A",
"6>	c #2C4C64",
"7>	c #2E516A",
"8>	c #245170",
"9>	c #1774AD",
"0>	c #1E3C51",
"a>	c #2D343B",
"b>	c #1E3546",
"c>	c #206A99",
"d>	c #294D66",
"e>	c #1D2D38",
"f>	c #2A485C",
"g>	c #203E52",
"h>	c #192A38",
"i>	c #172733",
"j>	c #1F3C4F",
"k>	c #28455A",
"l>	c #1F313E",
"m>	c #2C353B",
"n>	c #2C333B",
"o>	c #343739",
"p>	c #2C333A",
"q>	c #223443",
"r>	c #15222D",
"s>	c #1D2E3A",
"t>	c #182834",
"u>	c #1E2F3C",
"v>	c #353739",
"w>	c #182632",
"x>	c #162D3D",
"y>	c #17455B",
"z>	c #1D3342",
"A>	c #18384B",
"B>	c #16394E",
"C>	c #23394A",
"D>	c #163E57",
"E>	c #1A7198",
"F>	c #204054",
"G>	c #2B3239",
"H>	c #253D4F",
"I>	c #255673",
"J>	c #1F5978",
"K>	c #244257",
"L>	c #223342",
"M>	c #17425D",
"N>	c #147AAD",
"O>	c #204359",
"P>	c #295D7D",
"Q>	c #235E7F",
"R>	c #25455B",
"S>	c #184461",
"T>	c #107CB7",
"U>	c #22445B",
"V>	c #2A3239",
"W>	c #2A5E7F",
"X>	c #225F82",
"Y>	c #18435F",
"Z>	c #107CB8",
"`>	c #21445B",
" ,	c #2A323A",
".,	c #2A5F7F",
"+,	c #235F83",
"@,	c #24445B",
"#,	c #18425E",
"$,	c #0F7DBB",
"%,	c #21445C",
"&,	c #14212B",
"*,	c #243F53",
"=,	c #295F7F",
"-,	c #236084",
";,	c #20323F",
">,	c #17415D",
",,	c #117CB9",
"',	c #243E52",
"),	c #2A5F7E",
"!,	c #226084",
"~,	c #25394A",
"{,	c #17405B",
"],	c #147AB1",
"^,	c #204257",
"/,	c #293138",
"(,	c #223C4E",
"_,	c #2A5E7C",
":,	c #234359",
"<,	c #173D57",
"[,	c #1677AA",
"},	c #204155",
"|,	c #2A3139",
"1,	c #121C25",
"2,	c #2A5C79",
"3,	c #255D7D",
"4,	c #214055",
"5,	c #1D2F3D",
"6,	c #17354A",
"7,	c #21607E",
"8,	c #1D394C",
"9,	c #293139",
"0,	c #121D25",
"a,	c #203646",
"b,	c #204F6A",
"c,	c #1E506B",
"d,	c #1A3345",
"e,	c #182D3B",
"f,	c #1F3E52",
"g,	c #1C2F3D",
"h,	c #1F3340",
"i,	c #1E384B",
"j,	c #1F394D",
"k,	c #1A2B39",
"l,	c #213241",
"m,	c #1A3F57",
"n,	c #1C6A8D",
"o,	c #1D3C4F",
"p,	c #293038",
"q,	c #21394A",
"r,	c #23536F",
"s,	c #1F5471",
"t,	c #27455A",
"u,	c #153F59",
"v,	c #1578A7",
"w,	c #1F4055",
"x,	c #283038",
"y,	c #2A5C7A",
"z,	c #225978",
"A,	c #224258",
"B,	c #263A4B",
"C,	c #16415C",
"D,	c #137AB0",
"E,	c #363739",
"F,	c #233C4E",
"G,	c #2A5E7E",
"H,	c #235A7A",
"I,	c #253849",
"J,	c #127BB1",
"K,	c #223B4D",
"L,	c #225B7C",
"M,	c #234257",
"N,	c #17425E",
"O,	c #117CB4",
"P,	c #20445A",
"Q,	c #273037",
"R,	c #2B5F7F",
"S,	c #235D7E",
"T,	c #107DB7",
"U,	c #272F37",
"V,	c #223A4C",
"W,	c #245C7E",
"X,	c #244359",
"Y,	c #107DB9",
"Z,	c #20435A",
"`,	c #223C4D",
" '	c #24445A",
".'	c #192730",
"+'	c #17405C",
"@'	c #363738",
"#'	c #272F36",
"$'	c #111C23",
"%'	c #233C4D",
"&'	c #2B607F",
"*'	c #235C7F",
"='	c #163F5B",
"-'	c #127AB7",
";'	c #204258",
">'	c #262E35",
",'	c #111B23",
"''	c #235B7E",
")'	c #224157",
"!'	c #152028",
"~'	c #1B2832",
"{'	c #18232C",
"]'	c #153E59",
"^'	c #1379AF",
"/'	c #1E4156",
"('	c #121C24",
"_'	c #225C7E",
":'	c #17222B",
"<'	c #17232C",
"['	c #19252E",
"}'	c #142129",
"|'	c #143D57",
"1'	c #1279A9",
"2'	c #1D4056",
"3'	c #242C33",
"4'	c #223A4B",
"5'	c #2B5E7B",
"6'	c #225B7D",
"7'	c #223F54",
"8'	c #162129",
"9'	c #19262F",
"0'	c #273946",
"a'	c #133A51",
"b'	c #167198",
"c'	c #1C3D51",
"d'	c #232B32",
"e'	c #21384A",
"f'	c #205978",
"g'	c #213C4F",
"h'	c #293B49",
"i'	c #142B3C",
"j'	c #184057",
"k'	c #1B2E3D",
"l'	c #17384E",
"m'	c #294050",
"n'	c #243848",
"o'	c #253C4C",
"p'	c #142430",
"q'	c #232C33",
"r'	c #172835",
"s'	c #1F3749",
"t'	c #182F3E",
"u'	c #263D4E",
"v'	c #263D4D",
"w'	c #233846",
"x'	c #111F2A",
"y'	c #0F1A23",
"z'	c #242C34",
"A'	c #1B2A37",
"B'	c #131F29",
"C'	c #15232D",
"D'	c #12202A",
"E'	c #111C25",
"F'	c #373738",
"G'	c #232B34",
"H'	c #14212A",
"I'	c #111D25",
"J'	c #232B33",
"K'	c #22313F",
"L'	c #202F3D",
"M'	c #222B33",
"N'	c #373838",
"O'	c #16232E",
"P'	c #233240",
"Q'	c #222A32",
"R'	c #1F2E3C",
"S'	c #202A32",
"T'	c #21303F",
"U'	c #23333F",
"V'	c #202931",
"W'	c #1F272E",
"X'	c #111B24",
"Y'	c #17222C",
"Z'	c #202E3B",
"`'	c #111C24",
" )	c #0F1920",
".)	c #0F1820",
"+)	c #101A20",
"@)	c #0E181F",
"#)	c #0E161C",
"$)	c #0F171F",
"%)	c #0F1921",
"&)	c #111E28",
"*)	c #1E262D",
"=)	c #121F28",
"-)	c #111C26",
";)	c #0D161E",
">)	c #101A21",
",)	c #101B23",
"')	c #101B22",
"))	c #141F29",
"!)	c #131E28",
"~)	c #132029",
"{)	c #13222D",
"])	c #132939",
"^)	c #162530",
"/)	c #1B2229",
"()	c #142938",
"_)	c #132431",
":)	c #14222C",
"<)	c #13212A",
"[)	c #132028",
"})	c #283A48",
"|)	c #25323D",
"1)	c #2B3E4D",
"2)	c #273746",
"3)	c #23313D",
"4)	c #23313C",
"5)	c #22303C",
"6)	c #23303C",
"7)	c #23313E",
"8)	c #243440",
"9)	c #283845",
"0)	c #253441",
"a)	c #24333F",
"b)	c #24313F",
"c)	c #263442",
"d)	c #283744",
"e)	c #273643",
"f)	c #263542",
"g)	c #253542",
"h)	c #263643",
"i)	c #263543",
"j)	c #253440",
"k)	c #24313E",
"l)	c #23323E",
"m)	c #24343F",
"n)	c #25343F",
"o)	c #242F38",
"p)	c #273543",
"q)	c #253541",
"r)	c #243441",
"s)	c #253442",
"t)	c #25333F",
"u)	c #253340",
"v)	c #222F3B",
"  .   + @ # @ $ % . # $ $ $ & $ * * * = = - $ ; > - & & $ $ = & $ & ; > , > > > ' ) ! ! ~ { ] ^ ^ ^ ^ ^ ^ ^ ^ ^ ^ ^ ^ ^ ^ ^ ^ ^ ^ ^ ^ ^ ^ ^ ^ ^ ^ ^ ^ ^ ^ ^ ^ ^ ^ ^ ^ ^ ^ ^ ] / > > ! ! ! ( ! ) _ ; > > : > ; $ $ < $ > $ $ $ $ = $ $ $ $ & $ $ $ $ $ [ # # + } # [ % % ",
"| 1 2 3 4 1 5 6 5 7 8 9 0 0 a b 0 9 9 b b b 5 c d d b b 0 b e f g a g h i h i j k l k m n o p ^ ^ ^ ^ ^ ^ ^ ^ ^ ^ ^ ^ ^ ^ ^ ^ ^ ^ ^ ^ ^ ^ ^ ^ ^ ^ ^ ^ ^ ^ ^ ^ ^ ^ ^ ^ ^ ^ ^ p q r s m n t l j j d a i r i b 0 0 c 6 b r g e b 0 a u u b e d b u v v w x y z 1 1 1 z 7 5 ",
"A A B C C D E E F F F E E G H H I I I H J H K E L M H H N J L M L O P Q R S R T U V W X X Y Z ^ ^ ^ ^ ^ ^ ^ ^ ^ ^ ^ ^ ^ ^ ^ ^ ^ ^ ^ ^ ^ ^ ^ ^ ^ ^ ^ ^ ^ ^ ^ ^ ^ ^ ^ ^ ^ ^ ^ `  ...+.@.U ....#.R $.L Q S Q %.%.L L L &.O L H H I *.I %.H L L %.=.J J -.;.E E F K A K >.E ",
",.'.).!.~.).{.{.,.{.{.{.].^././.{././././.(.]._.:.(.:.:.:.(.(.:./././.:.:.<.(.[.}.|.1.2.3.4.5.^ ^ ^ ^ ^ ^ ^ ^ ^ ^ ^ ^ ^ ^ ^ ^ ^ ^ ^ ^ ^ ^ ^ ^ ^ ^ ^ ^ ^ ^ ^ ^ ^ ^ ^ ^ ^ ^ ^ 6.7.8.9.0.a.b.c.c.c.<.:.<.c.c.:.(.(.(.(.c.d.:./.:.{._./.:.:.<.<.:./.:.:./././././._.,.,././.",
"e.e.e.e.f.g.h.e.g.e.e.i.j.g.k.k.l.h.e.l.e.f.e.l.e.i.f.m.e.g.e.l.n.o.c.d.o.p.e.e.q.r.s.t.u.Y v.^ ^ ^ ^ ^ ^ ^ ^ ^ ^ ^ ^ ^ ^ ^ ^ ^ ^ ^ ^ ^ ^ ^ ^ ^ ^ ^ ^ ^ ^ ^ ^ ^ ^ ^ ^ ^ ^ ^ w.x.y.U z.A.B.C.l.l.k.o.o.C.e.i.j.D.E.m.i.E.j.g.e.g.e.g.F.E.i.g.g.g.f.G.H.H.j.E.f.m.e.g.g.e.",
"I.J.7.7.7.3.K.K.K.8.8.L.M.N.N.N.O.P.P.P.Q.Q.N.N.R.D D A S.-.T.S.E Q #.X U.V.X W.X.Y.+.w Z.`. +^ ^ ^ ^ ^ ^ ^ ^ ^ ^ ^ ^ ^ ^ ^ ^ ^ ^ ^ ^ ^ ^ ^ ^ ^ ^ ^ ^ ^ ^ ^ ^ ^ ^ ^ ^ ^ ^ ^ .+++@+X.#+$+%+&+*+=+-+U X T.J O O L M J ;+J C O.>+O.Q.,+P.D '+R.)+N.L.N.N.N.2.!+8.!+8.L.K.I.",
"J N L O L -.K K K ~+-.J {+]+R R +.R W.R ]+]+J J R U U U X ^+%+-+X /+w (+_+Z.:+Z.<+[+}+|+1+2+3+^ ^ ^ ^ ^ ^ ^ ^ ^ ^ ^ ^ ^ ^ ^ ^ ^ ^ ^ ^ ^ ^ ^ ^ ^ ^ ^ ^ ^ ^ ^ ^ ^ ^ ^ ^ ^ ^ ^ 4+5+6+7+@.8+9+0+a+b+_+c+@+d+e+d+V.f+g+X U X W.h++.+.i+&+&+j+i+W.]+M J s.k+s.~+-.k++.i++.{+J ",
"M J M l+m+_+b+n+b+o+p+:+9+q+r+s+t+u+v+u+o+s+o+s+w+x+y+z+A+B+C+D+E+Q (+F+G+6+o+r+H+I+y.F+J+m+K+^ ^ ^ ^ ^ ^ ^ ^ ^ ^ ^ ^ ^ ^ ^ ^ ^ ^ ^ ^ ^ ^ ^ ^ ^ ^ ^ ^ ^ ^ ^ ^ ^ ^ ^ ^ ^ ^ ^ L+_+G+M+N+u+s+q+O+P+Q+6+X W R+S+B+T+y+U+V+W+r+s+t+X+t+W+q+r+Y+Z+9+a+o+`+0+Y+Y+ @:+b+%+R +.]+",
".@+@@@.@#@a b+b+_+:+6+1+o+u+u+o+$@u+%@<+o+&@o+o+O+*@*@*@A+=@-@;@>@,@Z.1+'@Z.1+)@!@~@/+{@]@^@/@^ ^ ^ ^ ^ ^ ^ ^ ^ ^ ^ ^ ^ ^ ^ ^ ^ ^ ^ ^ ^ ^ ^ ^ ^ ^ ^ ^ ^ ^ ^ ^ ^ ^ ^ ^ ^ ^ ^ (@_@]@:@<@!@H+[@<+:+<+o+}@++N+Z.|@A+X+[@1@2@r+3@W+*@X+H+1@u+o+9+`+`+Q+1+4@o+Y+a+s g+@@5@>@6@",
"7@c+w 7@t.Q  @`+1+a+a+a+o+8@[@t+W+*@W+[@9@O+u+0@W+B+z+a@a@b@c@d@e@f@|+G+G+F+{@g@h@i@j@J+k@l@m@^ ^ ^ ^ ^ ^ ^ ^ ^ ^ ^ ^ ^ ^ ^ ^ ^ ^ ^ ^ ^ ^ ^ ^ ^ ^ ^ ^ ^ ^ ^ ^ ^ ^ ^ ^ ^ ^ ^ n@'@<+k@o@p@h@!@q@Z.r@]@s@7@t@|+u@p@v@w@X+X+W+1@*@x@*@A+*@y@1@<+k@<+o+&@]@u+u+X+g+*+(+Z.z@A@",
"z@(+_+z@/+V B@C@1+o+o+a+D@X+x@A+E@F@h@A+h@y@y@[@h@z+G@b@u@G@c@H@N.f@7+&@]@I@J@O+u@:@j@]@1@x m@^ ^ ^ ^ ^ ^ ^ ^ ^ ^ ^ ^ ^ ^ ^ ^ ^ ^ ^ ^ ^ ^ ^ ^ ^ ^ ^ ^ ^ ^ ^ ^ ^ ^ ^ ^ ^ ^ ^ K@Q+D@]@L@h@M@E@I@F+H+Q+x.j+N@7+O@)@A+G@A+P@A+X+z+A+x@Q@G@b@A+X+R@W+2@<+]@O+t+S@d+j@|+1+Z.T@",
"Z.|+|+z@z x.U@V@o+r+D@o+3@W+W@X@Y@X@F@G@b@A+A+A+A+P@X@X@Z@`@ #.#~++#@#]@k@]@]@##h@i@5@<+O+x $#^ ^ ^ ^ ^ ^ ^ ^ ^ ^ ^ ^ ^ ^ ^ ^ ^ ^ ^ ^ ^ ^ ^ ^ ^ ^ ^ ^ ^ ^ ^ ^ ^ ^ ^ ^ ^ ^ ^ %#]@O+]@&#h@u@W+<+<+E@J+*#N+=#{@G@*@b@M@G@Q@Q@-#X@A+A+;#;#Y@X@G@P@A+x@W+<+r+W+>#V.A@Z.:+,#'#",
"|+Z.)#_+7@}@T+!#u+O+W+W+X+A+A+Q@;#X@F@G@~#G@G@F@b@M@X@~#{#]#^#/##+z@(+]@)@[@k@O+a@:@c+(#O+v _#^ ^ ^ ^ ^ ^ ^ ^ ^ ^ ^ ^ ^ ^ ^ ^ ^ ^ ^ ^ ^ ^ ^ ^ ^ ^ ^ ^ ^ ^ ^ ^ ^ ^ ^ ^ ^ ^ ^ :#]@9@<+<#!@)@H+k@O+x@o+A@s@[#1+~#}#|#b@~#1#;#2#3#b@A+X@4#5#3#Y@Y@Q@z+[@D@O+X+6#7#z 8#8#z@_+",
"z@|+:+G+9#+@0#B+u+W+x@A+X@=@Q@Q@X@G@[@A+G@;#Z@F@G@Z@~#{#~#a#b#c#d#e#z Q+)@p@)@y@h@M+z f#9@s g#^ ^ ^ ^ ^ ^ ^ ^ ^ ^ ^ ^ ^ ^ ^ ^ ^ ^ ^ ^ ^ ^ ^ ^ ^ ^ ^ ^ ^ ^ ^ ^ ^ ^ ^ ^ ^ ^ ^ h#<+9@]@i#j#-@:@-@p@h@k#[+.@D+F+Z@X@a@l#4#m#Y@n#o#{#b@Z@~#4#5#5#;#;#X@W+D@r+X+p#q#w Z.|+|+r#",
"(+5+`+a+6+@@s#V+D@u+R@*@P@X@T+X@X@v@9@-@p@X@G@u@X@~#F@}#{#t#u#v#d#r#A@P+##E@9@)@)@q@j@-@)@s w#^ ^ ^ ^ ^ ^ ^ ^ ^ ^ ^ ^ ^ ^ ^ ^ ^ ^ ^ ^ ^ ^ ^ ^ ^ ^ ^ ^ ^ ^ ^ ^ ^ ^ ^ ^ ^ ^ ^ x#u+y@y#@.:@:@M+)@u@*@a+z#.@D+1+;#m#b@b@{#Y@n#Y@5#=@u@u@A+Q@~#~#{#4#Q@)@k@D@*@A#1 _+:+1+:+6+",
"Z.Z.1+1+|+B#y+W@C#]@<+k@)@z+P@P@Q@*@1@)@h@G@z+F@Z@~#G@Z@D#]#E#c#l+F#G#P+r@[@a@)@-@{@j@H+##f g#^ ^ ^ ^ ^ ^ ^ ^ ^ ^ ^ ^ ^ ^ ^ ^ ^ ^ ^ ^ ^ ^ ^ ^ ^ ^ ^ ^ ^ ^ ^ ^ ^ ^ ^ ^ ^ ^ ^ :#1@W+J+H#I#:@J#h@h@9@J+K#e@N+G+4#4#`@{#~#{#Y@A+Q@X@h@z+h@A+P@G@F@b@F@p@D@k@*@L#A@Z.o+8+`+1+",
"1+6+,#_+(++@V+[@o+J+&@&@J+J#A+y+z+A+[@)@*@z+*@u@F@G@M#m#`@{#|#N#h+O#z q@r@h@b@A+y@P#@@k@O+r Q#^ ^ ^ ^ ^ ^ ^ ^ ^ ^ ^ ^ ^ ^ ^ ^ ^ ^ ^ ^ ^ ^ ^ ^ ^ ^ ^ ^ ^ ^ ^ ^ ^ ^ ^ ^ ^ ^ ^ R#O+J#S#T#j#-@)@h@y@R@]@U#,@<#P+~#5#;#Y@Z@Z@G@A+Y@=@x@h@v@p@w@A+h@V#A+u@##D@)@W#j@Z.a+k#o+J+",
"`+6+,#X#++7#Y#V+J+P+6+j+>+Z#-.-.E K D D A K K -.O 5@u@{#G@~#u#`#q#|+7@]@-@ $v@G@a@y#Z#z &@r .$^ ^ ^ ^ ^ ^ ^ ^ ^ ^ ^ ^ ^ ^ ^ ^ ^ ^ ^ ^ ^ ^ ^ ^ ^ ^ ^ ^ ^ ^ ^ ^ ^ ^ ^ ^ ^ ^ ^ +$r@J+J @$h@p@p@9@O+H+]@r#z@#$`+D#;#;#Z@a+j+J s.J J K Z#Z#$$-.-.~+S.l+O+O+6+D@Y@q#%$J+C#]@1+",
"`+G+Z.X#(+j@y d+h+h+h+h+-+X &$+.&$#@&$*$j+X }+W /+W X+Q@Z@Z@=$-$;$>$7+)@p@h@h@u@a@q@,$K &@'$.$^ ^ ^ ^ ^ ^ ^ ^ ^ ^ ^ ^ ^ ^ ^ ^ ^ ^ ^ ^ ^ ^ ^ ^ ^ ^ ^ ^ ^ ^ ^ ^ ^ ^ ^ ^ ^ ^ ^ R#<+j@Z#)$O@h@p@##k#O+k@!$~${$G@X@X@~#{#d+y.x.*$]$%+&$&$^$@.*$-+*+/$@.x.W ($g+c+A@:+]@<+o+J+",
"b+1+Z.|+(+7@!#_@z@>@V./$e+_$j@x.g+x.x.-+u.f+t.5@:$f W+A+G@<$~#[$}$|$1$-@p@E@a@E@)@2$3$l+&@b+.$^ ^ ^ ^ ^ ^ ^ ^ ^ ^ ^ ^ ^ ^ ^ ^ ^ ^ ^ ^ ^ ^ ^ ^ ^ ^ ^ ^ ^ ^ ^ ^ ^ ^ ^ ^ ^ ^ ^ 4$a+|+5$6$a@y@-@##<+##7$8$9$0$a$Y@b@u@Q@b$q+++W *+x.f+7#W V V.j@ @=+*+A@z _+0+V+Z.F+&@k@C#a+",
"1+J+Z.|+c$.@V@Z.'#7@B#y.d$e$.@1 f$g$&.h$i$H d$U 6+z@W+|#|# $Z@j$k$l$m$n$-@)@####:@o$5$l+J+:$w#^ ^ ^ ^ ^ ^ ^ ^ ^ ^ ^ ^ ^ ^ ^ ^ ^ ^ ^ ^ ^ ^ ^ ^ ^ ^ ^ ^ ^ ^ ^ ^ ^ ^ ^ ^ ^ ^ ^ +$J+F+($p$R@-@:@k@:@)@q$r$s$t$Z@h@y@<$Q@A@C#%+d$;.e+e$&.u$H .@A@b$V.7#v$(+w$0+W+e#:+Q+k@o+o+",
"`+a+P+|++#.@V+1+%$j@x$b$y.y$X v$U f$z$A$B$C$P D$J+7@1@h@|#!@O@E$F$G$H$##1@k@]@O+]@I$3$J a+9+w#^ ^ ^ ^ ^ ^ ^ ^ ^ ^ ^ ^ ^ ^ ^ ^ ^ ^ ^ ^ ^ ^ ^ ^ ^ ^ ^ ^ ^ ^ ^ ^ ^ ^ ^ ^ ^ ^ ^ J$]@:+(${+y@j###k@n$y@K$L$M$N$O$!@!@a@{#j@o+X.x$e+U u$=+&.d$y.7#d$5@5@e+P$Z.:+X+w 6+y#<+&@o+",
"]@a+o+J+|+X.T+o+|+'#v$e+b$Q$R$*+7#f+S$T$e+U$T$&+8#z@3@a@<$!@a@E$V$W$X$:@O+r@r@k@k@Y$3$T.Z+Z$`$^ ^ ^ ^ ^ ^ ^ ^ ^ ^ ^ ^ ^ ^ ^ ^ ^ ^ ^ ^ ^ ^ ^ ^ ^ ^ ^ ^ ^ ^ ^ ^ ^ ^ ^ ^ ^ ^ ^  %]@:+*$O )@y@)@j#)@)@u#.%+%@%^##%!@O@$%A@<+-+%%&$d+m+e$&%U.A@x.w _+&%b$6+Z.C#V+(+F+a+]@]@]@",
"1+]@]@&@6+A@s#o+|+|+8#v$X j@*%d$j@9#o+=%q+X+s+6+&@|+3@a@<$ $<$-%;%>%,%##-@:@M+k@D@|+3$;.9+:$'%^ ^ ^ ^ ^ ^ ^ ^ ^ ^ ^ ^ ^ ^ ^ ^ ^ ^ ^ ^ ^ ^ ^ ^ ^ ^ ^ ^ ^ ^ ^ ^ ^ ^ ^ ^ ^ ^ ^ )%a+6+i+J g@y@)@J#y@p@K$!%~%{%^# $ $a@G@z 3@1+&@y#o+8+0+1+9#B#_+|+P$/+1+6+6+u+B+(+|+J+]@]@]@",
":+]%{@Q+F+A@x+8+P+6+6+J+5@z@^%/%(%]%k@k@k@H+-@M+M++#r+b@b@|#b#_%:%<%[%)@p@##:@:@&@|+3$K `+0+'%^ ^ ^ ^ ^ ^ ^ ^ ^ ^ ^ ^ ^ ^ ^ ^ ^ ^ ^ ^ ^ ^ ^ ^ ^ ^ ^ ^ ^ ^ ^ ^ ^ ^ ^ ^ ^ ^ ^ }%]@6++.J g@!@!@-@)@h@u#|%1%2%^#a@ $b#P@.@&@O+3%:@u+J#D@]@J+A@6+Q+_+]@I@J+Q+:@4%7@z@P+G+J+y#",
"6+6+{@{@6+7@B+u+1+J+J+o+&@8#|+z@O#J+k@O+D@r@n$M+&@T@1@h@u@V#<$5%V$6%[%E@*@y@J#&@&@|+{+Z#:+4@'%^ ^ ^ ^ ^ ^ ^ ^ ^ ^ ^ ^ ^ ^ ^ ^ ^ ^ ^ ^ ^ ^ ^ ^ ^ ^ ^ ^ ^ ^ ^ ^ ^ ^ ^ ^ ^ ^ ^ }%o+6++.J g@-@-@:@-@O@7%8%9%0%Z@a% $p@w@A@:@##-@:@J#J#9@&@J+z 1+y#]@<+]@S#&@9@x@(+Y${@J+J+b%",
"Y$F+F+Y$Y$,#_+o+]@M+k@O+-@&@Q+F+z@]@O+j#R@-@:@c%c%d%o+9@[@R@a@e%f%g%h%v@A+[@)@##3%8#]+S.:+:+i%^ ^ ^ ^ ^ ^ ^ ^ ^ ^ ^ ^ ^ ^ ^ ^ ^ ^ ^ ^ ^ ^ ^ ^ ^ ^ ^ ^ ^ ^ ^ ^ ^ ^ ^ ^ ^ ^ ^ j%C+k%l%L g@##-@-@h@|#m%n%o%p%Z@l# $ $b@A@:@y@y@)@)@####&@]@7@]@]@]@<+k@y#]@O+1++#P+J+J+{@{@",
"J+&@y#I$7+'#6@&@J+]@k@:@:@##H+J+T@&@k@3%j#q%n$q@I@U#o+##(#E@a@r%f%s%t%p@u@A+p@y@##P+h+K :+b+'%^ ^ ^ ^ ^ ^ ^ ^ ^ ^ ^ ^ ^ ^ ^ ^ ^ ^ ^ ^ ^ ^ ^ ^ ^ ^ ^ ^ ^ ^ ^ ^ ^ ^ ^ ^ ^ ^ ^ u%&@8#h+&.g@)@)@p@ $ $K$v%w%x%Z@O$y% $P@*#:@y@!@y@g@##k@<+]@c+&@o+k@O+O+]@<+r+@@$+{@z%G+P+{@",
"I@G+&@Y$c$7+7@<+J+]%&@k@k@-@)@I@A%]@k@k@n$:@n$q@q@q#J+O+(#f#h@4#B%C%D%!@h@h@*@g@k@6+]+A 1+:+'%^ ^ ^ ^ ^ ^ ^ ^ ^ ^ ^ ^ ^ ^ ^ ^ ^ ^ ^ ^ ^ ^ ^ ^ ^ ^ ^ ^ ^ ^ ^ ^ ^ ^ ^ ^ ^ ^ ^ u%]@_+]+J i@3%3%y@ $b#E%v%F%G%l#!@-@!@P@G#H% $ $)@:@:@<+]@J+(+<+k@:@O+<+y#]@1@r#z%P+Y$S#P+{@",
"S#J@I%Y$c$J%7+<+J+J+&@k@)@[@*@y#c$I@k@:@n$M+M+c%q@U#:+r@O+O+p@;#K%L%D%y@*@x@[@J#:@6+]+Z#1+1+`$^ ^ ^ ^ ^ ^ ^ ^ ^ ^ ^ ^ ^ ^ ^ ^ ^ ^ ^ ^ ^ ^ ^ ^ ^ ^ ^ ^ ^ ^ ^ ^ ^ ^ ^ ^ ^ ^ ^ M%y#,#{+;+<+M+M+)@h@<$m%v%N%G%l#y%!@p@P@A@##|# $y@:@i@&@q@J@^%Q+]@:@O+&@J+J+1@c$Y$Y$P+J%J%{@",
"P+]%{@8#@#J%7+o+a+y#k@k@J#y@p@&@c$y#k@i@i@i@O%c%c%A@Q+k@M+M+p@;#P%Q%R%V#x@*@H+-@:@_@]+K 1+1+`$^ ^ ^ ^ ^ ^ ^ ^ ^ ^ ^ ^ ^ ^ ^ ^ ^ ^ ^ ^ ^ ^ ^ ^ ^ ^ ^ ^ ^ ^ ^ ^ ^ ^ ^ ^ ^ ^ ^ S%]@@+{+;.T%&@]@-@!@a@U%8%V%@%b@-@y@ $G@5@J#p@W% $y%i@M+q@I@O#{@M+<+##&@I@&@O+T@|+P+y#J@F+{@",
"P+{@F+F+7+{@Y$s+a+y#<+:@O+H+)@&@@#c%y#c%M+k@M+q@q@U#]@k@I@&@[@{#X%Y%Z%p@X+[@J#:@T%8#]+K `+1+'%^ ^ ^ ^ ^ ^ ^ ^ ^ ^ ^ ^ ^ ^ ^ ^ ^ ^ ^ ^ ^ ^ ^ ^ ^ ^ ^ ^ ^ ^ ^ ^ ^ ^ ^ ^ ^ ^ ^ $ a+_+{+-.&@&@q@##y@h@q$`% &N$<$j#y@h@Q@A@J#h@v@y@-@M+q@y#I@r#J+M+M+-@&@J@q@v++#Y$8#J+{@I@y#",
"{@{@{@J@P+Y$7+o+J+y#]@<+J#)@)@&@@#P+q@T%C+k@M+O%{@*#J+<+&@g@E@!@.&+&@&y%)@9@O+O+M+,#]+#&J+b+$&^ ^ ^ ^ ^ ^ ^ ^ ^ ^ ^ ^ ^ ^ ^ ^ ^ ^ ^ ^ ^ ^ ^ ^ ^ ^ ^ ^ ^ ^ ^ ^ ^ ^ ^ ^ ^ ^ ^ %&J+(+l+J :@q@I@O+)@&&*&=&-&;&h@p@)@a@Q@j@##[@p@p@J#i@O%J+J@z ]%q@&@O+q@{@J@u+,#Y$Y${@I${@J+",
"{@J+P+{@7+|+|+Z+J%F+]@:@)@H+H+]@@#J+]@C+k@I#q@>&{@q#F+k@M+J#!@;@,&'&)&i@J#9@O+C+q@|+]+A 1+b+$&^ ^ ^ ^ ^ ^ ^ ^ ^ ^ ^ ^ ^ ^ ^ ^ ^ ^ ^ ^ ^ ^ ^ ^ ^ ^ ^ ^ ^ ^ ^ ^ ^ ^ ^ ^ ^ ^ ^ # 1+(+h+;+C+&@&@:@:@C+2$!&~&{&y#p@g@p@z+>@J#)@)@y@-@T%T%q@y#j@P+J+]@:@]@Y$J+C#z@{@|+c$c$$+P+",
"J+y#P+{@7+P+6+s+y#{@y#)@H+g@g@q@]&T%<+k@-@:@q@I@{@#$F+k@&@:@a@^&/&(&_&]@<+u+<+k@&@e#J D 1+k%$&^ ^ ^ ^ ^ ^ ^ ^ ^ ^ ^ ^ ^ ^ ^ ^ ^ ^ ^ ^ ^ ^ ^ ^ ^ ^ ^ ^ ^ ^ ^ ^ ^ ^ ^ ^ ^ ^ ^ :&I%c+]+K C+C+k@u+<+q@<&[&}&|&!@y@:@!@A+A@J#)@k@-@i@C+C+C+J+/+F+]%I@<+Q+P+y#Z+$+P+|+$+c$,#6+",
"y#J+F+y#{@Y$6+Y+J+|+J+O+J#J#-@J+@#:@:@i@g@i@q@J@{@q#G+T%q@k@1&l#2&3&4&O+r+k@&@&@&@5@J A F+_@5&^ ^ ^ ^ ^ ^ ^ ^ ^ ^ ^ ^ ^ ^ ^ ^ ^ ^ ^ ^ ^ ^ ^ ^ ^ ^ ^ ^ ^ ^ ^ ^ ^ ^ ^ ^ ^ ^ ^ [ 1+++{+E H+-@J#J#:@6&7&8&9&0&v@)@:@)@z+,@:@-@y#O%3%k@q@T%J+j@]@&@J+&@J+I@G+9+c$Y$I$z%Y$Y$8#",
"J+b%F+y#c%Y$|+9+{@|+I%C+##-@:@b%]&M+-@-@j#:@&@q@c%z#F+&@&@<+)@{#a&b&c&j#)@O+a+]@Q+z J D :+Z.5&^ ^ ^ ^ ^ ^ ^ ^ ^ ^ ^ ^ ^ ^ ^ ^ ^ ^ ^ ^ ^ ^ ^ ^ ^ ^ ^ ^ ^ ^ ^ ^ ^ ^ ^ ^ ^ ^ ^ d&J+++{+E r+J#&@:@J#T%e&L$f&g&p@y@J#H+A+q#k@:@c%c%&@i@q@q@y#A@a+k@y#q@J+&@y#o+$+o$I$6+J+{@Y$",
"$+Y$P+1+c%Y$7+0+1+7+q@:@:@3@:@6+r#y#C+C+3%y%:@&@{@q#F+]@&@<+H+4#h&i&j&q%W+1@o+&@G+A@s.C :+k&5&^ ^ ^ ^ ^ ^ ^ ^ ^ ^ ^ ^ ^ ^ ^ ^ ^ ^ ^ ^ ^ ^ ^ ^ ^ ^ ^ ^ ^ ^ ^ ^ ^ ^ ^ ^ ^ ^ ^ l&F+++J K u+&@y#<+3@:@m&n&o&G%#%p@)@)@W%7#&@T%q@c%M+k@M+M+{@q#J+]@]@q@{@I@&@&@z@Y$I$8#1+1+G+",
"@#c$8#8#Y$Y$z@b+k%|+y#:@O+J#<+|+K#Y$J+y#q@&@q@I@P+#$1+&@q@M+g@b@p&q&m$:@-@k@k@]@J+A@k+>+k%_@5&^ ^ ^ ^ ^ ^ ^ ^ ^ ^ ^ ^ ^ ^ ^ ^ ^ ^ ^ ^ ^ ^ ^ ^ ^ ^ ^ ^ ^ ^ ^ ^ ^ ^ ^ ^ ^ ^ ^ r&6+c+J K <+y#c%&@C+:@-$s&t&u&#%R@O+H+v&@@q@<+T%&@M+&@q@y#Y$,@a+C#y#{@{@{@&@Z+r#|+8#|+_@F+6+",
"c$$+|+7+8#|+z@b+1+F+F+&@]@T%y#$+z#Y$P+J@c%c%6&P+o$U#|+{@J+&@:@<$w&x&y&&@k@]@y#]@y#7@s.>+F+_+z&^ ^ ^ ^ ^ ^ ^ ^ ^ ^ ^ ^ ^ ^ ^ ^ ^ ^ ^ ^ ^ ^ ^ ^ ^ ^ ^ ^ ^ ^ ^ ^ ^ ^ ^ ^ ^ ^ ^ A&6+c+J K <+J+{@]@k@k@B&s&F%u&E#v@C+-@*@*#c%]@q@O%<+I@{@c%Y$,@&@&@Q+y#P+Y$o+ @C&7+8#Y$P+|+|+",
"P+P+P+I$|+,#z@:+`+J+P+F+P+y#1+r#G#Y$Y$|+o$J%J@&@6&U#F#I$y#y#&@b#D&E&F&y#&@]@]@q@&@c+J '+k%z@z&^ ^ ^ ^ ^ ^ ^ ^ ^ ^ ^ ^ ^ ^ ^ ^ ^ ^ ^ ^ ^ ^ ^ ^ ^ ^ ^ ^ ^ ^ ^ ^ ^ ^ ^ ^ ^ ^ ^ G&1+w J B 3@q@{@y#&@k@H&I&J&K&#%y@:@k@[@*#y#&@q@y#L&J+c%{@I+.@Q+&@J+{@6+P+a+p+5@7+J%J+F+z@|+",
"y#{@1+8#|+7+c$:+1+F+F+F+J+<+9+r#*#I$$+c$$+7+J+T%o$L@e#{@q@y#&@A+k$M&N&c%q@&@&@&@&@r#J C _@w z&^ ^ ^ ^ ^ ^ ^ ^ ^ ^ ^ ^ ^ ^ ^ ^ ^ ^ ^ ^ ^ ^ ^ ^ ^ ^ ^ ^ ^ ^ ^ ^ ^ ^ ^ ^ ^ ^ ^ r&1+w {+Z#:@&@P+{@y#&@O&P&Q&R%!@J#3%H+1&f@I%k@]@Y$y#{@1+{@I$7#a+]@F+F+Y$6+6+9++#6+G+a+1+9#'#",
"J+P+6+Y$7+I$+#R&k%8#8#F+G+&@a++#e@I$Y$|+7+7+]@&@S&T&|+Q+&@J@<+X+U&V&W&1+a+J+y#q@q@T@s.C _@@+z&^ ^ ^ ^ ^ ^ ^ ^ ^ ^ ^ ^ ^ ^ ^ ^ ^ ^ ^ ^ ^ ^ ^ ^ ^ ^ ^ ^ ^ ^ ^ ^ ^ ^ ^ ^ ^ ^ ^ X&F+(+J B C+q@P+G+]@L&~@Y&Z&`&)@k@k@H+R@x.1+<+]@I${@J+b%6+$+@@`+J+|+P+Y$|+6+Z+c+9#|+J+6+,#z@",
"F+6+P+6+,#I$r#_@_@|+Y$6+1+I%{@r#*#8#P+P+$+z%y#{@e@F#a+o+]@]@C#C# *.*7@{@J+q@y#&@J+7@N D k%f z&^ ^ ^ ^ ^ ^ ^ ^ ^ ^ ^ ^ ^ ^ ^ ^ ^ ^ ^ ^ ^ ^ ^ ^ ^ ^ ^ ^ ^ ^ ^ ^ ^ ^ ^ ^ ^ ^ ^ +*1+e#s.B :@C+q@Q+&@<+6+@*#*1+)@g@q@&@u+9+6@:+y#7+S&{@{@{@{@j@1+J+P+6+P+|+6+b+A@z@|+:+|+,#8#",
"J+{@{@Y$7+7+T@k&:+|+|+F+F+{@{@+#*#{@{@I%K#A@P+*#@@:+8+o+a+y#9+d+D {+$*I%]@&@M+T%]@(+N %*`+f z&^ ^ ^ ^ ^ ^ ^ ^ ^ ^ ^ ^ ^ ^ ^ ^ ^ ^ ^ ^ ^ ^ ^ ^ ^ ^ ^ ^ ^ ^ ^ ^ ^ ^ ^ ^ ^ ^ ^ &*`+5@J K :@T%M+<+O+O+1+W.T.W.C#O+I@M+O+r+Z.7#6+r#6@|+P+J+{@/+F+F+F+F+8#7+6+6+7@'#|+8#z@7+7+",
"P+I%I%Y$Y$|+r#_@|+X#|+8#P+1+{@c$*#o$J+|+^$F#@@b$,#&@<+u+C#Y$6@N.-.U Z+T%]@M+C+C+&@**J B 1+_+=*^ ^ ^ ^ ^ ^ ^ ^ ^ ^ ^ ^ ^ ^ ^ ^ ^ ^ ^ ^ ^ ^ ^ ^ ^ ^ ^ ^ ^ ^ ^ ^ ^ ^ ^ ^ ^ ^ ^ -*1+z J #&<+T%<+:@-@H+1@/+x$N.U &@&@T%<+3@u+e#D$|+g+>@F+6+|+P$_@Y$Y$6+Y$7+Y$1+7@z@P+8#T@c$@#",
"F+b%J+P+|+,#A@,#+#r#]&c$Y$6+P+r#e@Y$,#%+5@d%.@8#{@y#u+C#1+@@;*k+f$8#J+y#&@y#&@]@y#A@J A |+@+>*^ ^ ^ ^ ^ ^ ^ ^ ^ ^ ^ ^ ^ ^ ^ ^ ^ ^ ^ ^ ^ ^ ^ ^ ^ ^ ^ ^ ^ ^ ^ ^ ^ ^ ^ ^ ^ ^ ^ ,*G+j@T.#&&@q@:@##:@k@H+u+u.x$'*S$J+a+&@o+u+y#++u.e#)*X.z@$+7#6+F+J%|+I$8#|+6+A@z@8#6++#r#T@",
"P+1+6+|+$+z@7@e#r#A@K#'#Y$Y$6++#!*r#-+c$7@~*J+y#{@y#<+&@v$Q.K U {*P+|+P+]@o$c%J+6+A@J ]*|+^*/*^ ^ ^ ^ ^ ^ ^ ^ ^ ^ ^ ^ ^ ^ ^ ^ ^ ^ ^ ^ ^ ^ ^ ^ ^ ^ ^ ^ ^ ^ ^ ^ ^ ^ ^ ^ ^ ^ ^ (*:+,@k+#&Z+c%M+M+k@:@&@a+Z+V.J N.%+:+u+C#C+&@F+>@y.e#U 6@@#.@6+8#7+$+S&$+z@6+A@+#z@8#|+c$r#",
"{@F+8#7+$+c$7@e#r#+#c$|+|+|+{@**.@&$A@K#_*7+&@y#J+y#<+<&:*<*&$k%Y$P+{@{@a+1+I%Y$c+J -.;.b+++/*^ ^ ^ ^ ^ ^ ^ ^ ^ ^ ^ ^ ^ ^ ^ ^ ^ ^ ^ ^ ^ ^ ^ ^ ^ ^ ^ ^ ^ ^ ^ ^ ^ ^ ^ ^ ^ ^ ^ [*:+b$T.Z#y.,#O%q@q@C+]@y#1+&@U.]+}*|*k@&@<+b%Q+F+.@V.1*x$r#7#z@$+I$$+,#+#+#8#*#T@c+I$7+I$$+",
"6+6+Y$7+,#z@[+e#+#|+|+z@$+I$Y$c+6@F#A@*++#8#y#P+o+D@2*3*4*5*:+9+|+Y$q@q@&@&@a+z@;.Z#O 6*7*++/*^ ^ ^ ^ ^ ^ ^ ^ ^ ^ ^ ^ ^ ^ ^ ^ ^ ^ ^ ^ ^ ^ ^ ^ ^ ^ ^ ^ ^ ^ ^ ^ ^ ^ ^ ^ ^ ^ ^ 8*k%o+&$S.8.6@b%M+M+3%k@&@8#Z+u+9*0*a*b*##u+F+y#a+{@f@6@1*z@Q$r#$+I$|+|+'#c+|+e@A@A@c$c$|+7+",
"7+|+$++#c$+#A@X#c$S&|++#z@z@I$+#++1*^$,#P+Y$6+P+&@c*d*e*f*g*a+`+F+c%y#O%]@]@_@J >+l+++1+6+++/*^ ^ ^ ^ ^ ^ ^ ^ ^ ^ ^ ^ ^ ^ ^ ^ ^ ^ ^ ^ ^ ^ ^ ^ ^ ^ ^ ^ ^ ^ ^ ^ ^ ^ ^ ^ ^ ^ ^ h*k%&@J+*$Z#;*j@&@I@M+J#C+y#`+%@u#i*j*k*l*k@1+b%{@c%I%*+y.Z.6@+#7+$+S&$+$+z@%$.@A@U#@#@#S&c$",
"+#$+@#[+[+r#U#c++#,#+#7@z@,#+#x.V.%+r#S#|+7+Y$J+m*n*o*p*q*q%o+&@J+P+b%J+y#k%&.M.J 5@a+a+6+++/*^ ^ ^ ^ ^ ^ ^ ^ ^ ^ ^ ^ ^ ^ ^ ^ ^ ^ ^ ^ ^ ^ ^ ^ ^ ^ ^ ^ ^ ^ ^ ^ ^ ^ ^ ^ ^ ^ ^ r*P+a+q@L&j+'+R.F#J+&@T%q@C+]@&@)@s*t*u*v*w*G+1+P+|+I%8#i#&%*+A@$+c$|+|+T@c$z@.@*#*#K#7@c$@#",
"z@c$c$[+A@r#G#_+e#,#+#c$X#e#6@y y#o$6+7+|+|+J%x*y*N%z*A*c@<+]@O%q@J+c%{@Y$l+L.B*@@`+y#y#Y$++/*^ ^ ^ ^ ^ ^ ^ ^ ^ ^ ^ ^ ^ ^ ^ ^ ^ ^ ^ ^ ^ ^ ^ ^ ^ ^ ^ ^ ^ ^ ^ ^ ^ ^ ^ ^ ^ ^ ^ C*G+]@{@]@1+*$'+>+A@y#&@y#O%T%T%<+)@t$D*E*F*@#P+8#|+P+Y$8#O%{*V.7@c$9#7+r#c$G*q#z 7@[+T@T@@#",
"+#$+7+@#A@7@q#X#G*|+$+I$+#.@v$1*8#F+|++#Y$Y$I+H*I*J*K*7$3@C#&@q@q@o$o$6++.L.-.@@J+{@P+J+6+++/*^ ^ ^ ^ ^ ^ ^ ^ ^ ^ ^ ^ ^ ^ ^ ^ ^ ^ ^ ^ ^ ^ ^ ^ ^ ^ ^ ^ ^ ^ ^ ^ ^ ^ ^ ^ ^ ^ ^ L*J+&@y#q@y#k%+.>+D _+1+c%6&C+:@C+<+j#M*N*O*P*Q*{@6+6+|+Y$6+K#D$_*A@,#z@r#F#|+*#r#z@c$7@7@[+",
"[+T@c$@#[+7@@@w %$z@,#c$@@r#F#,#|+|+7+7+Y$<&R*S*T*U*7$y#]@]@q@q@J+F+F+&$N.~+y.I%F+b%J+c%6+++/*^ ^ ^ ^ ^ ^ ^ ^ ^ ^ ^ ^ ^ ^ ^ ^ ^ ^ ^ ^ ^ ^ ^ ^ ^ ^ ^ ^ ^ ^ ^ ^ ^ ^ ^ ^ ^ ^ ^ V*]@<+&@q@J+a+_@W.O.K X#F+F+y###:@&@I@:@W*X*Y*Z*`*J+1+7+|+|+|+>@A@W 7@z@z@c$_+q#r#z@z@r#T@A@",
"@#7@r#$+r#r#G#X#z@c$z@.@ =A@.=I$7+|+Y$7+<&+=@=#=K*O&q@c%]@O%y#&@J+1+g+;*T.V.J+I@F+I%q@y#P+5@/*^ ^ ^ ^ ^ ^ ^ ^ ^ ^ ^ ^ ^ ^ ^ ^ ^ ^ ^ ^ ^ ^ ^ ^ ^ ^ ^ ^ ^ ^ ^ ^ ^ ^ ^ ^ ^ ^ ^ L*a+C#T%M+y#J+Z+e#{+R.;.%$F+Y$y#T%q@c%q@:@$=%=&=*==={@8#I$e#+#z@@@/+U.+#c$c$_@,@C&r#z@+#7@q#",
"c$r#c$,#]&+#q#|+]&c$]&q#Y$z#c$I$,#6+J+-=;=>=Y%,='=y#Y$c%I@q@y#&@7*D$Q.)=!=a+6+{@J+c%y#y#{@v$~=^ ^ ^ ^ ^ ^ ^ ^ ^ ^ ^ ^ ^ ^ ^ ^ ^ ^ ^ ^ ^ ^ ^ ^ ^ ^ ^ ^ ^ ^ ^ ^ ^ ^ ^ ^ ^ ^ ^ {=]@<+&@:@]@{@{@L&w J N.J 8#b%o$q@q@J+{@J@]=^=/=(=_=:=9#Y$z@z@z@>@6+.@(+[+c$k%@@A@7@r#z@7@*#",
"T@r#z@'#C&7@1+F+,#$++#<=I$.@c$,#|+Y$[=}=|=1=2=3=J@F+8#c%I@{@y#q@y.4=K %+Z+F+I${@y#q@]@]@{@@@~=^ ^ ^ ^ ^ ^ ^ ^ ^ ^ ^ ^ ^ ^ ^ ^ ^ ^ ^ ^ ^ ^ ^ ^ ^ ^ ^ ^ ^ ^ ^ ^ ^ ^ ^ ^ ^ ^ ^ 5=1+L&&@k@q@y#o$6+C#F#-.6=O 8#o$o$J+]@c%J+{@7=8=9=0=a=b=7+c$z@z@q#6+>@r#A@r#8#b+#$A@A@r#[+O#",
"[+r#r#C&+#A@8#G*+#r#r#*#@#d+K#,#'#J%c=d=e=f=g=q@{@Y$I$J@y#J+F+j@;*B X 1+{@I$7+Y$F+]@&@y#|+=+^ ^ ^ ^ ^ ^ ^ ^ ^ ^ ^ ^ ^ ^ ^ ^ ^ ^ ^ ^ ^ ^ ^ ^ ^ ^ ^ ^ ^ ^ ^ ^ ^ ^ ^ ^ ^ ^ ^ ^ h=|+&@T%]@I@J+{@I$J+C#i=S.j=#.8#J@M+J+y#y#Y$y#]=8=k=l=m=n=r#$++#.@A@q#T@[+[+_+|+F#A@*#A@A@7@",
"T@[+r#r#o=.@T@+#A@-+>@A@*#]$7@+#]&p=q=q&r=s=O%F+Y$8#o$b%{@o$>@'+D t=n+I%Y$c$$+P+b%a+I%7*c+Q ~=^ ^ ^ ^ ^ ^ ^ ^ ^ ^ ^ ^ ^ ^ ^ ^ ^ ^ ^ ^ ^ ^ ^ ^ ^ ^ ^ ^ ^ ^ ^ ^ ^ ^ ^ ^ ^ ^ ^ u=,@1+&@q@q@J+{@{@J+k%Z+y.B v=X P+T%]@c%q@J+P+P+H&w=#=Y&x=K#8#(+6@~*s@,#+.#$7@z@@@q#A@*#q#z ",
"[+z#K#@#@#@@r#r#y=l%c+A@z#-+7@c+z=A=B=C=D=2$P+J%|+o$c%c%Y$F#B >+&+o+1+Y$P+$+I$y#I%I%8#%$E=;+F=^ ^ ^ ^ ^ ^ ^ ^ ^ ^ ^ ^ ^ ^ ^ ^ ^ ^ ^ ^ ^ ^ ^ ^ ^ ^ ^ ^ ^ ^ ^ ^ ^ ^ ^ ^ ^ ^ ^ G=O X#F+y#L&c%Y$P+{@8#F+&@*+A '*=+]@O%{@y#J+{@|+Y$H&H=I=J=X#_+z@6@u.u.r#j+^$K#r#/+j@j@A@X.A@",
"G##$[+r#T@>@**c$~*F#X#7@!*g$7@z@@#K= *o=6+|+,#S&I${@I@c%7+e@E O L=6+|+8#Y$I$7+c%7*Y$F+-+{+M=N=O=^ ^ ^ ^ ^ ^ ^ ^ ^ ^ ^ ^ ^ ^ ^ ^ ^ ^ ^ ^ ^ ^ ^ ^ ^ ^ ^ ^ ^ ^ ^ ^ ^ ^ ^ ^ ^ ^ ^ P=&+8#1+a+{@Y$Y${@Y$z@8#9+]+S.U 6+P#P+y#c%Y$$+%$8#Q=R=S=z@@+F#y=s@.@z@r#V +#z@>@e@z#K#q#*#",
"y=T=e@e@y=7@$+c+|+z@[+q#*#V.+#$+7@U=V=Q$_+$+<=c$$+Y$Y$o$|+.@l+T.x e#$+I$Y$o$z%1+k%Y$]@=#W=X=Y=J Z=^ ^ ^ ^ ^ ^ ^ ^ ^ ^ ^ ^ ^ ^ ^ ^ ^ ^ ^ ^ ^ ^ ^ ^ ^ ^ ^ ^ ^ ^ ^ ^ ^ ^ ^ ^ ^ ^ ~=`=&@q@c%b%Y$o$8#8#c$+#&@-.k+O F+J+P+Y$J%7+c$e#z@j@s.'+P$e#+#e@y.6@+#]&8#,#X#/+_*.@q# -N+",
".-T%y#I%F+L&X#5@]&z@r#@@*#V.+#:+_++-T.Q$Z.|+7+$+7+Y$Y${@P+6@l+K 5@%$|+z@S&Y$@-8#F+8#q@#-$-%-&-*-=-^ ^ ^ ^ ^ ^ ^ ^ ^ ^ ^ ^ ^ ^ ^ ^ ^ ^ ^ ^ ^ ^ ^ ^ ^ ^ ^ ^ ^ ^ ^ ^ ^ ^ ^ ^ ^ ^ ^ --!@L&I%F+I$Y$I$I$$+r#1+$$T.x$:+F+F+7+Y$8#$+e#_+/+T.P.Q$e#z@q#y._*+#,#|+|+,#|+&@u+<+C+k@",
"8#z@$+,#(+7*I$c$]&z@z@/+J X %$J+%$Z#;-y.{@{@Y$|+7+J%I$Y$J+u.]+S.$*G*X#$+c$I$8#6+%$I$6&>-,-'-)-!-~-^ ^ ^ ^ ^ ^ ^ ^ ^ ^ ^ ^ ^ ^ ^ ^ ^ ^ ^ ^ ^ ^ ^ ^ ^ ^ ^ ^ ^ ^ ^ ^ ^ ^ ^ ^ ^ ^ ^ {-]-c%7+6+8#8#8#c$@#+#6+$${+P b+8#8#|+8#Y$$+c$^-G#k+P.d+c+9#.@K W z@,#|+,#_+w 6+:+:+:+b+",
"7+8#8#,#+#6+|+z@,#z@X#X.S.-+|+Z.++'+B*/-(-_-:-S&o${@I$$+F+V.{+S.j@z@I$I$c$$+$+z@-+G#~@H*<-[-}-|-~-^ ^ ^ ^ ^ ^ ^ ^ ^ ^ ^ ^ ^ ^ ^ ^ ^ ^ ^ ^ ^ ^ ^ ^ ^ ^ ^ ^ ^ ^ ^ ^ ^ ^ ^ ^ ^ ^ ^ 1-2-I$K 8#I$7+S&r#[+@#8#Z#;-P %$Y$Y${@F+Y$S&3-4-5-J '+y$e#z@s@'+d+z@|+,#|+|+(+8#Z.Z.6+|+",
"|+6+1+|+,#|+|+|+$+X#c$.@~+&+c+c$++Z#3$6-7-8-9-S&7+P+I$<=6+x.;-S.j@+#7+$+c$|+8#e#($e@i@H*0-a-b-c-~-^ ^ ^ ^ ^ ^ ^ ^ ^ ^ ^ ^ ^ ^ ^ ^ ^ ^ ^ ^ ^ ^ ^ ^ ^ ^ ^ ^ ^ ^ ^ ^ ^ ^ ^ ^ ^ ^ ^ 1-2*Y$,${@8#c$]&@#7@+#8#D J J X#,#{@{@Y$I$x*d-e-f-h+$$x.c+c+_*-.e+z@|+z@,#z@c+,#6+|+8#|+",
"Z+Y$,#|+|+X#z@z@+#+#r#6@~++.z c+w Z#g-h-i-j-k-$+$+P+8#$+k%V.]+K b$+#|+|+8#Y$P+%$-+@@l-m-n-o-p-q-~-^ ^ ^ ^ ^ ^ ^ ^ ^ ^ ^ ^ ^ ^ ^ ^ ^ ^ ^ ^ ^ ^ ^ ^ ^ ^ ^ ^ ^ ^ ^ ^ ^ ^ ^ ^ ^ ^ ^ 1-r-F+~+I%6+$+c$]&c$$+k%'+J P |+k%Y${@F+|+s-t-u-v-h+A x.c+c+V.-.%+e#z@,#z@e#j@(+Z.8#,#z@",
"%$+#+#z@(+c+X#|++#c+c+.@~+j+c+,#++S.+.h-w-x-^-+#z%{@P+I$1+y.W.S.b$+#|+|+6+6+F+Z.*+*#c%H@y-z-A-|-~-^ ^ ^ ^ ^ ^ ^ ^ ^ ^ ^ ^ ^ ^ ^ ^ ^ ^ ^ ^ ^ ^ ^ ^ ^ ^ ^ ^ ^ ^ ^ ^ ^ ^ ^ ^ ^ ^ ^ B-C-s-;-I%8#8#I$I+S&$+F+D J W.:+F+P+6+J+|+I$D-E-v-h+Z#y.(+_+V.S.d$@+z@_+,#(+j@z (+z@c$7@",
".@.@j@6@~*/+X#|++#c+c+~*~+U w '#z D h+F-G-H-I+c$|+{@|+Y$F+y.{+D b$+#|+8#k%F+8#Z.Z+Y$O%I-J-K-L-M-~-^ ^ ^ ^ ^ ^ ^ ^ ^ ^ ^ ^ ^ ^ ^ ^ ^ ^ ^ ^ ^ ^ ^ ^ ^ ^ ^ ^ ^ ^ ^ ^ ^ ^ ^ ^ ^ ^ ^ B-==@-|+b%z@8#Y$$+c$c$k%D J x$:+F+|+P+F+Y$S&N-O-P-]+K 7#|+_+V.K V.@+,#z@z@(+/+P$V.V.7#7#",
"l+h+l+J s.g+c+%$+#z@e#@@A@%+c+'#1 '+]+u.Q-J%$+$+$+P+6+J@J+b$O D %%+#7+8#8#F+8#8#I%b%i@R-S-T-U-V-W-^ ^ ^ ^ ^ ^ ^ ^ ^ ^ ^ ^ ^ ^ ^ ^ ^ ^ ^ ^ ^ ^ ^ ^ ^ ^ ^ ^ ^ ^ ^ ^ ^ ^ ^ ^ ^ ^ ^ X-Y-o$Y$Y$_+|+6+,#+#+#1+Z#J Q :+Y$Y$F+o$I$$+$+Z-A@O $$b$_+(+s@x.@@z@z@,#,#c+*++.{+{+J J ",
"@@/+@@u.y.Q$(+|+z@z@z@q#j@d+c+$+5@`-{+V.z@,#$+$+r#8#6+1+F+b${+K P$z@7+8#6+1+F+6+Y$6+1+=#x= ;.;H@Z=^ ^ ^ ^ ^ ^ ^ ^ ^ ^ ^ ^ ^ ^ ^ ^ ^ ^ ^ ^ ^ ^ ^ ^ ^ ^ ^ ^ ^ ^ ^ ^ ^ ^ ^ ^ ^ ^ ^ +;+#Y$S&Y$_@|+F+|+(+z@0+K M Q :+J+F+a+P+I$[++#Z.j@J #&Q$_+c+u.x.V.c+z@e#'#e#V..@A@A@X..@",
"++5@c+++/+P$w ,#@@7@+#@@.@d+e#z@j@P.]+y.@+|+@#@#c$I$b%6+|+@@{+S./+c+|+,#8#F+|+6+8#1+Y$c$X.@;#;~-^ ^ ^ ^ ^ ^ ^ ^ ^ ^ ^ ^ ^ ^ ^ ^ ^ ^ ^ ^ ^ ^ ^ ^ ^ ^ ^ ^ ^ ^ ^ ^ ^ ^ ^ ^ ^ ^ ^ $;v$k%F+8#F+|+|+1+6+X#|+%$K O %;:+J+:+J+F+|+r#z@Z.v$J '+Q$X#_+y.g+*+e#r#x.z c+~*>@+#+#7@7@",
"z r#+#5@A@7#z@c+D$-+(%y.7#V (+(+v$,$&;#$6+|+z@r#$+I$7+|+|+c+h+k+x$7@|+8#I$7+z@8#:+6+7+X#%$_**;^ ^ ^ ^ ^ ^ ^ ^ ^ ^ ^ ^ ^ ^ ^ ^ ^ ^ ^ ^ ^ ^ ^ ^ ^ ^ ^ ^ ^ ^ ^ ^ ^ ^ ^ ^ ^ ^ ^ =;$*R&,#8#1+6++#z@F+8#z@X#V Z#]+V.:+1+6+{@|+|+z@Z.b+T@6$,$P$z@e#U.g+d+7@d+X z 7@V.X.7@+#7@r#",
"z 7@[+A@q#y.|+z 5@V.7@y.y=W w e#Z.T#-;;;>;S&r#r#7++#c$c$7+C# =+.)+O c+|+,#,#$+|+_@F+8#6+|+X.m@^ ^ ^ ^ ^ ^ ^ ^ ^ ^ ^ ^ ^ ^ ^ ^ ^ ^ ^ ^ ^ ^ ^ ^ ^ ^ ^ ^ ^ ^ ^ ^ ^ ^ ^ ^ ^ ^ ^ ,;s %$'#1+F+6+z@z@8#6+(+*+;*s.*+o+:+F+I$8#,#_+_+P+2-';);!;_+w 7@d+-+V (+/$7@A@r#V.6@A@7@7@7@",
"c+~;r#z ,@V.e#z@A@r#F#6@q#V 7@v v {;];^;/;(;S&,#$++#$+$+$+8#<+X.J 8.T z@8#,#|+8#F+F+F+8#c+d+_;^ ^ ^ ^ ^ ^ ^ ^ ^ ^ ^ ^ ^ ^ ^ ^ ^ ^ ^ ^ ^ ^ ^ ^ ^ ^ ^ ^ ^ ^ ^ ^ ^ ^ ^ ^ ^ ^ ^ :;F#,#6+F+Y$6+z@X#%$_@6@;*+-^$9+k%8#P+|+,#$+9#|+r-<;[;};|;Z.v$5@*+*+V F#A@A@A@+#_*y=*#z j@A@",
"z@c+(+5@@@V.7@|+7@c+5@.@|+s@w w 5@G+1;2;3;4;5;I+c$S&S&7+c$c$|+&@_*;.8.-+z@|+8#_@1+6+8#6+z@*+=;^ ^ ^ ^ ^ ^ ^ ^ ^ ^ ^ ^ ^ ^ ^ ^ ^ ^ ^ ^ ^ ^ ^ ^ ^ ^ ^ ^ ^ ^ ^ ^ ^ ^ ^ ^ ^ ^ ^ 6;c+k%F+b%Y$P+_+|+Z.@@R.'+l+b+:+6+|+6+6+6+|+7+7;8;9;0;y&q@(+/+z _*5@*+A@A@A@A@r#V..@q#A@*#*#",
"]&7@A@q#!*/$%+z@_+c+j@u.,#u.w w 7@w q@a;b;c;d;e;$+$+I$S&I$$+z@,#I%/$f;L.d+,#%$_@:+8#8#|+z@y.g;^ ^ ^ ^ ^ ^ ^ ^ ^ ^ ^ ^ ^ ^ ^ ^ ^ ^ ^ ^ ^ ^ ^ ^ ^ ^ ^ ^ ^ ^ ^ ^ ^ ^ ^ ^ ^ ^ ^ h;(+|+|+F+F+F+%$|+/+C D O @+,#,#Y$|+6+|+Z.,#i;j;k;l;m;7$%$w 7@A@_*7@s@A@5@A@7@y.]$y=*#*#e@e@",
"r#A@A@A@q#s@i+,@(+c+F#b$w /+5@(+(+++c+n;o;p;q;r;s;P#{@Y$Y$I$|+z@X#9+&$D 8.d+++|+6+|+6+8#F#u.t;^ ^ ^ ^ ^ ^ ^ ^ ^ ^ ^ ^ ^ ^ ^ ^ ^ ^ ^ ^ ^ ^ ^ ^ ^ ^ ^ ^ ^ ^ ^ ^ ^ ^ ^ ^ ^ ^ ^ u;@+|+|+|+Z.Z.%$@@>+R.{+x c+c$8#F+6+|++#6+6&}&v;w;x;y;7+r#e#r#,@V.F#.@r#A@*#>@g-N+q#A@K#s@y=",
"A@*#*#A@q##$~*q#(+c+c+X#>@F#6@5@(+c+7@+#q%z;A;B;C;D;o$Y$Y$Y$|+|+e#|+k%l%'+7.V c+_+Z.8#|+A@u.E;^ ^ ^ ^ ^ ^ ^ ^ ^ ^ ^ ^ ^ ^ ^ ^ ^ ^ ^ ^ ^ ^ ^ ^ ^ ^ ^ ^ ^ ^ ^ ^ ^ ^ ^ ^ ^ ^ ^ F;e#%$_+|+8#z@A@B R.&.++%$z r#|+:+8#8#,#8#G;H;I;J;K;|+O#@#z@K#y=F#A@,#+#7@A@*#i#!**#z#X.L;y=",
"d%A@T@7@A@A@#$/+7@j@7@e#,#A@v$y.A@+#z@z@,#M;N;O;P;Q;J%P+|+$+,#$+z@(+@+R;l+;*7.V.e#X#z@z@A@y.E;^ ^ ^ ^ ^ ^ ^ ^ ^ ^ ^ ^ ^ ^ ^ ^ ^ ^ ^ ^ ^ ^ ^ ^ ^ ^ ^ ^ ^ ^ ^ ^ ^ ^ ^ ^ ^ ^ ^ F;^*,#|+6+8#A@K O.J v$_+,#7@(+|+Y$$+Y$Y$S;T;U;V;W;Y$+#j@7@r#.@X.A@r#]&7@A@A@@@_*e@j@q#*#e@q#",
"#$*#r#T@A@A@#$X.A@*#z ++c+(+>@b$y.7@z@,#z@|+X;Y;Z;`; ><&|+z@,#,#|+z@(+%$%$.>R.L.u.(+z@X#z .@E;^ ^ ^ ^ ^ ^ ^ ^ ^ ^ ^ ^ ^ ^ ^ ^ ^ ^ ^ ^ ^ ^ ^ ^ ^ ^ ^ ^ ^ ^ ^ ^ ^ ^ ^ ^ ^ ^ ^ F;e#z@|+|+c+-.)+T.7#_+@++#c+z@,#8#F+J@+>@>#>$>%>{@7@7@7@A@X.b$6@K#7@A@A@A@*#7#s@q#q#q#G#*#X.",
".@G#7@7@*##$.@@@A@*#A@7@j@A@z@$*D$y.F#X#$+r#X#3%&>*>=>->I+X#c+X#|+z@X#_+@+@++.;*;>b$e#X#5@7#>>^ ^ ^ ^ ^ ^ ^ ^ ^ ^ ^ ^ ^ ^ ^ ^ ^ ^ ^ ^ ^ ^ ^ ^ ^ ^ ^ ^ ^ ^ ^ ^ ^ ^ ^ ^ ^ ^ ^ ,>w z@z@c+J M.B*b$Z.%$z@z@z@(+|+F+o$'>)>!>~>#%Y$7@A@A@A@6@6@^+5@ =X.*#A@z#*#A@V.X.A@A@z#A@q#",
"e@q#j@*#G#q#.@@@A@*#A@j@@@,@c+%$/+t=d+>@r#7@z (+{>]>^>/>(>o$z@%$%$|+|+_+^*S+x &._>R.7#z@A@6@E;^ ^ ^ ^ ^ ^ ^ ^ ^ ^ ^ ^ ^ ^ ^ ^ ^ ^ ^ ^ ^ ^ ^ ^ ^ ^ ^ ^ ^ ^ ^ ^ ^ ^ ^ ^ ^ ^ ^ :>++c+c+l+N.T.y._@z@X#(+_+z@%$8#b%<>[>}>|>1>8#>@A@7@A@6@i+5@>@5@X.q#>@A@q#q#X._*@@A@A@[+A@e@",
"e@t@*#q#q#q#y=@@A@z A@(%j@@@v$7#_*%%W.d+G#A@T@z x*K&>=2>3>e;$+%$@+z@z@e#c+e#Z.j@J 8.>+/+j@u.E;^ ^ ^ ^ ^ ^ ^ ^ ^ ^ ^ ^ ^ ^ ^ ^ ^ ^ ^ ^ ^ ^ ^ ^ ^ ^ ^ ^ ^ ^ ^ ^ ^ ^ ^ ^ ^ ^ ^ :>v$++W.6=-.y.:+e#7@c+z@|+8#|+Y$i;K%4>5>6>c%A@K#A@j@u.l+.@q#V 7#e@q#7@U#G#j@q#_*.@q#z#A@q#.@",
"q#e@q#q#e@e@_*@@5@z z *#>@/+j@x.]$V.~*l+x.z (+++F#c%7>8>9>0>q#w _+z@_+z@F#++++Z./+T.v=A /+u.E;^ ^ ^ ^ ^ ^ ^ ^ ^ ^ ^ ^ ^ ^ ^ ^ ^ ^ ^ ^ ^ ^ ^ ^ ^ ^ ^ ^ ^ ^ ^ ^ ^ ^ ^ ^ ^ ^ ^ a>w %+2.+-g$9+c+z 7@e#e#_+,#z@w b>c>5>d>T%c+A@A@z y.]+L;y.y=&$.@q#j@7@A@q#*#7#R+s@q##$A@e@y=",
"q#e@e@e@.@!*_*u.A@j@v$q#*#A@z u.W e>y..@O =+z w w +#6&f>g>h>Z#7#(++#e#@+e#(+A@5@|+V.#&8.X.6@E;^ ^ ^ ^ ^ ^ ^ ^ ^ ^ ^ ^ ^ ^ ^ ^ ^ ^ ^ ^ ^ ^ ^ ^ ^ ^ ^ ^ ^ ^ ^ ^ ^ ^ ^ ^ ^ ^ ^ a>++U P.J 9+w z F#_+|+,#e#e#c+W.i>j>k>i@e#c+7@j@/+W.y.X.W.~*U .@X.j@*#*#@@j@7#[#y=e@e@d%q#.@",
"e@.@e@e@y=N+/$V.A@A@7@A@A@j@v$.@l>6*g+.@6@O V.7@c+7@e#6+%$+.P.#&/+5@e#e#e#++v$v$5@-+D N.6@V.E;^ ^ ^ ^ ^ ^ ^ ^ ^ ^ ^ ^ ^ ^ ^ ^ ^ ^ ^ ^ ^ ^ ^ ^ ^ ^ ^ ^ ^ ^ ^ ^ ^ ^ ^ ^ ^ ^ ^ m>z i+D >+5@c+F#r#,#8#z@6*F#j+'+]+r#]@8#z@c+j@u.+._*/+^$F#.@&$@@q#q#q#*#q#*#7#[#s@y=f@X.*#q#",
"e@y=y=y=s@*+V x.,@q#7@7@A@5@++@@<#A@w d+@@7#l+x.j@z A@(+:$++l+>+;./+c+e#(+7@z A@v$U '+N.u.y.E;^ ^ ^ ^ ^ ^ ^ ^ ^ ^ ^ ^ ^ ^ ^ ^ ^ ^ ^ ^ ^ ^ ^ ^ ^ ^ ^ ^ ^ ^ ^ ^ ^ ^ ^ ^ ^ ^ ^ n>5@+.P.8.j@A@A@7@z@|+(+w U '+J D$J+_+,#z@z u.W.~*X.X >@j@.@&$7#q#e@q#q#q#,@.@[#s@~*q#*#A@#$",
"q# -s@.@y=T=<#*+~*6@q#*#j@A@e#@@V q#F#_@t=.@N+J x.j@5@z (+k%5@J N.H z z@X#7@A@F#5@j+'+8.B#d$o>^ ^ ^ ^ ^ ^ ^ ^ ^ ^ ^ ^ ^ ^ ^ ^ ^ ^ ^ ^ ^ ^ ^ ^ ^ ^ ^ ^ ^ ^ ^ ^ ^ ^ ^ ^ ^ ^ ^ p>*%W.P.8.j@7@j@*#c+w$e#*+;*B*y.o+|++#[+T@j@+.d+j@+.v$j@X.6@j+.@e@,@j@A@G#q#.@[#N+y=z#*#(%G#",
"*#q#e@.@.@q>s@V.q#q#j@j@z F#++y.]$e@A@+#e#A@A@*+W.@@++X.j@@+0+>@~+N.g+F#w 7@5@F#c+V r>2.y.V.o>^ ^ ^ ^ ^ ^ ^ ^ ^ ^ ^ ^ ^ ^ ^ ^ ^ ^ ^ ^ ^ ^ ^ ^ ^ ^ ^ ^ ^ ^ ^ ^ ^ ^ ^ ^ ^ ^ ^ p>z l+P.8.A@A@q#q#A@(+j@C K ]$1+Z.e#7@5@A@d+-+A@++@@v$@@e@y=T .@e@@@q#X.A@.@7#*+s@y=A@*#X.e@",
"q#@@q##$e@e@N+N+,@,@>@A@5@z 5@y.s>~*e@A@A@q#A@e@/$+.5@7@A@c+@+:+B*t>X ++F#d%j@z z u>P.3.u._*v>^ ^ ^ ^ ^ ^ ^ ^ ^ ^ ^ ^ ^ ^ ^ ^ ^ ^ ^ ^ ^ ^ ^ ^ ^ ^ ^ ^ ^ ^ ^ ^ ^ ^ ^ ^ ^ ^ ^ p>j@J Q.2.>@*#*#/+/+c+/+w>#+,#6+|+r#7@c+d+-+e@A@7@e@j@*#.@y=j+.@.@y=s@.@e@N+6@V..@y=q#q#q#!*",
"e@q#@@q# -s@<#V.,@q#q#/+>@z >@x.j+~*.@A@A@,@A@X.L;&;7#v$z v$(+9#x>y>z>5@5@j@/+z A@&$P.7.y.V.v>^ ^ ^ ^ ^ ^ ^ ^ ^ ^ ^ ^ ^ ^ ^ ^ ^ ^ ^ ^ ^ ^ ^ ^ ^ ^ ^ ^ ^ ^ ^ ^ ^ ^ ^ ^ ^ ^ ^ p>j@J O.3./+>@*#A@7@e#[+A>B>C>z@'#+#c+7@O s@q#A@7@,@,@q#.@.@j+u.,@.@y=.@.@s@u._*e@q#q>.@.@s@",
"q#A@q#e@s@_*<#V.@@q#j@A@>@j@A@s@*$u.e@j@A@q#q#f@.@s>/$,@A@>@(+{@D>E>F>1 5@5@A@7@A@@.'+3.u.x.o>^ ^ ^ ^ ^ ^ ^ ^ ^ ^ ^ ^ ^ ^ ^ ^ ^ ^ ^ ^ ^ ^ ^ ^ ^ ^ ^ ^ ^ ^ ^ ^ ^ ^ ^ ^ ^ ^ ^ G>3 J )+K.@@A@*#A@r#z@H>I>J>K>|+C&K#7@A@h+~*e@7@F#@@L>e@f@6@&$.@,@e@.@y=s@s@y.V.@@q#.@.@e@y=",
"e@j@@@y=_*N+t.x.@@q#j@j@>@A@A@V.&$.@X.(%A@*#e@ -!*^$W ,@X.@@5@P+M>N>O>A@++w ++5@5@X '+K.y.U.v>^ ^ ^ ^ ^ ^ ^ ^ ^ ^ ^ ^ ^ ^ ^ ^ ^ ^ ^ ^ ^ ^ ^ ^ ^ ^ ^ ^ ^ ^ ^ ^ ^ ^ ^ ^ ^ ^ ^ G>j@O O.3.@@A@j@z#A@c+`*P>Q>R>7+r#d%*#*#($6@,@7@F#e@y=.@.@u.&$y.X.>@>@.@~*s@6@V.q#e@.@.@q#q#",
"u.e@q#~*_*N+/$U.@@q#.@u.u.q#/+*+s>#$q#q#A@*#e@e@.@&$x.>@@@.@7@G+S>T>U>*#1 w ++(+++&$'+2.y.g+v>^ ^ ^ ^ ^ ^ ^ ^ ^ ^ ^ ^ ^ ^ ^ ^ ^ ^ ^ ^ ^ ^ ^ ^ ^ ^ ^ ^ ^ ^ ^ ^ ^ ^ ^ ^ ^ ^ ^ V>/+J r>3.@@A@X.*#j@z `*W>X>R>$+A@*#j@A@+.@@A@r#7@,@.@.@.@u.-+y.q#A@z q#.@y=u.V..@y=y=6@e@q#",
"u.u.7#~*_*x.R+U.b$u..@u..@@@j@x.&$y=,@q#*#*#q#e@.@j+d+@@,@q#5@P+Y>Z>`>G#v$w ~;c+w +.>+2.d$f+v>^ ^ ^ ^ ^ ^ ^ ^ ^ ^ ^ ^ ^ ^ ^ ^ ^ ^ ^ ^ ^ ^ ^ ^ ^ ^ ^ ^ ^ ^ ^ ^ ^ ^ ^ ^ ^ ^ ^  ,/+J P.3.@@X.,@@@@@A@`*.,+,@,c$A@*#q#>@{+q#j@A@z @@.@u.@@7#&$.@q#A@z j@s@,@u._*V.N+s@s@.@u.",
"s@.@6@u.s@x.R+d+7#y.y=7#6@q#A@s@}+s@.@U#A@A@d%e@.@*$V .@X.>@@@9##,$,%,G#v$++c+r#c+i+P.7.f+d+v>^ ^ ^ ^ ^ ^ ^ ^ ^ ^ ^ ^ ^ ^ ^ ^ ^ ^ ^ ^ ^ ^ ^ ^ ^ ^ ^ ^ ^ ^ ^ ^ ^ ^ ^ ^ ^ ^ ^  ,A@J &,K.7#,@.@@@,@U#*,=,-,@,<=A@*#q#j@O /+X.*#j@.@@@q#@@u.U y.q#@@>@e@y=X.,@/$l>N+N+L;,@.@",
"6@.@y.N+;,x.R+g+y.y..@u.y.@@j@V.W u..@*#K#A@*#,@y=j+y$+@q#X.q#7+>,,,U>U#j@A@(+r#A@j+P.J.U.%+v>^ ^ ^ ^ ^ ^ ^ ^ ^ ^ ^ ^ ^ ^ ^ ^ ^ ^ ^ ^ ^ ^ ^ ^ ^ ^ ^ ^ ^ ^ ^ ^ ^ ^ ^ ^ ^ ^ ^ V>j@J M.3..@,@X.q#,@U#',),!,@,~,A@e@#$j@O q#j@@@.@6@+@@@.@~*U u..@,@.@.@~*.@7#t._*<#V.@@X.6@",
".@7#u.x.s@u.d+d+y.7#,@6@7#u..@_*-+~*@@j@>@G#e@.@6@*$f+/+q#e@j@z@{,],^,e@>@5@c+7@j@j+,+J.x.d+v>^ ^ ^ ^ ^ ^ ^ ^ ^ ^ ^ ^ ^ ^ ^ ^ ^ ^ ^ ^ ^ ^ ^ ^ ^ ^ ^ ^ ^ ^ ^ ^ ^ ^ ^ ^ ^ ^ ^ /,j@O Q.I.7#q#*#A@A@U#(,_,+,:,7@q#q>*#z M q#1 q#.@y.u.7#~*x.i+V.7#.@6@6@N+.@7#*+y.s@.@X.q#7#",
"x..@6@x.s@N+d+U.u.6@@@.@q#.@V.V -+.@X.@@*#q#.@.@u.&$U.j@@@.@z z@<,[,},q>X.v$F#A@j@]$,+J.d$d+v>^ ^ ^ ^ ^ ^ ^ ^ ^ ^ ^ ^ ^ ^ ^ ^ ^ ^ ^ ^ ^ ^ ^ ^ ^ ^ ^ ^ ^ ^ ^ ^ ^ ^ ^ ^ ^ ^ ^ |,3 l+Q.1,7#d%j@A@j@#$5-2,3,4,A@j@e@j@j@J 7#1 /+u.u..@y.~*x.+.6@6@q#@@s@l>y.u.*+u.7#.@.@q#7#",
"x.u.s@x._*_*R+d+y.u.@@q#j@.@V./$j+.@j@@@q#@@,@.@.@i+x.1 /+j@7@5,6,7,8,6@@@j@v$z j@]$P.J.d$y$v>^ ^ ^ ^ ^ ^ ^ ^ ^ ^ ^ ^ ^ ^ ^ ^ ^ ^ ^ ^ ^ ^ ^ ^ ^ ^ ^ ^ ^ ^ ^ ^ ^ ^ ^ ^ ^ ^ ^ 9,/+l+N.0,@@A@X.(%q#@@a,b,c,d,e@j@.@,@q#J y.j@/+y.u..@u.~*x.T V..@X.q#s@_*y.u.d+y.u.7#6@,@u.",
".@,@y.x.V.x.R+g+y.y.y..@/+7#.@V i+V.G#X.j@e@,@e@~*($y$/+1 j@j@N@e,f,g,u.@@7#q#*#>@W `-1,V.e+v>^ ^ ^ ^ ^ ^ ^ ^ ^ ^ ^ ^ ^ ^ ^ ^ ^ ^ ^ ^ ^ ^ ^ ^ ^ ^ ^ ^ ^ ^ ^ ^ ^ ^ ^ ^ ^ ^ ^ /,/+l+8.1,j@A@q#j@,@.@h,i,j,k,u./+.@u.@@J y.j@@@y.u.,@q#.@*+T s@s@.@6@l,t.x.B#V x.x.u.y.y.u.",
"7#@@,@y.x._**+%+V.V.u..@/+@@@@d++._*,@e@X..@.@u.s@g-S$7#j@A@r#H&m,n,o,l,@@7#@@e@@@&$P.J.=+d+v>^ ^ ^ ^ ^ ^ ^ ^ ^ ^ ^ ^ ^ ^ ^ ^ ^ ^ ^ ^ ^ ^ ^ ^ ^ ^ ^ ^ ^ ^ ^ ^ ^ ^ ^ ^ ^ ^ ^ p,,@O !+0,/+A@>@q#@@>@q,r,s,t,x*X.6@,@@@J u.>@@@u.V..@q#.@x.j+x.V.x.x._*/$_*y.V x.s@.@s@6@V.",
"y.,@@@@@u.x.*+d+V.x.6@7#@@,@u.W h+_*6@.@e@y=~*y=s@h+X @@7#.@X.I+u,v,w,u.@@3 X.X.y.+.Q.J.y.R$v>^ ^ ^ ^ ^ ^ ^ ^ ^ ^ ^ ^ ^ ^ ^ ^ ^ ^ ^ ^ ^ ^ ^ ^ ^ ^ ^ ^ ^ ^ ^ ^ ^ ^ ^ ^ ^ ^ ^ x,Q$L 6=0,/+7@A@j@A@A@_&y,z,A,[+.@y=~*7#J 7#X.6@s@_*y.,@u.U.#.x.x.V._*_*/$_*y.W V.u.,@,@.@V.",
"6@.@7#,@6@V.d+d+V.x.6@.@,@6@V.W h+*+x..@,@s@s@.@s@h+X @@.@6@@@B,C,D,^,.@+@+@7#/+6@l+)+0,V.d+E,^ ^ ^ ^ ^ ^ ^ ^ ^ ^ ^ ^ ^ ^ ^ ^ ^ ^ ^ ^ ^ ^ ^ ^ ^ ^ ^ ^ ^ ^ ^ ^ ^ ^ ^ ^ ^ ^ ^ x,Q$J N.I./+7@*#j@>@A@F,G,H, >A@u..@~*@@J V.u.L;.@N+x.u.D$W O d+_*x._**+t.*+=+W x.y.u.7#y.V.",
"}@u.y.y.u.y.R+d+V.x.u.s@x._*_*-+]+V t.x.~*V.y=.@s@l+%+u.6@6@@@I,C,J,O>e@P$3 7#7#y.3$M.1,y$e+E,^ ^ ^ ^ ^ ^ ^ ^ ^ ^ ^ ^ ^ ^ ^ ^ ^ ^ ^ ^ ^ ^ ^ ^ ^ ^ ^ ^ ^ ^ ^ ^ ^ ^ ^ ^ ^ ^ ^ x,7#k+N.I.b$*#e@@@,@*#K,),L,M,G#u.,@6@s@k+*+s@~*V.N+V.V.x.@.J d+*+_*_**+R+d+V.%+f+x.x.x.x.x.",
"y.B#~*y.6@V.V g+V.x.x._*/$R+d+&$]+V _*t._*N+y=s@_*3$g+V.u.,@,@B,N,O,P,A@5@j@/+7#V.{+Q.1,R$e+E,^ ^ ^ ^ ^ ^ ^ ^ ^ ^ ^ ^ ^ ^ ^ ^ ^ ^ ^ ^ ^ ^ ^ ^ ^ ^ ^ ^ ^ ^ ^ ^ ^ ^ ^ ^ ^ ^ ^ Q,u.~+8.1,u.7#6@.@u..@S;R,S,:,A@e@X.q#u.~+/$x.V.*+V.V.x.V j+N V d+_*_**+d+*+y.X V d+*+/$V V ",
"y.u.V.y.y.x.%+P$6@x.t./$V *+_*-+]+V /$R+x.~*s@N+_*]+y$}@u.,@,@S&>,T,P,A@v$3 /+q#u.O )+1,U.U.E,^ ^ ^ ^ ^ ^ ^ ^ ^ ^ ^ ^ ^ ^ ^ ^ ^ ^ ^ ^ ^ ^ ^ ^ ^ ^ ^ ^ ^ ^ ^ ^ ^ ^ ^ ^ ^ ^ ^ U,u.S.2.1,y.7#.@s@N+.@V,R,W,X,o=q#*#,@7#-.x.x.~**+u.x._*V &$J /$_**+*+t.d+V.b$g$d+x.x._*u>]$",
"y.u.~*u.V.d+Q$y.x.d+V -+l+V f+T h+d+_*V *+V.~*N+V.W.g+y.u.u.,@S&>,Y,Z,G#1 P$7#@@u.W.;>J.V.C$E,^ ^ ^ ^ ^ ^ ^ ^ ^ ^ ^ ^ ^ ^ ^ ^ ^ ^ ^ ^ ^ ^ ^ ^ ^ ^ ^ ^ ^ ^ ^ ^ ^ ^ ^ ^ ^ ^ ^ U,b$E 8.1,y.6@~*y.u.L;`,R,W, 'o=X.@@q#q#k+V.x.y.d+V.x.x.t.j+J ^+d+O V t.*+*+u./+W x.x.s@/$]$",
"6@u..@u.V.j+U.V.*+W -+.'x$-+#@K ]+O W.]+s.+.h+]+W +.V y..@u.q#S&+',,O>e@j@j@P$Q$y.i+'*1,!=y$@'^ ^ ^ ^ ^ ^ ^ ^ ^ ^ ^ ^ ^ ^ ^ ^ ^ ^ ^ ^ ^ ^ ^ ^ ^ ^ ^ ^ ^ ^ ^ ^ ^ ^ ^ ^ ^ ^ ^ #'u.K 3.$'y.s@V.6@u.e@%'&'*':,z#@@/+j@q#T.*+J j+#.J W.W.J h+]*&+&$J K W t.*+y.b$W.*+V.V.-+W ",
"V.V.u.s@R+h+d+x.d+-+;.&.%+i+K J Z#&.N.D =.>+.'P.d+h+-+V.y=y./+$+='-';'.@3 j@@@7#u.+.)+1,U.e+@'^ ^ ^ ^ ^ ^ ^ ^ ^ ^ ^ ^ ^ ^ ^ ^ ^ ^ ^ ^ ^ ^ ^ ^ ^ ^ ^ ^ ^ ^ ^ ^ ^ ^ ^ ^ ^ ^ ^ >'Q$E 7.,'y.y=V.u.6@6@`,),'')'U#@@,@7#@@T.d+;+A !'~'{']*G R.J D +...J K X t.y.7#O V x.x.V d+",
"s@_*D$D$-+h+d+*+V +.K U l+]*T.h+J L.;.]*;>.'L.]*(${+-+y.s@V..@C&]'^'/'.@3 /+7#.@6@W.)+1,d+g+@'^ ^ ^ ^ ^ ^ ^ ^ ^ ^ ^ ^ ^ ^ ^ ^ ^ ^ ^ ^ ^ ^ ^ ^ ^ ^ ^ ^ ^ ^ ^ ^ ^ ^ ^ ^ ^ ^ ^ P=y.S.3.('u.6@6@@@@@,@5-),_')'*#7#u.u.7#T.X D :'G v=~'#&<'['-.T.D l+&+K +.x.V.B#J V x.x.x.*+",
"_*d+V.V.W h+g+*+-+%+-+W.K ;.W.l+}']*B R..'j=#&>+&${+%+@@6@~*@@T@|'1'2'.@/+j@u.u._*l%M.1,R$e$@'^ ^ ^ ^ ^ ^ ^ ^ ^ ^ ^ ^ ^ ^ ^ ^ ^ ^ ^ ^ ^ ^ ^ ^ ^ ^ ^ ^ ^ ^ ^ ^ ^ ^ ^ ^ ^ ^ ^ 3'd$A 6=0,y.u.@@/+/+q#4'5'6'7'j@.@s@y.7#H W S.B 8'.';>9'B j=S.l++.#&J +.t.V x.B#J -+*+x._*x.",
"d+V f+x.W i+d$V.-+i+W.S.H 0'X +.l%&+($i+l+W.W.]+g$U x./+.@@@j@A@a'b'c'u.@@/+y.u.x.{+)+7.U.U @'^ ^ ^ ^ ^ ^ ^ ^ ^ ^ ^ ^ ^ ^ ^ ^ ^ ^ ^ ^ ^ ^ ^ ^ ^ ^ ^ ^ ^ ^ ^ ^ ^ ^ ^ ^ ^ ^ ^ d'x.K N.K.=+y.6@7#/+e@e'T*f'g'v$7#s@7#@@-.b$W..>h+j+E=W.]+O ]+T h'x$D h+&$/$*+@@{+&$d+_**+d+",
"d+d+d+d+-+j++#{@$++#8#V h+W.s.s.J T.T.s.)=~+S.;+J O b$@@u./+1 u.i'j'k'u.7#u.V.y.x.{+P.U Q$S$@'^ ^ ^ ^ ^ ^ ^ ^ ^ ^ ^ ^ ^ ^ ^ ^ ^ ^ ^ ^ ^ ^ ^ ^ ^ ^ ^ ^ ^ ^ ^ ^ ^ ^ ^ ^ ^ ^ ^ d'f+V D K.f+u.y.,@@@u.N#q=l'p=P$B#y.,@P$.>l+J '+)=-.T.H T.-.k+T.J k++.,#S&Y$m'O%+.j+d+x.x.d+",
"*+x.d+V &$J e+=+y.y.@@**I+o$8#I$+#r#o=@#o=c$]&n'o'5@Q$7#y.j@x.p'.*g,;-x.u.V.x.V._*]+L 7@u.U @'^ ^ ^ ^ ^ ^ ^ ^ ^ ^ ^ ^ ^ ^ ^ ^ ^ ^ ^ ^ ^ ^ ^ ^ ^ ^ ^ ^ ^ ^ ^ ^ ^ ^ ^ ^ ^ ^ ^ q'd+7#U N._*y..@q#.@_*&;r's't'U 7#,@/+@@.@u'v'w'*#]&+#**8#7*k%$+<=S&$+x b$y.,@@@T.j+d+d+R+/$",
"d+x.*+V ^$L e+x.V.s@V.7#X.u.@@j@/+u.y.y.t.V._*_*u.y.u.7#u.j@*+x'y')=J x.u.x._*_**+{+E V.y.U @'^ ^ ^ ^ ^ ^ ^ ^ ^ ^ ^ ^ ^ ^ ^ ^ ^ ^ ^ ^ ^ ^ ^ ^ ^ ^ ^ ^ ^ ^ ^ ^ ^ ^ ^ ^ ^ ^ ^ z'V.d$W.8.x.V.~*@@@@_*A'B'C'D'W.P$/+/+3 s@u.u..@,@.@V.,@j@@@7#V.V.V.6@y.x.x.V.u.S.&$/$V W W ",
"V d+/$/$]$J y$Q$y.V.V.y.7#x.7#j@,@7#u.u.x.V.x.x.7#/+V.y.u.7#V &,E'~+O x.y.x._**+*+{+K _*V...F'^ ^ ^ ^ ^ ^ ^ ^ ^ ^ ^ ^ ^ ^ ^ ^ ^ ^ ^ ^ ^ ^ ^ ^ ^ ^ ^ ^ ^ ^ ^ ^ ^ ^ ^ ^ ^ ^ ^ G'x.V.l+3.x.x.V..@@@_*g-&,D &,L u.@@@@,@/+7#u.u.@@7#x.y.u.7#y.}@V.d+*+V.*+*+y.y.S.T -+]$W s>",
"d+*+V W &$J g+y.V.x.V.x.d$x.u.u.u.d$x.y.x.x.u.@@/+u.V.x.}@y.X H'I'T.O x.u.x.d+f+d+J K *+x.#.F'^ ^ ^ ^ ^ ^ ^ ^ ^ ^ ^ ^ ^ ^ ^ ^ ^ ^ ^ ^ ^ ^ ^ ^ ^ ^ ^ ^ ^ ^ ^ ^ ^ ^ ^ ^ ^ ^ ^ J'x.x.L 3.*+V.*+y.7#x.j+r>Z#M.O d$7#u.@@3 P$,@@@3 7#x.y.}@B#x.x.d+V _*V.y.x.6@B#-.i+-+&$j+j+",
"V V d+]$&$N R$y.D$*+*+x.d+*+d$K'y.V.d$d$}@y.@@j@7#y.y.x.x.x.X M.I.B*&.f+x.x.d+d+L'J S.V x.Q F'^ ^ ^ ^ ^ ^ ^ ^ ^ ^ ^ ^ ^ ^ ^ ^ ^ ^ ^ ^ ^ ^ ^ ^ ^ ^ ^ ^ ^ ^ ^ ^ ^ ^ ^ ^ ^ ^ ^ M'R$f+M 3.*+x.d+U.7#x.T '+Z#Q.l+,@,@7#B#7#y.1 @@@@u.V.y.x.y.d$d$d+x.~*V..@V.y.7#S.i+-+&$j++.",
"-+s>W ]$^$J R$y.x.d+d+V.y$d+x.y.7#y.d$x.x.y.@@,@u.y.}@x.*+U.U N.E'~+H g+x.t.V d+d+J A W y$L N'^ ^ ^ ^ ^ ^ ^ ^ ^ ^ ^ ^ ^ ^ ^ ^ ^ ^ ^ ^ ^ ^ ^ ^ ^ ^ ^ ^ ^ ^ ^ ^ ^ ^ ^ ^ ^ ^ ^ M'x.f+L J.V d+L'*+x.*+T O'D ;*O y.B#B#+@B#q#j@P$y.V.*+y.d$y.d$d$d+t.~*V.x.u.y.7#S.+.s>@.j+h+",
"s>&$&$W j+J e+y.x.*+d$y.d+d+f+u.P$P$d$f+x.x.B#B#y.u.u.y.V.*+&$N.I.-.J W *+V -+W ^+J B W y$L N'^ ^ ^ ^ ^ ^ ^ ^ ^ ^ ^ ^ ^ ^ ^ ^ ^ ^ ^ ^ ^ ^ ^ ^ ^ ^ ^ ^ ^ ^ ^ ^ ^ ^ ^ ^ ^ ^ ^ M'x.d+J I.V *+d+t.V -+h+'+Z#;*J f+x.x.y.}@+@7#Q$d$x.V.y.x.y.d$d$u.x.7#d$V.u.y.P$S.+.&$&$i+h+",
"*$*$U &$j+T.U$x.d+V.u.V._*x.x.x.P'B#d$f+x.x.V.u.u.y.x.f+x.f+U B '+O J X y$V X V X T.D X W L N'^ ^ ^ ^ ^ ^ ^ ^ ^ ^ ^ ^ ^ ^ ^ ^ ^ ^ ^ ^ ^ ^ ^ ^ ^ ^ ^ ^ ^ ^ ^ ^ ^ ^ ^ ^ ^ ^ ^ Q'g+V J 7.%+d+W }+-+-+l+D H ;.O d+d+x.x.}@y.P$7#u.x.x.y.x.x.x.x.}@d$B#y.y.y.y.1 S.h+&$j+j+i+",
"j+U j+j++.J =+U.U.x.x.V.*+x.x.d$d$}@x.x.x.u.x.f+d$y.f+y$*+f+U '+J W.L X R'W -+W j+T.A U X L N'^ ^ ^ ^ ^ ^ ^ ^ ^ ^ ^ ^ ^ ^ ^ ^ ^ ^ ^ ^ ^ ^ ^ ^ ^ ^ ^ ^ ^ ^ ^ ^ ^ ^ ^ ^ ^ ^ ^ S'X X J 3.-+%+-+}+-+U l+J S$-.O d+W V d+*+V.y.d$7#T'f+x.*+f+L't.f+x.}@x.f+x.*+u.O O j+&$i+i+",
"+.i+i++.J =+x.x.d+x.*+x.y$*+x.x.K'f+f+f+x.x.x.x.d$*+d+W e+l@U Z#U'..J U W E+#@W E+-.D S$X L N'^ ^ ^ ^ ^ ^ ^ ^ ^ ^ ^ ^ ^ ^ ^ ^ ^ ^ ^ ^ ^ ^ ^ ^ ^ ^ ^ ^ ^ ^ ^ ^ ^ ^ ^ ^ ^ ^ ^ V'X X J 3.-+V W -+W -++.L `.S.x$*%V V W V *+*+x.V.y$d+y$d+R'R'L't.d+d+f+y$x.V d+V.;-W.+.h+]+",
"K S.-.S.X %+X X U W X X U X W W W W X X X X W W W W X U S$e$L >+;.]*&$&$X #@T &$W K C U X H N'^ ^ ^ ^ ^ ^ ^ ^ ^ ^ ^ ^ ^ ^ ^ ^ ^ ^ ^ ^ ^ ^ ^ ^ ^ ^ ^ ^ ^ ^ ^ ^ ^ ^ ^ ^ ^ ^ ^ W'S$X -.0,V W -+W W j+&$K B '+T.R$U j+&$X %+W #@-+U U -+U #@U W X U U U U U T #.T V S.)=S.+-",
"+.+.^$U J N.J.(','X'('1,1,0,J.1,1,0,0,0,0,J.1,I.6='*>+R.;>O.>+T.{+X j++.R W.l+=...C Y'U X H N'^ ^ ^ ^ ^ ^ ^ ^ ^ ^ ^ ^ ^ ^ ^ ^ ^ ^ ^ ^ ^ ^ ^ ^ ^ ^ ^ ^ ^ ^ ^ ^ ^ ^ ^ ^ ^ ^ ^ W'X Z'H I.d+O J i+&+W.&+U s.{+D R.N.N.O.)+8.3.0,('`'1,1,X','('('X'`'('1,I.1,1,0,3.S.&;-+]$*$",
" ).) )+) )@)j.@)G.#)E.$)H.$).) ).) ).)H.j.j.j..).) ).).)$).) ).)$).)j.G.F.E.j.j.%)&)D j+T E N'^ ^ ^ ^ ^ ^ ^ ^ ^ ^ ^ ^ ^ ^ ^ ^ ^ ^ ^ ^ ^ ^ ^ ^ ^ ^ ^ ^ ^ ^ ^ ^ ^ ^ ^ ^ ^ ^ ^ *)T T ;+=)-)@)j.G.;)G.j.@).)>)>)>) ).).)$)j.G.@).)H.H..).).).)$)G.E.j.@)j.@)j.$).)>),)')>).)",
"))!+!+!+9.!+N.3.9.I.K.3.3.3.8.M.!+3.9.I.9.9.9.!)!)3.3.3.3.!+!+3.3.N.P.&,~)!+!+B'{)])^)k+K ;>N'^ ^ ^ ^ ^ ^ ^ ^ ^ ^ ^ ^ ^ ^ ^ ^ ^ ^ ^ ^ ^ ^ ^ ^ ^ ^ ^ ^ ^ ^ ^ ^ ^ ^ ^ ^ ^ ^ ^ /)#&E +-()_):)&,N.~)2.!)!+~)N.M.,+M.N.9.!)!+3.3.!+!)!+))M.M.N.!+3.9.9.3.9.2.3.9.9.~)M.<)[)9.",
"z j@1 1 1 *%d })1 1 *%6 6 v r R&d v ++j@5@v$v$y y x @+v @+v @+f @+f @+@+w y *%v$z 7@++w @+^*~=^ ^ ^ ^ ^ ^ ^ ^ ^ ^ ^ ^ ^ ^ ^ ^ ^ ^ ^ ^ ^ ^ ^ ^ ^ ^ ^ ^ ^ ^ ^ ^ ^ ^ ^ ^ ^ ^ ^ |)1*w e#%$c+++_+@+s v 6*e#e#z@e#1)s v y 2)0 5@v$A@v$e#v v d })w @+^*^*e#v %$^*5@j@j@v$++$*P$",
"3)4)5)6)7)8)9)0)a)b)h=a)0)c)9)d)e)f)c)a)h=h=h=a)h=a)f)g)h)g)i)i)i)j)0)0)a)h=k)l)h=h=h=m)h)n)Z=^ ^ ^ ^ ^ ^ ^ ^ ^ ^ ^ ^ ^ ^ ^ ^ ^ ^ ^ ^ ^ ^ ^ ^ ^ ^ ^ ^ ^ ^ ^ ^ ^ ^ ^ ^ ^ ^ ^ o)a)m)m)8)8)8)0)f)p)q)0)g)r)8)0)i)s)f)j)t)0)a)h=h=h=u)i)f)f)0)8)0)8)h)s)g)i)0)j)h=h=h=h=3)v)"};
