/* XPM */
static char * so_door12_tex_xpm[] = {
"132 132 1463 2",
"  	c #2C353E",
". 	c #2C3640",
"+ 	c #2D3741",
"@ 	c #2E3841",
"# 	c #2D3640",
"$ 	c #2D3641",
"% 	c #2D3842",
"& 	c #2E3944",
"* 	c #2E3943",
"= 	c #2F3A45",
"- 	c #2E3842",
"; 	c #2F3B46",
"> 	c #2F3944",
", 	c #2F3A46",
"' 	c #303C46",
") 	c #303B46",
"! 	c #303C47",
"~ 	c #303A45",
"{ 	c #313D4A",
"] 	c #313E4A",
"^ 	c #323E4A",
"/ 	c #323F4A",
"( 	c #313D48",
"_ 	c #35393C",
": 	c #393939",
"< 	c #303B45",
"[ 	c #323F4B",
"} 	c #313D49",
"| 	c #303C48",
"1 	c #2E3843",
"2 	c #2E3A44",
"3 	c #2E3942",
"4 	c #2C363F",
"5 	c #2E3741",
"6 	c #243342",
"7 	c #233240",
"8 	c #243543",
"9 	c #243443",
"0 	c #253544",
"a 	c #253646",
"b 	c #253645",
"c 	c #243544",
"d 	c #253545",
"e 	c #263746",
"f 	c #273847",
"g 	c #263645",
"h 	c #273645",
"i 	c #283847",
"j 	c #283948",
"k 	c #293A49",
"l 	c #283949",
"m 	c #273848",
"n 	c #293B4A",
"o 	c #293949",
"p 	c #293B4B",
"q 	c #293A4A",
"r 	c #2A3B4B",
"s 	c #2A3B4A",
"t 	c #2B3D4C",
"u 	c #2C3F4F",
"v 	c #2D3F4F",
"w 	c #2C3F50",
"x 	c #2D4151",
"y 	c #2C3D4C",
"z 	c #33393E",
"A 	c #2B3C4B",
"B 	c #2A3C4B",
"C 	c #293C4B",
"D 	c #2D4050",
"E 	c #283848",
"F 	c #283A49",
"G 	c #273948",
"H 	c #273947",
"I 	c #263846",
"J 	c #253746",
"K 	c #243341",
"L 	c #17222D",
"M 	c #17222C",
"N 	c #17232D",
"O 	c #18222D",
"P 	c #18242D",
"Q 	c #18242E",
"R 	c #17242D",
"S 	c #192530",
"T 	c #19242F",
"U 	c #1A2630",
"V 	c #1A2732",
"W 	c #1A2631",
"X 	c #1A2833",
"Y 	c #18252F",
"Z 	c #1B2833",
"` 	c #1B2834",
" .	c #1A2733",
"..	c #1B2934",
"+.	c #1C2934",
"@.	c #1C2A35",
"#.	c #1C2A36",
"$.	c #1D2A36",
"%.	c #1D2B38",
"&.	c #1E2D39",
"*.	c #1F2F3C",
"=.	c #1F2E3B",
"-.	c #1F2E3A",
";.	c #1F2C39",
">.	c #313437",
",.	c #303337",
"'.	c #1F2C38",
").	c #1E2C38",
"!.	c #1C2B37",
"~.	c #1D2D3A",
"{.	c #1D2B37",
"].	c #1C2935",
"^.	c #1B2733",
"/.	c #1B2933",
"(.	c #1A2632",
"_.	c #1A2731",
":.	c #192631",
"<.	c #192630",
"[.	c #19252F",
"}.	c #18232D",
"|.	c #070B10",
"1.	c #070C10",
"2.	c #070C11",
"3.	c #070D11",
"4.	c #070D12",
"5.	c #080D12",
"6.	c #070D13",
"7.	c #080E12",
"8.	c #080E13",
"9.	c #080F14",
"0.	c #080D13",
"a.	c #080E14",
"b.	c #090E14",
"c.	c #091015",
"d.	c #09131B",
"e.	c #091C2B",
"f.	c #0F1E29",
"g.	c #131F27",
"h.	c #131E27",
"i.	c #131C24",
"j.	c #2F3031",
"k.	c #2E2F31",
"l.	c #131E26",
"m.	c #141F28",
"n.	c #121E27",
"o.	c #091C29",
"p.	c #08151F",
"q.	c #081015",
"r.	c #090F14",
"s.	c #090F15",
"t.	c #060C10",
"u.	c #0B1218",
"v.	c #0C131A",
"w.	c #0C141A",
"x.	c #0B1319",
"y.	c #0D151B",
"z.	c #0C141B",
"A.	c #0B131A",
"B.	c #0D151C",
"C.	c #0E171E",
"D.	c #0C151B",
"E.	c #0A1117",
"F.	c #0A1116",
"G.	c #0C1319",
"H.	c #0E1821",
"I.	c #0F1E2A",
"J.	c #192733",
"K.	c #20303E",
"L.	c #223341",
"M.	c #303336",
"N.	c #2F3236",
"O.	c #21313F",
"P.	c #223340",
"Q.	c #101E28",
"R.	c #0E1A23",
"S.	c #0B151B",
"T.	c #0A1218",
"U.	c #0F161E",
"V.	c #0E161D",
"W.	c #0D161C",
"X.	c #0E171D",
"Y.	c #0F181F",
"Z.	c #0B141A",
"`.	c #0B1219",
" +	c #111B23",
".+	c #121D25",
"++	c #121C25",
"@+	c #131D26",
"#+	c #121D26",
"$+	c #131D27",
"%+	c #142028",
"&+	c #14202A",
"*+	c #142029",
"=+	c #16212B",
"-+	c #15222C",
";+	c #15212B",
">+	c #16222B",
",+	c #182530",
"'+	c #192732",
")+	c #21313E",
"!+	c #21323F",
"~+	c #1C2B36",
"{+	c #233644",
"]+	c #1E303F",
"^+	c #293C4C",
"/+	c #233340",
"(+	c #313438",
"_+	c #2F3337",
":+	c #263947",
"<+	c #283B4A",
"[+	c #192834",
"}+	c #263B4B",
"|+	c #1F2F3B",
"1+	c #1D2C38",
"2+	c #20313E",
"3+	c #22333F",
"4+	c #1E2E3A",
"5+	c #192731",
"6+	c #16222C",
"7+	c #15212C",
"8+	c #16232D",
"9+	c #15202A",
"0+	c #131F28",
"a+	c #1B2A35",
"b+	c #1B2A36",
"c+	c #1A2934",
"d+	c #182631",
"e+	c #1B2935",
"f+	c #1F303C",
"g+	c #243644",
"h+	c #273949",
"i+	c #283B4B",
"j+	c #2A3E4E",
"k+	c #2C4253",
"l+	c #243847",
"m+	c #1E2E3B",
"n+	c #283C4C",
"o+	c #2A3F4F",
"p+	c #243442",
"q+	c #313538",
"r+	c #303438",
"s+	c #283A4B",
"t+	c #293D4D",
"u+	c #273B4C",
"v+	c #2D4253",
"w+	c #2B4050",
"x+	c #2B3F4F",
"y+	c #2B4051",
"z+	c #2A3E4D",
"A+	c #263948",
"B+	c #20303D",
"C+	c #202F3B",
"D+	c #21303E",
"E+	c #20303C",
"F+	c #1C2B38",
"G+	c #1D2C39",
"H+	c #192632",
"I+	c #1E2C39",
"J+	c #263744",
"K+	c #2C4151",
"L+	c #2C4152",
"M+	c #2A3F4E",
"N+	c #2E4354",
"O+	c #2E4455",
"P+	c #2D4353",
"Q+	c #2F4456",
"R+	c #2D4354",
"S+	c #2D4454",
"T+	c #32485A",
"U+	c #324A5C",
"V+	c #32495B",
"W+	c #32495C",
"X+	c #31485B",
"Y+	c #31485A",
"Z+	c #2C4354",
"`+	c #1E303E",
" @	c #1E2D3A",
".@	c #293E4E",
"+@	c #2A3E4F",
"@@	c #2E4557",
"#@	c #263C4C",
"$@	c #2A3F50",
"%@	c #323639",
"&@	c #303539",
"*@	c #2B4153",
"=@	c #203240",
"-@	c #2D4355",
";@	c #293D4E",
">@	c #2B3F51",
",@	c #1F2F3D",
"'@	c #293D4B",
")@	c #344B5E",
"!@	c #314658",
"~@	c #314859",
"{@	c #2F4557",
"]@	c #304658",
"^@	c #2D4252",
"/@	c #2B4151",
"(@	c #2B3F50",
"_@	c #2C4051",
":@	c #233544",
"<@	c #233342",
"[@	c #243746",
"}@	c #223442",
"|@	c #233543",
"1@	c #2E4355",
"2@	c #2E4353",
"3@	c #2B4152",
"4@	c #304759",
"5@	c #344C5F",
"6@	c #2D4457",
"7@	c #1E313F",
"8@	c #243745",
"9@	c #233443",
"0@	c #2A3D4E",
"a@	c #2E4558",
"b@	c #2E4659",
"c@	c #294052",
"d@	c #293E4F",
"e@	c #2B4052",
"f@	c #273745",
"g@	c #32363A",
"h@	c #30353A",
"i@	c #293D4C",
"j@	c #2C4355",
"k@	c #213443",
"l@	c #2F4558",
"m@	c #223240",
"n@	c #374F62",
"o@	c #2E4456",
"p@	c #2F4457",
"q@	c #2D4455",
"r@	c #2B3E4F",
"s@	c #253846",
"t@	c #223441",
"u@	c #233444",
"v@	c #243645",
"w@	c #253847",
"x@	c #273A49",
"y@	c #304558",
"z@	c #2E4457",
"A@	c #2D4152",
"B@	c #30485B",
"C@	c #31495D",
"D@	c #2D4659",
"E@	c #1F3342",
"F@	c #223543",
"G@	c #223542",
"H@	c #2D4557",
"I@	c #30475A",
"J@	c #2B4254",
"K@	c #2C4254",
"L@	c #273846",
"M@	c #33373B",
"N@	c #30363B",
"O@	c #213343",
"P@	c #2F4659",
"Q@	c #2A4052",
"R@	c #2C4153",
"S@	c #213240",
"T@	c #223645",
"U@	c #31485C",
"V@	c #30485A",
"W@	c #31495C",
"X@	c #31475A",
"Y@	c #2E4658",
"Z@	c #273A4A",
"`@	c #233645",
" #	c #334A5C",
".#	c #304557",
"+#	c #2D4254",
"@#	c #304659",
"##	c #32495D",
"$#	c #324A5E",
"%#	c #1B2F3D",
"&#	c #2A3F51",
"*#	c #293E50",
"=#	c #30373C",
"-#	c #203341",
";#	c #32495E",
">#	c #1A2B38",
",#	c #30495C",
"'#	c #324A5D",
")#	c #334B5E",
"!#	c #2F4658",
"~#	c #374E62",
"{#	c #253848",
"]#	c #233646",
"^#	c #243646",
"/#	c #273A4B",
"(#	c #344A5D",
"_#	c #304657",
":#	c #314759",
"<#	c #334A5E",
"[#	c #344C60",
"}#	c #324B5F",
"|#	c #334C61",
"1#	c #2E485B",
"2#	c #1D3140",
"3#	c #263A49",
"4#	c #253949",
"5#	c #2D4356",
"6#	c #33373C",
"7#	c #30373D",
"8#	c #1F303F",
"9#	c #1D2E3B",
"0#	c #334A5D",
"a#	c #344D61",
"b#	c #375063",
"c#	c #273B4B",
"d#	c #263A4A",
"e#	c #283B4C",
"f#	c #293C4D",
"g#	c #314758",
"h#	c #334B5F",
"i#	c #334C60",
"j#	c #344D62",
"k#	c #314A5F",
"l#	c #1F3241",
"m#	c #2D4357",
"n#	c #34383D",
"o#	c #31383F",
"p#	c #1F303E",
"q#	c #1E2F3D",
"r#	c #324A5F",
"s#	c #30475B",
"t#	c #344D60",
"u#	c #354E61",
"v#	c #354D61",
"w#	c #344E62",
"x#	c #354D62",
"y#	c #385164",
"z#	c #233442",
"A#	c #283D4C",
"B#	c #283A4A",
"C#	c #344C5E",
"D#	c #324C5F",
"E#	c #2F485C",
"F#	c #1F3140",
"G#	c #1A2834",
"H#	c #2E4458",
"I#	c #34393D",
"J#	c #31393F",
"K#	c #1E303D",
"L#	c #2D4558",
"M#	c #2C4052",
"N#	c #314A5E",
"O#	c #344C61",
"P#	c #354E62",
"Q#	c #354E63",
"R#	c #385165",
"S#	c #253948",
"T#	c #263848",
"U#	c #273B4A",
"V#	c #293B4C",
"W#	c #334B5D",
"X#	c #334D61",
"Y#	c #2F495D",
"Z#	c #203140",
"`#	c #35393D",
" $	c #313940",
".$	c #2A4051",
"+$	c #233746",
"@$	c #3A5368",
"#$	c #2A3D4D",
"$$	c #233341",
"%$	c #2C4252",
"&$	c #334B60",
"*$	c #2F475B",
"=$	c #253947",
"-$	c #233545",
";$	c #1C2B39",
">$	c #2B4154",
",$	c #2D4456",
"'$	c #243846",
")$	c #395367",
"!$	c #344B60",
"~$	c #1E3140",
"{$	c #253747",
"]$	c #283E4F",
"^$	c #35393E",
"/$	c #313A41",
"($	c #293D4F",
"_$	c #1B2C39",
":$	c #30465A",
"<$	c #375064",
"[$	c #33495B",
"}$	c #17242E",
"|$	c #203444",
"1$	c #2F475A",
"2$	c #353A3E",
"3$	c #313A42",
"4$	c #182734",
"5$	c #223544",
"6$	c #18242F",
"7$	c #283C4B",
"8$	c #1D2D39",
"9$	c #1C2C39",
"0$	c #314C60",
"a$	c #2B475C",
"b$	c #213D51",
"c$	c #243E50",
"d$	c #17242F",
"e$	c #1D2E3C",
"f$	c #253B4D",
"g$	c #253E52",
"h$	c #2A465A",
"i$	c #1E2F3B",
"j$	c #1D2E39",
"k$	c #1F303D",
"l$	c #1C2C38",
"m$	c #2E4352",
"n$	c #2B3E4E",
"o$	c #30485C",
"p$	c #37546B",
"q$	c #1F4965",
"r$	c #1A74A2",
"s$	c #2A495E",
"t$	c #2A4153",
"u$	c #1A2935",
"v$	c #323B43",
"w$	c #1A2A36",
"x$	c #1C2D3A",
"y$	c #2C4659",
"z$	c #2A5B7B",
"A$	c #265F82",
"B$	c #305069",
"C$	c #365064",
"D$	c #233542",
"E$	c #22323F",
"F$	c #1F2E39",
"G$	c #1E2D38",
"H$	c #20313D",
"I$	c #20303B",
"J$	c #1D2C37",
"K$	c #355065",
"L$	c #1D4864",
"M$	c #127BB7",
"N$	c #2A4A61",
"O$	c #2C4356",
"P$	c #283E4E",
"Q$	c #1B2B38",
"R$	c #2E4A5E",
"S$	c #286388",
"T$	c #246287",
"U$	c #2F4E66",
"V$	c #202F3A",
"W$	c #253745",
"X$	c #1B2A34",
"Y$	c #202F3C",
"Z$	c #233440",
"`$	c #1D2C36",
" %	c #21303B",
".%	c #21313D",
"+%	c #21333F",
"@%	c #385268",
"#%	c #1E4864",
"$%	c #137BB9",
"%%	c #2B4B61",
"&%	c #273C4C",
"*%	c #303941",
"=%	c #2F4A5E",
"-%	c #296489",
";%	c #236389",
">%	c #2F4F66",
",%	c #30485D",
"'%	c #233441",
")%	c #21303D",
"!%	c #1F2D39",
"~%	c #243542",
"{%	c #21303C",
"]%	c #1E4966",
"^%	c #0F7CC1",
"/%	c #2B4A61",
"(%	c #283D4D",
"_%	c #2B404F",
":%	c #363A3D",
"<%	c #313B43",
"[%	c #28658A",
"}%	c #23668D",
"|%	c #2F5067",
"1%	c #2E475A",
"2%	c #334C5F",
"3%	c #233643",
"4%	c #223440",
"5%	c #263745",
"6%	c #2E4253",
"7%	c #385368",
"8%	c #1F4966",
"9%	c #0E7DC4",
"0%	c #2C4B62",
"a%	c #36393D",
"b%	c #313A43",
"c%	c #2A6488",
"d%	c #22668F",
"e%	c #2F5069",
"f%	c #2A3E50",
"g%	c #365267",
"h%	c #1E4765",
"i%	c #1279C2",
"j%	c #2D4A61",
"k%	c #303A44",
"l%	c #2A668B",
"m%	c #216690",
"n%	c #2F526B",
"o%	c #2C4456",
"p%	c #32485B",
"q%	c #365167",
"r%	c #1277C2",
"s%	c #2F485D",
"t%	c #2B658A",
"u%	c #206692",
"v%	c #30526B",
"w%	c #31495E",
"x%	c #293F4F",
"y%	c #293F50",
"z%	c #233745",
"A%	c #354F65",
"B%	c #1E4967",
"C%	c #107AC4",
"D%	c #2E4C63",
"E%	c #363A3E",
"F%	c #313B45",
"G%	c #293E4D",
"H%	c #1B2B36",
"I%	c #2F495E",
"J%	c #2B658C",
"K%	c #1F6693",
"L%	c #30536D",
"M%	c #2C4457",
"N%	c #344F64",
"O%	c #0F7BC7",
"P%	c #2D4C63",
"Q%	c #2F3A43",
"R%	c #2C658B",
"S%	c #1F6692",
"T%	c #30526C",
"U%	c #2D4458",
"V%	c #283C4D",
"W%	c #26394A",
"X%	c #1E4763",
"Y%	c #0F7AC6",
"Z%	c #2C4C63",
"`%	c #2F4A5F",
" &	c #21668F",
".&	c #2F5169",
"+&	c #2C4255",
"@&	c #2A4050",
"#&	c #283D4E",
"$&	c #204763",
"%&	c #0F7CC6",
"&&	c #303B44",
"*&	c #216790",
"=&	c #2A4152",
"-&	c #1F4763",
";&	c #0E7DC5",
">&	c #2C4D64",
",&	c #2F3B45",
"'&	c #2B4253",
")&	c #304A5F",
"!&	c #22658F",
"~&	c #2F4759",
"{&	c #1F4864",
"]&	c #0D7EC7",
"^&	c #2D4E65",
"/&	c #2B6386",
"(&	c #23648C",
"_&	c #1D445F",
":&	c #127CBC",
"<&	c #2B4B62",
"[&	c #18252E",
"}&	c #36393C",
"|&	c #2F3A44",
"1&	c #2E4559",
"2&	c #2D475B",
"3&	c #2B6081",
"4&	c #266083",
"5&	c #2B4A60",
"6&	c #253A4A",
"7&	c #2A3F52",
"8&	c #1F3A4E",
"9&	c #2A5875",
"0&	c #253F53",
"a&	c #254A62",
"b&	c #224862",
"c&	c #1C3040",
"d&	c #263949",
"e&	c #253A49",
"f&	c #2C4759",
"g&	c #244055",
"h&	c #254F69",
"i&	c #243C4E",
"j&	c #2E3A43",
"k&	c #273E50",
"l&	c #25485E",
"m&	c #254962",
"n&	c #294458",
"o&	c #304758",
"p&	c #1D4561",
"q&	c #1B73A7",
"r&	c #28485F",
"s&	c #37393C",
"t&	c #293F51",
"u&	c #294356",
"v&	c #2A5F80",
"w&	c #255F83",
"x&	c #2C4960",
"y&	c #1D4764",
"z&	c #127BBD",
"A&	c #2A4B62",
"B&	c #2E3A45",
"C&	c #2C475B",
"D&	c #236289",
"E&	c #2E4D65",
"F&	c #1E4A67",
"G&	c #107CC4",
"H&	c #2A4A62",
"I&	c #293E4C",
"J&	c #2E3A46",
"K&	c #2C485D",
"L&	c #29668C",
"M&	c #216590",
"N&	c #1E4866",
"O&	c #107BC4",
"P&	c #2D3A44",
"Q&	c #29668A",
"R&	c #206792",
"S&	c #2D4F68",
"T&	c #304859",
"U&	c #1E4A68",
"V&	c #107BC3",
"W&	c #2A4961",
"X&	c #37393B",
"Y&	c #2D3943",
"Z&	c #2B475B",
"`&	c #1D4966",
" *	c #1279BD",
".*	c #2A485F",
"+*	c #2D3A45",
"@*	c #2B4559",
"#*	c #296386",
"$*	c #236489",
"%*	c #2D4F67",
"&*	c #2B4252",
"**	c #1579B5",
"=*	c #29485E",
"-*	c #2B4558",
";*	c #296082",
">*	c #256083",
",*	c #2A3D4C",
"'*	c #263B4C",
")*	c #1D2F3B",
"!*	c #1A384C",
"~*	c #21526E",
"{*	c #253E51",
"]*	c #2C3842",
"^*	c #214962",
"/*	c #204962",
"(*	c #2B4457",
"_*	c #1A2A37",
":*	c #1A3040",
"<*	c #2C3742",
"[*	c #1D303F",
"}*	c #1C2E3D",
"|*	c #263845",
"1*	c #17232E",
"2*	c #2C3944",
"3*	c #253A48",
"4*	c #38393B",
"5*	c #2D3B45",
"6*	c #15212A",
"7*	c #37393A",
"8*	c #2B3944",
"9*	c #152029",
"0*	c #1F303B",
"a*	c #213442",
"b*	c #213340",
"c*	c #273C4A",
"d*	c #273A48",
"e*	c #38393A",
"f*	c #2C3945",
"g*	c #20313F",
"h*	c #172B39",
"i*	c #182833",
"j*	c #2B3844",
"k*	c #172936",
"l*	c #213647",
"m*	c #253845",
"n*	c #284155",
"o*	c #1B3F56",
"p*	c #255A77",
"q*	c #1F394B",
"r*	c #273B49",
"s*	c #293F4E",
"t*	c #2A3843",
"u*	c #223746",
"v*	c #285773",
"w*	c #1B445D",
"x*	c #223E53",
"y*	c #294357",
"z*	c #1D4159",
"A*	c #1973A8",
"B*	c #24648A",
"C*	c #2B495F",
"D*	c #293642",
"E*	c #275471",
"F*	c #0F7DC0",
"G*	c #1E4964",
"H*	c #264257",
"I*	c #294153",
"J*	c #1D3F56",
"K*	c #1C6F9F",
"L*	c #1E6D9C",
"M*	c #2D536D",
"N*	c #293743",
"O*	c #304D64",
"P*	c #285E81",
"Q*	c #0980C9",
"R*	c #1E4863",
"S*	c #264055",
"T*	c #273C4D",
"U*	c #1B3648",
"V*	c #1A72A5",
"W*	c #2D5570",
"X*	c #192833",
"Y*	c #2A3844",
"Z*	c #24638A",
"`*	c #147AB2",
" =	c #1C3E54",
".=	c #273C4B",
"+=	c #1A3141",
"@=	c #1D3B4F",
"#=	c #285D7C",
"$=	c #2B536D",
"%=	c #293844",
"&=	c #2F4D65",
"*=	c #285A78",
"==	c #1F425A",
"-=	c #1A3346",
";=	c #253C4E",
">=	c #1B394F",
",=	c #275876",
"'=	c #285A77",
")=	c #2A4C62",
"!=	c #293845",
"~=	c #2D4A60",
"{=	c #224D68",
"]=	c #206A96",
"^=	c #1C4057",
"/=	c #253F52",
"(=	c #253946",
"_=	c #263B4A",
":=	c #1D3C53",
"<=	c #275777",
"[=	c #127DBD",
"}=	c #2C4E65",
"|=	c #1971A8",
"1=	c #216692",
"2=	c #1B3E56",
"3=	c #263E51",
"4=	c #283E51",
"5=	c #1E3D54",
"6=	c #265474",
"7=	c #2D5774",
"8=	c #2B465B",
"9=	c #182630",
"0=	c #21323E",
"a=	c #383939",
"b=	c #263641",
"c=	c #2C4559",
"d=	c #2E526D",
"e=	c #1474B3",
"f=	c #236189",
"g=	c #1B3D56",
"h=	c #263C4F",
"i=	c #283F50",
"j=	c #1D3C54",
"k=	c #234E6C",
"l=	c #0782D3",
"m=	c #2B5B7B",
"n=	c #2C485E",
"o=	c #15222A",
"p=	c #263440",
"q=	c #141F27",
"r=	c #2C4458",
"s=	c #2D5470",
"t=	c #0E7ABF",
"u=	c #265B7D",
"v=	c #1A3A4F",
"w=	c #243A4B",
"x=	c #243948",
"y=	c #1E3B50",
"z=	c #1F4C6A",
"A=	c #0382DA",
"B=	c #2A5C7E",
"C=	c #2C4A60",
"D=	c #24323F",
"E=	c #233642",
"F=	c #141E26",
"G=	c #0E7CC3",
"H=	c #275676",
"I=	c #193549",
"J=	c #25394B",
"K=	c #1E3241",
"L=	c #193950",
"M=	c #295F82",
"N=	c #2C4A62",
"O=	c #1E2E39",
"P=	c #1C2933",
"Q=	c #151F27",
"R=	c #2B5471",
"S=	c #1A2C3A",
"T=	c #213341",
"U=	c #253A4B",
"V=	c #162936",
"W=	c #1A3447",
"X=	c #2B516C",
"Y=	c #2D4B61",
"Z=	c #1C2C37",
"`=	c #333537",
" -	c #282D32",
".-	c #284F69",
"+-	c #1E4256",
"@-	c #162733",
"#-	c #162835",
"$-	c #283C4A",
"%-	c #101C25",
"&-	c #141D26",
"*-	c #353738",
"=-	c #252E35",
"--	c #24394A",
";-	c #1A2D3A",
">-	c #172430",
",-	c #213342",
"'-	c #223443",
")-	c #203340",
"!-	c #16242E",
"~-	c #182732",
"{-	c #152531",
"]-	c #122C3E",
"^-	c #103C55",
"/-	c #383839",
"(-	c #212F3A",
"_-	c #2B4354",
":-	c #17252F",
"<-	c #273D4C",
"[-	c #1C303D",
"}-	c #162C3B",
"|-	c #124361",
"1-	c #11688D",
"2-	c #103447",
"3-	c #35383A",
"4-	c #29343E",
"5-	c #1A2933",
"6-	c #1B3140",
"7-	c #153143",
"8-	c #134B6C",
"9-	c #0B729B",
"0-	c #10394F",
"a-	c #35383B",
"b-	c #293640",
"c-	c #2C4558",
"d-	c #273D4E",
"e-	c #213645",
"f-	c #245570",
"g-	c #27455C",
"h-	c #263C4D",
"i-	c #163449",
"j-	c #144D6E",
"k-	c #0A749E",
"l-	c #103B52",
"m-	c #283641",
"n-	c #284255",
"o-	c #263F52",
"p-	c #205371",
"q-	c #233B4D",
"r-	c #233B4C",
"s-	c #127CA8",
"t-	c #274F6C",
"u-	c #263D4F",
"v-	c #153449",
"w-	c #154D6F",
"x-	c #0774A3",
"y-	c #103B53",
"z-	c #29495F",
"A-	c #0E7BAD",
"B-	c #234358",
"C-	c #1B2B37",
"D-	c #243E4F",
"E-	c #0A84B7",
"F-	c #28516F",
"G-	c #273E51",
"H-	c #294051",
"I-	c #1B303F",
"J-	c #153247",
"K-	c #144C6E",
"L-	c #0675A5",
"M-	c #0F3A52",
"N-	c #284256",
"O-	c #283E4D",
"P-	c #2A4B61",
"Q-	c #0783B8",
"R-	c #24455B",
"S-	c #0E81B0",
"T-	c #28506C",
"U-	c #153347",
"V-	c #144C6D",
"W-	c #0973A0",
"X-	c #28343F",
"Y-	c #274053",
"Z-	c #2A495F",
"`-	c #0C7EAC",
" ;	c #283A48",
".;	c #233848",
"+;	c #275E7C",
"@;	c #29475D",
"#;	c #1C3141",
"$;	c #153043",
"%;	c #144A6B",
"&;	c #0975A1",
"*;	c #103B51",
"=;	c #284154",
"-;	c #275B77",
";;	c #243C4F",
">;	c #263F51",
",;	c #1D3241",
"';	c #152D3D",
");	c #144764",
"!;	c #0D7299",
"~;	c #11384D",
"{;	c #35373A",
"];	c #28323C",
"^;	c #283F51",
"/;	c #273F51",
"(;	c #16222D",
"_;	c #15364A",
":;	c #124D69",
"<;	c #212F3B",
"[;	c #1B2D3A",
"};	c #172A3A",
"|;	c #2D373F",
"1;	c #1E2C37",
"2;	c #1C2D39",
"3;	c #2F3439",
"4;	c #333639",
"5;	c #1E3749",
"6;	c #27526E",
"7;	c #27455B",
"8;	c #2F363C",
"9;	c #204A63",
"0;	c #214A60",
"a;	c #1B2E3C",
"b;	c #263847",
"c;	c #2E4759",
"d;	c #224259",
"e;	c #0880D0",
"f;	c #285C7E",
"g;	c #254259",
"h;	c #33363A",
"i;	c #2E343A",
"j;	c #24526F",
"k;	c #088ACD",
"l;	c #254E68",
"m;	c #2A4254",
"n;	c #2F4C62",
"o;	c #285372",
"p;	c #008AE3",
"q;	c #275675",
"r;	c #254156",
"s;	c #2E3439",
"t;	c #283F53",
"u;	c #244E69",
"v;	c #0683D2",
"w;	c #276083",
"x;	c #2F5168",
"y;	c #295979",
"z;	c #0087E2",
"A;	c #265270",
"B;	c #253F54",
"C;	c #17252E",
"D;	c #33373A",
"E;	c #2E353B",
"F;	c #273D4F",
"G;	c #254A63",
"H;	c #0A7ECC",
"I;	c #216997",
"J;	c #294E68",
"K;	c #2B4356",
"L;	c #2B4E66",
"M;	c #266088",
"N;	c #0188DB",
"O;	c #25516E",
"P;	c #263F53",
"Q;	c #34373B",
"R;	c #2F353C",
"S;	c #1479B7",
"T;	c #1B71A7",
"U;	c #284E68",
"V;	c #2D475C",
"W;	c #2B4F67",
"X;	c #236692",
"Y;	c #117EBB",
"Z;	c #234C66",
"`;	c #274052",
" >	c #34373A",
".>	c #2E353C",
"+>	c #26475D",
"@>	c #1D6F9E",
"#>	c #1577B4",
"$>	c #28506B",
"%>	c #2D485D",
"&>	c #213441",
"*>	c #2D485B",
"=>	c #2B4F68",
"->	c #226994",
";>	c #256487",
">>	c #213E51",
",>	c #2B3F4E",
"'>	c #213A4C",
")>	c #205571",
"!>	c #137AB1",
"~>	c #274F69",
"{>	c #304D63",
"]>	c #2E495D",
"^>	c #27465C",
"/>	c #224358",
"(>	c #224A66",
"_>	c #234258",
":>	c #1B2B35",
"<>	c #264256",
"[>	c #1E4B64",
"}>	c #204157",
"|>	c #24465C",
"1>	c #2E4C61",
"2>	c #244155",
"3>	c #0C7EC5",
"4>	c #23648E",
"5>	c #24435A",
"6>	c #16212A",
"7>	c #34383B",
"8>	c #2E363C",
"9>	c #274357",
"0>	c #235572",
"a>	c #0886C7",
"b>	c #23475E",
"c>	c #2F4B60",
"d>	c #26516F",
"e>	c #0083DD",
"f>	c #265C82",
"g>	c #234157",
"h>	c #152129",
"i>	c #2D353C",
"j>	c #264054",
"k>	c #224F6C",
"l>	c #0588D4",
"m>	c #265471",
"n>	c #2F4D63",
"o>	c #0181DA",
"p>	c #255372",
"q>	c #0882CF",
"r>	c #27597A",
"s>	c #2C4C64",
"t>	c #2E516A",
"u>	c #245170",
"v>	c #1774AD",
"w>	c #1E3C51",
"x>	c #2D343B",
"y>	c #1E3546",
"z>	c #206A99",
"A>	c #294D66",
"B>	c #1D2D38",
"C>	c #2A485C",
"D>	c #203E52",
"E>	c #192A38",
"F>	c #172733",
"G>	c #1F3C4F",
"H>	c #28455A",
"I>	c #1F313E",
"J>	c #2C353B",
"K>	c #2C333B",
"L>	c #213241",
"M>	c #343739",
"N>	c #2C333A",
"O>	c #15222D",
"P>	c #1D2E3A",
"Q>	c #182834",
"R>	c #1E2F3C",
"S>	c #353739",
"T>	c #182632",
"U>	c #162D3D",
"V>	c #17455B",
"W>	c #1D3342",
"X>	c #18384B",
"Y>	c #16394E",
"Z>	c #23394A",
"`>	c #163E57",
" ,	c #1A7198",
".,	c #204054",
"+,	c #2B3239",
"@,	c #253D4F",
"#,	c #255673",
"$,	c #1F5978",
"%,	c #244257",
"&,	c #223342",
"*,	c #17425D",
"=,	c #147AAD",
"-,	c #204359",
";,	c #295D7D",
">,	c #235E7F",
",,	c #25455B",
"',	c #184461",
"),	c #107CB7",
"!,	c #22445B",
"~,	c #2A3239",
"{,	c #2A5E7F",
"],	c #225F82",
"^,	c #18435F",
"/,	c #107CB8",
"(,	c #21445B",
"_,	c #2A323A",
":,	c #2A5F7F",
"<,	c #235F83",
"[,	c #24445B",
"},	c #18425E",
"|,	c #0F7DBB",
"1,	c #21445C",
"2,	c #14212B",
"3,	c #243F53",
"4,	c #295F7F",
"5,	c #236084",
"6,	c #20323F",
"7,	c #17415D",
"8,	c #117CB9",
"9,	c #243E52",
"0,	c #2A5F7E",
"a,	c #226084",
"b,	c #25394A",
"c,	c #17405B",
"d,	c #147AB1",
"e,	c #204257",
"f,	c #293138",
"g,	c #223C4E",
"h,	c #2A5E7C",
"i,	c #234359",
"j,	c #173D57",
"k,	c #1677AA",
"l,	c #204155",
"m,	c #2A3139",
"n,	c #2A5C79",
"o,	c #255D7D",
"p,	c #214055",
"q,	c #1D2F3D",
"r,	c #17354A",
"s,	c #21607E",
"t,	c #1D394C",
"u,	c #293139",
"v,	c #203646",
"w,	c #204F6A",
"x,	c #1E506B",
"y,	c #1A3345",
"z,	c #182D3B",
"A,	c #1F3E52",
"B,	c #1C2F3D",
"C,	c #1F3340",
"D,	c #1E384B",
"E,	c #1F394D",
"F,	c #1A2B39",
"G,	c #1A3F57",
"H,	c #1C6A8D",
"I,	c #1D3C4F",
"J,	c #293038",
"K,	c #21394A",
"L,	c #23536F",
"M,	c #1F5471",
"N,	c #27455A",
"O,	c #153F59",
"P,	c #1578A7",
"Q,	c #1F4055",
"R,	c #283038",
"S,	c #2A5C7A",
"T,	c #225978",
"U,	c #224258",
"V,	c #263A4B",
"W,	c #16415C",
"X,	c #137AB0",
"Y,	c #363739",
"Z,	c #233C4E",
"`,	c #2A5E7E",
" '	c #235A7A",
".'	c #253849",
"+'	c #127BB1",
"@'	c #223B4D",
"#'	c #225B7C",
"$'	c #234257",
"%'	c #17425E",
"&'	c #117CB4",
"*'	c #20445A",
"='	c #273037",
"-'	c #2B5F7F",
";'	c #235D7E",
">'	c #107DB7",
",'	c #272F37",
"''	c #223A4C",
")'	c #245C7E",
"!'	c #244359",
"~'	c #107DB9",
"{'	c #20435A",
"]'	c #223C4D",
"^'	c #24445A",
"/'	c #192730",
"('	c #17405C",
"_'	c #363738",
":'	c #272F36",
"<'	c #111C23",
"['	c #233C4D",
"}'	c #2B607F",
"|'	c #235C7F",
"1'	c #163F5B",
"2'	c #127AB7",
"3'	c #204258",
"4'	c #262E35",
"5'	c #235B7E",
"6'	c #224157",
"7'	c #152028",
"8'	c #1B2832",
"9'	c #18232C",
"0'	c #153E59",
"a'	c #1379AF",
"b'	c #1E4156",
"c'	c #121C24",
"d'	c #225C7E",
"e'	c #17222B",
"f'	c #17232C",
"g'	c #19252E",
"h'	c #142129",
"i'	c #143D57",
"j'	c #1279A9",
"k'	c #1D4056",
"l'	c #242C33",
"m'	c #223A4B",
"n'	c #2B5E7B",
"o'	c #225B7D",
"p'	c #223F54",
"q'	c #162129",
"r'	c #19262F",
"s'	c #273946",
"t'	c #133A51",
"u'	c #167198",
"v'	c #1C3D51",
"w'	c #232B32",
"x'	c #21384A",
"y'	c #205978",
"z'	c #213C4F",
"A'	c #293B49",
"B'	c #202F3D",
"C'	c #142B3C",
"D'	c #184057",
"E'	c #1B2E3D",
"F'	c #17384E",
"G'	c #294050",
"H'	c #1F2E3C",
"I'	c #243848",
"J'	c #253C4C",
"K'	c #142430",
"L'	c #232C33",
"M'	c #172835",
"N'	c #1F3749",
"O'	c #182F3E",
"P'	c #263D4E",
"Q'	c #263D4D",
"R'	c #233846",
"S'	c #111F2A",
"T'	c #0F1A23",
"U'	c #242C34",
"V'	c #1B2A37",
"W'	c #131F29",
"X'	c #15232D",
"Y'	c #12202A",
"Z'	c #111C25",
"`'	c #373738",
" )	c #232B34",
".)	c #14212A",
"+)	c #111D25",
"@)	c #232B33",
"#)	c #22313F",
"$)	c #222B33",
"%)	c #373838",
"&)	c #16232E",
"*)	c #222A32",
"=)	c #202A32",
"-)	c #21303F",
";)	c #23333F",
">)	c #202931",
",)	c #1F272E",
"')	c #111B24",
"))	c #202E3B",
"!)	c #111C24",
"~)	c #0F1820",
"{)	c #0F1920",
"])	c #101920",
"^)	c #101A20",
"/)	c #0E181F",
"()	c #0E161C",
"_)	c #0F171F",
":)	c #0F1921",
"<)	c #111E28",
"[)	c #1E262D",
"})	c #121F28",
"|)	c #111C26",
"1)	c #0D161E",
"2)	c #101A21",
"3)	c #101B23",
"4)	c #101B22",
"5)	c #0D181F",
"6)	c #141F29",
"7)	c #131E28",
"8)	c #132029",
"9)	c #13222D",
"0)	c #132939",
"a)	c #162530",
"b)	c #1B2229",
"c)	c #142938",
"d)	c #132431",
"e)	c #14222C",
"f)	c #13212A",
"g)	c #132028",
"h)	c #121D27",
"i)	c #25323D",
"j)	c #2B3E4D",
"k)	c #273746",
"l)	c #253644",
"m)	c #24343F",
"n)	c #24333F",
"o)	c #24313E",
"p)	c #253440",
"q)	c #23313D",
"r)	c #23313C",
"s)	c #22303C",
"t)	c #23303C",
"u)	c #23313E",
"v)	c #243440",
"w)	c #283845",
"x)	c #253441",
"y)	c #24313F",
"z)	c #263442",
"A)	c #283744",
"B)	c #273643",
"C)	c #263542",
"D)	c #253542",
"E)	c #263643",
"F)	c #263543",
"G)	c #23323E",
"H)	c #25343F",
"I)	c #242F38",
"J)	c #273543",
"K)	c #253541",
"L)	c #243441",
"M)	c #253442",
"N)	c #25333F",
"O)	c #23323F",
"P)	c #222F3B",
"Q)	c #212C39",
"R)	c #232F3B",
"  . + @ # # + $ + @ + % & * & = - @ * = = = ; = > > > , , ' = ) ! ' ; ; = = , ; = ; ) ! ~ ! ! ! { ] ^ ^ / ( _ : : : : : : : : : : : : : : : : : : : : : : : _ < ! ! ^ ^ ^ [ ^ ] } ) ! ! | ! ) = = 1 = ! = = = = , = = = = ; = = = = = 2 * * % 3 * 2 - - * @ - # # 4 # 5 ",
"6 7 8 9 6 9 0 0 a b 0 c d b e f e g h i j j k l j i i l l l e m n n l l j l o p q k q r s r s t u v u w x y z : : : : : : : : : : : : : : : : : : : : : : : z A B C w x D v t t n k s B s l j j m f l B q o l j k E E l o n l E F F G H I J b b b J g e e b 0 d 9 K 6 9 ",
"L M N L O L P P Q Q R L L N S S T T T S S U V V W W W V X V Y S Z ` V V  .X Z ` Z ..+.@.#.$.#.%.&.*.=.-.-.;.>.: : : : : : : : : : : : : : : : : : : : : : : ,.'.).!.~.&.).).{.#.].Z @.$.@.^.^.Z Z Z /...Z V V W (.W ^.V Z Z ^._.X X :.<.S S T Y Q Y [.S [.Q P Q Q L }.L ",
"|.1.2.|.2.2.3.3.4.3.2.|.1.2.5.5.4.5.5.5.6.7.8.8.5.8.8.8.8.9.6.0.a.9.a.a.a.9.9.a.8.8.8.a.a.b.9.c.d.e.f.g.h.i.j.: : : : : : : : : : : : : : : : : : : : : : : k.l.m.n.o.p.q.r.r.r.b.a.b.r.r.a.9.9.9.9.r.s.a.8.a.5.0.8.a.a.b.b.a.8.a.a.8.8.8.8.8.0.4.4.8.8.0.4.3.4.4.2.2.t.",
"u.v.w.u.x.w.w.w.w.w.w.w.y.z.A.w.z.w.w.B.C.z.u.u.x.A.w.x.w.y.w.x.w.B.y.D.w.z.w.x.E.F.r.s.F.G.w.w.H.I.J.K.L.;.M.: : : : : : : : : : : : : : : : : : : : : : : N.O.P.&.Q.R.S.T.x.x.u.F.F.T.w.B.C.U.V.D.B.V.C.z.w.z.w.z.W.V.B.z.z.z.y.X.Y.Y.C.V.y.D.w.z.z.w.A.Z.w.A.A.x.`.`.",
" + +.+++++++@+@+#+@+l.l.l.h.$+$+$+m.m.%+&+*+*+*+=+-+-+-+;+;+*+*+>+N N Q ,+:.'+,+S @.{.-.)+!+-.~+{+]+!.G ^+/+(+: : : : : : : : : : : : : : : : : : : : : : : _+:+<+{+[+}+|+1+2+3+4+&.-.'+X ....Z ` X 5+X L =+6+=+;+7+-+N 8+>+9+*+%+*+*+*+g.0+m.0+m.%+$+#+.+n.$+$+#+#+.+++",
"X X a+b+a+c+....X  .Z ..Z :.Y Y Y d+:.X c+e+#.#.!.#.~+#.e+e+X X #.&.&.&.-.f+|+4+-.g+G h+i+^+j+^+k+l+m+n+o+p+q+: : : : : : : : : : : : : : : : : : : : : : : r+s+t+u+~.v+w+x+y+z+i+A+<+B+C+B+!+D+E+-.&.-.~+b+!.!.F+1+1+G+F+~+e+` X J.H+J.d+:.H+!.F+!.c+X c+e+e+e+c+` X X ",
"I+%.%.!.%.1+1+#.` X ` a+J+i+z+K+z+L+M+j+w+N+O+P+Q+R+S+R+L+P+L+P+T+U+V+W+X+Y+Z+`+ @@.h+.@+@t+L+O+@@#@P..@$@J+%@: : : : : : : : : : : : : : : : : : : : : : : &@i++@*@=@R+P+N+-@;@>@t+-.=.,@'@Y+)@V+!@~@{@O+P+Q+]@Q+{@N+O+^@/@w+y+L+(@x+^@^@_@j+z+|+#.!.e+e+c+c+b+#.!.e+e+",
"J :@<@c b b [@g+}@<@|@}@I+k z+z+i+j+t+o+L+R+R+L+1@R+2@k+L+3@L+L+-@4@4@4@X+5@6@7@8@9@^+o+0@^+o+a@b@c@g+d@e@f@g@: : : : : : : : : : : : : : : : : : : : : : : h@i@e@j@k@b@@@l@k+j+k+L+m@:+=@^+n@X+]@l@o@p@O+q@{@4@]@@@o@R+L+w+(@(@>@o+r@L+^@y+C E+|@s@8@t@K.=@O.u@v@c g+b ",
"w@s@s@A+h+h+h+x@w@A+G w@K.@._@(@o+y+y+y+L+y@l@Q+{@4@{@l@z@-@R+A@{@Y+W+B@B@C@D@E@F@G@n++@+@.@d@H@I@J@v@$@K@L@M@: : : : : : : : : : : : : : : : : : : : : : : N@0@k+K@O@P@I@b@Q@^+R@e@S@w@T@n+U@P@V@W@]@]@{@o@4@X@4@X+4@Y@o@k+K@k+L+3@e@R+R+]@E+2+h+^+Z@[@L.}@`@[@G A+w@A+",
"G x@x@Z@i+i+Z@i+Z@h+i+Z@g+*. #.#o+L+L+y++#]@X@X+@###I@X+I@Y@Y@l@I@W+$#C@U@$#D@%#*+G@u+3@e@&#*#-@U@j@v@e@o@H M@: : : : : : : : : : : : : : : : : : : : : : : =#>@+#e@-#I@;#@#&#.@@@>@O.G+>#u+,#a@X+$#X+'#X+]@W+X+X@)#$#C@X+]@!#{@p@k+e@-@Q+~#B+v@n+o+^+{#[@]#^#J /#h+h+h+",
"n+^+^+<+<+i+Z@n+^+n+n+Z@J O.(#_#L+O++#L+q@{@:#<#[#<###$#C@X+X+X+X+'#<#<#}#|#1#2#d+3#4#e@K@e@e@5#I@J@s@k+-@H 6#: : : : : : : : : : : : : : : : : : : : : : : 7#e@-@e@8#I@U@{@k+k+@#$@`@=@9#d@$#4@C@;#$#)#)#0#<#X+X+a#a#[#<#$#'#X+X@{@k+O+{@b#!+[@^+j+c#/#d#3#Z@A+e#i+i+n+",
"Z@n+^+i+Z@<+i+i+n+^+f#i+w@m@)@g#R+-@{@{@]@X+X+)#a#<###$#h#$#$###C@;#<#h#i#j#k#l#[+Z@h+e@a@l@K@-@B@j@A+m#-@F n#: : : : : : : : : : : : : : : : : : : : : : : o#e@z@k+p#b@a@@@K@-@X@L+[@S@q#o+h#r#s#C@h#t#a#u#v#C@X+<#w#x#v#[#[#)#W+l@+#-@]@y#z#J A#A#Z@i+Z@Z@i+h+e#^+i+i+",
"x@Z@^+^+i+i+B#Z@Z@n+j++@e#<@C#Y+R+{@X@X+<#5@)#)#<#$#l@X+$#a#}###$#}#h#i#h#D#E#F#G#x@J >@a@P@a@Y@I@*@J H#z@C I#: : : : : : : : : : : : : : : : : : : : : : : J#k+z@e@K#L#6@j@6@P@I@M#l+}@`+.@}#<#B@N#w#O#[#P#Q#i#C@}#h#w#x#x#a#a#<#{@+#O+]@R#:@G ^+n+n+S#w@S#A+T#Z@n+i+i@",
"x@U#i@j+z+^+^+V#h+s+(@y+t+|@W#~@+#R+!#4@'#<#)@<#<#V@z@6@P@<#$#U@<#h###r#i#X#Y#Z#G#S#[@;@5#@#z@a@a@Q@v@6@a@C `#: : : : : : : : : : : : : : : : : : : : : : :  $R+Y@.$~.j@j@*@a@U@4@y++$}@`+o+a#O#C@C@i#[#P#[#x#5@U@U@X+)#h#h#i#w#)#a@K@+#4@@$b i+j+o+j+t+Z@Z@Z@S#3#n+^+^+",
"w@A+^+j+t+(@o+#$^+^+o+o+n+$$V+:#%$e@k+K@a@W+'#'#)#4@o@a@I@$#W+##}#h#$#}#&$j#*$F#a+=$-$;@R@l@B@a@6@d@v@@@5#p I#: : : : : : : : : : : : : : : : : : : : : : : o#o@{@$@;$>$j@,$I@I@z@$@'$F@=@+@w#w#|#i#h#i#[#X+)#<#I@W+I@X+'#$###C@##P@+#K@4@)$[@^+L+v+(@o+j+A#x@c#n+j+^+^+",
"w@h+^+j+t+(@(@o+o+t+c#i+h+<@~@l@L+$@3@3@$@,$X+V+W+X+l@a@4@W+4@U@##$#!$O#|#i#s#~$b+{$J Q@R@I@C@X+Y@]$|@K@-@B ^$: : : : : : : : : : : : : : : : : : : : : : : /$-@,$($_$L#6@a@I@Y@!#e@]#9@p#;@h#x#a#[#}#}#$#X+[#5@X@I@V@P@W@X+I@:$X+U@5#+#a@<$v@^+y+M#L+$@(@^+c#t+j+o+o+t+",
"i+j+o+t+t+j+(@o+(@t+c#U#:+z#[$~@$@;@t+G+6+}$:.:.S Y N N Q Y Y :...s@U@i#$#h#Y#|$:@n+w@e@6@1$V@$#B@.$}$J 3@B 2$: : : : : : : : : : : : : : : : : : : : : : : 3$R@$@X 4$I@P@P@z@-@@@e@S#Z@5$(@&$a#a#}#y+G+X J.X X Y }$}$6$:.:.d+,+a+-@-@t++#[#:@7$$@%$e@o+j+i@t+y+(@y+o+j+",
"t+y+(@(@t+>@(@r@(@+@^+U#h+v@I B+b+b+b+b+4+-.8$!.8$I+8$9$G+-.m+=.g+=.]@)#}#}#0$a$b$c$u+a@P@I@I@U@B@Q@d$Y 3@#$2$: : : : : : : : : : : : : : : : : : : : : : : /$k+v@}$e$,#I@P@5#M#-@K@f$g$h$$#<#<#h#i#B+P.O.9$i$|+8$8$j$~.9$4+2+k$~.O.=.l$E+A+[@j+e@k+L+$@y+(@(@_@y+L+(@j+",
"j+t+n+j++@(@w+z+z+o+^+n+h+w@g#i@Z@8@!+k$C+m$v@O.E+O.O.4+L.D+K.s@n$p {@X+$#o$h#p$q$r$s$6@P@@#B@@#a@t$u$a+3@z+2$: : : : : : : : : : : : : : : : : : : : : : : v$y+n+w$x$B@Y@6@5#k+5#y$z$A$B$C$[#C@U@)#D$N+:+=.2+O.D+z#=.*.!+v@_@3+2+[@J i+x+~@^+.@3@K@%$y+L+y+L+(@r@r@o+t+",
"n+n+h+i+#$y+(@(@o+$@^+n+d#}@_#^+/#w@$$P.E$F$}@b G$H$/.I$J$V E$&.t+Z@{@s#s#1$}#K$L$M$N$O$6@a@5#5#j@P$w$a+$@n$`#: : : : : : : : : : : : : : : : : : : : : : : 3$$@.@l$Q$!#6@j@K@j@a@R$S$T$U$}#I@Y@o$)#[@%$|+E$<.C+F$/.V$V }@[@D$!+z#W$h+V#x+{@x@j+>@K@L+L+L+L+y+j+j+i@^+n+",
"i+n+U#i+j+y+e@>@(@y+;@n+3#}@~@o+7$v@X$D$P.Y$-.W$&.G$Z$`$ %.%+.+%$@w@o@I@s#b@,#@%#%$%%%5#o@K@e@-@e@&%u$X y+w+`#: : : : : : : : : : : : : : : : : : : : : : : *%e@j+l$c+Y@L#5#K@O$Y@=%-%;%>%,%b@b@B@i#v@L+{+X$C+&.V$3+/.E$P.z#E$s@s@C+8 ^+j+]@G t+.$k+3@L+k+L+e@o+_@j+n+Z@",
"t+^+t+^++@t+$@$@e@y+L+$@n+{+)@L+n+/#W$C+D$'%)%2+z#D+!%~%C+{%~%1+A#Z@q@B@o$b@B@@%]%^%/%j@-@R@R@K@K@(%u$'+/@_%:%: : : : : : : : : : : : : : : : : : : : : : : <%e@j+9$..a@Y@a@L#a@a@Y#[%}%|%k#1%b@,#2%[@k+4+3%8$B+J+F$4%)+[@O.G i+4%D$t+^+%$~@h+.@y+e@e@e@L+%$R+k+v+(@i@Z@",
"^+j+j+i+t+^+t+t+o+e@e@3@t+[@W#L+n+n+A#W$-.v@5%E$v@e#L+6%N+]@P+t+3@n+q@B@o$1$o$7%8%9%0%5#6@j@*@K@+#n+u$<.w+n$a%: : : : : : : : : : : : : : : : : : : : : : : b%y+t+F+X H@Y@a@,$Y@P@=%c%d%e%k#1$1$B@$#J q@o+3@.$L+v+x+o+e#$$i+n+8 g+o+t+t+R+Y+h+n+$@e@e@e@e@e@%$y+O+%$o+t+",
"+@L+o+i+t+>@y++@j+f%d@>@.@[@U+v+;@t+t+$@s@Z@B#T#^#f%K@K@K@@@6@*@*@3#O+C@C@s#E#g%h%i%j%a@P@5#j@j@3@n+u$Y (@x+a%: : : : : : : : : : : : : : : : : : : : : : : k%e@t+!.X H@b@b@6@a@I@Y#l%m%n%k#B@1$E#'#}@3@-@o%j@R+,$+#e@$@[@t+>@i+e@&#$@>@j@p%w@Z@;@+@$@.$y+y+o+n+L+>@j+j+",
"(@3@3@t+.@>@.$+@t+t+d@d@t+w@Y+R+o+$@$@L+3@A#n+Z@{$$@K@-@+#R@O$*@3@{#o@I@U@:$o$q%]%r%j%@#4@Y@,$3@3@n+c+}$j+r@a%: : : : : : : : : : : : : : : : : : : : : : : k%L+t+!.X H@6@6@j@6@,#s%t%u%v%}#w%1$P@W@[@j@5#6@j@,$,$z@3@$@J o+.$e@k+e@($3@z@X@h+(%d@$@$@x%.$$@;@t+o+$@t+^+",
"(@3@%$e@+@.$.$($(%.@.@(%(%c#i+L+e@*@K@-@6@3@>@.@Z@e@-@L#!#6@j@y%y%z%L+z@l@!#B@A%B%C%D%V@X+l@a@5#o%A#e+,+j+j+E%: : : : : : : : : : : : : : : : : : : : : : : F%Z+G%H%Z H@5#6@6@I@s#I%J%K%L%}#N#1$1$C@[@j@Y@Y@a@a@5#5#3@e@w@e@e@e@k+K@.$e@-@o+3#;@$@$@d@d@d@.$$@o+$@j+.@j+",
"t+.@>@3@;@(%(%d@$@3@.$&%u+/#t@3@$@e@K@j@j@5#@@$@{#3@K@o%L#M%O$Q@&#]#L+5#m#@#B@N%B%O%P%P@U@X+P@Y@5#;@b+Y j+z+a%: : : : : : : : : : : : : : : : : : : : : : : Q%3@A#b+/.H@a@a@P@1$1$=%R%S%T%}#,%U%1$'#`@j@Y@b@Y@H@5#K@k+e@A+3@L+K@-@-@e@k+O+|@}+d@V%+@;@d@$@$@.$.@.@i+n+n+",
"Z@u+(%d@;@n+t+($&#+@3@(%d#u+w@k+$@f%3@K@K@6@a@&#W%e@K@K@O$j@O$Q@Q@:@$@-@m#H#I@w#X%Y%Z%b@I@I@4@H@K@t+e+Q o+j+a%: : : : : : : : : : : : : : : : : : : : : : : Q%e@i+e+X J@o%o%Y@1$E#`%R% &.&N#b@6@b@'#-$+&1$1$a@j@j@k+e@$@h+k+K@j@-@k+.$e@o@S#V%;@(%($;@d@+@d@y%;@n+S#A+h+",
"3#}+A#+@($V%d@f%($*#@&(%d##&u+k+$@$@3@K@a@l@4@.$d#&#K@j@O$*@*@y%Q@]#j+R@-@-@P@a#$&%&Z%Y@4@X@l@,$j@t+e+}$o+o+:%: : : : : : : : : : : : : : : : : : : : : : : &&.$c#c+5+k+*@*@a@I@o$I%R%*&.&N#U%b@P@'#[@5#s#1$Y@j@J@3@Q@*#B#>@e@j@-@3@$@$@o@d#(%(%;@#&#&d@&#&#d@d@c#w@=$Z@",
"Z@u+t+>@;@(%;@;@;@f%d@A#4##&u+L+y+.$K@K@,$Y@P@3@d#.$K@J@J@J@=&y%y%[@>@K@*@*@P@a#-&;&>&:$X@4@@@6@j@i@e+Y o+o+:%: : : : : : : : : : : : : : : : : : : : : : : ,&e@<+c+<.'&3@e@6@b@B@)&t%!&|%C@6@Y@1$$#s@,$P@~&1$U%J@*@Q@&#{$d@*@k+5#3@&#3@-@{#n+;@.$*#.@d@.@;@d@.$n+h+i+n+",
"3#Z@A#$@$@($d@;@;@d@.@.@u+d@(%P+y+.$k+j@-@@@a@3@4#y%.$y%*@K@*@Q@Q@]#e@K@&#3@l@i#{&]&^&P@]@l@,$j@'&A#e+Y (@o+a%: : : : : : : : : : : : : : : : : : : : : : : = y+i+c+:.3@3@Q@5#Y@I@R$/&(&>%o$L#Y@I@)#[@,$I@V@Y@6@*@Q@.$&#S#$@*@*@6@3@*#Q@S+3#(%A#$@d@&#.$(%(%$@k+t+c#U#i+",
"e#n+n+A#u+d@;@d@d@d@d@*#;@(%u+L+$@.$e@k+,$a@a@3@4#;@Q@'&Z+K@*@=&d@`@$@k+3@H@@#b@_&:&<&U%a@z@-@-@*@c#e+[&$@z+}&: : : : : : : : : : : : : : : : : : : : : : : |&$@h+a+X j@Q@&#-@a@1&2&3&4&5&I@P@a@B@)#v@5#l@P@P@,$J@=&$@*#J f%Q@3@-@Q@d@*#R+c#(%(%d@&%d@$@d@.@y+3@.@n+i+h+",
"n+A#u+Z@6&n+d@*#d@$@;@d@u+n+n+/@#&.@e@j@a@@@@@e@4#$@e@Z+K@>$Q@7&d@:@.@K@*@,$b@7@8&9&0&J@,$z@-@Z+Q@n+e+Q o+z+}&: : : : : : : : : : : : : : : : : : : : : : : * o+h+b+5+Z+3@3@j@j@Z+t$a&b&c&.$P@H@P@W+8@,$a@a@Y@6@'&'&Q@.$v@;@$@e@j@e@(%$@%$Z@d@n+d#d#}+;@$@$@$@.$A#n+e#Z@",
"S#3#3#d&}+u+n+;@$@.$;@d@u+;@t+P+.$d@.$a@@@H@H@Q@e&'&k+K@6@j@Q@&#d@5$.@K@3@j@B@f&g&h&i&e@k+R+k+K@3@x@X N o+G%}&: : : : : : : : : : : : : : : : : : : : : : : j&@&A+e+Y Z+Z+K@R+k+Q@k&l&m&n&b@Y@j@b@X+[@,$a@K@6@J@Z+Z+Z+$@g+.@f%&#k+>@;@.$/@}+;@n+}+d#c#t+.@.@o+$@h+A+3#S#",
"J 3#c#n+n+n+;@$@.$$@.@.$d@(%t+^@$@n+$@-@,$,$6@$@4#j@j@J@H@J@Q@*#d@:@+@'&Q@K@o&N#p&q&r&-@O+K@3@3@3@s@X Q .@i@s&: : : : : : : : : : : : : : : : : : : : : : : 2 o+:+c+S @@6@,$,$j@t&u&v&w&x&V@a@j@a@W+9@j@6@.$=&o%K@Q@'&$@v@e@3@$@3@$@&#+@w+d#(%&%V%(%(%A#(%A#e#t+Z@J [@w@",
"w@Z@n+n+A#$@.$.$$@x%.@.$y%(%n+w+d@n+@&Z+5#6@j@x%e&*@6@6@L#j@3@Q@y%+$.@3@3@k+a@i#y&z&A&L#a@-@y+e@>@J X N j+^+s&: : : : : : : : : : : : : : : : : : : : : : : B&$@:+c+S O+,$3@j@,$'&C&-%D&E&P@Y@,$@@X+:@K@j@y%y%3@J@Q@Q@.$[@y+K@.$Q@$@3@.$L+}+P$&%t+$@d@(%n+n+n+n+3#w@J J ",
"d&n+(%c#d#n+d@;@}+(%;@o+y%(%u+x+o+u+Q@j@j@q@j@t+S#.$Z+Z+o%U%j@3@d@:@.@e@3@k+@@w#F&G&H&M%{@o@L+3@+@[@J.L j+I&s&: : : : : : : : : : : : : : : : : : : : : : : J&.@:+X Y R+3@.$k+q@j@K&L&M&.&1%P@a@a@~&z#3@'&Q@y%*@K@*@*@d@:@$@e@e@Q@d@&#3@3@Z@(%&%A#o+o++@;@t+n+n+c#/#[@w@",
"Z@d@d@c#e&u+u+(%4#d#A#A#(%(%Z@z+G%n+.$j@-@,$k+n+'$(%$@.$Q@3@Q@&#;@5$o+3@Q@*@H@C@N&O&N$j@6@K@K@e@$@[@H+6+G%i@s&: : : : : : : : : : : : : : : : : : : : : : : P&t+A+X Y k+.$y%3@Z+j@a$Q&R&S&1%!#-@@@T&|@Q@k+'&3@*@3@Q@.$(%9@y+%$.$d@d@d@3@/@S#n+A#n+i@.@t+o+j+A#Z@c#7$h+3#",
"Z@;@(%c#&%;@($d@d#}+n+u+A#n+Z@z+o+.@.@3@e@'&.$}++$(%;@*#y%y%t&;@P$]#n+d@$@3@j@o$U&V&W&3@K@e@.$e@.$w@J.6+.@i+X&: : : : : : : : : : : : : : : : : : : : : : : Y&t+A+X Y k+$@d@e@K@K@Z&Q& &S&*$V@Z+6@4@`@y%e@Q@=&k+&#d@y%(%9@3@3@>@.$;@(%L+_@d&u+A#(%;@n+n+t+i@7$c#A#n+e#Z@",
"Z@n+&%&%(%$@e@Q@;@;@;@&%n+c#Z@j+(@$@;@.@;@.$o+S#-$(%(%n+P$#&*#3@t&]#=$&%.$.$3@E#`& *.*.$3@e@e@Q@3@A+X 8+G%Z@X&: : : : : : : : : : : : : : : : : : : : : : : +*o+G X R q@Q@d@.$3@K@@*#*$*%*1%Y@j@K@l@`@.$3@Q@.$&*$@y%d@#@}@>@3@$@d@t+;@y+M+s@u+#&$@.@Z@n+A#n+c#A#A#e#n+i+",
"A+/#n+U#(%.$e@>@.$d@o+A#n+u+d#j+o+.@.@.@$@k+w+S#`@&%}+d#}+u+$@'&P$-#x@d@Q@.$3@X+L$**=*y%Q@3@3@3@3@S#X L i@G X&: : : : : : : : : : : : : : : : : : : : : : : P&o+G c+}$j@3@;@d@.$3@-*;*>*>&b@,$o%@@o&G@@&K@e@(%.$d@o+d@&%z#y+e@.@.@(%t+t+w+3#t++@y+o+e#/#i+n+A#t+n+i+A#Z@",
"w@S#A+S#n+;@d@.$$@;@t+(%u+&%3#,*G%A#A#.@+@3@y+3#F@&%(%n+u+u+e@3@'*)*n+>@3@*#k+]@!*~*{*o+y+$@.$Q@Q@{#J.L i@<+X&: : : : : : : : : : : : : : : : : : : : : : : ]*.@h+X R Z+Q@;@+@e@&*c@^*/*(*a@K@K@@@!#O.o+k+e@&%d@$@x%t+}+|@(@$@n+;@(%n+t+/@A+e#n+$@t+c#Z@}+n+t+t+n+n+^+Z@",
"`@w@[@[@d#n+u+.@.@t+;@t+c#&%S#i@i@n+(%t+o+@&d@S#`@A#;@;@}+V%.$d@F@=$y+L+e@e@%$%$_*:*w@d@$@Q@.$3@$@w@ .N G%p X&: : : : : : : : : : : : : : : : : : : : : : : <*o+x@J.R j@Z+Q@>@3@k+t+[*}*o+a@H@Q@3@R+w+t@j+.$u+'*d@d@d@d@v@o+$@;@t+;@n+t+z+[@Z@n+j+n+c#A#h+Z@n+n+i+c#c#Z@",
"}@[@w@S#S#Z@}+n+$@d@d@(%u+u+{#I&j+n+n+.@.@d@d@3#`@d@d@@&'$[@;@`@|@j+v+L+y+.$w+B+N c+|*@&e@3@*@'&e@h+ .1*(@p X&: : : : : : : : : : : : : : : : : : : : : : : 2*(@s@X Y j@'&*@k+-@-@o+~+'+~+%$-@&#*@-@O+^+z#t+S#t@n+;@$@d@g+.@.@.@.@A#u+t+t+w@/#n+A#Z@u+u+Z@S#3#Z@Z@3#3#S#",
"}@`@l+3#Z@}+u+c#;@@&@&(%(%n+S#i@n+U#n+A#;@o+d@d#`@P$$@n+j$=$|@D$c#3@k+R+%$(%t@*+:.&./@'&e@*@Z+Z+3@3*X R o+i+4*: : : : : : : : : : : : : : : : : : : : : : : 5*o+J X [&k+'&k+j@6@@@o@g+X$*+&.3@3@'&k+q@R+x@+%n+E+8@.@t+n+8 i@(%(%t+(%u+(%o+w@Z@;@A#{#d#4#l+'$l+3#Z@Z@Z@w@",
"]#'$e&&%n+}+}+}+.@x%$@;@n+c#[@c#3#S#e&d#(%t+;@S#F@(%c#|+s@z%}@A#d@.$R+%$o+|@6*H+G$A#$@.$3@.$3@e@.$[@X Q n+<+7*: : : : : : : : : : : : : : : : : : : : : : : 8*+@v@'+[&3@Q@j@5#j@K@@@R+L.X$9*!%$@y+3@L+R+.$:+L.x@0*{+Z@}+z#t+.@#&n+&%A#n+t+[@Z@A#t+3#S#{#+$[@[@h+7$n+/#A+",
"[@S#Z@c#n+u+Z@}+;@o+t+n+}+Z@w@x@S#[@'$/#(%(%t+3#a*S#4+d#w@b*$@.$d@.$k+3@W$;+Y &.c*;@n+;@e@P$y%$@t+[@X P n+d*e*: : : : : : : : : : : : : : : : : : : : : : : f*j+9@H+[&/@y%*@*@K@j@3@y+/@!+X *+|+j+R+%$Z+3@.@8@P.x@&.t@4#}@t+A#u+}+'*}+Z@t+[@3#Z@A#n+d#S#+$[@`@Z@n+n+3#3#",
"w@S#d#Z@Z@u+c#n+d@.@A#u+}+d#w@x@S#3#d#n+n+n+d@3*}@8$[@'$g*u+3@.$$@.$k+k&h*i*8$G%(%;@d@d@y+o+@&(%A+X :.<.z+:+e*: : : : : : : : : : : : : : : : : : : : : : : j*j+D$'+}$P.c#=&Q@Q@Z+e@.$o+3@)+e+k*l*K@3@k+x%>@.@}@!+m*X$S#z#Z@}+&%}+c#3#3#A#`@{#A+&%u+&%}+{#w@z%Z@}+c#[@w@",
"[@A+Z@}+}+e#n+n+t+t+(%u+c#Z@l+x@3#n+n+Z@}+&%(%A+t@=$[@2+3#A#.$;@L++#n*o*p*q*j+w+n+(%Q@Q@3@3@y+Z@<.}$..r*s*:+e*: : : : : : : : : : : : : : : : : : : : : : : t*G%L+8$,+m.t@x%*@*@o%K@3@A#/@R+u*v*w*x*5#R+.@.$y+d@G@t@m*Z@'%S#}+&%n+n+/#A+n+F@[@[@d#d#n+u+S#l++$d#d#d&8@`@",
"[@S#e&Z@&%c#c#c#u+n+}+3#d#3#[@U#d#'*n+3#Z@Z@&%3#:+m*j$c#;@(%t+;@3@y*z*A*B*C*y+(@.@y%.$=&e@e@i@X 6+a+:+o+t+:+e*: : : : : : : : : : : : : : : : : : : : : : : D*G%3@$@9$}$6*v@3@&#*@,$Z+.$(@2@Y#E*F*G*H*K@o+x%d@y%@&2+P.^+t@3#u+}+'*}+}+Z@7$}@[@]#4#4#'*d#S#l+[@3#e&S#l+[@",
"[@s@d&}+n+n+u+Z@3#}+4#l+l+S#]#A+3#c#3#w@Z@c#3#O.!+|+S#($n+u+(%$@I*J*K*L*M*M%L+3@$@;@x%$@.$G%/.&+X s@y+y+t+:+e*: : : : : : : : : : : : : : : : : : : : : : : N*;@y+Q@&*G+8+>+=$$@3@'&Q@Z+e@3@a@O*P*Q*R*S*+@o+;@n+@&A#K#4%2+[@}+d#n+n+{#d#Z@}@`@`@'$w@d#4#[@[@'$d#3#3#d&{#",
"3#S#}+d#/#}+Z@d#Z@d#d#l+[@S#-$i+x@c#3#d#U#x@t@I .$P$t+u+n+n+#&T*U**&V*W*D@k+e@=&Q@$@y%d@(%a+%+X*|@(@.$.$(%:+e*: : : : : : : : : : : : : : : : : : : : : : : Y*+@e@d@e@o+9$8+6+[@.$3@.$=&'&'&k+a@U$Z*`* =4#;@A#n+;@(%A#=&c*!+w@d#e#u+S#d#.=:@J w@l+{#{#4#[@[@=$d#S#S#{#w@",
"c#d#d#S#d#e&S#=$3#}+u+4#[@w@:@U#.=n+}+&%3#}@W$m*A#.@n+3#(%(%#@+=@=#=$=y$q@%$3@Q@Q@P$P$t+!.%+:.|@$@d@;@$@t+:+e*: : : : : : : : : : : : : : : : : : : : : : : %=$@3@.$Q@.$G%!.6+N i+o+y%t&Z+j@Z+k+L#&=*===-=;=d@t+t+n+(%t+'$+%g*[@c#Z@S#=$n+`@S#Z@d#w@w@l+w@[@w@Z@4#3#3#3#",
"x@3#3#w@{#{#S#'$l+{#d#4#l+w@|@G 7$Z@c#d#|@S#=$c#n+n+u+u+(%k&>=,='=)=y$.$e@e@Q@Q@$@.@.@8$*+d+P.@&.@x%$@y%t+:+e*: : : : : : : : : : : : : : : : : : : : : : : !=e@k+3@Q@$@y+i@~+=+Y U#.@.@.$5#j@3@&#j@~={=]=^=/=$@o+u+n+n+n+8@[@=.w@Z@Z@d#i+:@S#Z@Z@S#{#[@]#[@l+S#{#Z@A+S#",
"3#A+w@l+l+{#{#S#4#w@S#}+S#S#-$U#Z@d#Z@}@(=[@_=&%u+n+(%u+k&:=<=[=$=-*Q@y%e@=&.$3@$@o+E+6*'+!+$@&#.@@&Q@.$;@s@e*: : : : : : : : : : : : : : : : : : : : : : : %=y+%$'&*@.$$@/@x@c+>+<.7$.@(%.$'&Q@y%Q@j@}=|=1=2=3=d@A#&%x@3#Z@|@g+)+3#d#d#i@9@d&S#Z@3#w@:@:@[@]#`@J S#w@S#",
"A+d#S#w@S#w@e&d#d#S#d#c#e&3#:@n+e&d#e&:@(%+$d#&%c#t+$@4=5=6=]&7=8=.$(%y%&#Q@.$3@s*+%;+9=0=y+t+d@$@y%.$.$d@W$a=: : : : : : : : : : : : : : : : : : : : : : : b=e@k+3@j@e@d@d@&*G X *+X A#x%P$Q@Q@$@d@*#c=d=e=f=g=h=e#(%Z@Z@Z@8@t+}@h+l+d#G%|@[@w@S#Z@w@`@+$+$'$[@S#d#3#w@",
"S#d#{#w@w@S#S#d#{#S#Z@/#d&w@o+.@c#}+3#6&&%}@d#c#n+(%i=j=k=l=m=n=*#.@A#y%&#d@.$Q@P.o=Y |+/@.@&%d@.$Q@e@e@d@|@a=: : : : : : : : : : : : : : : : : : : : : : : p=o+&*3@K@Q@.$P$t+%$=$:.q=..A#P$P$$@e@y%$@d@r=s=t=u=v=w=u+d#Z@Z@:@t+8@S#[@S#A#z+5$[@[@S#l+{$[@l+[@[@x=3#w@[@",
"Z@3#w@w@w@w@w@{#l+S#S#d&3#[@A#.=3#S#S#`@4#B+'$c#/##&y=z=A=B=C=Q@d@(%&%*#.$$@.@v@6*R -.o+d@&%u+(%.@e@3@.$n+3+: : : : : : : : : : : : : : : : : : : : : : : : D=n+3@'&e@&#$@d@&%$@%$E=,+F={.A#*#*@$@.$.$(%.$c=s=G=H=I=J=S#}+3#}@[@:@{#l+l+i+n+=$[@`@[@[@w@J w@l+{$[@J v@{+",
"3#h+S#[@v@[@w@'${#l+S#S#x=}@{#3#[@4+8@[@`@i$w@3#e&K=L=O&M=N==&.@(%A#P$x%d@P$8@8+N O=K+@&(%d#}+;@x%y+@&s*A+@.a=: : : : : : : : : : : : : : : : : : : : : : : P=9@o+3@Q@Q@$@d@d@$@G%/@P.R Q=-.;@'&e@y%Q@$@;@;@@*R=[=^*S='$A#h+t@b*S@c#!.5$w@Z@|@:@[@`@:@J J [@s@s@[@{+v@[@",
"S#J {#[@+$[@l+e&l++$'$4#4#|@S#S#T=H%A+[@+$4+w@A+U=V=W=X=Y=t$;@#&n+P$y%y%(%=$R 6+1+L+o+(%;@}+&%.$@&@&A#7$Z=5+`=: : : : : : : : : : : : : : : : : : : : : : :  -..U#.@.$&*y%(%;@d@A#.@3@2+Q 9*3+e@=&d@.$$@d@n+(%@*.-+-@-U#i+Z@t@L.L.S#G+j$'$S#g+v@v@[@{+[@[@w@w@3#S#[@8@[@",
"[@[@[@{$[@[@w@l+-$5$l+S#{#8@3*d#b*=$U#w@a*H$w@Z@4##-_*x=t+n+c#'*&%d@&#y%u+F@S ..$-t+n+A#(%&%u+y%s*(%.@4+c+%-&-*-: : : : : : : : : : : : : : : : : : : : : : : =-1+A#o+y+d@(%(%d@(%Z@A#w+e+,+&.t+]$;@.$y%(%}+7$A#--;->-Z@<+=$T=S@}@Z@S#*.3#Z@8@F@+$'$:@`@:@[@l+{$[@[@8@`@",
"!+b*T=,-T=F@'-T=T=)-F@F@T=w@}+A+n+Z@l+:@`@!+3#}+w@!-~-'%i+}+6&d#}+(%(%P$n+}@a+'+H x@}+&%(%P$V%o+G%(%e@9#{-]-^-X /-: : : : : : : : : : : : : : : : : : : : : : a=(-3@Q@y%x%(%P$A#A#d#3#3@:.H+...@$@;@(%#&u+d#x@Z@v@J.8+8 x@3#F@P.t@3#e&A#c#U#g+g*}@:@,-=@T=}@T=}@S@L.S@=@",
"&*y+$@.$K@q@@@q@_-'&.$@&.@&*U#s@e&Z@S#|@`@!+3#j+i+:-'+'%^+n+u+}+u+(%(%d@;@t@a+Y s@7$n+Z@'*(%<-A#.@A#Q@[-}-|-1-2-3-: : : : : : : : : : : : : : : : : : : : : : : 4-b@&*@&.@&%(%&%&%}+S#o+6$'+X$j+.@.@u+(%A#}+x@i+g+'+-+'%x@Z@:@P.g*3#c#n+n+c#n+3@R+k+Z+K@P+L+y+L+v+^@^@_@",
"i+i+c#c#n+t+s*.@A#Z@}+c#h+s*&%d#e&Z@Z@g+X -.7$$@7$}$5-P.d@d@(%n+u+#&&%(%$@L.e+,+|*.=U#}+d#&%A#t+7$&%t&6-7-8-9-0-a-: : : : : : : : : : : : : : : : : : : : : : : b-c-y%u+t+A#A#A#d#4#3#t+6$c++.z+A#A#n+A#(%}+d#d--$H+-+B+A+e#}@Y =.Z@c#n+c#i+G t+j+j+j+z+^+i+n+n+^+^+^+n+",
"u+c#7$c#3#c#n+&%u+A#A#c#3#t+n+Z@c#Z@U#{+,+4+n+^+:+8+X*e-f-g-h-'*P$d@&%}+.@!+c+,+v@Z@&%&%d#}+}+Z@4+-$c@+=i-j-k-l-a-: : : : : : : : : : : : : : : : : : : : : : : m-n-&%Y A#&%u+'*S#l+4#A#}$5-+.7$(%(%d@.@(%'*o-p-q-X 8+Y$x@Z@S@8+B+Z@n+c#n+n+h+A#^+^+t+n+Z@n+G%Z@A+A+A+x@",
"n+/#n+U#A+Z@c#n+n+t+o+n+c#n+n+n+}+U#d#}@d+1+A+d#:+}$u$r-s-t-u-'*u+;@&%6&t+O.5-,+v@3#u+}+d#n+A#x@l$F@J@+=v-w-x-y-a-: : : : : : : : : : : : : : : : : : : : : : : m-n*(%d$d@A#d#e&4#w@3#A#N X X U#c#d@d@(%&%T*z-A-B-b+6$O.A+A+g*:.C+Z@n+Z@c#Z@A+c#t+n+A#n+h+Z@n+x@h+{#3#A+",
"U#i+c#c#S#c#c#c#/@(%c#n+n+U#Z@Z@3#3#S#t@d+!.J A+G }$C-D-E-F-G-}+}+;@A#}+G%!+e+Y D$3#n+n+A#(%;@7$4+|@H-I-J-K-L-M-a-: : : : : : : : : : : : : : : : : : : : : : : m-N-.@d+@&t+}+d#e&d#}+G%8+X +.n+G%(%d@.@n+O-P-Q-R-b+Q O.A+A+!+:.|+x@Z@c#Z@x@v@h+^+A#c#Z@S#3#Z@:+s@J J w@",
"x@<+<+w@S#c#I&i+7$3#3#Z@h+A+U#n+3#A+A+}@d+G+A+c#:+,+!.D-S-T-d-3#V%d@;@&%o+P.~+,+D$3#n+n+t+t+.@^+2+`@y%%#U-V-W-l-a-: : : : : : : : : : : : : : : : : : : : : : : X-Y-O-5-@&A#A#&%#@'*}+.@N X ~+j+.@;@t+$@n+&%Z-`-R-b+}$P.h+i+!+,+E$<+Z@i+c#h+v@J h+Z@d#w@3#n+G :+[@s@w@J ",
"z#,*n${+W$ ;|*d*}@}@v@t@b*g+U#n+3#A+A+b*d+&.G /#J N b+.;+;@;#@d#n+d@n+(%.@P.c+N D$3#n+A#G%.@A#^+/@(%=&#;$;%;&;*;a-: : : : : : : : : : : : : : : : : : : : : : : X-3=<-n+x%Z@A#(%}+d#d#G%N X X$j+.@n+;@.@(%'*=;-;;;e+Y z#n+i+!+Y !+<+c#Z@Z@h+g+8 !+!+z#z#g+5%g+P.E$z#g+P.",
"b+#.~+~+!.1+4+!.a+b+a+X J.E+A+7$3#Z@x@|@[@|+A+/#b 8+e+L.>;#&}+}+}+;@t+*#$@D$..N 3%3#u+A#A#.@A#A#@&x%J@,;';);!;~;{;: : : : : : : : : : : : : : : : : : : : : : : ];^;P$(%(%i+n+t+c#3#3#o+}$X @.j+(%(%.@P$&%}+}+/;[@..6$D$i+h+S@O.|@Z@Z@c#c#A+2+!.c+c+X X b+~+!.a+!.~+e+X ",
"g+9@:@J v@|@J v@|@g+|@L.P.'%h+n+Z@Z@Z@:@v@B+A+}+s@(;c+!+Z@c#}+}+S#A#t+o+.@D$c+Y 8 Z@u+A#t+o+.@t+(%t+o+9#S=_;:;%#/-: : : : : : : : : : : : : : : : : : : : : : : <;3#(%'*(%i@n+.@n+h+Z@x+Y ` @.j+$@.@y+;@&%l+3#^+v@X [&'%i+A+L.O.!+A+Z@x@/#x@!+}@[@[@{+}@}@|@|@g+J [@z#}@",
"A+Z@3#S#A+w@x@h+:+s@A+:+g+8 G c#|@w@3#|@}@B+x@Z@v@-+e+P.<+n+4#4#d#&%x%t+n+|@c+,+g+A+n+c#A#.@n+t+A#o+(%d#{+[;};a-: : : : : : : : : : : : : : : : : : : : : : : |;W$G%.@A#.@n+n+o+t+U#n+7$Y ..1;j+$@j+$@.@n+S#Z@^+W$X 8+'%U#i+P.E+2+x@S#O.J A+b*8@3#3#w@w@w@A+w@[@A+S#J W$",
"w@Z@3#w@w@w@A+=$J S#3#s@[@z#Z@A++%4+^#P.z#*.h+h+W$d$2;5$t+n+Z@S#}+&%u+n+n+A+b+H+X$w@n+A#&%u+Z@A#j+t+u+U#7$g*3;: : : : : : : : : : : : : : : : : : : : : : : 4;|*,*c#A#o+t+3#Z@.@A#Z@U#*.}$e+!+j+o+t+d@n+n+Z@^+z+{#x$d$8 Z@x@)+E+B+w@B+-.J w@!+{+w@3#w@S#l+A+J 8@w@J =$s@",
"=$w@A+[@:@`@w@=$J w@l+[@:@P.n+J s@!+w@P.T==.G x@^+_$5;6;7;'*S#S#u+3#d#d#u+%$(=!.9+..A+n+c#c#}+n+i@.@A#t+n+{+M@: : : : : : : : : : : : : : : : : : : : : : : 8;C 7$/#o+.@t+Z@Z@A#t+h+2+6*J.2+L+j+.@&%A#c#i+i+;@n-9;0;a;i+G w@B+4+*.h+k$w@[@S#!+t@[@w@w@w@S#w@[@:@g+s@s@w@",
"[@v@J [@:@J w@s@A+b;S#J 9@!+x@Z@[@S#=$t@:@*.w@F F c;d;e;f;g;'*c#}+3#}+}+}+A#k+{+X m.%.Z@A#c#n+A#.@.@.@A#A+B+h;: : : : : : : : : : : : : : : : : : : : : : : i;=$c#t+.@(%t+Z@U#7$i@t@6*:-j$w+G%A#;@n+c#}+e#n+N-j;k;l;m;^+W$s@2+2+*.=$[@[@[@3#g*T=`@J v@[@[@[@{+:@:@s@J s@",
"}@{+v@[@[@J s@A+Z@A+h+s@|@!+w@n+w@A+s@}@n+S@G G s@+@n;o;p;q;r;#@d#'*'*u+d#d#n+3@g*<.m.4+Z@n+A#i@o+t+A#t+Z@2+4;: : : : : : : : : : : : : : : : : : : : : : : s;A+G%.@x%(%;@i+n+^+|@>+8+a+z+j+t+n+t+t+t+n+u+t;u;v;w;W&Q@h+g+J g*s@2+[@[@[@[@S#!+}@:@[@`@`@-$^#[@[@[@J v@`@",
"T=F@:@[@w@w@w@A+e&w@[@:@a*k$|+Z@i+A+v@L.c#L.G G w@G Q@x;y;z;A;B;}+}+&%'*&%}+Z@c#@&k$C;%+B+c#7$i@j+A#A#n+Z@P.D;: : : : : : : : : : : : : : : : : : : : : : : E;h+n+n+.@.@.@7$n+g+L N ..<+c#c#(%n+t+n+^+c#F;G;H;I;J;y$7$G w@[@g*w@S@[@s@[@w@P.i$T=`@`@F@F@F@`@[@[@v@[@-$}@",
"}@|@`@[@w@[@[@w@S#[@[@[@:@S@F+9@h+A+=$D$G g+s@h+h+:+A+K;L;M;N;O;P;]$d@(%(%&%n+Z@U#w+8$N m.B+:+n+t+n+t+A#=$L.Q;: : : : : : : : : : : : : : : : : : : : : : : R;<+n+n+n+^+^+7$|@6+>+c+H A+d#A#.@t+n+3#t+t&m&S;T;U;V;u+S#x@S#9@!+=$}@S#[@`@8@C-=@:@[@'$S@T='-:@[@`@'-F@F@b*",
":@:@v@[@[@[@:@v@[@`@`@[@:@5$b*:@h+A+A+U#8@=$t@s@h+A+w@3#M%W;X;Y;Z;`;P$(%(%(%n+n+x@n+G%H%8+l.*.A+i+^+A#n+[@L. >: : : : : : : : : : : : : : : : : : : : : : : .>x@7$i+n+A#Z@[@R >+/.:+7$J S#n+j+A#A#c#A#+>@>#>$>%>n+{$4#Z@'$T==$[@c#3#w@[@`@K#a*`@+${+&>T=-$[@J `@O.O.=@S@",
":@:@-$F@9@v@}@[@z%[@{#w@[@[@5$g+w@v@w@x@c#[@W$P.[@3#Z@Z@c#*>=>->;>>>#&;@n+}+c#}+Z@h+<+,>a+6*l.!+x@U#Z@Z@[@P. >: : : : : : : : : : : : : : : : : : : : : : : .>d*c#n+t+A#[@Y =+X W$i+c#w@h+n+(%}+(%(%'>)>!>~>{>(%3#v@w@S#}@{+[@S#e&w@[@[@|@g*F@v@:@`@F@:@`@`@-$5$S@b*T=T=",
"}@L.}@F@}@}@F@]#5$`@S#{#[@[@5${+[@`@J :+A+h+8@D$P.w@Z@c#Z@n+]>^>/>(>_>k&n+Z@c#c#n+Z@h+7$7$:>>+%+L.h+Z@U#J }@ >: : : : : : : : : : : : : : : : : : : : : : : .>x@Z@n+n+A+:.9+'+z#i+<+3#A+Z@c#A#.@*#<>[>}>|>1>d@w@w@w@[@{+D$t@'$w@[@[@[@`@z#S@:@:@:@-$`@{+[@:@}@}@F@F@F@F@",
"!+T=}@}@}@b*9@F@}@-$w@w@`@5$}@|@[@`@[@w@v@[@Z@|*+%P.=$U#}+S#U#o%2>3>4>5>#@U#A+U#n+Z@U#i+<+<+!.6*6>D$x@U#s@z#7>: : : : : : : : : : : : : : : : : : : : : : : 8>G Z@Z@A+X &+X*D$^+7$Z@Z@Z@h+n+.@P$9>0>a>b>1%(%w@[@[@[@t@t@f+s@(={+`@[@+$`@[@!+{+[@[@+$[@:@`@}@T=:@[@`@}@S@",
"T=L.S@T=b*}@F@}@F@:@v@`@-$:@}@|@[@`@[@v@|@9@A+7$g+O=B+8@S#w@J h+c>d>e>f>g>P$Z@7$7$n+n+i+d*'@H /.h>>+z#Z@[@t@ >: : : : : : : : : : : : : : : : : : : : : : : i>:+A+A+a+*+'+P.i@Z@U#h+i+Z@7$A#x%j>k>l>m>n>A#8@[@w@[@t@F+s@8@s@{+:@8@[@:@:@{+g*|@[@[@l+[@F@}@t@b*{+-$}@T=p#",
"F@}@T=}@T=5$`@:@F@T@`@:@:@:@T=|@[@J [@^#v@|@W$z#g*3%~+B+-$[@{#J T*%*6=o>p>B;}+7$<+Z@Z@x@A+x@^+v@X m.6+g+v@L. >: : : : : : : : : : : : : : : : : : : : : : : i>W$:+~+q=:.P.j+x@w@A+Z@n+A#n+(%F;$&q>r>s>y%[@'$[@v@L.a+}@:@*.z#F@:@w@]#-$v@:@g*}@:@+$[@:@}@}@}@T=:@5$S@S@O.",
"F@:@}@,-F@5$]#:@:@F@:@:@F@F@g*|@s@J J `@8@g+v@O.i$!+b*a+O.J h+:+=$y%t>u>v>w>:@G i+Z@i+Z@=$:+:+^+g+'+Q=Q g+L. >: : : : : : : : : : : : : : : : : : : : : : : x>G |+g.:-H$w+A+J w@x@x@i+c#Z@G y>z>r>A>'&A+[@[@J P.e+&>P.T=8$}@:@v@w@[@:@`@z#,@S@:@5$[@F@T=F@}@}@:@}@S@t@L.",
"F@:@}@T=F@-$[@:@:@F@F@F@}@a*g*L.[@v@W$:@`@[@J L.=.B>P.}@..3+J G G 3#t&C>D>E>}$z#h+3#x@<+x@h+[@s@n+!+[&m.{+t@ >: : : : : : : : : : : : : : : : : : : : : : : x>:+&.-+X w+G J =$i+n+c#x@x@A+~+F>G>H>J@x@A+w@v@g+~+P.{+~+b*&.}@{+v@`@`@|@v@z#q#T=F@F@z%:@}@F@}@}@:@F@G@T=S@",
"b*T=F@,-G@F@}@S@F@}@F@F@T==@k$!+[@[@w@[@[@v@W$}@I>r*E+}@t@..!+w@A+w@x@t+7$!.-+[&g+s@x@x@x@:+W$W$s@4+N *+t@!+ >: : : : : : : : : : : : : : : : : : : : : : : J>J F+N 6+s@A+=$S#c#A#Z@r*=$G+8+e+S#e@A#Z@A+v@L.!.g*g+j$=$}@8$|@:@:@:@`@:@`@z#q#S@T=G@{+`@:@F@F@!+F@T=a*T=S@",
"!+T=}@T=F@}@T=L.F@T=T=T=S@2+*.O.9@:@w@w@[@s@:+|@p#[@G B+|@z#a+O.v@J [@h+n$:+a+6+<.g+A+x@h+w@J [@W$&.8+*+L.P. >: : : : : : : : : : : : : : : : : : : : : : : K>s@!.-+m.v@[@[@w@Z@n+h+G &.8+X +%$@i+c#Z@J L.~+b*{+-.8@v@}@8$z#:@F@:@:@:@9@}@q#S@b*:@`@[@5$:@'-S@,-S@a*S@g*",
"=@L>,-F@9@`@:@:@:@,-S@}@T=)-p#2+b*t@:@`@v@[@x@|@*.:@=$i@O=}@=@X O.v@s@J h+G%s@X *+V J Z@U#w@[@=$s@G+8+m.$$E$M>: : : : : : : : : : : : : : : : : : : : : : : N>5%~+-+m.v@w@v@`@A+V#x@2+6*X*P.L+n+3#l+{#v@!.B+v@!.W$v@{+t@G+}@F@9@v@[@-$:@}@q#=@T=+$`@^#-$`@:@a*'-}@T=O.S@",
"g*g*T=|@`@[@[@{+`@:@F@}@}@'-S@!+:@:@v@v@J =$:+P.i$F@[@3#x@[@[@2+~+|@:+{+v@<+x+8@d+*+E+=$G w@s@=$A+*.O>g.P.!+M>: : : : : : : : : : : : : : : : : : : : : : : N>J a+-+m.[@[@:@:@[@h+v@L Y i$o+^+x@w@s@[@B+4+[@:+|@W$|@F@T=%.}@F@|@:@{+[@}@z#2+S@T=[@`@{+F@`@`@}@}@9@}@P.T=",
"g*g*b*9@:@:@`@`@:@|@:@5$F@F@=@=@9@9@8@[@s@J s@P.P>b*F@[@[@:@[@F@k$!.s@w@[@A+<+j+X*Q>-.:+=$z%v@J J R>-+h.L.g*S>: : : : : : : : : : : : : : : : : : : : : : : N>v@X ;+g.8@`@`@g+g+A+g+T>[+c#t+n+S#w@A+B+4+F@[@w@F@v@`@}@T=G+}@}@T=S@}@F@=@t@!+}@T=:@:@:@a*F@:@:@F@}@L.P.b*",
"=@T=T=F@}@9@|@F@F@:@|@:@,-S@p#!+9@:@:@g+8@J 8@O.G+b*}@[@[@9@[@{+&>2;z#W$J W$h+e#U>V>W>s@s@v@g+J [@8$-+l.P.!+S>: : : : : : : : : : : : : : : : : : : : : : : N>v@X =+h.g+8@`@[@w@x@l+X>Y>Z>Z@/#3#A+w@..S@:@[@w@9@9@:@}@}@G+L.9@}@T=}@}@S@L.g*F@:@'-}@}@S@T=}@:@F@T=b*O.O.",
"=@T=F@}@}@:@:@9@:@[@:@F@S@g*p#!+|@:@v@[@8@v@[@S@9$L.F@v@[@:@:@G@}@P>k$9@[@8@h+d@`> ,.,b s@s@[@w@[@~.8+h.L.O.M>: : : : : : : : : : : : : : : : : : : : : : : +,c X 9+$+|@[@`@[@S#Z@@,#,$,%,n+d&'$w@[@b+b*F@w@=$|@&,F@G@t@8$}@9@F@}@T=S@S@P.!+|@:@}@}@F@T=T=F@}@F@L.L.P.P.",
"b*F@}@T=k@F@F@|@F@v@|@T=g*=@K.O.|@:@v@v@8@[@[@!+8$}@{+^#[@`@F@,-a*j$=.9@{+|@s@;@*,=,-,[@:+G :+s@s@-.8+$+P.)+S>: : : : : : : : : : : : : : : : : : : : : : : +,v@..=+h.|@[@v@+$[@A+/=;,>,,,u+S#z%`@`@l$t@9@w@=$F@T=}@}@L.8$P.{+8@8@}@b*S@t@!+:@F@}@}@:@:@:@|@9@z#b*O.!+b*",
"T=L.t@b*T=}@L.}@L.F@:@b*g*=@k$)+|@:@}@L.L.:@g+2+P>5$:@:@[@`@F@F@}@8$O.8@|@}@w@+@',),!,`@b G :+h+:+8$8+g.P.E+S>: : : : : : : : : : : : : : : : : : : : : : : ~,g+X O>h.|@[@{+`@v@J /={,],,,}+[@`@v@[@!.|@[@S#w@9@}@}@}@L.4+P.:@[@J :@}@T=L.!+}@T=T=t@F@:@{+|@9@:@9@P.!+S@",
"g*S@S@}@L.9@P.S@L.L.z#b*g*O.,@)+D$L.}@L.}@|@v@O.8$T=9@:@`@`@:@F@}@G+B+|@9@:@s@;@^,/,(,-$W$G b;A+G !.6+g.E$D+S>: : : : : : : : : : : : : : : : : : : : : : : _,g+X -+h.|@{+9@|@|@[@/=:,<,[,d#[@`@:@8@c+:@v@[@J |@}@L.|@z#8$}@:@[@J v@S@9@L.g*!+=@S@S@}@L.L.L.|@z#z#z#L.t@",
"*.g*L.9@}@:@t@S@S@}@t@L.S@O.,@B+z#P.T=z#t@:@[@S@m+S@}@]#[@[@z%F@}@9$*.}@{+8@|@e#},|,1,-$W$:+A+S#A+F+-+l.D+B+S>: : : : : : : : : : : : : : : : : : : : : : : _,[@X 2,$+z#9@}@|@9@]#3,4,5,[,6&[@`@:@v@..g+{+`@v@}@|@:@|@L.&.P.:@|@8@F@T={+9@k$I>=@=@&>9@}@L.z#z#L.L.L.P.}@",
"2+g*L.:@:@{+t@!+t@}@P.=@6,O.,@E+P.P.}@L.P.|@v@!+=.L.}@`@'$[@`@9@T=G+Y$<@:@{+:@u+7,8,!,]#v@[@h+S#[@G+-+@+)+|+S>: : : : : : : : : : : : : : : : : : : : : : : ~,v@X &+h.}@9@{+:@9@]#9,0,a,[,b,[@F@5$v@..:@v@|@}@t@<@|@}@b*&.L.}@9@}@}@b*}@z#K.g*p#!+|@{+t@P.P.O.P.P.P.t@b*",
"S@O.L.9@9@}@O.S@}@z#L.O.S@L.B+B+P.z#9@t@z#L.}@g*4+b*|@v@8@-$F@}@t@9$D+g+:@F@v@Z@c,d,e,F@8@s@A+w@v@G+7+@+O.B+S>: : : : : : : : : : : : : : : : : : : : : : : f,v@..;+#+z#:@`@[@[@]#g,h,<,i,w@:@'-`@J ` :@b :@}@P.L.z#b*O.F+!+z#}@t@t@=@}@z#2+P.S@}@{+:@z#S@O.O.P.!+O.g*!+",
"!+O.O.S@S@=@g*g*O.}@t@O.S@=@B+)+L.t@|@}@:@}@!+*.4+}@{+|@`@:@}@}@L.8$)+v@|@}@J Z@j,k,l,'-{+W$=$[@v@i$7+@+E$B+S>: : : : : : : : : : : : : : : : : : : : : : : m,c a+;+++z#z%v@[@v@5$q-n,o,p,[@v@F@v@v@X z#b g+L.L.}@P.b*O.!.t@t@:@|@S@I>P.L.2+L.z#}@}@:@z#S@O.L.L.b*!+*.B+",
"!+!+g*g*g*!+P.!+O.L.S@O.g*g*,@B+P.L.|@:@v@}@!+k$G+}@v@|@:@|@9@}@}@F+O.b g+v@w@q,r,s,t,t@|@v@W$J v@i$-+@+E$Y$S>: : : : : : : : : : : : : : : : : : : : : : : u,g+a+*+.+|@[@{+^#:@|@v,w,x,y,F@v@}@9@:@X P.v@g+P.L.}@L.b*O.%.!+}@{+:@S@g*P.L.B+P.L.z#t@9@L.L.!+S@O.g*!+2+*.",
"2+O.S@S@O.b*|@t@}@9@P.O.!+O.,@E+P.P.P.}@g+z#}@*.F+!+-${+v@F@9@F@b*l$Y$g+b v@v@>#z,A,B,L.|@z#:@`@8@=.(;++!+C+S>: : : : : : : : : : : : : : : : : : : : : : : f,g+a+m.++v@[@:@v@9@}@C,D,E,F,L.g+}@L.|@X P.v@|@P.L.9@:@}@2+%.S@S@}@t@L>K.O.$$*.O.O.L.P.P.L.!+!+g*O.!+b*!+2+",
"2+O.L.S@2+S@9@L.z#|@9@P.O.g*2+|+!+!+L.}@g+|@|@B+!.g*9@F@{+}@}@L.S@C-!%z#v@[@S#@*G,H,I,L>|@z#|@F@|@8$-+@+3+B+S>: : : : : : : : : : : : : : : : : : : : : : : J,9@..0+.+g+[@8@:@|@8@K,L,M,N,T*{+t@9@|@X L.8@|@L.!+}@:@}@O.G+O.!+O.O.g*k$g*P.*.O.S@}@S@t@!+b*P.!+g*!+S@O.,@",
"O.2+S@S@O.S@}@P.P.9@|@|@L.O.2+B+!+O.t@z#|@9@L.=.b+g*t@}@F@T=b*T=S@b+-.|@z#}@{+#@O,P,Q,L.|@c {+{+P.!.;+@+P.)%S>: : : : : : : : : : : : : : : : : : : : : : : R,'%Z q=.+g+w@[@v@[@[@i&S,T,U,l+}@T=b*z#X z#{+t@S@g*P.9@L.)+{.O.O.!+g*g*k$g*P.=.!+L.9@9@}@!+L.P.S@O.P.O.O.2+",
"K.k$g*=@b*S@}@L.t@}@z#9@t@!+B+B+!+O.t@}@9@t@!+=.b+2+O.}@9@S@S@}@S@b+-.|@}@t@|@V,W,X,e,}@<@<@z#g+t@a+9+.+!+B+Y,: : : : : : : : : : : : : : : : : : : : : : : R,'%X *+#+g+w@`@v@8@[@Z,`, '_>[@L.}@b*|@X !+L.&>}@=@O.L.+%=...B+g*O.g*2+K.2+3+=.O.P.L.z#P.!+P.L.O.L.P.P.!+2+",
"*.*.k$O.b*t@L.P.m@L.P.P.L.P.,@B+!+O.L.S@O.g*g*4+e+*.K.O.b*!+T=}@S@a+|+L.t@t@|@.'W,+'-,F@8 c z#z#P.u$&+++Y$C+Y,: : : : : : : : : : : : : : : : : : : : : : : R,z#H+*+#+D$`@F@|@9@`@@'0,#'$'-$L.9@t@S@H+2+S@b*!+=@!+!+O.~.X B+2+g*g*2+,@B+!+|+D+O.O.O.O.O.!+L.m@L.O.2+!+2+",
"K.,@K.=@g*P.L.P.P.$$b*P.t@!+*.E+!+O.O.g*k$,@B+8$e+*.g*K.g*=@T=S@g*u$E+!+L.9@9@V,%'&'*'[@s@v@g+z#!+c+;+++)%C+Y,: : : : : : : : : : : : : : : : : : : : : : : ='L.d+m.++L.z#t@}@L.}@'>-';'i,[@F@{+:@L.d+k$O.!+2+!+!+O.*.G+ .*.B+g*g*2+B+2+P.-.*.B+2+k$*.*.O.m@P.P.!+K.S@!+",
"B+*.,@g*K.g*P.!+P.L.!+P.P.O.|+8 t@O.K.k$*.2+g*4+e+*.k$,@O.b*S@=@g*e+Y$m@L.9@9@'*7,>'*'[@W$c g+:@L...9+++)+)+Y,: : : : : : : : : : : : : : : : : : : : : : : ,'L.,+g.++P.z#}@S@=@}@''-')'!'x=:@`@9@z#:.O.O.b*2+L.O.g**.8$X k$g*2+2+K.B+!+D$H$B+O.O.g*R>i$2+!+O.P.O.O.!+!+",
"B+K.O.O.K.O.b*O.P.L.b*L.!+B+'%P.O.B+*.4+a+*.D+%.b+B+g**.2+!+b*=@!+~+E+P.L.L.9@'*7,~'{'-$b 8 z#|@L.~+6>@+!+.%Y,: : : : : : : : : : : : : : : : : : : : : : : ,'D$S m.++P.t@b*P.L.&>]'-')'^'x={+|@:@:@H+!+O.P.B+!+O.O.K.G+X f+B+..*.K.2+2+L.g+=.O.O.S@k$i$2+!+)+!+O.!+2+B+",
"Y$D+O.O.2+2+!+b*t@L.}@L.!+G+)+!+2+=.4+/'X$4+I+Y e+..~+e+J.!.b+e+=.!.*.P.}@L.:@'*('8,-,F@v@v@8 '%P.F+9*++0=Y$_': : : : : : : : : : : : : : : : : : : : : : : :'L.Y h.<'P.S@!+t@L.F@['}'|'i,+$|@g+v@:@'+2+X G+{.X ~+~+X b+P 1+8$X Y =.K.2+P.D$~+2+!+!+4+=.B+g*2+B+O.O.B+2+",
"B+B+O.O.B+B+O.S@!+!+L.S@,@b+B+O.B+4+<./.|+F+Y X }$/.*+N _.6+/'-+B+b+4+!+T=P.g+}+1'2'3'}@c v@|@z#L.!.9+++)+C+_': : : : : : : : : : : : : : : : : : : : : : : 4''%S l. +P.T=!+L.t@t@]'0,5'6']#|@9@z#|@'+B+5+Q 7'8'9'P U >+X N !.).X Y -.K.P.z#..*.O.O.*.B+O.O.k$B+O.2+=.2+",
"*.K.2+2+O.O.!+!+S@g*+%+%4+b+B+2+*.!.Y &.a+P '+b+X %+<.P 6>/'%+P l$c+4+P.S@!+}@d&0'a'b'}@c g+z#}@t@~+9+++B+E+_': : : : : : : : : : : : : : : : : : : : : : : =-P.,+h.c'L.t@t@|@|@9@q-0,d'6'`@z#L.L.z#'+-.N e'U Q=8'[&f'g':.'+N a+1+Y !.O.!+$$X *.O.O.O.2+!+O.f+2+B+B+2+K.",
"=.B+B+D+B+B+2+O.g*B+!+!+=.b+E+2+4+|+4+~+Y <.~+a+h'P R >+/'F=[&6+8$c+|+|@t@b*|@{#i'j'k'}@g+v@L.L.g*H%&+++)%F$_': : : : : : : : : : : : : : : : : : : : : : : l'E$Q q=.+P.L.|@g+g+:@m'n'o'p'v@}@S@P.z#V =.,+R q'/'6>r'R F=,+a+!.[&X !.K.*.O.$$X 4+2+O.g*O.!+!+B+O.2+!+!+B+",
"8$*.g*!+O.B+*.*.B+*.D+O.=.F+E$!+4+F+~+,+V s'-.!.H%1+l$F+a+~+~+e+H$&.O.g+}@|@v@[@t'u'v'L.|@g+P.L.O.c+9+l.)+&._': : : : : : : : : : : : : : : : : : : : : : : w'O.Y *+$+3+P.t@z#g+F@x''=y'z'W$z#S@z#|@:.D$~+:>b+G+Z=~+e+..e+%.A'X$N b+8$k$2+|@c+8$B+g*2+B+O.P.O.3++%P.!+2+",
"8$*.B'O.O.B+*.*.B+B+B+B+4+G+3#d@}+3#A#*.b+~+J.J.X '+'+J.9=d+,+5+X ..D$|@L.g+b L.C'D'E'L.z#L.!+P.O.c+-+&.'%!%_': : : : : : : : : : : : : : : : : : : : : : : w'D+*.N $+D+L.P.9@|@L.~$L=F'K=8 $$P.9@8 :>a+X 8+9=:.'+V '+:.H+'+X H+!.c#'*(%G'=&!.G+B+O.O.B+B+E$P.3+2+O.B+*.",
"G+H'B+*.*.2+2+2+2+O.B+*.8$X C+3+P.P.|@3*#@P$A#&%3#S#x=4#x=d#e&I'J's@'%z#P.v@O.K':*B,5-O.L.!+O.!+g*e+Z w@L.&._': : : : : : : : : : : : : : : : : : : : : : : L'B+z#&.*+g*P.}@:@}@g*2;M'N'O'&.z#9@g+|@}@P'Q'R'`@e&3#3*A#s*G%}+6&'*}+H D$P.9@|@'+G+B+B+,@k$f+)+3+)+B+O.)+*.",
"G+=.*.4+4+*.2+O.B+O.2+*.j$Z C+O.!+S@!+z#{+L.|@v@g+L.P.P.K.!+g*g*L.P.L.z#L.v@2+S'T'9=X O.L.O.g*g*2+c+S !+P.&._': : : : : : : : : : : : : : : : : : : : : : : U'!+E$~+m.O.!+b*|@|@g*V'W'X'Y'~+8 g+g+c S@L.L.}@9@}@!+9@v@|@z#!+!+!+t@P.O.O.!+L.,+8$k$*.=.=.*.)+O.B+*.2+Y$*.",
"G+*.=.4+8$*.2+B+*.B+k$k$i$X Y$'%P.!+!+P.z#O.z#v@9@z#L.L.O.!+O.O.z#g+!+P.L.z#*.2,Z'd+..O.P.O.g*2+2+c+Y g*!+).`': : : : : : : : : : : : : : : : : : : : : : :  )O.!+a+h.O.O.!+}@|@g*C-2,N 2,Z L.|@|@9@g+z#L.L.|@z#O.P.L.z#P.m@!+B+2+!+2+2+P.P.,+%.4+i$=.P>*.)+2+*.-.E+*.=.",
"-.4+*.4+4+4+B+*.B+2+*.=.8$X E+P.!+O.!+O.E$O.L.L.L.E$O.P.O.O.L.|@g+L.!+O.m@P.-..)+)'+..O.L.O.B+D+B+X Y 2+O.{.`': : : : : : : : : : : : : : : : : : : : : : : @)O.O.Z h.2+!+2+P.z#O.G+O>}$&+..E$z#L.|@c 8 9@|@c z#O.P.m@$$O.O.B+*.g*!+P.O.t@$$:.F+4+8$G+G+=.)+O.K.4+&.-.B'",
"8$8$*.4+8$4+*.*.*.*.B+i$8$ .)%P.+%2+2+O.B+2+E$#)P.!+E$E$m@P.|@v@z#P.P.O.O.O.-.&+#+X*/.D+O.O.B+B+B'X ,+*.O.@.`': : : : : : : : : : : : : : : : : : : : : : : $))%D+` h.2+O.B+)+z#O.%.8+}$;+a+9@9@z#$$z#P.b |@|@L.!+P.O.P.E$E$B+O.b*!+}@!+P.z#,+F+4+8$G+!.&.B+)+2+=.4+8$4+",
"G+8$i$ @8$8$=.=.4+P>=.i$j$X )%P.O.B+B+!+Y$B+O.P.z#P.E$O.O.P.|@9@L.P.m@O.2+)+&.*+Z'd+V E+O.K.*.B+B+X Q =.Y$Z %): : : : : : : : : : : : : : : : : : : : : : : $)O.D+Z @+*.B+B'2+O.2+%.&)N 6*..P.$$$$<@$$:@v@8 P.!+2+P.E$P.E$E$B+K.b*!+O.L.P.z#,+!.P>~.G+b+&.B+2+,@8$1+1+G+",
"F+9$~.G+8$ @=.-.P>8$8$=.G+X C+P.O.2+E$P.B+B+D+L.8 8 E$D+O.O.$$$$P.L.L.P.!+2+8$*+#+:.X =.2+*.4+=.f+X R =.Y$Z %): : : : : : : : : : : : : : : : : : : : : : : $)O.B+X #+*.2+B+K.*.4+b+8+}$6*X D+O.O.P.m@<@z#'%E$O.!+P.O.P.E$E$L.O.z#E$!+L.P.8 ,+!.8$8$F+b+&.|+-.|+&.%.1+!.",
"1+%.8$G+G+G+=.8$9$9$&.8$G+'+{%O.B+!+L.!+g*O.O.O.7 $$E$D+O.O.!+L.L.P.O.D+O.D+&.R 8+..X -.Y$*.-.*.-.'+N -.=.Z %): : : : : : : : : : : : : : : : : : : : : : : *)E+*.X l.|+B+=.m+4+4+a+N V <...B+B+O.O.m@P.8 z#L.O.O.P.O.O.O.O.m@E$$$P.P.P.P.b ,+b+8$G+G+F+8$=.8$&.G+%.G+%.",
"F+%.F+F+!.F+8$F+G+&.G+G+!.X 3+)+)+O.O.!+2+O.O.E$E$m@O.O.O.L.O.D+E$P.D+Y$2+D+&.8+X ~+Z -.H'=.4+=.G+'+Q &.-.Z %): : : : : : : : : : : : : : : : : : : : : : : =)-.-.X h.4+|+4+m+4+&.a+X !%:...B+=.*.B+2+!+P.E$z#-)D+O.2+D+B'K.D+O.m@O.D+O.2+L.....G+8$F+F+8$&.%.%.!.#.~+F+",
"e+e+b+b+a+a+!.!.!.F+F+!.X 3+O.O.B+O.2+O.Y$2+O.O.#)D+D+D+O.O.O.O.E$2+B+=.C+L@&.}$;)).X &.=. @I+=. @:.N !%-.Z %): : : : : : : : : : : : : : : : : : : : : : : >)-.-.X h.4+*.=.4+=.4+!.Z /+,+X$5%*.*.=.*.2+2+O.!+Y$B+Y$B+H'H'B'K.B+B+D+Y$O.*.B+!+5-~+!.b+e+#.!.!.a+e+c+c+X ",
"}$N }$}$Y ,+Y Y Y ,+:.,+-.|+-.-.&.=.-.-.&.-.=.=.=.=.-.-.-.-.=.=.=.=.-.&.!%F$Z 6+<.P 8$8$-.I+%.8$=.Y L &.-.V %): : : : : : : : : : : : : : : : : : : : : : : ,)!%-.:..+*.=.4+=.=.G+8$Y R 8+'+)%&.G+8$-.|+=.I+4+&.&.4+&.I+&.=.-.&.&.&.&.&.%.{.%.*.,+9=,+:-Y ,+,+}$}$}$N N ",
"8$l$!.a+c+b+H%!.!.!.j$&.X *+@+c' +')c'++++.+@+++++.+.+.+.+@+++#+q=9*6+>+6>=+6+'+c+-.G+!.#.~+a+_.).L M &.-.V %): : : : : : : : : : : : : : : : : : : : : : : ,)-.))V #+B+..X F+1+~+1+&.J.c+N >+*+*+=+9+m.h..+c'!)++++') +c'c'')!)c'++#+++++.+h.,+2;4+i$9$j$j$8$9$8$G+!.H%",
"~)~){)~)~)~){)]){)~){)^){)/)C./)X.()V._)Y._)~){)~){)~)Y.C.C.C.~)~){)~)~)_)~){)~)_)~)C.X.W.V.C.C.:)<)N G+%.S %): : : : : : : : : : : : : : : : : : : : : : : [)%.%.5+})|)/)C.X.1)X.C./)~)2)2)2){)~)~)_)C.X./)~)Y.Y.~)~)~)~)_)X.V.C./)C./)C._)~)2)3)4)2)~)~)C./)~)~)~)~)5)",
"n.n.0+0+h.h.&+&+6)0+0+0+n.0+*+h.n.#+$+h.h.h.m.&+0+h.n.#+n.n.n.7)7)h.h.h.h.0+0+h.h.*+-+2,8)0+0+W'9)0)a)H+Y 6>%): : : : : : : : : : : : : : : : : : : : : : : b)[&S :-c)d)e)2,*+8)g.7)0+8)*+&+7+&+*+n.7)0+h.h.0+7)0+6)&+&+*+0+h.n.n.h.n.g.h.n.n.8)&+f)g)n.h)n.n.n.q=0+0+h.",
"g+W$I I 5%W$,*<+J v@b b b 5%n  ;b b 5%f f F B ,*n F :+v@s@W$W$I I H <+F <+F <+p <+p <+<+G I 5%W$J w@:+G <+d*a=: : : : : : : : : : : : : : : : : : : : : : : i)m*G x@7$A+:+i+<+C F r*x@x@Z@x@j)C F I k)j s@W$[@W$x@F F n  ;G <+d*d*x@F 7$d*s@v@v@W$:+|*8 z#c 8 $$5%W$W$l)",
"m)n)n)m)o)o)p)n)q)r)s)t)u)v)w)x)n)y)D=n)x)z)w)A)B)C)z)n)D=D=D=n)D=n)C)D)E)D)F)F)F)p)x)x)n)D=o)G)D=D=D=m)E)H)/-: : : : : : : : : : : : : : : : : : : : : : : I)n)m)m)v)v)v)x)C)J)K)x)D)L)v)x)F)M)C)p)N)x)n)D=D=D=p)F)C)C)x)v)x)v)E)M)D)F)x)p)D=D=O)D=q)P)P)q)P)Q)R)t)t)t)"};
