/* XPM */
static char * so_door19_tex_xpm[] = {
"132 132 1443 2",
"  	c #2D3641",
". 	c #2D3741",
"+ 	c #2E3841",
"@ 	c #2D3842",
"# 	c #2E3944",
"$ 	c #2E3943",
"% 	c #2F3A45",
"& 	c #2E3842",
"* 	c #2F3B46",
"= 	c #2F3944",
"- 	c #2F3A46",
"; 	c #303C46",
"> 	c #303B46",
", 	c #303C47",
"' 	c #303A45",
") 	c #313D4A",
"! 	c #313E4A",
"~ 	c #323E4A",
"{ 	c #323F4A",
"] 	c #313D48",
"^ 	c #35393C",
"/ 	c #393939",
"( 	c #303B45",
"_ 	c #323F4B",
": 	c #313D49",
"< 	c #303C48",
"[ 	c #2E3843",
"} 	c #2E3A44",
"| 	c #2E3942",
"1 	c #253544",
"2 	c #253646",
"3 	c #253645",
"4 	c #243544",
"5 	c #253545",
"6 	c #263746",
"7 	c #273847",
"8 	c #263645",
"9 	c #273645",
"0 	c #283847",
"a 	c #283948",
"b 	c #293A49",
"c 	c #283949",
"d 	c #273848",
"e 	c #293B4A",
"f 	c #293949",
"g 	c #293B4B",
"h 	c #293A4A",
"i 	c #2A3B4B",
"j 	c #2A3B4A",
"k 	c #2B3D4C",
"l 	c #2C3F4F",
"m 	c #2D3F4F",
"n 	c #2C3F50",
"o 	c #2D4151",
"p 	c #2C3D4C",
"q 	c #33393E",
"r 	c #2B3C4B",
"s 	c #2A3C4B",
"t 	c #293C4B",
"u 	c #2D4050",
"v 	c #283848",
"w 	c #283A49",
"x 	c #273948",
"y 	c #273947",
"z 	c #263846",
"A 	c #253746",
"B 	c #18242D",
"C 	c #18242E",
"D 	c #17242D",
"E 	c #17222D",
"F 	c #17232D",
"G 	c #192530",
"H 	c #19242F",
"I 	c #1A2630",
"J 	c #1A2732",
"K 	c #1A2631",
"L 	c #1A2833",
"M 	c #18252F",
"N 	c #1B2833",
"O 	c #1B2834",
"P 	c #1A2733",
"Q 	c #1B2934",
"R 	c #1C2934",
"S 	c #1C2A35",
"T 	c #1C2A36",
"U 	c #1D2A36",
"V 	c #1D2B38",
"W 	c #1E2D39",
"X 	c #1F2F3C",
"Y 	c #1F2E3B",
"Z 	c #1F2E3A",
"` 	c #1F2C39",
" .	c #313437",
"..	c #303337",
"+.	c #1F2C38",
"@.	c #1E2C38",
"#.	c #1C2B37",
"$.	c #1D2D3A",
"%.	c #1D2B37",
"&.	c #1C2935",
"*.	c #1B2733",
"=.	c #1B2933",
"-.	c #1A2632",
";.	c #1A2731",
">.	c #192631",
",.	c #192630",
"'.	c #19252F",
").	c #070D11",
"!.	c #070D12",
"~.	c #070C11",
"{.	c #070B10",
"].	c #070C10",
"^.	c #080D12",
"/.	c #070D13",
"(.	c #080E12",
"_.	c #080E13",
":.	c #080F14",
"<.	c #080D13",
"[.	c #080E14",
"}.	c #090E14",
"|.	c #091015",
"1.	c #09131B",
"2.	c #091C2B",
"3.	c #0F1E29",
"4.	c #131F27",
"5.	c #131E27",
"6.	c #131C24",
"7.	c #2F3031",
"8.	c #2E2F31",
"9.	c #131E26",
"0.	c #141F28",
"a.	c #121E27",
"b.	c #091C29",
"c.	c #08151F",
"d.	c #081015",
"e.	c #090F14",
"f.	c #090F15",
"g.	c #0C141A",
"h.	c #0D151B",
"i.	c #0C141B",
"j.	c #0B131A",
"k.	c #0D151C",
"l.	c #0E171E",
"m.	c #0B1218",
"n.	c #0B1319",
"o.	c #0C151B",
"p.	c #0A1117",
"q.	c #0A1116",
"r.	c #0C1319",
"s.	c #0E1821",
"t.	c #0F1E2A",
"u.	c #192733",
"v.	c #20303E",
"w.	c #223341",
"x.	c #303336",
"y.	c #2F3236",
"z.	c #21313F",
"A.	c #223340",
"B.	c #101E28",
"C.	c #0E1A23",
"D.	c #0B151B",
"E.	c #0A1218",
"F.	c #0F161E",
"G.	c #0E161D",
"H.	c #0D161C",
"I.	c #0E171D",
"J.	c #0F181F",
"K.	c #131D26",
"L.	c #121D26",
"M.	c #131D27",
"N.	c #142028",
"O.	c #14202A",
"P.	c #142029",
"Q.	c #16212B",
"R.	c #15222C",
"S.	c #15212B",
"T.	c #16222B",
"U.	c #182530",
"V.	c #192732",
"W.	c #21313E",
"X.	c #21323F",
"Y.	c #1C2B36",
"Z.	c #233644",
"`.	c #1E303F",
" +	c #293C4C",
".+	c #233340",
"++	c #313438",
"@+	c #2F3337",
"#+	c #263947",
"$+	c #283B4A",
"%+	c #192834",
"&+	c #263B4B",
"*+	c #1F2F3B",
"=+	c #1D2C38",
"-+	c #20313E",
";+	c #22333F",
">+	c #1E2E3A",
",+	c #192731",
"'+	c #16222C",
")+	c #15212C",
"!+	c #16232D",
"~+	c #15202A",
"{+	c #131F28",
"]+	c #121D25",
"^+	c #182631",
"/+	c #1A2934",
"(+	c #1B2935",
"_+	c #1F303C",
":+	c #243644",
"<+	c #273949",
"[+	c #283B4B",
"}+	c #2A3E4E",
"|+	c #2C4253",
"1+	c #243847",
"2+	c #1E2E3B",
"3+	c #283C4C",
"4+	c #2A3F4F",
"5+	c #243442",
"6+	c #313538",
"7+	c #303438",
"8+	c #283A4B",
"9+	c #293D4D",
"0+	c #273B4C",
"a+	c #2D4253",
"b+	c #2B4050",
"c+	c #2B3F4F",
"d+	c #2B4051",
"e+	c #2A3E4D",
"f+	c #263948",
"g+	c #20303D",
"h+	c #202F3B",
"i+	c #21303E",
"j+	c #20303C",
"k+	c #1B2A36",
"l+	c #1C2B38",
"m+	c #1D2C39",
"n+	c #192632",
"o+	c #1B2A35",
"p+	c #263744",
"q+	c #2C4151",
"r+	c #2C4152",
"s+	c #2A3F4E",
"t+	c #2E4354",
"u+	c #2E4455",
"v+	c #2D4353",
"w+	c #2F4456",
"x+	c #2D4354",
"y+	c #2D4454",
"z+	c #32485A",
"A+	c #324A5C",
"B+	c #32495B",
"C+	c #32495C",
"D+	c #31485B",
"E+	c #31485A",
"F+	c #2C4354",
"G+	c #1E303E",
"H+	c #1E2D3A",
"I+	c #293E4E",
"J+	c #2A3E4F",
"K+	c #2E4557",
"L+	c #263C4C",
"M+	c #2A3F50",
"N+	c #323639",
"O+	c #303539",
"P+	c #2B4153",
"Q+	c #203240",
"R+	c #2D4355",
"S+	c #293D4E",
"T+	c #2B3F51",
"U+	c #1F2F3D",
"V+	c #293D4B",
"W+	c #344B5E",
"X+	c #314658",
"Y+	c #314859",
"Z+	c #2F4557",
"`+	c #304658",
" @	c #2D4252",
".@	c #2B4151",
"+@	c #2B3F50",
"@@	c #2C4051",
"#@	c #223442",
"$@	c #233342",
"%@	c #233543",
"&@	c #1E2C39",
"*@	c #2E4355",
"=@	c #2E4353",
"-@	c #2B4152",
";@	c #304759",
">@	c #344C5F",
",@	c #2D4457",
"'@	c #1E313F",
")@	c #243745",
"!@	c #233443",
"~@	c #2A3D4E",
"{@	c #2E4558",
"]@	c #2E4659",
"^@	c #294052",
"/@	c #293E4F",
"(@	c #2B4052",
"_@	c #273745",
":@	c #32363A",
"<@	c #30353A",
"[@	c #293D4C",
"}@	c #2C4355",
"|@	c #213443",
"1@	c #2F4558",
"2@	c #223240",
"3@	c #374F62",
"4@	c #2E4456",
"5@	c #2F4457",
"6@	c #2D4455",
"7@	c #2B3E4F",
"8@	c #253846",
"9@	c #223441",
"0@	c #273A49",
"a@	c #253847",
"b@	c #304558",
"c@	c #2E4457",
"d@	c #2D4152",
"e@	c #30485B",
"f@	c #31495D",
"g@	c #2D4659",
"h@	c #1F3342",
"i@	c #223543",
"j@	c #223542",
"k@	c #2D4557",
"l@	c #30475A",
"m@	c #2B4254",
"n@	c #243645",
"o@	c #2C4254",
"p@	c #273846",
"q@	c #33373B",
"r@	c #30363B",
"s@	c #213343",
"t@	c #2F4659",
"u@	c #2A4052",
"v@	c #2C4153",
"w@	c #213240",
"x@	c #223645",
"y@	c #31485C",
"z@	c #30485A",
"A@	c #31495C",
"B@	c #31475A",
"C@	c #2E4658",
"D@	c #273A4A",
"E@	c #243746",
"F@	c #334A5C",
"G@	c #304557",
"H@	c #2D4254",
"I@	c #304659",
"J@	c #32495D",
"K@	c #324A5E",
"L@	c #1B2F3D",
"M@	c #2A3F51",
"N@	c #293E50",
"O@	c #30373C",
"P@	c #203341",
"Q@	c #32495E",
"R@	c #1A2B38",
"S@	c #30495C",
"T@	c #324A5D",
"U@	c #334B5E",
"V@	c #2F4658",
"W@	c #374E62",
"X@	c #253848",
"Y@	c #344A5D",
"Z@	c #304657",
"`@	c #314759",
" #	c #334A5E",
".#	c #344C60",
"+#	c #324B5F",
"@#	c #334C61",
"##	c #2E485B",
"$#	c #1D3140",
"%#	c #263A49",
"&#	c #253949",
"*#	c #2D4356",
"=#	c #33373C",
"-#	c #30373D",
";#	c #1F303F",
">#	c #233645",
",#	c #1D2E3B",
"'#	c #334A5D",
")#	c #344D61",
"!#	c #375063",
"~#	c #273B4B",
"{#	c #273A4B",
"]#	c #263A4A",
"^#	c #293C4D",
"/#	c #314758",
"(#	c #334B5F",
"_#	c #334C60",
":#	c #344D62",
"<#	c #314A5F",
"[#	c #1F3241",
"}#	c #2D4357",
"|#	c #34383D",
"1#	c #31383F",
"2#	c #1F303E",
"3#	c #1E2F3D",
"4#	c #324A5F",
"5#	c #30475B",
"6#	c #344D60",
"7#	c #354E61",
"8#	c #354D61",
"9#	c #344E62",
"0#	c #354D62",
"a#	c #385164",
"b#	c #233442",
"c#	c #283D4C",
"d#	c #283B4C",
"e#	c #344C5E",
"f#	c #324C5F",
"g#	c #2F485C",
"h#	c #1F3140",
"i#	c #1A2834",
"j#	c #2E4458",
"k#	c #34393D",
"l#	c #31393F",
"m#	c #1E303D",
"n#	c #2D4558",
"o#	c #2C4052",
"p#	c #314A5E",
"q#	c #344C61",
"r#	c #354E62",
"s#	c #354E63",
"t#	c #385165",
"u#	c #233544",
"v#	c #253948",
"w#	c #293B4C",
"x#	c #334B5D",
"y#	c #334D61",
"z#	c #2F495D",
"A#	c #203140",
"B#	c #35393D",
"C#	c #313940",
"D#	c #2A4051",
"E#	c #233746",
"F#	c #3A5368",
"G#	c #2A3D4D",
"H#	c #233341",
"I#	c #2C4252",
"J#	c #334B60",
"K#	c #2F475B",
"L#	c #253947",
"M#	c #233545",
"N#	c #1C2B39",
"O#	c #2B4154",
"P#	c #2D4456",
"Q#	c #243846",
"R#	c #395367",
"S#	c #344B60",
"T#	c #1E3140",
"U#	c #253747",
"V#	c #283E4F",
"W#	c #35393E",
"X#	c #313A41",
"Y#	c #293D4F",
"Z#	c #1B2C39",
"`#	c #233646",
" $	c #30465A",
".$	c #375064",
"+$	c #273B4A",
"@$	c #33495B",
"#$	c #17242E",
"$$	c #203444",
"%$	c #2F475A",
"&$	c #353A3E",
"*$	c #313A42",
"=$	c #182734",
"-$	c #223544",
";$	c #18242F",
">$	c #283C4B",
",$	c #1D2D39",
"'$	c #1C2C39",
")$	c #314C60",
"!$	c #2B475C",
"~$	c #213D51",
"{$	c #243E50",
"]$	c #17242F",
"^$	c #1D2E3C",
"/$	c #253B4D",
"($	c #253E52",
"_$	c #2A465A",
":$	c #1E2F3B",
"<$	c #1D2E39",
"[$	c #1F303D",
"}$	c #1C2C38",
"|$	c #2E4352",
"1$	c #2B3E4E",
"2$	c #30485C",
"3$	c #37546B",
"4$	c #1F4965",
"5$	c #1A74A2",
"6$	c #2A495E",
"7$	c #2A4153",
"8$	c #1A2935",
"9$	c #323B43",
"0$	c #1A2A36",
"a$	c #1C2D3A",
"b$	c #2C4659",
"c$	c #2A5B7B",
"d$	c #265F82",
"e$	c #305069",
"f$	c #365064",
"g$	c #233542",
"h$	c #22323F",
"i$	c #1F2E39",
"j$	c #1E2D38",
"k$	c #20313D",
"l$	c #20303B",
"m$	c #1D2C37",
"n$	c #355065",
"o$	c #1D4864",
"p$	c #127BB7",
"q$	c #2A4A61",
"r$	c #2C4356",
"s$	c #283E4E",
"t$	c #1B2B38",
"u$	c #2E4A5E",
"v$	c #286388",
"w$	c #246287",
"x$	c #2F4E66",
"y$	c #202F3A",
"z$	c #253745",
"A$	c #1B2A34",
"B$	c #202F3C",
"C$	c #233440",
"D$	c #1D2C36",
"E$	c #21303B",
"F$	c #21313D",
"G$	c #21333F",
"H$	c #385268",
"I$	c #1E4864",
"J$	c #137BB9",
"K$	c #2B4B61",
"L$	c #273C4C",
"M$	c #303941",
"N$	c #2F4A5E",
"O$	c #296489",
"P$	c #236389",
"Q$	c #2F4F66",
"R$	c #30485D",
"S$	c #243543",
"T$	c #233441",
"U$	c #21303D",
"V$	c #1F2D39",
"W$	c #243542",
"X$	c #21303C",
"Y$	c #1E4966",
"Z$	c #0F7CC1",
"`$	c #2B4A61",
" %	c #283D4D",
".%	c #2B404F",
"+%	c #363A3D",
"@%	c #313B43",
"#%	c #28658A",
"$%	c #23668D",
"%%	c #2F5067",
"&%	c #2E475A",
"*%	c #334C5F",
"=%	c #233643",
"-%	c #223440",
";%	c #263745",
">%	c #2E4253",
",%	c #385368",
"'%	c #1F4966",
")%	c #0E7DC4",
"!%	c #2C4B62",
"~%	c #36393D",
"{%	c #313A43",
"]%	c #2A6488",
"^%	c #22668F",
"/%	c #2F5069",
"(%	c #2A3E50",
"_%	c #283A4A",
":%	c #263848",
"<%	c #243646",
"[%	c #365267",
"}%	c #1E4765",
"|%	c #1279C2",
"1%	c #2D4A61",
"2%	c #303A44",
"3%	c #2A668B",
"4%	c #216690",
"5%	c #2F526B",
"6%	c #2C4456",
"7%	c #32485B",
"8%	c #365167",
"9%	c #1277C2",
"0%	c #2F485D",
"a%	c #2B658A",
"b%	c #206692",
"c%	c #30526B",
"d%	c #31495E",
"e%	c #293F4F",
"f%	c #293F50",
"g%	c #233745",
"h%	c #354F65",
"i%	c #1E4967",
"j%	c #107AC4",
"k%	c #2E4C63",
"l%	c #363A3E",
"m%	c #313B45",
"n%	c #293E4D",
"o%	c #1B2B36",
"p%	c #2F495E",
"q%	c #2B658C",
"r%	c #1F6693",
"s%	c #30536D",
"t%	c #2C4457",
"u%	c #344F64",
"v%	c #0F7BC7",
"w%	c #2D4C63",
"x%	c #2F3A43",
"y%	c #2C658B",
"z%	c #1F6692",
"A%	c #30526C",
"B%	c #2D4458",
"C%	c #283C4D",
"D%	c #26394A",
"E%	c #1E4763",
"F%	c #0F7AC6",
"G%	c #2C4C63",
"H%	c #2F4A5F",
"I%	c #21668F",
"J%	c #2F5169",
"K%	c #2C4255",
"L%	c #2A4050",
"M%	c #283D4E",
"N%	c #204763",
"O%	c #0F7CC6",
"P%	c #303B44",
"Q%	c #216790",
"R%	c #2A4152",
"S%	c #1F4763",
"T%	c #0E7DC5",
"U%	c #2C4D64",
"V%	c #2F3B45",
"W%	c #2B4253",
"X%	c #304A5F",
"Y%	c #22658F",
"Z%	c #2F4759",
"`%	c #1F4864",
" &	c #0D7EC7",
".&	c #2D4E65",
"+&	c #2B6386",
"@&	c #23648C",
"#&	c #1D445F",
"$&	c #127CBC",
"%&	c #2B4B62",
"&&	c #18252E",
"*&	c #36393C",
"=&	c #2F3A44",
"-&	c #2E4559",
";&	c #2D475B",
">&	c #2B6081",
",&	c #266083",
"'&	c #2B4A60",
")&	c #2A3F52",
"!&	c #1F3A4E",
"~&	c #2A5875",
"{&	c #253F53",
"]&	c #254A62",
"^&	c #224862",
"/&	c #1C3040",
"(&	c #253A49",
"_&	c #2C4759",
":&	c #244055",
"<&	c #254F69",
"[&	c #243C4E",
"}&	c #2E3A43",
"|&	c #273E50",
"1&	c #25485E",
"2&	c #254962",
"3&	c #294458",
"4&	c #304758",
"5&	c #1D4561",
"6&	c #1B73A7",
"7&	c #28485F",
"8&	c #37393C",
"9&	c #293F51",
"0&	c #294356",
"a&	c #2A5F80",
"b&	c #255F83",
"c&	c #2C4960",
"d&	c #1D4764",
"e&	c #127BBD",
"f&	c #2A4B62",
"g&	c #2E3A45",
"h&	c #2C475B",
"i&	c #236289",
"j&	c #2E4D65",
"k&	c #1E4A67",
"l&	c #107CC4",
"m&	c #2A4A62",
"n&	c #293E4C",
"o&	c #2E3A46",
"p&	c #2C485D",
"q&	c #29668C",
"r&	c #216590",
"s&	c #1E4866",
"t&	c #107BC4",
"u&	c #2D3A44",
"v&	c #29668A",
"w&	c #206792",
"x&	c #2D4F68",
"y&	c #304859",
"z&	c #1E4A68",
"A&	c #107BC3",
"B&	c #2A4961",
"C&	c #37393B",
"D&	c #2D3943",
"E&	c #2B475B",
"F&	c #263949",
"G&	c #1D4966",
"H&	c #1279BD",
"I&	c #2A485F",
"J&	c #2D3A45",
"K&	c #2B4559",
"L&	c #296386",
"M&	c #236489",
"N&	c #2D4F67",
"O&	c #2B4252",
"P&	c #1579B5",
"Q&	c #29485E",
"R&	c #2B4558",
"S&	c #296082",
"T&	c #256083",
"U&	c #2A3D4C",
"V&	c #263B4C",
"W&	c #1D2F3B",
"X&	c #1A384C",
"Y&	c #21526E",
"Z&	c #253E51",
"`&	c #2C3842",
" *	c #214962",
".*	c #204962",
"+*	c #2B4457",
"@*	c #1A2A37",
"#*	c #1A3040",
"$*	c #2C3742",
"%*	c #1D303F",
"&*	c #1C2E3D",
"**	c #263845",
"=*	c #17232E",
"-*	c #2C3944",
";*	c #253A48",
">*	c #38393B",
",*	c #2D3B45",
"'*	c #15212A",
")*	c #37393A",
"!*	c #2B3944",
"~*	c #152029",
"{*	c #1F303B",
"]*	c #213442",
"^*	c #213340",
"/*	c #273C4A",
"(*	c #273A48",
"_*	c #38393A",
":*	c #2C3945",
"<*	c #20313F",
"[*	c #172B39",
"}*	c #182833",
"|*	c #2B3844",
"1*	c #172936",
"2*	c #213647",
"3*	c #253845",
"4*	c #284155",
"5*	c #1B3F56",
"6*	c #255A77",
"7*	c #1F394B",
"8*	c #273B49",
"9*	c #293F4E",
"0*	c #2A3843",
"a*	c #223746",
"b*	c #285773",
"c*	c #1B445D",
"d*	c #223E53",
"e*	c #294357",
"f*	c #1D4159",
"g*	c #1973A8",
"h*	c #24648A",
"i*	c #2B495F",
"j*	c #293642",
"k*	c #275471",
"l*	c #0F7DC0",
"m*	c #1E4964",
"n*	c #264257",
"o*	c #294153",
"p*	c #1D3F56",
"q*	c #1C6F9F",
"r*	c #1E6D9C",
"s*	c #2D536D",
"t*	c #293743",
"u*	c #304D64",
"v*	c #285E81",
"w*	c #0980C9",
"x*	c #1E4863",
"y*	c #264055",
"z*	c #273C4D",
"A*	c #1B3648",
"B*	c #1A72A5",
"C*	c #2D5570",
"D*	c #192833",
"E*	c #2A3844",
"F*	c #24638A",
"G*	c #147AB2",
"H*	c #1C3E54",
"I*	c #273C4B",
"J*	c #1A3141",
"K*	c #1D3B4F",
"L*	c #285D7C",
"M*	c #2B536D",
"N*	c #293844",
"O*	c #2F4D65",
"P*	c #285A78",
"Q*	c #1F425A",
"R*	c #1A3346",
"S*	c #253C4E",
"T*	c #1B394F",
"U*	c #275876",
"V*	c #285A77",
"W*	c #2A4C62",
"X*	c #293845",
"Y*	c #2D4A60",
"Z*	c #224D68",
"`*	c #206A96",
" =	c #1C4057",
".=	c #253F52",
"+=	c #253946",
"@=	c #263B4A",
"#=	c #1D3C53",
"$=	c #275777",
"%=	c #127DBD",
"&=	c #2C4E65",
"*=	c #1971A8",
"==	c #216692",
"-=	c #1B3E56",
";=	c #263E51",
">=	c #283E51",
",=	c #1E3D54",
"'=	c #265474",
")=	c #2D5774",
"!=	c #2B465B",
"~=	c #182630",
"{=	c #21323E",
"]=	c #383939",
"^=	c #263641",
"/=	c #2C4559",
"(=	c #2E526D",
"_=	c #1474B3",
":=	c #236189",
"<=	c #1B3D56",
"[=	c #263C4F",
"}=	c #253A4A",
"|=	c #283F50",
"1=	c #1D3C54",
"2=	c #234E6C",
"3=	c #0782D3",
"4=	c #2B5B7B",
"5=	c #2C485E",
"6=	c #15222A",
"7=	c #263440",
"8=	c #141F27",
"9=	c #2C4458",
"0=	c #2D5470",
"a=	c #0E7ABF",
"b=	c #265B7D",
"c=	c #1A3A4F",
"d=	c #243A4B",
"e=	c #1E3B50",
"f=	c #1F4C6A",
"g=	c #0382DA",
"h=	c #2A5C7E",
"i=	c #2C4A60",
"j=	c #24323F",
"k=	c #233642",
"l=	c #141E26",
"m=	c #0E7CC3",
"n=	c #275676",
"o=	c #193549",
"p=	c #25394B",
"q=	c #243948",
"r=	c #1E3241",
"s=	c #193950",
"t=	c #295F82",
"u=	c #2C4A62",
"v=	c #1E2E39",
"w=	c #1C2933",
"x=	c #151F27",
"y=	c #2B5471",
"z=	c #1A2C3A",
"A=	c #213341",
"B=	c #253A4B",
"C=	c #162936",
"D=	c #1A3447",
"E=	c #2B516C",
"F=	c #2D4B61",
"G=	c #1C2C37",
"H=	c #333537",
"I=	c #282D32",
"J=	c #284F69",
"K=	c #1E4256",
"L=	c #162733",
"M=	c #162835",
"N=	c #283C4A",
"O=	c #101C25",
"P=	c #141D26",
"Q=	c #353738",
"R=	c #252E35",
"S=	c #24394A",
"T=	c #1A2D3A",
"U=	c #172430",
"V=	c #203340",
"W=	c #16242E",
"X=	c #182732",
"Y=	c #152531",
"Z=	c #122C3E",
"`=	c #103C55",
" -	c #383839",
".-	c #212F3A",
"+-	c #213342",
"@-	c #2B4354",
"#-	c #17252F",
"$-	c #273D4C",
"%-	c #1C303D",
"&-	c #162C3B",
"*-	c #124361",
"=-	c #11688D",
"--	c #103447",
";-	c #35383A",
">-	c #29343E",
",-	c #1A2933",
"'-	c #1B3140",
")-	c #153143",
"!-	c #134B6C",
"~-	c #0B729B",
"{-	c #10394F",
"]-	c #35383B",
"^-	c #293640",
"/-	c #2C4558",
"(-	c #273D4E",
"_-	c #213645",
":-	c #245570",
"<-	c #27455C",
"[-	c #263C4D",
"}-	c #163449",
"|-	c #144D6E",
"1-	c #0A749E",
"2-	c #103B52",
"3-	c #283641",
"4-	c #284255",
"5-	c #263F52",
"6-	c #205371",
"7-	c #233B4D",
"8-	c #233B4C",
"9-	c #127CA8",
"0-	c #274F6C",
"a-	c #263D4F",
"b-	c #153449",
"c-	c #154D6F",
"d-	c #0774A3",
"e-	c #103B53",
"f-	c #29495F",
"g-	c #0E7BAD",
"h-	c #234358",
"i-	c #1B2B37",
"j-	c #243E4F",
"k-	c #0A84B7",
"l-	c #28516F",
"m-	c #273E51",
"n-	c #294051",
"o-	c #1B303F",
"p-	c #153247",
"q-	c #144C6E",
"r-	c #0675A5",
"s-	c #0F3A52",
"t-	c #284256",
"u-	c #283E4D",
"v-	c #2A4B61",
"w-	c #0783B8",
"x-	c #24455B",
"y-	c #0E81B0",
"z-	c #28506C",
"A-	c #153347",
"B-	c #144C6D",
"C-	c #0973A0",
"D-	c #28343F",
"E-	c #274053",
"F-	c #2A495F",
"G-	c #0C7EAC",
"H-	c #233848",
"I-	c #275E7C",
"J-	c #29475D",
"K-	c #1C3141",
"L-	c #153043",
"M-	c #144A6B",
"N-	c #0975A1",
"O-	c #103B51",
"P-	c #284154",
"Q-	c #275B77",
"R-	c #243C4F",
"S-	c #263F51",
"T-	c #1D3241",
"U-	c #152D3D",
"V-	c #144764",
"W-	c #0D7299",
"X-	c #11384D",
"Y-	c #35373A",
"Z-	c #28323C",
"`-	c #283F51",
" ;	c #273F51",
".;	c #16222D",
"+;	c #15364A",
"@;	c #124D69",
"#;	c #212F3B",
"$;	c #1B2D3A",
"%;	c #172A3A",
"&;	c #2D373F",
"*;	c #1E2C37",
"=;	c #1C2D39",
"-;	c #2F3439",
";;	c #333639",
">;	c #1E3749",
",;	c #27526E",
"';	c #27455B",
");	c #2F363C",
"!;	c #204A63",
"~;	c #214A60",
"{;	c #1B2E3C",
"];	c #263847",
"^;	c #2E4759",
"/;	c #224259",
"(;	c #0880D0",
"_;	c #285C7E",
":;	c #254259",
"<;	c #33363A",
"[;	c #2E343A",
"};	c #24526F",
"|;	c #088ACD",
"1;	c #254E68",
"2;	c #2A4254",
"3;	c #2F4C62",
"4;	c #285372",
"5;	c #008AE3",
"6;	c #275675",
"7;	c #254156",
"8;	c #2E3439",
"9;	c #283F53",
"0;	c #244E69",
"a;	c #0683D2",
"b;	c #276083",
"c;	c #2F5168",
"d;	c #295979",
"e;	c #0087E2",
"f;	c #265270",
"g;	c #253F54",
"h;	c #17252E",
"i;	c #33373A",
"j;	c #2E353B",
"k;	c #273D4F",
"l;	c #254A63",
"m;	c #0A7ECC",
"n;	c #216997",
"o;	c #294E68",
"p;	c #2B4356",
"q;	c #2B4E66",
"r;	c #266088",
"s;	c #0188DB",
"t;	c #25516E",
"u;	c #263F53",
"v;	c #34373B",
"w;	c #2F353C",
"x;	c #1479B7",
"y;	c #1B71A7",
"z;	c #284E68",
"A;	c #2D475C",
"B;	c #223443",
"C;	c #2B4F67",
"D;	c #236692",
"E;	c #117EBB",
"F;	c #234C66",
"G;	c #274052",
"H;	c #34373A",
"I;	c #2E353C",
"J;	c #26475D",
"K;	c #1D6F9E",
"L;	c #1577B4",
"M;	c #28506B",
"N;	c #2D485D",
"O;	c #213441",
"P;	c #2D485B",
"Q;	c #2B4F68",
"R;	c #226994",
"S;	c #256487",
"T;	c #213E51",
"U;	c #2B3F4E",
"V;	c #213A4C",
"W;	c #205571",
"X;	c #137AB1",
"Y;	c #274F69",
"Z;	c #304D63",
"`;	c #2E495D",
" >	c #27465C",
".>	c #224358",
"+>	c #224A66",
"@>	c #234258",
"#>	c #1B2B35",
"$>	c #264256",
"%>	c #1E4B64",
"&>	c #204157",
"*>	c #24465C",
"=>	c #2E4C61",
"->	c #244155",
";>	c #0C7EC5",
">>	c #23648E",
",>	c #24435A",
"'>	c #16212A",
")>	c #34383B",
"!>	c #2E363C",
"~>	c #274357",
"{>	c #235572",
"]>	c #0886C7",
"^>	c #23475E",
"/>	c #2F4B60",
"(>	c #26516F",
"_>	c #0083DD",
":>	c #265C82",
"<>	c #234157",
"[>	c #152129",
"}>	c #2D353C",
"|>	c #264054",
"1>	c #224F6C",
"2>	c #0588D4",
"3>	c #265471",
"4>	c #2F4D63",
"5>	c #0181DA",
"6>	c #255372",
"7>	c #0882CF",
"8>	c #27597A",
"9>	c #2C4C64",
"0>	c #2E516A",
"a>	c #245170",
"b>	c #1774AD",
"c>	c #1E3C51",
"d>	c #2D343B",
"e>	c #1E3546",
"f>	c #206A99",
"g>	c #294D66",
"h>	c #1D2D38",
"i>	c #2A485C",
"j>	c #203E52",
"k>	c #192A38",
"l>	c #172733",
"m>	c #1F3C4F",
"n>	c #28455A",
"o>	c #1F313E",
"p>	c #2C353B",
"q>	c #2C333B",
"r>	c #343739",
"s>	c #2C333A",
"t>	c #15222D",
"u>	c #1D2E3A",
"v>	c #182834",
"w>	c #1E2F3C",
"x>	c #353739",
"y>	c #182632",
"z>	c #162D3D",
"A>	c #17455B",
"B>	c #1D3342",
"C>	c #18384B",
"D>	c #16394E",
"E>	c #23394A",
"F>	c #163E57",
"G>	c #1A7198",
"H>	c #204054",
"I>	c #2B3239",
"J>	c #253D4F",
"K>	c #255673",
"L>	c #1F5978",
"M>	c #244257",
"N>	c #223342",
"O>	c #17425D",
"P>	c #147AAD",
"Q>	c #204359",
"R>	c #295D7D",
"S>	c #235E7F",
"T>	c #25455B",
"U>	c #184461",
"V>	c #107CB7",
"W>	c #22445B",
"X>	c #2A3239",
"Y>	c #2A5E7F",
"Z>	c #225F82",
"`>	c #18435F",
" ,	c #107CB8",
".,	c #21445B",
"+,	c #2A323A",
"@,	c #2A5F7F",
"#,	c #235F83",
"$,	c #24445B",
"%,	c #18425E",
"&,	c #0F7DBB",
"*,	c #21445C",
"=,	c #14212B",
"-,	c #243F53",
";,	c #295F7F",
">,	c #236084",
",,	c #20323F",
"',	c #17415D",
"),	c #117CB9",
"!,	c #243E52",
"~,	c #2A5F7E",
"{,	c #226084",
"],	c #25394A",
"^,	c #17405B",
"/,	c #147AB1",
"(,	c #204257",
"_,	c #293138",
":,	c #223C4E",
"<,	c #2A5E7C",
"[,	c #234359",
"},	c #173D57",
"|,	c #1677AA",
"1,	c #204155",
"2,	c #2A3139",
"3,	c #121C25",
"4,	c #2A5C79",
"5,	c #255D7D",
"6,	c #214055",
"7,	c #1D2F3D",
"8,	c #17354A",
"9,	c #21607E",
"0,	c #1D394C",
"a,	c #293139",
"b,	c #203646",
"c,	c #204F6A",
"d,	c #1E506B",
"e,	c #1A3345",
"f,	c #182D3B",
"g,	c #1F3E52",
"h,	c #1C2F3D",
"i,	c #1F3340",
"j,	c #1E384B",
"k,	c #1F394D",
"l,	c #1A2B39",
"m,	c #213241",
"n,	c #1A3F57",
"o,	c #1C6A8D",
"p,	c #1D3C4F",
"q,	c #293038",
"r,	c #21394A",
"s,	c #23536F",
"t,	c #1F5471",
"u,	c #27455A",
"v,	c #153F59",
"w,	c #1578A7",
"x,	c #1F4055",
"y,	c #283038",
"z,	c #2A5C7A",
"A,	c #225978",
"B,	c #224258",
"C,	c #263A4B",
"D,	c #16415C",
"E,	c #137AB0",
"F,	c #363739",
"G,	c #233C4E",
"H,	c #2A5E7E",
"I,	c #235A7A",
"J,	c #253849",
"K,	c #127BB1",
"L,	c #223B4D",
"M,	c #225B7C",
"N,	c #234257",
"O,	c #17425E",
"P,	c #117CB4",
"Q,	c #20445A",
"R,	c #273037",
"S,	c #2B5F7F",
"T,	c #235D7E",
"U,	c #107DB7",
"V,	c #272F37",
"W,	c #223A4C",
"X,	c #245C7E",
"Y,	c #244359",
"Z,	c #107DB9",
"`,	c #20435A",
" '	c #223C4D",
".'	c #24445A",
"+'	c #192730",
"@'	c #17405C",
"#'	c #363738",
"$'	c #272F36",
"%'	c #111C23",
"&'	c #233C4D",
"*'	c #2B607F",
"='	c #235C7F",
"-'	c #163F5B",
";'	c #127AB7",
">'	c #204258",
",'	c #262E35",
"''	c #111B23",
")'	c #235B7E",
"!'	c #224157",
"~'	c #152028",
"{'	c #1B2832",
"]'	c #18232C",
"^'	c #153E59",
"/'	c #1379AF",
"('	c #1E4156",
"_'	c #121C24",
":'	c #225C7E",
"<'	c #17222B",
"['	c #17232C",
"}'	c #19252E",
"|'	c #142129",
"1'	c #143D57",
"2'	c #1279A9",
"3'	c #1D4056",
"4'	c #242C33",
"5'	c #223A4B",
"6'	c #2B5E7B",
"7'	c #225B7D",
"8'	c #223F54",
"9'	c #162129",
"0'	c #19262F",
"a'	c #273946",
"b'	c #133A51",
"c'	c #167198",
"d'	c #1C3D51",
"e'	c #232B32",
"f'	c #21384A",
"g'	c #205978",
"h'	c #213C4F",
"i'	c #293B49",
"j'	c #142B3C",
"k'	c #184057",
"l'	c #1B2E3D",
"m'	c #17384E",
"n'	c #294050",
"o'	c #243848",
"p'	c #253C4C",
"q'	c #142430",
"r'	c #232C33",
"s'	c #172835",
"t'	c #1F3749",
"u'	c #182F3E",
"v'	c #263D4E",
"w'	c #263D4D",
"x'	c #233846",
"y'	c #111F2A",
"z'	c #0F1A23",
"A'	c #242C34",
"B'	c #1B2A37",
"C'	c #131F29",
"D'	c #15232D",
"E'	c #12202A",
"F'	c #111C25",
"G'	c #373738",
"H'	c #232B34",
"I'	c #14212A",
"J'	c #111D25",
"K'	c #232B33",
"L'	c #22313F",
"M'	c #202F3D",
"N'	c #222B33",
"O'	c #373838",
"P'	c #16232E",
"Q'	c #233240",
"R'	c #222A32",
"S'	c #1F2E3C",
"T'	c #202A32",
"U'	c #21303F",
"V'	c #23333F",
"W'	c #202931",
"X'	c #1F272E",
"Y'	c #111B24",
"Z'	c #17222C",
"`'	c #202E3B",
" )	c #111C24",
".)	c #101920",
"+)	c #0F1920",
"@)	c #0F1820",
"#)	c #101A20",
"$)	c #0E181F",
"%)	c #0E161C",
"&)	c #0F171F",
"*)	c #0F1921",
"=)	c #111E28",
"-)	c #1E262D",
";)	c #121F28",
">)	c #111C26",
",)	c #0D161E",
"')	c #101A21",
"))	c #101B23",
"!)	c #101B22",
"~)	c #141F29",
"{)	c #131E28",
"])	c #132029",
"^)	c #13222D",
"/)	c #132939",
"()	c #162530",
"_)	c #1B2229",
":)	c #142938",
"<)	c #132431",
"[)	c #14222C",
"})	c #13212A",
"|)	c #132028",
"1)	c #121D27",
"2)	c #283A48",
"3)	c #25323D",
"4)	c #2B3E4D",
"5)	c #273746",
"6)	c #24333F",
"7)	c #23313D",
"8)	c #23313C",
"9)	c #22303C",
"0)	c #23303C",
"a)	c #23313E",
"b)	c #243440",
"c)	c #283845",
"d)	c #253441",
"e)	c #24313F",
"f)	c #263442",
"g)	c #283744",
"h)	c #273643",
"i)	c #263542",
"j)	c #253542",
"k)	c #263643",
"l)	c #263543",
"m)	c #253440",
"n)	c #24313E",
"o)	c #23323E",
"p)	c #24343F",
"q)	c #25343F",
"r)	c #242F38",
"s)	c #273543",
"t)	c #253541",
"u)	c #243441",
"v)	c #253442",
"w)	c #25333F",
"x)	c #222F3B",
"  . + . @ # $ # % & + $ % % % * % = = = - - ; % > , ; * * % % - * % * > , ' , , , ) ! ~ ~ { ] ^ / / / / / / / / / / / / / / / / / / / / / / / / / / / / / / / / / / / / / ^ ( , , ~ ~ ~ _ ~ ! : > , , < , > % % [ % , % % % % - % % % % * % % % % % } $ $ @ | $ } & & $ ",
"1 2 3 1 4 5 3 6 7 6 8 9 0 a a b c a 0 0 c c c 6 d e e c c a c f g h b h i j i j k l m l n o p q / / / / / / / / / / / / / / / / / / / / / / / / / / / / / / / / / / / / / q r s t n o u m k k e b j s j c a a d 7 c s h f c a b v v c f e c v w w x y z A 3 3 3 A 8 6 6 ",
"B C C D E E F G G H H H G G I J J K K K J L J M G N O J J P L N O N Q R S T U T V W X Y Z Z `  ./ / / / / / / / / / / / / / / / / / / / / / / / / / / / / / / / / / / / / ..+.@.#.$.W @.@.%.T &.N S U S *.*.N N N =.Q N J J K -.K *.J N N *.;.L L >.,.G G H M C M '.G '.",
").!.).~.{.].~.^.^.!.^.^.^./.(._._.^._._._._.:./.<.[.:.[.[.[.:.:.[._._._.[.[.}.:.|.1.2.3.4.5.6.7./ / / / / / / / / / / / / / / / / / / / / / / / / / / / / / / / / / / / / 8.9.0.a.b.c.d.e.e.e.}.[.}.e.e.[.:.:.:.:.e.f.[._.[.^.<._.[.[.}.}.[._.[.[._._._._._.<.!.!._._.<.",
"g.g.g.g.g.h.i.j.g.i.g.g.k.l.i.m.m.n.j.g.n.g.h.g.n.g.k.h.o.g.i.g.n.p.q.e.f.q.r.g.g.s.t.u.v.w.` x./ / / / / / / / / / / / / / / / / / / / / / / / / / / / / / / / / / / / / y.z.A.W B.C.D.E.n.n.m.q.q.E.g.k.l.F.G.o.k.G.l.i.g.i.g.i.H.G.k.i.i.i.h.I.J.J.l.G.h.o.g.i.i.g.j.",
"K.L.K.9.9.9.5.M.M.M.0.0.N.O.P.P.P.Q.R.R.R.S.S.P.P.T.F F C U.>.V.U.G S %.Z W.X.Z Y.Z.`.#.x  +.+++/ / / / / / / / / / / / / / / / / / / / / / / / / / / / / / / / / / / / / @+#+$+Z.%+&+*+=+-+;+>+W Z V.L Q Q N O L ,+L E Q.'+Q.S.)+R.F !+T.~+P.N.P.P.P.4.{+0.{+0.N.M.L.]+",
"Q L P N Q N >.M M M ^+>.L /+(+T T #.T Y.T (+(+L L T W W W Z _+*+>+Z :+x <+[+ +}+ +|+1+2+3+4+5+6+/ / / / / / / / / / / / / / / / / / / / / / / / / / / / / / / / / / / / / 7+8+9+0+$.a+b+c+d+e+[+f+$+g+h+g+X.i+j+Z W Z Y.k+#.#.l+=+=+m+l+Y.(+O L u.n+u.^+>.n+#.l+#./+L /+",
"T O L O o+p+[+e+q+e+r+s+}+b+t+u+v+w+x+y+x+r+v+r+v+z+A+B+C+D+E+F+G+H+S <+I+J+9+r+u+K+L+A.I+M+p+N+/ / / / / / / / / / / / / / / / / / / / / / / / / / / / / / / / / / / / / O+[+J+P+Q+x+v+t+R+S+T+9+Z Y U+V+E+W+B+X+Y+Z+u+v+w+`+w+Z+t+u+ @.@b+d+r++@c+ @ @@@}+e+*+T #.(+(+",
":+#@$@%@#@&@b e+e+[+}+9+4+r+x+x+r+*@x+=@|+r+-@r+r+R+;@;@;@D+>@,@'@)@!@ +4+~@ +4+{@]@^@:+/@(@_@:@/ / / / / / / / / / / / / / / / / / / / / / / / / / / / / / / / / / / / / <@[@(@}@|@]@K+1@|+}+|+r+2@#+Q+ +3@D+`+1@4@5@u+6@Z+;@`+K+4@x+r+b++@+@T+4+7@r+ @d+t j+%@8@)@9@v.",
"0@a@f+x a@v.S @@+@4+d+d+d+r+b@1@w+Z+;@Z+1@c@R+x+d@Z+E+C+e@e@f@g@h@i@j@3+J+J+I+/@k@l@m@n@M+o@p@q@/ / / / / / / / / / / / / / / / / / / / / / / / / / / / / / / / / / / / / r@~@|+o@s@t@l@]@u@ +v@(@w@a@x@3+y@t@z@A@`+`+Z+4@;@B@;@D+;@C@4@|+o@|+r+-@(@x+x+`+j+-+<+ +D@E@w.",
"[+D@<+[+D@:+X F@G@4+r+r+d+H@`+B@D+I@J@l@D+l@C@C@1@l@C+K@f@y@K@g@L@P.j@0+-@(@M@N@R+y@}@n@(@4@y q@/ / / / / / / / / / / / / / / / / / / / / / / / / / / / / / / / / / / / / O@T+H@(@P@l@Q@I@M@I+K+T+z.m+R@0+S@{@D+K@D+T@D+`+C+D+B@U@K@f@D+`+V@Z+5@|+(@R+w+W@g+n@3+4+ +X@E@",
"3+ +3+3+D@A z.Y@Z@r+u+H@r+6@Z+`@ #.# #J@K@f@D+D+D+D+T@ # #+#@###$#^+%#&#(@o@(@(@*#l@m@8@|+R+y =#/ / / / / / / / / / / / / / / / / / / / / / / / / / / / / / / / / / / / / -#(@R+(@;#l@y@Z+|+|+I@M+>#Q+,#/@K@;@f@Q@K@U@U@'# #D+D+)#)#.# #K@T@D+B@Z+|+u+Z+!#X.E@ +}+~#{#]#",
"[+3+ +^#[+a@2@W+/#x+R+Z+Z+`+D+D+U@)# #J@K@(#K@K@J@f@Q@ #(#_#:#<#[#%+D@<+(@{@1@o@R+e@}@f+}#R+w |#/ / / / / / / / / / / / / / / / / / / / / / / / / / / / / / / / / / / / / 1#(@c@|+2#]@{@K+o@R+B@r+E@w@3#4+(#4#5#f@(#6#)#7#8#f@D+ #9#0#8#.#.#U@C+1@H@R+`+a#b#A c#c#D@[+D@",
"D@D@3+}+J+d#$@e#E+x+Z+B@D+ #>@U@U@ #K@1@D+K@)#+#J@K@+#(#_#(#f#g#h#i#0@A T+{@t@{@C@l@P+A j#c@t k#/ / / / / / / / / / / / / / / / / / / / / / / / / / / / / / / / / / / / / l#|+c@(@m#n#,@}@,@t@l@o#1+#@G+I++# #e@p#9#q#.#r#s#_#f@+#(#9#0#0#)#)# #Z+H@u+`+t#u#x  +3+3+v#a@",
"w#<+8++@d+9+%@x#Y+H@x+V@;@T@ #W+ # #z@c@,@t@ #K@y@ #(#J@4#_#y#z#A#i#v#E@S+*#I@c@{@{@u@n@,@{@t B#/ / / / / / / / / / / / / / / / / / / / / / / / / / / / / / / / / / / / / C#x+C@D#$.}@}@P+{@y@;@d+E##@G+4+)#q#f@f@_#.#r#.#0#>@y@y@D+U@(#(#_#9#U@{@o@H@;@F#3 [+}+4+}+9+D@",
"G# + +4+4+3+H#B+`@I#(@|+o@{@C+T@T@U@;@4@{@l@K@C+J@+#(#K@+#J#:#K#h#o+L#M#S+v@1@e@{@,@/@n@K+*#g k#/ / / / / / / / / / / / / / / / / / / / / / / / / / / / / / / / / / / / / 1#4@Z+M+N#O#}@P#l@l@c@M+Q#i@Q+J+9#9#@#_#(#_#.#D+U@ #l@C+l@D+T@K@J@f@J@t@H@o@;@R#E@ +r+a++@4+}+",
"4+4+9+~#[+<+$@Y+1@r+M+-@-@M+P#D+B+C+D+1@{@;@C+;@y@J@K@S#q#@#_#5#T#k+U#A u@v@l@f@D+C@V#%@o@R+s W#/ / / / / / / / / / / / / / / / / / / / / / / / / / / / / / / / / / / / / X#R+P#Y#Z#n#,@{@l@C@V@(@`#!@2#S+(#0#)#.#+#+#K@D+.#>@B@l@z@t@A@D+l@ $D+y@*#H@{@.$n@ +d+o#r+M++@",
"4++@9+~#+$#+b#@$Y+M+S+9+m+'+#$>.>.G M F F C M M >.Q 8@y@_#K@(#z#$$u#3+a@(@,@%$z@K@e@D##$A -@s &$/ / / / / / / / / / / / / / / / / / / / / / / / / / / / / / / / / / / / / *$v@M+L =$l@t@t@c@R+K+(@v#D@-$+@J#)#)#+#d+m+L u.L L M #$#$;$>.>.^+U.o+R+R+9+H@.#u#>$M+I#(@4+}+",
"7@+@J+ ++$<+n@z g+k+k+k+k+>+Z ,$#.,$&@,$'$m+Z 2+Y :+Y `+U@+#+#)$!$~${$0+{@t@l@l@y@e@u@]$M -@G#&$/ / / / / / / / / / / / / / / / / / / / / / / / / / / / / / / / / / / / / X#|+n@#$^$S@l@t@*#o#R+o@/$($_$K@ # #(#_#g+A.z.'$:$*+,$,$<$$.'$>+-+[$$.z.Y }$j+f+E@}+(@|+r+M+d+",
"e+e+4+ +3+<+a@/#[@D@)@X.[$h+|$n@z.j+z.z.>+w.i+v.8@1$g Z+D+K@2$(#3$4$5$6$,@t@I@e@I@{@7$8$o+-@e+&$/ / / / / / / / / / / / / / / / / / / / / / / / / / / / / / / / / / / / / 9$d+3+0$a$e@C@,@*#|+*#b$c$d$e$f$.#f@y@U@g$t+#+Y -+z.i+b#Y X X.n@@@;+-+E@A [+c+Y+ +I+-@o@I#d+r+",
"+@4+M+ +3+]##@Z@ +{#a@H#A.h$i$#@3 j$k$=.l$m$J h$W 9+D@Z+5#5#%$+#n$o$p$q$r$,@{@*#*#}@s$0$o+M+1$B#/ / / / / / / / / / / / / / / / / / / / / / / / / / / / / / / / / / / / / *$M+I+}$t$V@,@}@o@}@{@u$v$w$x$+#l@C@2$U@E@I#*+h$,.h+i$=.y$J #@E@g$X.b#z$<+w#c+Z+0@}+T+o@r+r+r+",
"T++@d+S+3+%##@Y+4+>$n@A$g$A.B$Z z$W j$C$D$E$F$R G$M+a@4@l@5#]@S@H$I$J$K$*#4@o@(@R+(@L$8$L d+b+B#/ / / / / / / / / / / / / / / / / / / / / / / / / / / / / / / / / / / / / M$(@}+}$/+C@n#*#o@r$C@N$O$P$Q$R$]@]@e@_#n@r+Z.A$h+W y$;+=.h$A.b#h$8@8@h+S$ +}+`+x 9+D#|+-@r+|+",
"M+(@d+r+M+3+Z.W+r+3+{#z$h+g$T$U$-+b#i+V$W$h+X$W$=+c#D@6@e@2$]@e@H$Y$Z$`$}@R+v@v@o@o@ %8$V..@.%+%/ / / / / / / / / / / / / / / / / / / / / / / / / / / / / / / / / / / / / @%(@}+'$Q {@C@{@n#{@{@z##%$%%%<#&%]@S@*%E@|+>+=%,$g+p+i$-%W.E@z.x [+-%g$9+ +I#Y+<+I+d+(@(@(@r+",
"9+4+(@(@-@9+E@x#r+3+3+c#z$Z n@;%h$n@d#r+>%t+`+v+9+-@3+6@e@2$%$2$,%'%)%!%*#,@}@P+o@H@3+8$,.b+1$~%/ / / / / / / / / / / / / / / / / / / / / / / / / / / / / / / / / / / / / {%d+9+l+L k@C@{@P#C@t@N$]%^%/%<#%$%$e@K@A 6@4+-@D#r+a+c+4+d#H#[+3+S$:+4+9+9+x+E+<+3+M+(@(@(@(@",
"J+}+(%/@T+I+E@A+a+S+9+9+M+8@D@_%:%<%(%o@o@o@K+,@P+P+%#u+f@f@5#g#[%}%|%1%{@t@*#}@}@-@3+8$M +@c+~%/ / / / / / / / / / / / / / / / / / / / / / / / / / / / / / / / / / / / / 2%(@9+#.L k@]@]@,@{@l@z#3%4%5%<#e@%$g#T@#@-@R+6%}@x+P#H@(@M+E@9+T+[+(@M@M+T+}@7%a@D@S+J+M+D#d+",
"J+9+9+/@/@9+a@E+x+4+M+M+r+-@c#3+D@U#M+o@R+H@v@r$P+-@X@4@l@y@ $2$8%Y$9%1%I@;@C@P#-@-@3+/+#$}+7@~%/ / / / / / / / / / / / / / / / / / / / / / / / / / / / / / / / / / / / / 2%r+9+#.L k@,@,@}@,@S@0%a%b%c%+#d%%$t@A@E@}@*#,@}@P#P#c@-@M+A 4+D#(@|+(@Y#-@c@B@<+ %/@M+M+e%D#",
"Y# %I+I+ % %~#[+r+(@P+o@R+,@-@T+I+D@(@R+n#V@,@}@f%f%g%r+c@1@V@e@h%i%j%k%z@D+1@{@*#6%c#(+U.}+}+l%/ / / / / / / / / / / / / / / / / / / / / / / / / / / / / / / / / / / / / m%F+n%o%N k@*#,@,@l@5#p%q%r%s%+#p#%$%$f@E@}@C@C@{@{@*#*#-@(@a@(@(@(@|+o@D#(@R+4+%#S+M+M+/@/@/@",
"/@M+-@D#L$0+{#9@-@M+(@o@}@}@*#K+M+X@-@o@6%n#t%r$u@M@`#r+*#}#I@e@u%i%v%w%t@y@D+t@C@*#S+k+M }+e+~%/ / / / / / / / / / / / / / / / / / / / / / / / / / / / / / / / / / / / / x%-@c#k+=.k@{@{@t@%$%$N$y%z%A%+#R$B%%$T@>#}@C@]@C@k@*#o@|+(@f+-@r+o@R+R+(@|+u+%@&+/@C%J+S+/@M+",
"Y#M@J+-@ %]#0+a@|+M+(%-@o@o@,@{@M@D%(@o@o@r$}@r$u@u@u#M+R+}#j#l@9#E%F%G%]@l@l@;@k@o@9+(+C 4+}+~%/ / / / / / / / / / / / / / / / / / / / / / / / / / / / / / / / / / / / / x%(@[+(+L m@6%6%C@%$g#H%y%I%J%p#]@,@]@T@M#K%%$%${@}@}@|+(@M+<+|+o@}@R+|+D#(@4@v#C%S+ %Y#S+/@J+",
"(%Y#N@L% %]#M%0+|+M+M+-@o@{@1@;@D#]#M@o@}@r$P+P+f%u@`#}+v@R+R+t@)#N%O%G%C@;@B@1@P#}@9+(+#$4+4++%/ / / / / / / / / / / / / / / / / / / / / / / / / / / / / / / / / / / / / P%D#~#/+,+|+P+P+{@l@2$p%y%Q%J%p#B%]@t@T@E@*#5#%$C@}@m@-@u@N@_%T+(@}@R+-@M+M+4@]# % %S+M%M%/@M@",
"S+S+(%/@c#&#M%0+r+d+D#o@o@P#C@t@-@]#D#o@m@m@m@R%f%f%E@T+o@P+P+t@)#S%T%U% $B@;@K+,@}@[@(+M 4+4++%/ / / / / / / / / / / / / / / / / / / / / / / / / / / / / / / / / / / / / V%(@$+/+,.W%-@(@,@]@e@X%a%Y%%%f@,@C@%$K@8@P#t@Z%%$B%m@P+u@M@U#/@P+|+*#-@M@-@R+X@3+S+D#N@I+/@I+",
"S+S+/@I+I+0+/@ %v+d+D#|+}@R+K+{@-@&#f%D#f%P+o@P+u@u@`#(@o@M@-@1@_#`% &.&t@`+1@P#}@W%c#(+M +@4+~%/ / / / / / / / / / / / / / / / / / / / / / / / / / / / / / / / / / / / / % d+[+/+>.-@-@u@*#C@l@u$+&@&Q$2$n#C@l@U@E@P#l@z@C@,@P+u@D#M@v#M+P+P+,@-@N@u@y+%# %c#M+/@M@D# %",
"/@/@/@/@N@S+ %0+r+M+D#(@|+P#{@{@-@&#S+u@W%F+o@P+R%/@>#M+|+-@k@I@]@#&$&%&B%{@c@R+R+P+~#(+&&M+e+*&/ / / / / / / / / / / / / / / / / / / / / / / / / / / / / / / / / / / / / =&M+<+o+L }@u@M@R+{@-&;&>&,&'&l@t@{@e@U@n@*#1@t@t@P#m@R%M+N@A (%u@-@R+u@/@N@x+~# % %/@L$/@M+/@",
"N@/@M+S+/@0+3+3+.@M%I+(@}@{@K+K+(@&#M+(@F+o@O#u@)&/@u#I+o@P+P#]@'@!&~&{&m@P#c@R+F+u@3+(+C 4+e+*&/ / / / / / / / / / / / / / / / / / / / / / / / / / / / / / / / / / / / / $ 4+<+k+,+F+-@-@}@}@F+7$]&^&/&D#t@k@t@C+)@P#{@{@C@,@W%W%u@D#n@S+M+(@}@(@ %M+I#D@/@3+]#]#&+S+M+",
"S+M+D#S+/@0+S+9+v+D#/@D#{@K+k@k@u@(&W%|+o@,@}@u@M@/@-$I+o@-@}@e@_&:&<&[&(@|+x+|+o@-@0@L F 4+n%*&/ / / / / / / / / / / / / / / / / / / / / / / / / / / / / / / / / / / / / }&L%f+(+M F+F+o@x+|+u@|&1&2&3&]@C@}@]@D+E@P#{@o@,@m@F+F+F+M+:+I+(%M@|+T+S+D#.@&+S+3+&+]#~#9+I+",
"M+D#M+I+D#/@ %9+ @M+3+M+R+P#P#,@M+&#}@}@m@k@m@u@N@/@u#J+W%u@o@4&p#5&6&7&R+u+o@-@-@-@8@L C I+[@8&/ / / / / / / / / / / / / / / / / / / / / / / / / / / / / / / / / / / / / } 4+#+/+G K+,@P#P#}@9&0&a&b&c&z@{@}@{@C+!@}@,@D#R%6%o@u@W%M+n@(@-@M+-@M+M@J+b+]# %L$C% % %c# %",
"D#M+e%I+D#f% %3+b+/@3+L%F+*#,@}@e%(&P+,@,@n#}@-@u@f%E#I+-@-@|+{@_#d&e&f&n#{@R+d+(@T+A L F }+ +8&/ / / / / / / / / / / / / / / / / / / / / / / / / / / / / / / / / / / / / g&M+#+/+G u+P#-@}@P#W%h&O$i&j&t@C@P#K+D+u#o@}@f%f%-@m@u@u@D#E@d+o@D#u@M+-@D#r+&+s$L$9+M+/@ %3+",
"S+&+ %S+4+f% %0+c+4+0+u@}@}@6@}@9+v#D#F+F+6%B%}@-@/@u#I+(@-@|+K+9#k&l&m&t%Z+4@r+-@J+E@u.E }+n&8&/ / / / / / / / / / / / / / / / / / / / / / / / / / / / / / / / / / / / / o&I+#+L M x+-@D#|+6@}@p&q&r&J%&%t@{@{@Z%b#-@W%u@f%P+o@P+P+/@u#M+(@(@u@/@M@-@-@D@ %L$c#4+4+J+S+",
" %&#]#c#c# % %D@e+n%3+D#}@R+P#|+3+Q# %M+D#u@-@u@M@S+-$4+-@u@P+k@f@s&t&q$}@,@o@o@(@M+E@n+'+n%[@8&/ / / / / / / / / / / / / / / / / / / / / / / / / / / / / / / / / / / / / u&9+f+L M |+D#f%-@F+}@!$v&w&x&&%V@R+K+y&%@u@|+W%-@P+-@u@D# %!@d+I#D#/@/@/@-@.@v#3+c#3+[@I+9+4+",
"/@]#&+3+0+c#3+D@e+4+I+I+-@(@W%D#&+E# %S+N@f%f%9&S+s$`#3+/@M+-@}@2$z&A&B&-@o@(@D#(@D#a@u.'+I+[+C&/ / / / / / / / / / / / / / / / / / / / / / / / / / / / / / / / / / / / / D&9+f+L M |+M+/@(@o@o@E&v&I%x&K#z@F+,@;@>#f%(@u@R%|+M@/@f% %!@-@-@T+D#S+ %r+@@F&0+c# %S+3+3+9+",
"u@S+S+S+L$3+~#D@}++@M+S+I+S+D#4+v#M# % %3+s$M%N@-@9&`#L#L$D#D#-@g#G&H&I&D#-@(@(@u@-@f+L !+n%D@C&/ / / / / / / / / / / / / / / / / / / / / / / / / / / / / / / / / / / / / J&4+x L D 6@u@/@D#-@o@K&L&M&N&&%C@}@o@1@>#D#-@u@D#O&M+f%/@L+#@T+-@M+/@9+S+d+s+8@0+M%M+I+D@3+c#",
"T+D#/@4+c#3+0+]#}+4+I+I+I+M+|+b+v#>#L$&+]#&+0+M+W%s$P@0@/@u@D#-@D+o$P&Q&f%u@-@-@-@-@v#L E [@x C&/ / / / / / / / / / / / / / / / / / / / / / / / / / / / / / / / / / / / / u&4+x /+#$}@-@S+/@D#-@R&S&T&U%]@P#6%K+4&j@L%o@(@ %D#/@4+/@L$b#d+(@I+I+ %9+9+b+%#9+J+d+4+d#{#[+",
"D#M+S+9+ %0+L$%#U&n%c#c#I+J+-@d+%#i@L$ %3+0+0+(@-@V&W&3+T+-@N@|+`+X&Y&Z&4+d+M+D#u@u@X@u.E [@$+C&/ / / / / / / / / / / / / / / / / / / / / / / / / / / / / / / / / / / / / `&I+<+L D F+u@S+J+(@O&^@ *.*+*{@o@o@K+V@z.4+|+(@L$/@M+e%9+&+%@+@M+3+S+ %3+9+.@f+d#3+M+9+~#D@&+",
"I+I+9+S+9+~#L$v#[@[@3+ %9+4+L%/@v#>#c#S+S+&+C%D#/@i@L#d+r+(@(@I#I#@*#*a@/@M+u@D#-@M+a@P F n%g C&/ / / / / / / / / / / / / / / / / / / / / / / / / / / / / / / / / / / / / $*4+0@u.D }@F+u@T+-@|+9+%*&*4+{@k@u@-@x+b+9@}+D#0+V&/@/@/@/@n@4+M+S+9+S+3+9+e+E@D@3+}+3+~#c#<+",
"3+M+/@/@ %0+0+X@n&}+3+3+I+I+/@/@%#>#/@/@L%Q#E@S+>#%@}+a+r+d+D#b+g+F /+**L%(@-@P+W%(@<+P =*+@g C&/ / / / / / / / / / / / / / / / / / / / / / / / / / / / / / / / / / / / / -*+@8@L M }@W%P+|+R+R+4+Y.V.Y.I#R+M@P+R+u+ +b#9+v#9@3+S+M+/@:+I+I+I+I+c#0+9+9+a@{#3+c#D@0+0+D@",
"~#S+L%L% % %3+v#[@3++$3+c#S+4+/@]#>#s$M+3+<$L#%@g$~#-@|+x+I# %9@P.>.W .@W%(@P+F+F+-@;*L D 4+[+>*/ / / / / / / / / / / / / / / / / / / / / / / / / / / / / / / / / / / / / ,*4+A L &&|+W%|+}@,@K+4@:+A$P.W -@-@W%|+6@x+0@G$3+j+)@I+9+3+S$[@ % %9+ %0+ %4+a@D@S+c#X@]#&#1+",
"&+I+e%M+S+3+~#E@~#%#v#(&]# %9+S+v#i@ %~#*+8@g%#@c#/@D#x+I#4+%@'*n+j$c#M+D#-@D#-@(@D#E@L C 3+$+)*/ / / / / / / / / / / / / / / / / / / / / / / / / / / / / / / / / / / / / !*J+n@V.&&-@u@}@*#}@o@K+x+w.A$~*V$M+d+-@r+x+D##+w.0@{*Z.D@&+b#9+I+M%3+L$c#3+9+E@D@c#9+%#v#X@E#",
"&+S+4+9+3+&+D@a@0@v#E@Q#{# % %9+%#]*v#>+]#a@^*M+D#/@D#|+-@z$S.M W /*S+3+S+(@s$f%M+9+E@L B 3+(*_*/ / / / / / / / / / / / / / / / / / / / / / / / / / / / / / / / / / / / / :*}+!@n+&&.@f%P+P+o@}@-@d+.@X.L P.*+}+x+I#F+-@I+)@A.0@W 9@&##@9+c#0+&+V&&+D@9+E@%#D@c#3+]#v#E#",
"3+/@I+c#0+&+]#a@0@v#%#]#3+3+3+/@;*#@,$E@Q#<*0+-@D#M+D#|+|&[*}*,$n% %S+/@/@d+4+L% %f+L >.,.e+#+_*/ / / / / / / / / / / / / / / / / / / / / / / / / / / / / / / / / / / / / |*}+g$V.#$A.~#R%u@u@F+(@D#4+-@W.(+1*2*o@-@|+e%T+I+#@X.3*A$v#b#D@&+L$&+~#%#%#c#>#X@f+L$0+L$&+X@",
"3+9+9+ %0+~#D@1+0@%#3+3+D@&+L$ %f+9@L#E@-+%#c#D#S+r+H@4*5*6*7*}+b+3+ %u@u@-@-@d+D@,.#$Q 8*9*#+_*/ / / / / / / / / / / / / / / / / / / / / / / / / / / / / / / / / / / / / 0*n%r+,$U.0.9@e%P+P+6%o@-@c#.@x+a*b*c*d**#x+I+D#d+/@j@9@3*D@T$v#&+L$3+3+{#f+3+i@E@E@]#]#3+0+v#",
"~#0+3+&+%#]#%#E@+$]#V&3+%#D@D@L$%##+3*<$~#S+ %9+S+-@e*f*g*h*i*d++@I+f%D#R%(@(@[@L '+o+#+4+9+#+_*/ / / / / / / / / / / / / / / / / / / / / / / / / / / / / / / / / / / / / j*n%-@M+'$#$'*n@-@M@P+P#F+D#+@=@z#k*l*m*n*o@4+e%/@f%L%-+A. +9@%#0+&+V&&+&+D@>$#@E@`#&#&#V&]#v#",
"D@%#&+&#1+1+v#`#f+%#~#%#a@D@~#%#z.X.*+v#Y#3+0+ %M+o*p*q*r*s*t%r+-@M+S+e%M+D#n%=.O.L 8@d+d+9+#+_*/ / / / / / / / / / / / / / / / / / / / / / / / / / / / / / / / / / / / / t*S+d+u@O&m+!+T.L#M+-@W%u@F+(@-@{@u*v*w*x*y*J+4+S+3+L%c#m#-%-+E@&+]#3+3+X@]#D@#@>#>#Q#a@]#&#E@",
"]#D@]#]#1+E@v#M#[+0@~#%#]#+$0@9@z D#s$9+0+3+3+M%z*A*Q%B*C*g@|+(@R%u@M+f%/@ %o+N.D*%@+@D#D# %#+_*/ / / / / / / / / / / / / / / / / / / / / / / / / / / / / / / / / / / / / E*J+(@/@(@4+'$!+'+E@D#-@D#R%W%W%|+{@x$F*G*H*&#S+c#3+S+ %c#R%/*X.a@]#d#0+v#]#I*u#A a@1+X@X@&#E@",
"L#%#&+0+&#E@a@u#+$I*3+&+L$%##@z$3*c#I+3+%# % %L+J*K*L*M*b$6@I#-@u@u@s$s$9+#.N.>.%@M+/@S+M+9+#+_*/ / / / / / / / / / / / / / / / / / / / / / / / / / / / / / / / / / / / / N*M+-@D#u@D#n%#.'+F [+4+f%9&F+}@F+|+n#O*P*Q*R*S*/@9+9+3+ %9+Q#G$<*E@~#D@v#L#3+>#v#D@]#a@a@1+a@",
"Q#1+X@]#&#1+a@%@x >$D@~#]#%@v#L#~#3+3+0+0+ %|&T*U*V*W*b$D#(@(@u@u@M+I+I+,$P.^+A.L%I+e%M+f%9+#+_*/ / / / / / / / / / / / / / / / / / / / / / / / / / / / / / / / / / / / / X*(@|+-@u@M+d+[@Y.Q.M +$I+I+D#*#}@-@M@}@Y*Z*`* =.=M+4+0+3+3+3+)@E@Y a@D@D@]#[+u#v#D@D@v#X@E@`#",
"v#&#a@v#&+v#v#M#+$D@]#D@#@+=E@@=L$0+3+ %0+|&#=$=%=M*R&u@f%(@R%D#-@M+4+j+'*V.X.M+M@I+L%u@D#S+8@_*/ / / / / / / / / / / / / / / / / / / / / / / / / / / / / / / / / / / / / N*d+I#W%P+D#M+.@0@/+T.,.>$I+ %D#W%u@f%u@}@&=*===-=;=/@c#L$0@%#D@%@:+W.%#]#]#[@!@F&v#D@%#a@u#u#",
"]#]#v#]#~#(&%#u#3+(&]#(&u# %E#]#L$~#9+M+>=,='= &)=!=D# %f%M@u@D#-@9*G$S.~={=d+9+/@M+f%D#D#/@z$]=/ / / / / / / / / / / / / / / / / / / / / / / / / / / / / / / / / / / / / ^=(@|+-@}@(@/@/@O&x L P.L c#e%s$u@u@M+/@N@/=(=_=:=<=[=d# %D@D@D@)@9+#@<+1+]#n%%@E@a@v#D@a@>#E#",
"]#X@v#D@{#F&a@4+I+~#&+%#}=L$#@]#~#3+ %|=1=2=3=4=5=N@I+c#f%M@/@D#u@A.6=M *+.@I+L$/@D#u@(@(@/@%@]=/ / / / / / / / / / / / / / / / / / / / / / / / / / / / / / / / / / / / / 7=4+O&-@o@u@D#s$9+I#L#>.8=Q c#s$s$M+(@f%M+/@9=0=a=b=c=d=0+]#D@D@u#9+)@v#E@v#c#e+-$E@E@v#1+U#E@",
"X@1+v#v#F&%#E@c#I*%#v#v#>#&#g+Q#~#{#M%e=f=g=h=i=u@/@ %L$N@D#M+I+n@'*D Z 4+/@L$0+ %I+(@-@D#3+;+/ / / / / / / / / / / / / / / / / / / / / / / / / / / / / / / / / / / / / / j=3+-@W%(@M@M+/@L$M+I#k=U.l=%.c#N@P+M+D#D# %D#/=0=m=n=o=p=v#&+%##@E@u#X@1+1+[+3+L#E@>#E@E@a@A ",
"Q#X@1+v#v#q=#@X@%#E@>+)@E@>#:$a@%#(&r=s=t&t=u=R%I+ %c#s$e%/@s$)@!+F v=q+L% %]#&+S+e%d+L%9*f+S ]=/ / / / / / / / / / / / / / / / / / / / / / / / / / / / / / / / / / / / / w=!@4+-@u@u@M+/@/@M+n%.@A.D x=Z S+W%(@f%u@M+S+S+K&y=%= *z=Q#c#<+9@^*w@~##.-$a@D@%@u#E@>#u#A A ",
"(&1+E#Q#&#&#%@v#v#A=o%f+E@E#>+a@f+B=C=D=E=F=7$S+M%3+s$f%f% %L#D '+=+r+4+ %S+&+L$D#L%L%c#>$G=,+H=/ / / / / / / / / / / / / / / / / / / / / / / / / / / / / / / / / / / / / I=Q +$I+D#O&f% %S+/@c#I+-@-+C ~*;+(@R%/@D#M+/@3+ %K&J=K=L=+$[+D@9@w.w.v#m+<$Q#v#:+n@n@E@Z.E@E@",
"1+M#-$1+v#X@)@;*]#^*L#+$a@]*k$a@D@&#M=@*q=9+3+~#V&L$/@M@f%0+i@G Q N=9+3+c# %L$0+f%9* %I+>+/+O=P=Q=/ / / / / / / / / / / / / / / / / / / / / / / / / / / / / / / / / / / / / R==+c#4+d+/@ % %/@ %D@c#b+(+U.W 9+V#S+D#f% %&+>$c#S=T=U=D@$+L#A=w@#@D@v#X %#D@)@i@E#Q#u#>#u#",
"A=A=V=i@i@A=a@&+f+3+D@1+u#>#X.%#&+a@W=X=T$[+&+}=]#&+ % %s$3+#@o+V.y 0@&+L$ %s$C%4+n% %(@,#Y=Z=`=L  -/ / / / / / / / / / / / / / / / / / / / / / / / / / / / / / / / / / / / ]=.--@u@f%e% %s$c#c#]#%#-@>.n+Q I+M+S+ %M%0+]#0@D@n@u.!+S$0@%#i@A.9@%#(&c#~#+$:+<*#@u#+-Q+A=",
"6@@-W%D#L%I+O&+$8@(&D@v#%@>#X.%#}+[+#-V.T$ +3+0+&+0+ % %/@S+9@o+M 8@>$3+D@V& %$-c#I+c#u@%-&-*-=---;-/ / / / / / / / / / / / / / / / / / / / / / / / / / / / / / / / / / / / / >-]@O&L%I+L$ %L$L$&+v#4+;$V.A$}+I+I+0+ %c#&+0@[+:+V.R.T$0@D@u#A.<*%#~#3+3+~#3+-@x+|+F+o@v+",
"I+c#D@&+~#<+9*L$]#(&D@D@:+L Z >$M+>$#$,-A./@/@ %3+0+M%L$ %M+w.(+U.**I*+$&+]#L$c#9+>$L$9&'-)-!-~-{-]-/ / / / / / / / / / / / / / / / / / / / / / / / / / / / / / / / / / / / / ^-/-f%0+9+c#c#c#]#&#%#9+;$/+R e+c#c#3+c# %&+]#(-M#n+R.g+f+d##@M Y D@~#3+~#[+x 9+}+}+}+e+ +",
"L$0+c#c#~#%#9+3+D@~#D@+$Z.U.>+3+ +#+!+D*_-:-<-[-V&s$/@L$&+I+X./+U.n@D@L$L$]#&+&+D@>+M#^@J*}-|-1-2-]-/ / / / / / / / / / / / / / / / / / / / / / / / / / / / / / / / / / / / / 3-4-L$M c#L$0+V&v#1+&#c##$,-R >$ % %/@I+ %V&5-6-7-L !+B$0@D@w@!+g+D@3+~#3+3+<+c# + +9+3+D@",
"3+3+9+4+3+~#3+3+3+&++$]##@^+=+f+]##+#$8$8-9-0-a-V&0+S+L$}=9+z.,-U.n@%#0+&+]#3+c#0@}$i@m@J*b-c-d-e-]-/ / / / / / / / / / / / / / / / / / / / / / / / / / / / / / / / / / / / / 3-4* %]$/@c#]#(&&#a@%#c#F L L +$~#/@/@ %L$z*f-g-h-k+;$z.f+f+<*>.h+D@3+D@~#D@f+~#9+3+c#3+<+",
"~#.@ %~#3+3++$D@D@%#%#v#9@^+#.A f+x #$i-j-k-l-m-&+&+S+c#&+n%X.(+M g$%#3+3+c# %S+>$>+%@n-o-p-q-r-s-]-/ / / / / / / / / / / / / / / / / / / / / / / / / / / / / / / / / / / / / 3-t-I+^+L%9+&+]#(&]#&+n%!+L R 3+n% %/@I+3+u-v-w-x-k+C z.f+f+X.>.*+0@D@~#D@0@n@<+ +c#~#D@v#",
"[+>$%#%#D@<+f++$3+%#f+f+#@^+m+f+~##+U.#.j-y-z-(-%#C%/@S+L$4+A.Y.U.g$%#3+3+9+9+I+ +-+>#f%L@A-B-C-2-]-/ / / / / / / / / / / / / / / / / / / / / / / / / / / / / / / / / / / / / D-E-u-,-L%c#c#L$L+V&&+I+F L Y.}+I+S+9+M+3+L$F-G-x-k+#$A.<+[+X.U.h$$+D@[+~#<+n@A <+D@]#a@%#",
"(*#@#@n@9@^*:++$3+%#f+f+^*^+W x {#A F k+H-I-J-L+]#3+/@3+ %I+A./+F g$%#3+c#n%I+c# +.@ %R%K-L-M-N-O-]-/ / / / / / / / / / / / / / / / / / / / / / / / / / / / / / / / / / / / / D-;=$-3+e%D@c# %&+]#]#n%F L A$}+I+3+S+I+ %V&P-Q-R-(+M b#3+[+X.M X.$+~#D@D@<+:+S$X.X.b#b#:+",
"#.o+k+o+L u.j+f+>$%#D@0@%@E@*+f+{#3 !+(+w.S-M%&+&+&+S+9+N@M+g$Q F =%%#0+c#c#I+c#c#L%e%m@T-U-V-W-X-Y-/ / / / / / / / / / / / / / / / / / / / / / / / / / / / / / / / / / / / / Z-`-s$ % %[+3+9+~#%#%#4+#$L S }+ % %I+s$L$&+&+ ;E@Q ;$g$[+<+w@z.%@D@D@~#~#f+-+#./+/+L L k+",
"n@%@:+%@w.A.T$<+3+D@D@D@u#n@g+f+&+8@.;/+X.D@~#&+&+v#c#9+4+I+g$/+M S$D@0+c#9+4+I+9+ %9+4+,#z=+;@;L@ -/ / / / / / / / / / / / / / / / / / / / / / / / / / / / / / / / / / / / / #;%# %V& %[@3+I+3+<+D@c+M O S }+M+I+d+S+L$1+%# +n@L &&T$[+f+w.z.X.f+D@0@{#0@X.#@E@E@Z.#@#@",
"<+#+8@f+#+:+S$x ~#%@a@%#%@#@g+0@D@n@R.(+A.$+3+&#&#]#L$e%9+3+%@/+U.:+f+3+~#c#I+3+9+c#4+ %]#Z.$;%;]-/ / / / / / / / / / / / / / / / / / / / / / / / / / / / / / / / / / / / / &;z$n%I+c#I+3+3+4+9++$3+>$M Q *;}+M+}+M+I+3+v#D@ +z$L !+T$+$[+A.j+-+0@v#z.A f+^*)@%#%#a@a@a@",
"L#A v#%#8@E@b#D@f+G$>+<%A.b#X <+<+z$]$=;-$9+3+D@v#&+L$0+3+3+f+k+n+A$a@3+c#L$0+D@c#}+9+0++$>$<*-;/ / / / / / / / / / / / / / / / / / / / / / / / / / / / / / / / / / / / / ;;**U&~#c#4+9+%#D@I+c#D@+$X #$(+X.}+4+9+/@3+3+D@ +e+X@a$]$S$D@0@W.j+g+a@g+Z A a@X.Z.a@%#a@v#1+",
"L#A a@1+E@u#A.3+A 8@X.a@A.A=Y x 0@ +Z#>;,;';V&v#v#0+%#]#]#0+I#+=#.~+Q f+3+~#~#&+3+[@I+c#9+3+Z.q@/ / / / / / / / / / / / / / / / / / / / / / / / / / / / / / / / / / / / / );t >${#4+I+9+D@D@c#9+<+-+'*u.-+r+}+I+L$c#~#[+[+S+4-!;~;{;[+x a@g+>+X <+[$a@E@v#X.9@E@a@a@a@v#",
"8@f+];v#A !@X.0@D@E@v#L#9@u#X a@w w ^;/;(;_;:;V&~#&+%#&+&+&+c#|+Z.L 0.V D@c#~#3+c#I+I+I+c#f+g+<;/ / / / / / / / / / / / / / / / / / / / / / / / / / / / / / / / / / / / / [;L#~#9+I+ %9+D@+$>$[@9@'*#-<$b+n%c#S+3+~#&+d#3+t-};|;1;2; +z$8@-+-+X L#E@E@E@%#<*A=>#A n@E@E@",
"f+D@f+<+8@%@X.a@3+a@f+8@#@3+w@x x 8@J+3;4;5;6;7;L+]#V&V&0+]#]#3+-@<*,.0.>+D@3+c#[@4+9+c#9+D@-+;;/ / / / / / / / / / / / / / / / / / / / / / / / / / / / / / / / / / / / / 8;f+n%I+e% %S+[+3+ +%@T.!+o+e+}+9+3+9+9+9+3+0+9;0;a;b;B&u@<+:+A <*8@-+E@E@E@E@v#X.#@u#E@>#>#M#",
"f+(&a@E@u#]*[$*+D@[+f+n@w.~#w.x x a@x u@c;d;e;f;g;&+&+L$V&L$&+D@~#L%[$h;N.g+~#>$[@}+c#c#3+D@A.i;/ / / / / / / / / / / / / / / / / / / / / / / / / / / / / / / / / / / / / j;<+3+3+I+I+I+>$3+:+E F Q $+~#~# %3+9+3+ +~#k;l;m;n;o;b$>$x a@E@<*a@w@E@8@E@a@A.:$A=>#>#i@i@i@",
"a@v#E@E@E@u#w@l+!@<+f+L#g$x :+8@<+<+#+f+p;q;r;s;t;u;V#/@ % %L$3+D@+$b+,$F 0.g+#+3+9+3+9+c#L#w.v;/ / / / / / / / / / / / / / / / / / / / / / / / / / / / / / / / / / / / / w;$+3+3+3+ + +>$%@'+T./+y f+]#c#I+9+3+%#9+9&2&x;y;z;A;0+v#0@v#!@X.L##@v#E@>#)@i-Q+u#E@Q#w@A=B;",
"n@E@>#>#E@u#-$^*u#<+f+f++$)@L#9@8@<+f+a@%#t%C;D;E;F;G;s$ % % %3+3+0@3+n%o%!+9.X f+[+ +c#3+E@w.H;/ / / / / / / / / / / / / / / / / / / / / / / / / / / / / / / / / / / / / I;0@>$[+3+c#D@E@D T.=.#+>$A v#3+}+c#c#~#c#J;K;L;M;N;3+U#&#D@Q#A=L#E@~#%#a@E@>#m#]*>#E#Z.O;A=M#",
"E@g%E@X@a@E@E@-$:+a@n@a@0@~#E@z$A.E@%#D@D@~#P;Q;R;S;T;M%S+3+&+~#&+D@<+$+U;o+'*9.X.0@+$D@D@E@A.H;/ / / / / / / / / / / / / / / / / / / / / / / / / / / / / / / / / / / / / I;(*~#3+9+c#E@M Q.L z$[+~#a@<+3+ %&+ % %V;W;X;Y;Z; %%#n@a@v##@Z.E@v#(&a@E@E@%@<*i@n@u#>#i@u#>#",
"`#-$>#v#X@E@E@-$Z.E@>#A #+f+<+)@g$A.a@D@~#D@3+`; >.>+>@>|&3+D@~#~#3+D@<+>$>$#>T.N.w.<+D@+$A #@H;/ / / / / / / / / / / / / / / / / / / / / / / / / / / / / / / / / / / / / I;0@D@3+3+f+>.~+V.b#[+$+%#f+D@~#c#I+N@$>%>&>*>=>/@a@a@a@E@Z.g$9@Q#a@E@E@E@>#b#w@u#u#u#M#>#Z.E@",
"i@#@M#a@a@>#-$#@%@E@>#E@a@n@E@D@**G$A.L#+$&+v#+$6%->;>>>,>L++$f++$3+D@+$[+$+$+#.'*'>g$0@+$8@b#)>/ / / / / / / / / / / / / / / / / / / / / / / / / / / / / / / / / / / / / !>x D@D@f+L O.D*g$ +>$D@D@D@<+3+I+s$~>{>]>^>&% %a@E@E@E@9@9@_+8@+=Z.>#E@E#>#E@X.Z.E@E@E#E@u#>#",
"#@i@u#n@>#M#u##@%@E@>#E@n@%@!@f+>$:+v=g+)@v#a@A <+/>(>_>:><>s$D@>$>$3+3+[+(*V+y =.[>T.b#D@E@9@H;/ / / / / / / / / / / / / / / / / / / / / / / / / / / / / / / / / / / / / }>#+f+f+o+P.V.A.[@D@+$<+[+D@>$c#e%|>1>2>3>4>c#)@E@a@E@9@l+8@)@8@Z.u#)@E@u#u#Z.<*%@E@E@1+E@i@#@",
"u#i@x@>#u#u#u#A=%@E@A E@<%n@%@z$b#<*=%Y.g+M#E@X@A z*N&'=5>6>g;&+>$$+D@D@0@f+0@ +n@L 0.'+:+n@w.H;/ / / / / / / / / / / / / / / / / / / / / / / / / / / / / / / / / / / / / }>z$#+Y.8=>.A.}+0@a@f+D@3+c#3+ %k;N%7>8>9>f%E@Q#E@n@w.o+#@u#X b#i@u#a@`#M#n@u#<*#@u#E#E@u##@#@",
"u#u#i@u#u#i@i@<*%@8@A A >#)@:+n@z.:$X.^*o+z.A <+#+L#f%0>a>b>c>u#x [+D@[+D@L##+#+ +:+V.x=C :+w.H;/ / / / / / / / / / / / / / / / / / / / / / / / / / / / / / / / / / / / / d>x *+4.#-k$b+f+A a@0@0@[+~#D@x e>f>8>g>W%f+E@E@A A.(+O;A.A=,$#@u#n@a@E@u#>#b#U+w@u#-$E@i@A=i@",
"u#u#i@i@i@#@]*<*w.E@n@z$u#>#E@A w.Y h>A.#@Q ;+A x x %#9&i>j>k>#$b#<+%#0@$+0@<+E@8@3+X.&&0.Z.9@H;/ / / / / / / / / / / / / / / / / / / / / / / / / / / / / / / / / / / / / d>#+W R.L b+x A L#[+3+~#0@0@f+Y.l>m>n>m@0@f+a@n@:+Y.A.Z.Y.^*W #@Z.n@>#>#%@n@b#3#A=i@i@g%u##@i@",
"w@i@#@i@i@A=Q+[$X.E@E@a@E@E@n@z$#@o>8*j+#@9@Q X.a@f+a@0@9+>$#.R.&&:+8@0@0@0@#+z$z$8@>+F P.9@X.H;/ / / / / / / / / / / / / / / / / / / / / / / / / / / / / / / / / / / / / p>A l+F '+8@f+L#v#~#c#D@8*L#m+!+(+v#(@c#D@f+n@w.#.<*:+<$L##@,$%@u#u#u#>#u#>#b#3#w@A=j@Z.>#u#i@",
"w.i@A=A=A=w@-+X z.!@u#a@a@E@8@#+%@2#E@x g+%@b#o+z.n@A E@<+1$#+o+'+,.:+f+0@<+a@A E@z$W !+P.w.A.H;/ / / / / / / / / / / / / / / / / / / / / / / / / / / / / / / / / / / / / q>8@#.R.0.n@E@E@a@D@3+<+x W !+L G$M+[+~#D@A w.Y.^*Z.Z )@n@#@,$b#u#i@u#u#u#!@#@3#w@^*u#>#E@-$u#",
"u#u#+-w@#@A=V=2#-+^*9@u#>#n@E@0@%@X u#L#[@v=#@Q+L z.n@8@A <+n%8@L P.J A D@+$a@E@L#8@m+!+0.H#h$r>/ / / / / / / / / / / / / / / / / / / / / / / / / / / / / / / / / / / / / s>;%Y.R.0.n@a@n@>#f+w#0@-+'*D*A.r+3+%#1+X@n@#.g+n@#.z$n@Z.9@m+#@i@!@n@E@M#u##@3#Q+A=E#>#<%M#>#",
"Z.>#u#i@#@#@B;w@X.u#u#n@n@A L##+A.:$i@E@%#0@E@E@-+Y.%@#+Z.n@$+c+)@^+P.j+L#x a@8@L#f+X t>4.A.X.r>/ / / / / / / / / / / / / / / / / / / / / / / / / / / / / / / / / / / / / s>A o+R.0.E@E@u#u#E@<+n@E M :$4+ +0@a@8@E@g+>+E@#+%@z$%@i@A=V #@i@%@u#Z.E@#@b#-+w@A=E@>#Z.i@>#",
">#u#%@u#-$i@i@Q+Q+!@!@)@E@8@A 8@A.u>^*i@E@E@u#E@i@[$#.8@a@E@f+$+}+D*v>Z #+L#g%n@A A w>R.5.w.<*x>/ / / / / / / / / / / / / / / / / / / / / / / / / / / / / / / / / / / / / s>n@L S.4.)@>#>#:+:+f+:+y>%+~#9+3+v#a@f+g+>+i@E@a@i@n@>##@A=m+#@#@A=w@#@i@Q+9@X.#@A=u#u#u#]*i@",
"i@i@u#%@u#+-w@2#X.!@u#u#:+)@A )@z.m+^*#@E@E@!@E@Z.O;=;b#z$A z$<+d#z>A>B>8@8@n@:+A E@,$R.9.A.X.x>/ / / / / / / / / / / / / / / / / / / / / / / / / / / / / / / / / / / / / s>n@L Q.5.:+)@>#E@a@0@1+C>D>E>D@{#%#f+a@Q w@u#E@a@!@!@u##@#@m+w.!@#@A=#@#@w@w.<*i@u#B;#@#@w@A=",
"!@u#E@u#i@w@<*2#X.%@u#n@E@)@n@E@w@'$w.i@n@E@u#u#j@#@u>[$!@E@)@<+/@F>G>H>3 8@8@E@a@E@$.!+5.w.z.r>/ / / / / / / / / / / / / / / / / / / / / / / / / / / / / / / / / / / / / I>4 L ~+M.%@E@>#E@v#D@J>K>L>M>3+F&Q#a@E@k+^*i@a@L#%@N>i@j@9@,$#@!@i@#@A=w@w@A.X.%@u##@#@i@A=A=",
"%@i@n@%@A=<*Q+v.z.%@u#n@n@)@E@E@X.,$#@Z.<%E@>#i@+-]*<$Y !@Z.%@8@S+O>P>Q>E@#+x #+8@8@Z !+M.A.W.x>/ / / / / / / / / / / / / / / / / / / / / / / / / / / / / / / / / / / / / I>n@Q Q.5.%@E@n@E#E@f+.=R>S>T>0+v#g%>#>#}$9@!@a@L#i@A=#@#@w.,$A.Z.)@)@#@^*w@9@X.u#i@#@#@u#u#u#",
"#@w.i@u#^*<*Q+[$W.%@u##@w.w.u#:+-+u>-$u#u#E@>#i@i@#@,$z.)@%@#@a@J+U>V>W>>#3 x #+<+#+,$!+4.A.j+x>/ / / / / / / / / / / / / / / / / / / / / / / / / / / / / / / / / / / / / X>:+L t>5.%@E@Z.>#n@A .=Y>Z>T>&+E@>#n@E@#.%@E@v#a@!@#@#@#@w.>+A.u#E@A u##@A=w.X.#@A=A=9@i@u#Z.",
"w@w.w.b#^*<*z.U+W.g$w.#@w.#@%@n@z.,$A=!@u#>#>#u#i@#@m+g+%@!@u#8@S+`> ,.,M#z$x ];f+x #.'+4.h$i+x>/ / / / / / / / / / / / / / / / / / / / / / / / / / / / / / / / / / / / / +,:+L R.5.%@Z.!@%@%@E@.=@,#,$,]#E@>#u#)@/+u#n@E@A %@#@w.%@b#,$#@u#E@A n@w@!@w.<*X.Q+w@w@#@w.w.",
"w@w@#@9@w.w@z.U+g+b#A.A=b#9@u#E@w@2+w@#@`#E@E@g%i@#@'$X #@Z.)@%@d#%,&,*,M#z$#+f+v#f+l+R.9.i+g+x>/ / / / / / / / / / / / / / / / / / / / / / / / / / / / / / / / / / / / / +,E@L =,M.b#!@#@%@!@`#-,;,>,$,}=E@>#u#n@Q :+Z.>#n@#@%@u#%@w.W A.u#%@)@i@A=Z.!@[$o>Q+Q+O;!@#@w.",
"X.9@#@A.Q+,,z.U+j+A.A.#@w.A.%@n@X.Y w.#@>#Q#E@>#!@A=m+B$$@u#Z.u#0+',),W>`#n@E@<+v#E@m+R.K.W.*+x>/ / / / / / / / / / / / / / / / / / / / / / / / / / / / / / / / / / / / / X>n@L O.5.#@!@Z.u#!@`#!,~,{,$,],E@i@-$n@Q u#n@%@#@9@$@%@#@^*W w.#@!@#@#@^*#@b#v.<*2#X.%@Z.9@A.",
"w@#@b#w.z.w@w.g+g+A.b#!@9@b#w.#@<*>+^*%@n@)@M#i@#@9@'$i+:+u#i@n@D@^,/,(,i@)@8@f+a@n@m+)+K.z.g+x>/ / / / / / / / / / / / / / / / / / / / / / / / / / / / / / / / / / / / / _,n@Q S.L.b#u#>#E@E@`#:,<,#,[,a@u#B;>#A O u#3 u##@A.w.b#^*z.l+X.b##@9@9@Q+#@b#-+A.w@#@Z.u#b#w@",
"<*z.#@9@z.w@Q+g+W.w.9@%@#@u##@X.X >+#@Z.%@>#u##@#@w.,$W.n@%@#@A D@},|,1,B;Z.z$L#E@n@:$)+K.h$g+x>/ / / / / / / / / / / / / / / / / / / / / / / / / / / / / / / / / / / / / 2,4 o+S.3,b#g%n@E@n@-$7-4,5,6,E@n@i@n@n@L b#3 :+w.w.#@A.^*z.#.9@9@u#%@w@o>A.w.-+w.b##@#@u#b#w@",
"X.z.w.w@z.<*<*U+g+A.w.%@u#n@#@X.[$m+#@n@%@u#%@!@#@#@l+z.3 :+n@a@7,8,9,0,9@%@n@z$A n@:$R.K.h$B$x>/ / / / / / / / / / / / / / / / / / / / / / / / / / / / / / / / / / / / / a,:+o+P.]+%@E@Z.<%u#%@b,c,d,e,i@n@#@!@u#L A.n@:+A.w.#@w.^*z.V X.#@Z.u#w@<*A.w.g+A.w.b#9@!@w.w.",
"9@#@!@A.z.X.z.U+j+A.A.A.#@:+b##@X l+X.M#Z.n@i@!@i@^*}$B$:+3 n@n@R@f,g,h,w.%@b#u#>#)@Y .;3,X.h+x>/ / / / / / / / / / / / / / / / / / / / / / / / / / / / / / / / / / / / / _,:+o+0.3,n@E@u#n@!@#@i,j,k,l,w.:+#@w.%@L A.n@%@A.w.!@u##@-+V w@w@#@9@m,v.z.H#X z.z.w.A.A.w.X.",
"w.b#%@!@A.z.<*-+*+X.X.w.#@:+%@%@g+#.<*!@i@Z.#@#@w.w@i-V$b#n@E@v#K&n,o,p,m,%@b#%@i@%@,$R.K.;+g+x>/ / / / / / / / / / / / / / / / / / / / / / / / / / / / / / / / / / / / / q,!@Q {+]+:+E@)@u#%@)@r,s,t,u,z*Z.9@!@%@L w.)@%@w.X.#@u##@z.m+z.X.z.z.<*[$<*A.X z.w@#@w@9@X.^*",
"A.A.!@%@%@w.z.-+g+X.z.9@b#%@!@w.Y k+<*9@#@i@A=^*A=w@k+Z %@b##@Z.L+v,w,x,w.%@4 Z.Z.A.#.S.K.A.U$x>/ / / / / / / / / / / / / / / / / / / / / / / / / / / / / / / / / / / / / y,T$N 8=]+:+a@E@n@E@E@[&z,A,B,1+#@A=^*b#L b#Z.9@w@<*A.!@w.W.%.z.z.X.<*<*[$<*A.Y X.w.!@!@#@X.w.",
"w.9@#@b#!@9@X.g+g+X.z.9@#@!@9@X.Y k+-+z.#@!@w@w@#@w@k+Z %@#@9@%@C,D,E,(,#@$@$@b#:+9@o+~+]+X.g+F,/ / / / / / / / / / / / / / / / / / / / / / / / / / / / / / / / / / / / / y,T$L P.L.:+a@>#n@)@E@G,H,I,@>E@w.#@^*%@L X.w.O;#@Q+z.w.G$Y Q g+<*z.<*-+v.-+;+Y z.A.w.b#A.X.A.",
"A.2@w.A.A.w.A.U+g+X.z.w.w@z.<*<*>+(+X v.z.^*X.A=#@w@o+*+w.9@9@%@J,D,K,Q>i@S$4 b#b#A.8$O.3,B$h+F,/ / / / / / / / / / / / / / / / / / / / / / / / / / / / / / / / / / / / / y,b#n+P.L.g$>#i@%@!@>#L,~,M,N,M#w.!@9@w@n+-+w@^*X.Q+X.X.z.$.L g+-+<*<*-+U+g+X.*+i+z.z.z.z.z.X.",
"A.A.H#^*A.9@X.X j+X.z.z.<*[$U+g+,$(+X <*v.<*Q+A=w@<*8$j+X.w.!@!@C,O,P,Q,E@8@n@:+b#X./+S.3,U$h+F,/ / / / / / / / / / / / / / / / / / / / / / / / / / / / / / / / / / / / / R,w.^+0.3,w.b#9@#@w.#@V;S,T,[,E@i@Z.u#w.^+[$z.X.-+X.X.z.X m+P X g+<*<*-+g+-+A.Z X g+-+[$X X z.",
"X.A.w.X.A.A.z.*+S$9@z.v.[$X -+<*>+(+X [$U+z.^*w@Q+<*(+B$2@w.!@!@V&',U,Q,E@z$4 :+u#w.Q ~+3,W.W.F,/ / / / / / / / / / / / / / / / / / / / / / / / / / / / / / / / / / / / / V,w.U.4.3,A.b##@w@Q+#@W,S,X,Y,q=u#>#!@b#>.z.z.^*-+w.z.<*X ,$L [$<*-+-+v.g+X.g$k$g+z.z.<*w>:$-+",
"z.A.w.^*w.X.g+T$A.z.g+X >+o+X i+V k+g+<*X -+X.^*Q+X.Y.j+A.w.w.!@V&',Z,`,M#3 S$b#%@w.Y.'>K.X.F$F,/ / / / / / / / / / / / / / / / / / / / / / / / / / / / / / / / / / / / / V,g$G 0.3,A.9@^*A.w.O; 'S,X,.'q=Z.%@u#u#n+X.z.A.g+X.z.z.v.m+L _+g+Q X v.-+-+w.:+Y z.z.w@[$:$-+",
"^*9@w.#@w.X.m+W.X.-+Y >++'A$>+&@M (+Q Y.(+u.#.k+(+Y #.X A.#@w.u#V&@'),Q>i@n@n@S$T$A.l+~*3,{=B$#'/ / / / / / / / / / / / / / / / / / / / / / / / / / / / / / / / / / / / / $'w.M 5.%'A.w@X.9@w.i@&'*'='[,E#%@:+n@u#V.-+L m+%.L Y.Y.L k+B =+,$L M Y v.-+A.g$Y.-+X.X.>+Y g+",
"w@X.X.w.w@U+k+g+z.g+>+,.=.*+l+M L #$=.P.F ;.'++'R.g+k+>+X.A=A.:+&+-';'>'#@4 n@%@b#w.#.~+3,W.h+#'/ / / / / / / / / / / / / / / / / / / / / / / / / / / / / / / / / / / / / ,'T$G 9.''A.A=X.w.9@9@ '~,)'!'`#%@!@b#%@V.g+,+C ~'{']'B I T.L F #.@.L M Z v.A.b#Q X z.z.X g+z.",
"X.w@<*G$G$>+k+g+-+X #.M W o+B V.k+L N.,.B '>+'N.B }$/+>+A.w@X.#@F&^'/'('#@4 :+b##@9@Y.~+3,g+j+#'/ / / / / / / / / / / / / / / / / / / / / / / / / / / / / / / / / / / / / R=A.U.5._'w.9@9@%@%@!@7-~,:'!'>#b#w.w.b#V.Z F <'I x={'&&['}'>.V.F o+=+M #.z.X.H#L X z.z.z.-+X.",
"z.<*g+X.X.Y k+j+-+>+*+>+Y.M ,.Y.o+|'B D T.+'l=&&'+,$/+*+%@9@^*%@X@1'2'3'#@:+n@w.w.<*o%O.3,U$i$#'/ / / / / / / / / / / / / / / / / / / / / / / / / / / / / / / / / / / / / 4'h$C 8=]+A.w.%@:+:+u#5'6'7'8'n@#@w@A.b#J Y U.D 9'+''>0'D l=U.o+#.&&L #.v.X z.H#L >+-+z.<*z.X.",
"X g+X i+z.Y l+h$X.>+l+Y.U.J a'Z #.o%=+}$l+o+Y.Y.(+k$W z.:+#@%@n@E@b'c'd'w.%@:+A.w.z./+~+9.W.W #'/ / / / / / / / / / / / / / / / / / / / / / / / / / / / / / / / / / / / / e'z.M P.M.;+A.9@b#:+i@f'V*g'h'z$b#w@b#%@>.g$Y.#>k+m+G=Y.(+Q (+V i'A$F k+,$[$-+%@/+,$g+<*-+g+z.",
"X g+g+g+g+>+m+%#/@&+%#c#X k+Y.u.u.L V.V.u.~=^+U.,+L Q g$%@w.:+3 w.j'k'l'w.b#w.X.A.z./+R.W T$V$#'/ / / / / / / / / / / / / / / / / / / / / / / / / / / / / / / / / / / / / e'i+X F M.i+w.A.!@%@w.T#s=m'r=S$H#A.!@S$#>o+L !+~=>.V.J V.>.n+V.L n+#.~#V& %n'R%#.m+g+z.z.g+g+",
"-+-+z.g+X ,$L h+;+A.A.%@;*L+s$c#L$%#v#q=&#q=]#(&o'p'8@T$b#A.n@z.q'#*h,,-z.w.X.z.X.<*(+N a@w.W #'/ / / / / / / / / / / / / / / / / / / / / / / / / / / / / / / / / / / / / r'g+b#W P.<*A.#@u##@<*=;s't'u'W b#!@:+%@#@v'w'x'>#(&%#;*c#9*n%&+}=V&&+y g$A.!@%@V.m+g+g+U+[$_+",
"z.g+z.-+X <$N h+z.X.w@X.b#Z.w.%@n@:+w.A.A.v.X.<*<*w.A.w.b#w.n@-+y'z'~=L z.w.z.<*<*-+/+G X.A.W #'/ / / / / / / / / / / / / / / / / / / / / / / / / / / / / / / / / / / / / A'X.h$Y.0.z.X.^*%@%@<*B'C'D'E'Y.S$:+:+4 w@w.w.#@!@#@X.!@n@%@b#X.X.X.9@A.z.z.X.w.U.,$[$X Y Y X ",
"g+X g+[$[$:$L B$T$A.X.X.A.b#z.b#n@!@b#w.w.z.X.z.z.b#:+X.A.w.b#X =,F'^+Q z.A.z.<*-+-+/+M <*X.@.G'/ / / / / / / / / / / / / / / / / / / / / / / / / / / / / / / / / / / / / H'z.X.o+5.z.z.X.#@%@<*i-=,F =,N w.%@%@!@:+b#w.w.%@b#z.A.w.b#A.2@X.g+-+X.-+-+A.A.U.V >+:$Y u>X ",
"X g+-+X Y ,$L j+A.X.z.X.z.h$z.w.w.w.h$z.A.z.z.w.%@:+w.X.z.2@A.Z I'J'V.Q z.w.z.g+i+g+L M -+z.%.G'/ / / / / / / / / / / / / / / / / / / / / / / / / / / / / / / / / / / / / K'z.z.N 5.-+X.-+A.b#z.m+t>#$O.Q h$b#w.%@4 S$!@%@4 b#z.A.2@H#z.z.g+X <*X.A.z.9@H#>.l+>+,$m+m+Y ",
"X X X g+:$,$P U$A.G$-+-+z.g+-+h$L'A.X.h$h$2@A.%@n@b#A.A.z.z.z.Z O.L.D*=.i+z.z.g+g+M'L U.X z.S G'/ / / / / / / / / / / / / / / / / / / / / / / / / / / / / / / / / / / / / N'U$i+O 5.-+z.g+W.b#z.V !+#$S.o+!@!@b#H#b#A.3 %@%@w.X.A.z.A.h$h$g+z.^*X.#@X.A.b#U.l+>+,$m+#.W ",
"Y >+u>Y :$<$L U$A.z.g+g+X.B$g+z.A.b#A.h$z.z.A.%@!@w.A.2@z.-+W.W P.F'^+J j+z.v.X g+g+L C Y B$N O'/ / / / / / / / / / / / / / / / / / / / / / / / / / / / / / / / / / / / / N'z.i+N K.X g+M'-+z.-+V P'F '*Q A.H#H#$@H#u#n@S$A.X.-+A.h$A.h$h$g+v.^*X.z.w.A.b#U.#.u>$.m+k+W ",
"Z u>,$,$Y m+L h+A.z.-+h$A.g+g+i+w.S$S$h$i+z.z.H#H#A.w.w.A.X.-+,$P.L.>.L Y -+X >+Y _+L D Y B$N O'/ / / / / / / / / / / / / / / / / / / / / / / / / / / / / / / / / / / / / N'z.g+L L.X -+g+v.X >+k+!+#$'*L i+z.z.A.2@$@b#T$h$z.X.A.z.A.h$h$w.z.b#h$X.w.A.S$U.#.,$,$l+k+W ",
",$'$'$W ,$m+V.X$z.g+X.w.X.<*z.z.z.Q'H#h$i+z.z.X.w.w.A.z.i+z.i+W D !+Q L Z B$X Z X Z V.F Z Y N O'/ / / / / / / / / / / / / / / / / / / / / / / / / / / / / / / / / / / / / R'j+X L 9.*+g+Y 2+>+>+o+F J ,.Q g+g+z.z.2@A.S$b#w.z.z.A.z.z.z.z.2@h$H#A.A.A.A.3 U.k+,$m+m+l+,$",
"l+m+W m+m+#.L ;+W.W.z.z.X.-+z.z.h$h$2@z.z.z.w.z.i+h$A.i+B$-+i+W !+L Y.N Z S'Y >+Y m+V.C W Z N O'/ / / / / / / / / / / / / / / / / / / / / / / / / / / / / / / / / / / / / T'Z Z L 5.>+*+>+2+>+W o+L V$>.Q g+Y X g+-+X.A.h$b#U'i+z.-+i+M'v.i+z.2@z.i+z.-+w.Q Q m+,$l+l+,$",
"#.#.l+l+#.L ;+z.z.g+z.-+z.B$-+z.z.L'i+i+i+z.z.z.z.h$-+g+Y h+p@W #$V'@.L W Y H+&@Y H+>.F V$Z N O'/ / / / / / / / / / / / / / / / / / / / / / / / / / / / / / / / / / / / / W'Z Z L 5.>+X Y >+Y >+#.N .+U.A$;%X X Y X -+-+z.X.B$g+B$g+S'S'M'v.g+g+i+B$z.X g+X.,-Y.#.k+(+T ",
"M M U.>.U.Z *+Z Z W Y Z Z W Z Y Y Y Y Z Z Z Z Y Y Y Y Z W V$i$N '+,.B ,$,$Z &@V ,$Y M E W Z J O'/ / / / / / / / / / / / / / / / / / / / / / / / / / / / / / / / / / / / / X'V$Z >.]+X Y >+Y Y m+,$M D !+V.U$W m+,$Z *+Y &@>+W W >+W &@W Y Z W W W W W V %.V X U.~=U.#-M ",
"#.#.#.<$W L P.K._'''Y'_'3,3,]+K.3,3,]+]+]+]+K.3,L.8=~*'+T.'>Q.'+V./+Z m+#.T Y.o+;.@.E Z'W Z J O'/ / / / / / / / / / / / / / / / / / / / / / / / / / / / / / / / / / / / / X'Z `'J L.g+Q L l+=+Y.=+W u./+F T.P.P.Q.~+0.5.]+_' )3,3,Y'''_'_'Y' )_'3,L.3,3,]+5.U.=;>+:$'$<$",
".)+)@)+)#)+)$)l.$)I.%)G.&)J.&)@)+)@)+)@)J.l.l.l.@)@)+)@)@)&)@)+)@)&)@)l.I.H.G.l.l.*)=)F m+V G O'/ / / / / / / / / / / / / / / / / / / / / / / / / / / / / / / / / / / / / -)V V ,+;)>)$)l.I.,)I.l.$)@)')')')+)@)@)&)l.I.$)@)J.J.@)@)@)@)&)I.G.l.$)l.$)l.&)@)')))!)')@)@)",
"O.~){+{+{+a.{+P.5.a.L.M.5.5.5.0.O.{+5.a.L.a.a.a.{){)5.5.5.5.{+{+5.5.P.R.=,]){+{+C'^)/)()n+M '>O'/ / / / / / / / / / / / / / / / / / / / / / / / / / / / / / / / / / / / / _)&&G #-:)<)[)=,P.])4.{){+])P.O.)+O.P.a.{){+5.5.{+{){+~)O.O.P.{+5.a.a.5.a.4.5.a.a.])O.})|)a.1)",
"$+A n@3 3 3 ;%e 2)3 3 ;%7 7 w s U&e w #+n@8@z$z$z z y $+w $+w $+g $+g $+$+x z ;%z$A a@#+x $+(*]=/ / / / / / / / / / / / / / / / / / / / / / / / / / / / / / / / / / / / / 3)3*x 0@>$f+#+[+$+t w 8*0@0@D@0@4)t w z 5)a 8@z$E@z$0@w w e 2)x $+(*(*0@w >$(*8@n@n@z$#+**S$b#",
"6)7)8)9)0)a)b)c)d)6)e)j=6)d)f)c)g)h)i)f)6)j=j=j=6)j=6)i)j)k)j)l)l)l)m)d)d)6)j=n)o)j=j=j=p)k)q) -/ / / / / / / / / / / / / / / / / / / / / / / / / / / / / / / / / / / / / r)6)p)p)b)b)b)d)i)s)t)d)j)u)b)d)l)v)i)m)w)d)6)j=j=j=m)l)i)i)d)b)d)b)k)v)j)l)d)m)j=j=j=j=7)x)x)"};
