/* XPM */
static char * so_door7_tex_xpm[] = {
"132 132 1483 2",
"  	c #2C363F",
". 	c #2D3640",
"+ 	c #2C353E",
"@ 	c #2C3640",
"# 	c #2D3741",
"$ 	c #2E3841",
"% 	c #2D3641",
"& 	c #2D3842",
"* 	c #2E3944",
"= 	c #2E3943",
"- 	c #2F3A45",
"; 	c #2E3842",
"> 	c #2F3B46",
", 	c #2F3944",
"' 	c #2F3A46",
") 	c #303C46",
"! 	c #303B46",
"~ 	c #303C47",
"{ 	c #303A45",
"] 	c #313D4A",
"^ 	c #313E4A",
"/ 	c #323E4A",
"( 	c #323F4A",
"_ 	c #313D48",
": 	c #35393C",
"< 	c #393939",
"[ 	c #303B45",
"} 	c #323F4B",
"| 	c #313D49",
"1 	c #303C48",
"2 	c #2E3843",
"3 	c #2E3A44",
"4 	c #2E3942",
"5 	c #2C3641",
"6 	c #2E3741",
"7 	c #2C363E",
"8 	c #2C353F",
"9 	c #22313F",
"0 	c #23313F",
"a 	c #233341",
"b 	c #243341",
"c 	c #243342",
"d 	c #233240",
"e 	c #243543",
"f 	c #243443",
"g 	c #253544",
"h 	c #253646",
"i 	c #253645",
"j 	c #243544",
"k 	c #253545",
"l 	c #263746",
"m 	c #273847",
"n 	c #263645",
"o 	c #273645",
"p 	c #283847",
"q 	c #283948",
"r 	c #293A49",
"s 	c #283949",
"t 	c #273848",
"u 	c #293B4A",
"v 	c #293949",
"w 	c #293B4B",
"x 	c #293A4A",
"y 	c #2A3B4B",
"z 	c #2A3B4A",
"A 	c #2B3D4C",
"B 	c #2C3F4F",
"C 	c #2D3F4F",
"D 	c #2C3F50",
"E 	c #2D4151",
"F 	c #2C3D4C",
"G 	c #33393E",
"H 	c #2B3C4B",
"I 	c #2A3C4B",
"J 	c #293C4B",
"K 	c #2D4050",
"L 	c #283848",
"M 	c #283A49",
"N 	c #273948",
"O 	c #273947",
"P 	c #263846",
"Q 	c #253746",
"R 	c #253543",
"S 	c #233340",
"T 	c #162029",
"U 	c #16212A",
"V 	c #17222C",
"W 	c #17222D",
"X 	c #17232D",
"Y 	c #18222D",
"Z 	c #18242D",
"` 	c #18242E",
" .	c #17242D",
"..	c #192530",
"+.	c #19242F",
"@.	c #1A2630",
"#.	c #1A2732",
"$.	c #1A2631",
"%.	c #1A2833",
"&.	c #18252F",
"*.	c #1B2833",
"=.	c #1B2834",
"-.	c #1A2733",
";.	c #1B2934",
">.	c #1C2934",
",.	c #1C2A35",
"'.	c #1C2A36",
").	c #1D2A36",
"!.	c #1D2B38",
"~.	c #1E2D39",
"{.	c #1F2F3C",
"].	c #1F2E3B",
"^.	c #1F2E3A",
"/.	c #1F2C39",
"(.	c #313437",
"_.	c #303337",
":.	c #1F2C38",
"<.	c #1E2C38",
"[.	c #1C2B37",
"}.	c #1D2D3A",
"|.	c #1D2B37",
"1.	c #1C2935",
"2.	c #1B2733",
"3.	c #1B2933",
"4.	c #1A2632",
"5.	c #1A2731",
"6.	c #192631",
"7.	c #192630",
"8.	c #19252F",
"9.	c #18232D",
"0.	c #17232C",
"a.	c #060B0E",
"b.	c #060B0F",
"c.	c #060C10",
"d.	c #070C11",
"e.	c #070B10",
"f.	c #070C10",
"g.	c #070D11",
"h.	c #070D12",
"i.	c #080D12",
"j.	c #070D13",
"k.	c #080E12",
"l.	c #080E13",
"m.	c #080F14",
"n.	c #080D13",
"o.	c #080E14",
"p.	c #090E14",
"q.	c #091015",
"r.	c #09131B",
"s.	c #091C2B",
"t.	c #0F1E29",
"u.	c #131F27",
"v.	c #131E27",
"w.	c #131C24",
"x.	c #2F3031",
"y.	c #2E2F31",
"z.	c #131E26",
"A.	c #141F28",
"B.	c #121E27",
"C.	c #091C29",
"D.	c #08151F",
"E.	c #081015",
"F.	c #090F14",
"G.	c #090F15",
"H.	c #0B141A",
"I.	c #0C1319",
"J.	c #0C141A",
"K.	c #0B1219",
"L.	c #0B1218",
"M.	c #0C131A",
"N.	c #0B1319",
"O.	c #0D151B",
"P.	c #0C141B",
"Q.	c #0B131A",
"R.	c #0D151C",
"S.	c #0E171E",
"T.	c #0C151B",
"U.	c #0A1117",
"V.	c #0A1116",
"W.	c #0E1821",
"X.	c #0F1E2A",
"Y.	c #192733",
"Z.	c #20303E",
"`.	c #223341",
" +	c #303336",
".+	c #2F3236",
"++	c #21313F",
"@+	c #223340",
"#+	c #101E28",
"$+	c #0E1A23",
"%+	c #0B151B",
"&+	c #0A1218",
"*+	c #0F161E",
"=+	c #0E161D",
"-+	c #0D161C",
";+	c #0E171D",
">+	c #0F181F",
",+	c #0A1217",
"'+	c #131D26",
")+	c #121D26",
"!+	c #121C24",
"~+	c #111B23",
"{+	c #121D25",
"]+	c #121C25",
"^+	c #131D27",
"/+	c #142028",
"(+	c #14202A",
"_+	c #142029",
":+	c #16212B",
"<+	c #15222C",
"[+	c #15212B",
"}+	c #16222B",
"|+	c #182530",
"1+	c #192732",
"2+	c #21313E",
"3+	c #21323F",
"4+	c #1C2B36",
"5+	c #233644",
"6+	c #1E303F",
"7+	c #293C4C",
"8+	c #313438",
"9+	c #2F3337",
"0+	c #263947",
"a+	c #283B4A",
"b+	c #192834",
"c+	c #263B4B",
"d+	c #1F2F3B",
"e+	c #1D2C38",
"f+	c #20313E",
"g+	c #22333F",
"h+	c #1E2E3A",
"i+	c #192731",
"j+	c #16222C",
"k+	c #15212C",
"l+	c #16232D",
"m+	c #15202A",
"n+	c #131F28",
"o+	c #111B24",
"p+	c #111C24",
"q+	c #1B2A35",
"r+	c #1B2A36",
"s+	c #1A2934",
"t+	c #182631",
"u+	c #1B2935",
"v+	c #1F303C",
"w+	c #243644",
"x+	c #273949",
"y+	c #283B4B",
"z+	c #2A3E4E",
"A+	c #2C4253",
"B+	c #243847",
"C+	c #1E2E3B",
"D+	c #283C4C",
"E+	c #2A3F4F",
"F+	c #243442",
"G+	c #313538",
"H+	c #303438",
"I+	c #283A4B",
"J+	c #293D4D",
"K+	c #273B4C",
"L+	c #2D4253",
"M+	c #2B4050",
"N+	c #2B3F4F",
"O+	c #2B4051",
"P+	c #2A3E4D",
"Q+	c #263948",
"R+	c #20303D",
"S+	c #202F3B",
"T+	c #21303E",
"U+	c #20303C",
"V+	c #1C2B38",
"W+	c #1D2C39",
"X+	c #192632",
"Y+	c #18242F",
"Z+	c #1F2D39",
"`+	c #1E2C39",
" @	c #263744",
".@	c #2C4151",
"+@	c #2C4152",
"@@	c #2A3F4E",
"#@	c #2E4354",
"$@	c #2E4455",
"%@	c #2D4353",
"&@	c #2F4456",
"*@	c #2D4354",
"=@	c #2D4454",
"-@	c #32485A",
";@	c #324A5C",
">@	c #32495B",
",@	c #32495C",
"'@	c #31485B",
")@	c #31485A",
"!@	c #2C4354",
"~@	c #1E303E",
"{@	c #1E2D3A",
"]@	c #293E4E",
"^@	c #2A3E4F",
"/@	c #2E4557",
"(@	c #263C4C",
"_@	c #2A3F50",
":@	c #323639",
"<@	c #303539",
"[@	c #2B4153",
"}@	c #203240",
"|@	c #2D4355",
"1@	c #293D4E",
"2@	c #2B3F51",
"3@	c #1F2F3D",
"4@	c #293D4B",
"5@	c #344B5E",
"6@	c #314658",
"7@	c #314859",
"8@	c #2F4557",
"9@	c #304658",
"0@	c #2D4252",
"a@	c #2B4151",
"b@	c #2B3F50",
"c@	c #2C4051",
"d@	c #253745",
"e@	c #253846",
"f@	c #243746",
"g@	c #233544",
"h@	c #233342",
"i@	c #223442",
"j@	c #233543",
"k@	c #2E4355",
"l@	c #2E4353",
"m@	c #2B4152",
"n@	c #304759",
"o@	c #344C5F",
"p@	c #2D4457",
"q@	c #1E313F",
"r@	c #243745",
"s@	c #233443",
"t@	c #2A3D4E",
"u@	c #2E4558",
"v@	c #2E4659",
"w@	c #294052",
"x@	c #293E4F",
"y@	c #2B4052",
"z@	c #273745",
"A@	c #32363A",
"B@	c #30353A",
"C@	c #293D4C",
"D@	c #2C4355",
"E@	c #213443",
"F@	c #2F4558",
"G@	c #223240",
"H@	c #374F62",
"I@	c #2E4456",
"J@	c #2F4457",
"K@	c #2D4455",
"L@	c #2B3E4F",
"M@	c #223441",
"N@	c #233444",
"O@	c #243645",
"P@	c #233442",
"Q@	c #253847",
"R@	c #273A49",
"S@	c #304558",
"T@	c #2E4457",
"U@	c #2D4152",
"V@	c #30485B",
"W@	c #31495D",
"X@	c #2D4659",
"Y@	c #1F3342",
"Z@	c #223543",
"`@	c #223542",
" #	c #2D4557",
".#	c #30475A",
"+#	c #2B4254",
"@#	c #2C4254",
"##	c #273846",
"$#	c #33373B",
"%#	c #30363B",
"&#	c #213343",
"*#	c #2F4659",
"=#	c #2A4052",
"-#	c #2C4153",
";#	c #213240",
">#	c #223645",
",#	c #31485C",
"'#	c #30485A",
")#	c #31495C",
"!#	c #31475A",
"~#	c #2E4658",
"{#	c #273A4A",
"]#	c #233645",
"^#	c #334A5C",
"/#	c #304557",
"(#	c #2D4254",
"_#	c #304659",
":#	c #32495D",
"<#	c #324A5E",
"[#	c #1B2F3D",
"}#	c #2A3F51",
"|#	c #293E50",
"1#	c #30373C",
"2#	c #203341",
"3#	c #32495E",
"4#	c #1A2B38",
"5#	c #30495C",
"6#	c #324A5D",
"7#	c #334B5E",
"8#	c #2F4658",
"9#	c #374E62",
"0#	c #253848",
"a#	c #233646",
"b#	c #243646",
"c#	c #273A4B",
"d#	c #22323F",
"e#	c #344A5D",
"f#	c #304657",
"g#	c #314759",
"h#	c #334A5E",
"i#	c #344C60",
"j#	c #324B5F",
"k#	c #334C61",
"l#	c #2E485B",
"m#	c #1D3140",
"n#	c #263A49",
"o#	c #253949",
"p#	c #2D4356",
"q#	c #33373C",
"r#	c #30373D",
"s#	c #1F303F",
"t#	c #1D2E3B",
"u#	c #334A5D",
"v#	c #344D61",
"w#	c #375063",
"x#	c #273B4B",
"y#	c #263A4A",
"z#	c #283B4C",
"A#	c #293C4D",
"B#	c #314758",
"C#	c #334B5F",
"D#	c #334C60",
"E#	c #344D62",
"F#	c #314A5F",
"G#	c #1F3241",
"H#	c #2D4357",
"I#	c #34383D",
"J#	c #31383F",
"K#	c #1F303E",
"L#	c #1E2F3D",
"M#	c #324A5F",
"N#	c #30475B",
"O#	c #344D60",
"P#	c #354E61",
"Q#	c #354D61",
"R#	c #344E62",
"S#	c #354D62",
"T#	c #385164",
"U#	c #283D4C",
"V#	c #293B4C",
"W#	c #283A4A",
"X#	c #344C5E",
"Y#	c #324C5F",
"Z#	c #2F485C",
"`#	c #1F3140",
" $	c #1A2834",
".$	c #2E4458",
"+$	c #34393D",
"@$	c #31393F",
"#$	c #1E303D",
"$$	c #2D4558",
"%$	c #2C4052",
"&$	c #314A5E",
"*$	c #344C61",
"=$	c #354E62",
"-$	c #354E63",
";$	c #385165",
">$	c #253948",
",$	c #263848",
"'$	c #273B4A",
")$	c #334B5D",
"!$	c #334D61",
"~$	c #2F495D",
"{$	c #203140",
"]$	c #35393D",
"^$	c #313940",
"/$	c #2A4051",
"($	c #233746",
"_$	c #3A5368",
":$	c #263847",
"<$	c #253947",
"[$	c #2A3D4D",
"}$	c #2C4252",
"|$	c #334B60",
"1$	c #2F475B",
"2$	c #233545",
"3$	c #1C2B39",
"4$	c #2B4154",
"5$	c #2D4456",
"6$	c #243846",
"7$	c #395367",
"8$	c #344B60",
"9$	c #1E3140",
"0$	c #253747",
"a$	c #283E4F",
"b$	c #35393E",
"c$	c #313A41",
"d$	c #293D4F",
"e$	c #1B2C39",
"f$	c #30465A",
"g$	c #375064",
"h$	c #33495B",
"i$	c #17242E",
"j$	c #203444",
"k$	c #2F475A",
"l$	c #353A3E",
"m$	c #313A42",
"n$	c #182734",
"o$	c #223544",
"p$	c #283C4B",
"q$	c #1D2D39",
"r$	c #1C2C39",
"s$	c #314C60",
"t$	c #2B475C",
"u$	c #213D51",
"v$	c #243E50",
"w$	c #17242F",
"x$	c #1D2E3C",
"y$	c #253B4D",
"z$	c #253E52",
"A$	c #2A465A",
"B$	c #1E2F3B",
"C$	c #1D2E39",
"D$	c #1F303D",
"E$	c #1C2C38",
"F$	c #2E4352",
"G$	c #2B3E4E",
"H$	c #30485C",
"I$	c #37546B",
"J$	c #1F4965",
"K$	c #1A74A2",
"L$	c #2A495E",
"M$	c #2A4153",
"N$	c #1A2935",
"O$	c #323B43",
"P$	c #1A2A36",
"Q$	c #1C2D3A",
"R$	c #2C4659",
"S$	c #2A5B7B",
"T$	c #265F82",
"U$	c #305069",
"V$	c #365064",
"W$	c #233542",
"X$	c #1F2E39",
"Y$	c #1E2D38",
"Z$	c #20313D",
"`$	c #20303B",
" %	c #1D2C37",
".%	c #355065",
"+%	c #1D4864",
"@%	c #127BB7",
"#%	c #2A4A61",
"$%	c #2C4356",
"%%	c #283E4E",
"&%	c #1B2B38",
"*%	c #2E4A5E",
"=%	c #286388",
"-%	c #246287",
";%	c #2F4E66",
">%	c #202F3A",
",%	c #1B2A34",
"'%	c #202F3C",
")%	c #233440",
"!%	c #1D2C36",
"~%	c #21303B",
"{%	c #21313D",
"]%	c #21333F",
"^%	c #385268",
"/%	c #1E4864",
"(%	c #137BB9",
"_%	c #2B4B61",
":%	c #273C4C",
"<%	c #303941",
"[%	c #2F4A5E",
"}%	c #296489",
"|%	c #236389",
"1%	c #2F4F66",
"2%	c #30485D",
"3%	c #233441",
"4%	c #21303D",
"5%	c #243542",
"6%	c #21303C",
"7%	c #1E4966",
"8%	c #0F7CC1",
"9%	c #2B4A61",
"0%	c #283D4D",
"a%	c #2B404F",
"b%	c #363A3D",
"c%	c #313B43",
"d%	c #28658A",
"e%	c #23668D",
"f%	c #2F5067",
"g%	c #2E475A",
"h%	c #334C5F",
"i%	c #233643",
"j%	c #223440",
"k%	c #263745",
"l%	c #2E4253",
"m%	c #385368",
"n%	c #1F4966",
"o%	c #0E7DC4",
"p%	c #2C4B62",
"q%	c #36393D",
"r%	c #313A43",
"s%	c #2A6488",
"t%	c #22668F",
"u%	c #2F5069",
"v%	c #2A3E50",
"w%	c #365267",
"x%	c #1E4765",
"y%	c #1279C2",
"z%	c #2D4A61",
"A%	c #303A44",
"B%	c #2A668B",
"C%	c #216690",
"D%	c #2F526B",
"E%	c #2C4456",
"F%	c #32485B",
"G%	c #365167",
"H%	c #1277C2",
"I%	c #2F485D",
"J%	c #2B658A",
"K%	c #206692",
"L%	c #30526B",
"M%	c #31495E",
"N%	c #293F4F",
"O%	c #293F50",
"P%	c #233745",
"Q%	c #354F65",
"R%	c #1E4967",
"S%	c #107AC4",
"T%	c #2E4C63",
"U%	c #363A3E",
"V%	c #313B45",
"W%	c #293E4D",
"X%	c #1B2B36",
"Y%	c #2F495E",
"Z%	c #2B658C",
"`%	c #1F6693",
" &	c #30536D",
".&	c #2C4457",
"+&	c #344F64",
"@&	c #0F7BC7",
"#&	c #2D4C63",
"$&	c #2F3A43",
"%&	c #2C658B",
"&&	c #1F6692",
"*&	c #30526C",
"=&	c #2D4458",
"-&	c #283C4D",
";&	c #253845",
">&	c #26394A",
",&	c #1E4763",
"'&	c #0F7AC6",
")&	c #2C4C63",
"!&	c #2F4A5F",
"~&	c #21668F",
"{&	c #2F5169",
"]&	c #2C4255",
"^&	c #2A4050",
"/&	c #283D4E",
"(&	c #204763",
"_&	c #0F7CC6",
":&	c #303B44",
"<&	c #216790",
"[&	c #263845",
"}&	c #2A4152",
"|&	c #1F4763",
"1&	c #0E7DC5",
"2&	c #2C4D64",
"3&	c #2F3B45",
"4&	c #2B4253",
"5&	c #304A5F",
"6&	c #22658F",
"7&	c #2F4759",
"8&	c #1F4864",
"9&	c #0D7EC7",
"0&	c #2D4E65",
"a&	c #2B6386",
"b&	c #23648C",
"c&	c #1D445F",
"d&	c #127CBC",
"e&	c #2B4B62",
"f&	c #18252E",
"g&	c #36393C",
"h&	c #2F3A44",
"i&	c #2E4559",
"j&	c #2D475B",
"k&	c #2B6081",
"l&	c #266083",
"m&	c #2B4A60",
"n&	c #253A4A",
"o&	c #2A3F52",
"p&	c #1F3A4E",
"q&	c #2A5875",
"r&	c #253F53",
"s&	c #254A62",
"t&	c #224862",
"u&	c #1C3040",
"v&	c #263949",
"w&	c #253A49",
"x&	c #2C4759",
"y&	c #244055",
"z&	c #254F69",
"A&	c #243C4E",
"B&	c #2E3A43",
"C&	c #273E50",
"D&	c #25485E",
"E&	c #254962",
"F&	c #294458",
"G&	c #304758",
"H&	c #1D4561",
"I&	c #1B73A7",
"J&	c #28485F",
"K&	c #37393C",
"L&	c #293F51",
"M&	c #294356",
"N&	c #2A5F80",
"O&	c #255F83",
"P&	c #2C4960",
"Q&	c #1D4764",
"R&	c #127BBD",
"S&	c #2A4B62",
"T&	c #2E3A45",
"U&	c #2C475B",
"V&	c #236289",
"W&	c #2E4D65",
"X&	c #1E4A67",
"Y&	c #107CC4",
"Z&	c #2A4A62",
"`&	c #293E4C",
" *	c #2E3A46",
".*	c #2C485D",
"+*	c #29668C",
"@*	c #216590",
"#*	c #223443",
"$*	c #1E4866",
"%*	c #107BC4",
"&*	c #2D3A44",
"**	c #29668A",
"=*	c #206792",
"-*	c #2D4F68",
";*	c #304859",
">*	c #1E4A68",
",*	c #107BC3",
"'*	c #2A4961",
")*	c #37393B",
"!*	c #2D3943",
"~*	c #2B475B",
"{*	c #1D4966",
"]*	c #1279BD",
"^*	c #2A485F",
"/*	c #2D3A45",
"(*	c #2B4559",
"_*	c #296386",
":*	c #236489",
"<*	c #2D4F67",
"[*	c #2B4252",
"}*	c #1579B5",
"|*	c #29485E",
"1*	c #2B4558",
"2*	c #296082",
"3*	c #256083",
"4*	c #2A3D4C",
"5*	c #263B4C",
"6*	c #1D2F3B",
"7*	c #1A384C",
"8*	c #21526E",
"9*	c #253E51",
"0*	c #2C3842",
"a*	c #214962",
"b*	c #204962",
"c*	c #2B4457",
"d*	c #1A2A37",
"e*	c #1A3040",
"f*	c #2C3742",
"g*	c #1D303F",
"h*	c #1C2E3D",
"i*	c #17232E",
"j*	c #2C3944",
"k*	c #253A48",
"l*	c #38393B",
"m*	c #2D3B45",
"n*	c #15212A",
"o*	c #37393A",
"p*	c #2B3944",
"q*	c #152029",
"r*	c #1F303B",
"s*	c #213341",
"t*	c #213442",
"u*	c #213340",
"v*	c #273C4A",
"w*	c #273A48",
"x*	c #38393A",
"y*	c #2C3945",
"z*	c #20313F",
"A*	c #172B39",
"B*	c #182833",
"C*	c #2B3844",
"D*	c #172936",
"E*	c #213647",
"F*	c #284155",
"G*	c #1B3F56",
"H*	c #255A77",
"I*	c #1F394B",
"J*	c #273B49",
"K*	c #293F4E",
"L*	c #2A3843",
"M*	c #223746",
"N*	c #285773",
"O*	c #1B445D",
"P*	c #223E53",
"Q*	c #294357",
"R*	c #1D4159",
"S*	c #1973A8",
"T*	c #24648A",
"U*	c #2B495F",
"V*	c #293642",
"W*	c #275471",
"X*	c #0F7DC0",
"Y*	c #1E4964",
"Z*	c #264257",
"`*	c #294153",
" =	c #1D3F56",
".=	c #1C6F9F",
"+=	c #1E6D9C",
"@=	c #2D536D",
"#=	c #293743",
"$=	c #304D64",
"%=	c #285E81",
"&=	c #0980C9",
"*=	c #1E4863",
"==	c #264055",
"-=	c #273C4D",
";=	c #1B3648",
">=	c #1A72A5",
",=	c #2D5570",
"'=	c #192833",
")=	c #2A3844",
"!=	c #24638A",
"~=	c #147AB2",
"{=	c #1C3E54",
"]=	c #273C4B",
"^=	c #1A3141",
"/=	c #1D3B4F",
"(=	c #285D7C",
"_=	c #2B536D",
":=	c #293844",
"<=	c #2F4D65",
"[=	c #285A78",
"}=	c #1F425A",
"|=	c #1A3346",
"1=	c #253C4E",
"2=	c #1B394F",
"3=	c #275876",
"4=	c #285A77",
"5=	c #2A4C62",
"6=	c #293845",
"7=	c #2D4A60",
"8=	c #224D68",
"9=	c #206A96",
"0=	c #1C4057",
"a=	c #253F52",
"b=	c #253946",
"c=	c #263B4A",
"d=	c #1D3C53",
"e=	c #275777",
"f=	c #127DBD",
"g=	c #2C4E65",
"h=	c #1971A8",
"i=	c #216692",
"j=	c #1B3E56",
"k=	c #263E51",
"l=	c #283E51",
"m=	c #1E3D54",
"n=	c #265474",
"o=	c #2D5774",
"p=	c #2B465B",
"q=	c #182630",
"r=	c #21323E",
"s=	c #383939",
"t=	c #263641",
"u=	c #2C4559",
"v=	c #2E526D",
"w=	c #1474B3",
"x=	c #236189",
"y=	c #1B3D56",
"z=	c #263C4F",
"A=	c #283F50",
"B=	c #1D3C54",
"C=	c #234E6C",
"D=	c #0782D3",
"E=	c #2B5B7B",
"F=	c #2C485E",
"G=	c #15222A",
"H=	c #263440",
"I=	c #141F27",
"J=	c #2C4458",
"K=	c #2D5470",
"L=	c #0E7ABF",
"M=	c #265B7D",
"N=	c #1A3A4F",
"O=	c #243A4B",
"P=	c #243948",
"Q=	c #1E3B50",
"R=	c #1F4C6A",
"S=	c #0382DA",
"T=	c #2A5C7E",
"U=	c #2C4A60",
"V=	c #24323F",
"W=	c #233642",
"X=	c #141E26",
"Y=	c #0E7CC3",
"Z=	c #275676",
"`=	c #193549",
" -	c #25394B",
".-	c #1E3241",
"+-	c #193950",
"@-	c #295F82",
"#-	c #2C4A62",
"$-	c #1E2E39",
"%-	c #1C2933",
"&-	c #151F27",
"*-	c #2B5471",
"=-	c #1A2C3A",
"--	c #1D2E3A",
";-	c #253A4B",
">-	c #162936",
",-	c #1A3447",
"'-	c #2B516C",
")-	c #2D4B61",
"!-	c #1C2C37",
"~-	c #333537",
"{-	c #282D32",
"]-	c #284F69",
"^-	c #1E4256",
"/-	c #162733",
"(-	c #162835",
"_-	c #283C4A",
":-	c #101C25",
"<-	c #141D26",
"[-	c #353738",
"}-	c #252E35",
"|-	c #24394A",
"1-	c #1A2D3A",
"2-	c #172430",
"3-	c #213342",
"4-	c #203340",
"5-	c #16242E",
"6-	c #182732",
"7-	c #152531",
"8-	c #122C3E",
"9-	c #103C55",
"0-	c #383839",
"a-	c #212F3A",
"b-	c #2E4556",
"c-	c #2B4354",
"d-	c #17252F",
"e-	c #273D4C",
"f-	c #1C303D",
"g-	c #162C3B",
"h-	c #124361",
"i-	c #11688D",
"j-	c #103447",
"k-	c #35383A",
"l-	c #29343E",
"m-	c #324859",
"n-	c #1A2933",
"o-	c #1B3140",
"p-	c #153143",
"q-	c #134B6C",
"r-	c #0B729B",
"s-	c #10394F",
"t-	c #35383B",
"u-	c #293640",
"v-	c #2C4558",
"w-	c #273D4E",
"x-	c #213645",
"y-	c #245570",
"z-	c #27455C",
"A-	c #263C4D",
"B-	c #163449",
"C-	c #144D6E",
"D-	c #0A749E",
"E-	c #103B52",
"F-	c #283641",
"G-	c #284255",
"H-	c #263F52",
"I-	c #205371",
"J-	c #233B4D",
"K-	c #233B4C",
"L-	c #127CA8",
"M-	c #274F6C",
"N-	c #263D4F",
"O-	c #153449",
"P-	c #154D6F",
"Q-	c #0774A3",
"R-	c #103B53",
"S-	c #29495F",
"T-	c #0E7BAD",
"U-	c #234358",
"V-	c #1B2B37",
"W-	c #243E4F",
"X-	c #0A84B7",
"Y-	c #28516F",
"Z-	c #273E51",
"`-	c #294051",
" ;	c #1B303F",
".;	c #153247",
"+;	c #144C6E",
"@;	c #0675A5",
"#;	c #0F3A52",
"$;	c #284256",
"%;	c #283E4D",
"&;	c #2A4B61",
"*;	c #0783B8",
"=;	c #24455B",
"-;	c #0E81B0",
";;	c #28506C",
">;	c #153347",
",;	c #144C6D",
"';	c #0973A0",
");	c #28343F",
"!;	c #274053",
"~;	c #2A495F",
"{;	c #0C7EAC",
"];	c #19262F",
"^;	c #283A48",
"/;	c #233848",
"(;	c #275E7C",
"_;	c #29475D",
":;	c #1C3141",
"<;	c #153043",
"[;	c #144A6B",
"};	c #0975A1",
"|;	c #103B51",
"1;	c #284154",
"2;	c #275B77",
"3;	c #243C4F",
"4;	c #2A3D4B",
"5;	c #1E2C37",
"6;	c #263F51",
"7;	c #1D3241",
"8;	c #152D3D",
"9;	c #144764",
"0;	c #0D7299",
"a;	c #11384D",
"b;	c #35373A",
"c;	c #28323C",
"d;	c #283F51",
"e;	c #273F51",
"f;	c #16222D",
"g;	c #15364A",
"h;	c #124D69",
"i;	c #212F3B",
"j;	c #1B2D3A",
"k;	c #172A3A",
"l;	c #2D373F",
"m;	c #1C2D39",
"n;	c #2F3439",
"o;	c #333639",
"p;	c #1E3749",
"q;	c #27526E",
"r;	c #27455B",
"s;	c #2F363C",
"t;	c #204A63",
"u;	c #214A60",
"v;	c #1B2E3C",
"w;	c #2E4759",
"x;	c #224259",
"y;	c #0880D0",
"z;	c #285C7E",
"A;	c #254259",
"B;	c #33363A",
"C;	c #2E343A",
"D;	c #24526F",
"E;	c #088ACD",
"F;	c #254E68",
"G;	c #2A4254",
"H;	c #2F4C62",
"I;	c #285372",
"J;	c #008AE3",
"K;	c #275675",
"L;	c #254156",
"M;	c #2E3439",
"N;	c #283F53",
"O;	c #244E69",
"P;	c #0683D2",
"Q;	c #276083",
"R;	c #2F5168",
"S;	c #295979",
"T;	c #0087E2",
"U;	c #265270",
"V;	c #253F54",
"W;	c #17252E",
"X;	c #33373A",
"Y;	c #2E353B",
"Z;	c #273D4F",
"`;	c #254A63",
" >	c #0A7ECC",
".>	c #216997",
"+>	c #294E68",
"@>	c #2B4356",
"#>	c #2B4E66",
"$>	c #266088",
"%>	c #0188DB",
"&>	c #25516E",
"*>	c #263F53",
"=>	c #34373B",
"->	c #2F353C",
";>	c #1479B7",
">>	c #1B71A7",
",>	c #284E68",
"'>	c #2D475C",
")>	c #2B4F67",
"!>	c #236692",
"~>	c #117EBB",
"{>	c #234C66",
"]>	c #274052",
"^>	c #34373A",
"/>	c #2E353C",
"(>	c #26475D",
"_>	c #1D6F9E",
":>	c #1577B4",
"<>	c #28506B",
"[>	c #2D485D",
"}>	c #213441",
"|>	c #223342",
"1>	c #2D485B",
"2>	c #2B4F68",
"3>	c #226994",
"4>	c #256487",
"5>	c #213E51",
"6>	c #2B3F4E",
"7>	c #213A4C",
"8>	c #205571",
"9>	c #137AB1",
"0>	c #274F69",
"a>	c #304D63",
"b>	c #2E495D",
"c>	c #27465C",
"d>	c #224358",
"e>	c #224A66",
"f>	c #234258",
"g>	c #1B2B35",
"h>	c #264256",
"i>	c #1E4B64",
"j>	c #204157",
"k>	c #24465C",
"l>	c #2E4C61",
"m>	c #244155",
"n>	c #0C7EC5",
"o>	c #23648E",
"p>	c #24435A",
"q>	c #34383B",
"r>	c #2E363C",
"s>	c #274357",
"t>	c #235572",
"u>	c #0886C7",
"v>	c #23475E",
"w>	c #2F4B60",
"x>	c #26516F",
"y>	c #0083DD",
"z>	c #265C82",
"A>	c #234157",
"B>	c #152129",
"C>	c #2D353C",
"D>	c #264054",
"E>	c #224F6C",
"F>	c #0588D4",
"G>	c #265471",
"H>	c #2F4D63",
"I>	c #0181DA",
"J>	c #255372",
"K>	c #0882CF",
"L>	c #27597A",
"M>	c #2C4C64",
"N>	c #2E516A",
"O>	c #245170",
"P>	c #1774AD",
"Q>	c #1E3C51",
"R>	c #2D343B",
"S>	c #1E3546",
"T>	c #206A99",
"U>	c #294D66",
"V>	c #15232C",
"W>	c #1D2D38",
"X>	c #2A485C",
"Y>	c #203E52",
"Z>	c #192A38",
"`>	c #172733",
" ,	c #1F3C4F",
".,	c #28455A",
"+,	c #1F313E",
"@,	c #2C353B",
"#,	c #2C333B",
"$,	c #213241",
"%,	c #343739",
"&,	c #2C333A",
"*,	c #15222D",
"=,	c #182834",
"-,	c #1E2F3C",
";,	c #353739",
">,	c #182632",
",,	c #162D3D",
"',	c #17455B",
"),	c #1D3342",
"!,	c #18384B",
"~,	c #16394E",
"{,	c #23394A",
"],	c #1F2E3C",
"^,	c #163E57",
"/,	c #1A7198",
"(,	c #204054",
"_,	c #2B3239",
":,	c #253D4F",
"<,	c #255673",
"[,	c #1F5978",
"},	c #244257",
"|,	c #17425D",
"1,	c #147AAD",
"2,	c #204359",
"3,	c #295D7D",
"4,	c #235E7F",
"5,	c #25455B",
"6,	c #184461",
"7,	c #107CB7",
"8,	c #22445B",
"9,	c #2A3239",
"0,	c #2A5E7F",
"a,	c #225F82",
"b,	c #18435F",
"c,	c #107CB8",
"d,	c #21445B",
"e,	c #2A323A",
"f,	c #2A5F7F",
"g,	c #235F83",
"h,	c #24445B",
"i,	c #18425E",
"j,	c #0F7DBB",
"k,	c #21445C",
"l,	c #14212B",
"m,	c #243F53",
"n,	c #295F7F",
"o,	c #236084",
"p,	c #20323F",
"q,	c #17415D",
"r,	c #117CB9",
"s,	c #243E52",
"t,	c #2A5F7E",
"u,	c #226084",
"v,	c #25394A",
"w,	c #17405B",
"x,	c #147AB1",
"y,	c #204257",
"z,	c #293138",
"A,	c #223C4E",
"B,	c #2A5E7C",
"C,	c #234359",
"D,	c #173D57",
"E,	c #1677AA",
"F,	c #204155",
"G,	c #2A3139",
"H,	c #2A5C79",
"I,	c #255D7D",
"J,	c #214055",
"K,	c #1D2F3D",
"L,	c #17354A",
"M,	c #21607E",
"N,	c #1D394C",
"O,	c #293139",
"P,	c #203646",
"Q,	c #204F6A",
"R,	c #1E506B",
"S,	c #1A3345",
"T,	c #182D3B",
"U,	c #1F3E52",
"V,	c #1C2F3D",
"W,	c #1F3340",
"X,	c #1E384B",
"Y,	c #1F394D",
"Z,	c #1A2B39",
"`,	c #202F3D",
" '	c #1A3F57",
".'	c #1C6A8D",
"+'	c #1D3C4F",
"@'	c #293038",
"#'	c #21394A",
"$'	c #23536F",
"%'	c #1F5471",
"&'	c #27455A",
"*'	c #153F59",
"='	c #1578A7",
"-'	c #1F4055",
";'	c #283038",
">'	c #2A5C7A",
",'	c #225978",
"''	c #224258",
")'	c #263A4B",
"!'	c #16415C",
"~'	c #137AB0",
"{'	c #363739",
"]'	c #233C4E",
"^'	c #2A5E7E",
"/'	c #235A7A",
"('	c #253849",
"_'	c #127BB1",
":'	c #223B4D",
"<'	c #225B7C",
"['	c #234257",
"}'	c #17425E",
"|'	c #117CB4",
"1'	c #20445A",
"2'	c #273037",
"3'	c #2B5F7F",
"4'	c #235D7E",
"5'	c #107DB7",
"6'	c #272F37",
"7'	c #223A4C",
"8'	c #245C7E",
"9'	c #244359",
"0'	c #107DB9",
"a'	c #20435A",
"b'	c #223C4D",
"c'	c #24445A",
"d'	c #192730",
"e'	c #17405C",
"f'	c #363738",
"g'	c #272F36",
"h'	c #111C23",
"i'	c #233C4D",
"j'	c #2B607F",
"k'	c #235C7F",
"l'	c #163F5B",
"m'	c #127AB7",
"n'	c #204258",
"o'	c #262E35",
"p'	c #235B7E",
"q'	c #224157",
"r'	c #152028",
"s'	c #1B2832",
"t'	c #18232C",
"u'	c #153E59",
"v'	c #1379AF",
"w'	c #1E4156",
"x'	c #225C7E",
"y'	c #17222B",
"z'	c #19252E",
"A'	c #142129",
"B'	c #143D57",
"C'	c #1279A9",
"D'	c #1D4056",
"E'	c #242C33",
"F'	c #223A4B",
"G'	c #2B5E7B",
"H'	c #225B7D",
"I'	c #223F54",
"J'	c #162129",
"K'	c #273946",
"L'	c #133A51",
"M'	c #167198",
"N'	c #1C3D51",
"O'	c #232B32",
"P'	c #21384A",
"Q'	c #205978",
"R'	c #213C4F",
"S'	c #293B49",
"T'	c #142B3C",
"U'	c #184057",
"V'	c #1B2E3D",
"W'	c #17384E",
"X'	c #294050",
"Y'	c #243848",
"Z'	c #253C4C",
"`'	c #142430",
" )	c #232C33",
".)	c #172835",
"+)	c #1F3749",
"@)	c #182F3E",
"#)	c #263D4E",
"$)	c #263D4D",
"%)	c #233846",
"&)	c #111F2A",
"*)	c #0F1A23",
"=)	c #242C34",
"-)	c #1B2A37",
";)	c #131F29",
">)	c #15232D",
",)	c #12202A",
"')	c #111C25",
"))	c #373738",
"!)	c #232B34",
"~)	c #14212A",
"{)	c #111D25",
"])	c #232B33",
"^)	c #222B33",
"/)	c #373838",
"()	c #16232E",
"_)	c #222A32",
":)	c #202A32",
"<)	c #21303F",
"[)	c #23333F",
"})	c #202931",
"|)	c #1F272E",
"1)	c #192832",
"2)	c #202E3B",
"3)	c #0C151C",
"4)	c #0E181F",
"5)	c #0F1820",
"6)	c #0F1920",
"7)	c #101920",
"8)	c #101A20",
"9)	c #0E161C",
"0)	c #0F171F",
"a)	c #0F1921",
"b)	c #111E28",
"c)	c #1E262D",
"d)	c #121F28",
"e)	c #111C26",
"f)	c #0D161E",
"g)	c #101A21",
"h)	c #101B23",
"i)	c #101B22",
"j)	c #0D181F",
"k)	c #0C161C",
"l)	c #101A22",
"m)	c #141F29",
"n)	c #131E28",
"o)	c #132029",
"p)	c #13222D",
"q)	c #132939",
"r)	c #162530",
"s)	c #1B2229",
"t)	c #142938",
"u)	c #132431",
"v)	c #14222C",
"w)	c #13212A",
"x)	c #132028",
"y)	c #121D27",
"z)	c #111A23",
"A)	c #253644",
"B)	c #25323D",
"C)	c #2B3E4D",
"D)	c #273746",
"E)	c #263643",
"F)	c #23303D",
"G)	c #23313D",
"H)	c #24343F",
"I)	c #24333F",
"J)	c #24313E",
"K)	c #253440",
"L)	c #23313C",
"M)	c #22303C",
"N)	c #23303C",
"O)	c #23313E",
"P)	c #243440",
"Q)	c #283845",
"R)	c #253441",
"S)	c #24313F",
"T)	c #263442",
"U)	c #283744",
"V)	c #273643",
"W)	c #263542",
"X)	c #253542",
"Y)	c #263543",
"Z)	c #23323E",
"`)	c #25343F",
" !	c #242F38",
".!	c #273543",
"+!	c #253541",
"@!	c #243441",
"#!	c #253442",
"$!	c #25333F",
"%!	c #222F3B",
"&!	c #212C39",
"*!	c #232F3B",
"=!	c #222F39",
"-!	c #23303B",
"  . . . + + @ # $ . . # % # $ # & * = * - ; $ = - - - > - , , , ' ' ) - ! ~ ) > > - - ' > - > ! ~ { ~ ~ ~ ] ^ / / ( _ : < < < < < < < < < < < < < : [ ~ ~ / / / } / ^ | ! ~ ~ 1 ~ ! - - 2 - ~ - - - - ' - - - - > - - - - - 3 = = & 4 = 3 ; ; = $ ; . .   5 6 $ . 7 8 + ",
"9 0 a b a c d e f c f g g h i g j k i l m l n o p q q r s q p p s s s l t u u s s q s v w x r x y z y z A B C B D E F G < < < < < < < < < < < < < G H I J D E K C A A u r z I z s q q t m s I x v s q r L L s v u s L M M N O P Q i i i Q n l l i g k f b c f R R R b S ",
"T U V V W W V X W Y W Z Z ` `  .W W X ....+.+.+.....@.#.#.$.$.$.#.%.#.&...*.=.#.#.-.%.*.=.*.;.>.,.'.).'.!.~.{.].^.^./.(.< < < < < < < < < < < < < _.:.<.[.}.~.<.<.|.'.1.*.,.).,.2.2.*.*.*.3.;.*.#.#.$.4.$.2.#.*.*.2.5.%.%.6.7.....+.&.` &.8...8.` Z ` ` W 9.W Z Z Z V 0.",
"a.a.b.c.d.e.f.d.e.d.d.g.g.h.g.d.e.f.d.i.i.h.i.i.i.j.k.l.l.i.l.l.l.l.m.j.n.o.m.o.o.o.m.m.o.l.l.l.o.o.p.m.q.r.s.t.u.v.w.x.< < < < < < < < < < < < < y.z.A.B.C.D.E.F.F.F.p.o.p.F.F.o.m.m.m.m.F.G.o.l.o.i.n.l.o.o.p.p.o.l.o.o.l.l.l.l.l.n.h.h.l.l.n.h.g.h.h.d.d.c.f.d.d.c.b.",
"H.I.J.J.K.L.M.J.L.N.J.J.J.J.J.J.J.O.P.Q.J.P.J.J.R.S.P.L.L.N.Q.J.N.J.O.J.N.J.R.O.T.J.P.J.N.U.V.F.G.V.I.J.J.W.X.Y.Z.`./. +< < < < < < < < < < < < < .+++@+~.#+$+%+&+N.N.L.V.V.&+J.R.S.*+=+T.R.=+S.P.J.P.J.P.-+=+R.P.P.P.O.;+>+>+S.=+O.T.J.P.P.J.Q.H.J.Q.Q.N.K.K.U.,+,+U.U.",
"'+'+)+)+!+~+~+{+]+]+]+'+'+)+'+z.z.z.v.^+^+^+A.A./+(+_+_+_+:+<+<+<+[+[+_+_+}+X X ` |+6.1+|+..,.|.^.2+3+^.4+5+6+[.N 7+S 8+< < < < < < < < < < < < < 9+0+a+5+b+c+d+e+f+g+h+~.^.1+%.;.;.*.=.%.i+%.W :+j+:+[+k+<+X l+}+m+_+/+_+_+_+u.n+A.n+A./+^+)+{+B.^+^+)+)+{+]+o+]+p+{+)+",
"%.,.'.[.,.%.%.q+r+q+s+;.;.%.-.*.;.*.6.&.&.&.t+6.%.s+u+'.'.[.'.4+'.u+u+%.%.'.~.~.~.^.v+d+h+^.w+N x+y+7+z+7+A+B+C+D+E+F+G+< < < < < < < < < < < < < H+I+J+K+}.L+M+N+O+P+y+Q+a+R+S+R+3+T+U+^.~.^.4+r+[.[.V+e+e+W+V+4+u+=.%.Y.X+Y.t+6.X+[.V+[.s+%.s+u+u+u+s+=.%.%.%.%.%.%.%.",
"Y+;.Z+^.~.`+!.!.[.!.e+e+'.=.%.=.q+ @y+P+.@P++@@@z+M+#@$@%@&@*@=@*@+@%@+@%@-@;@>@,@'@)@!@~@{@,.x+]@^@J++@$@/@(@@+]@_@ @:@< < < < < < < < < < < < < <@y+^@[@}@*@%@#@|@1@2@J+^.].3@4@)@5@>@6@7@8@$@%@&@9@&@8@#@$@0@a@M+O++@b@N+0@0@c@z+P+d+'.[.u+u+s+s+r+'.[.u+u+;.;.q+%. .",
"4+++d@e@f@Q g@h@j i i f@w+i@h@j@i@`+r P+P+y+z+J+E++@*@*@+@k@*@l@A++@m@+@+@|@n@n@n@'@o@p@q@r@s@7+E+t@7+E+u@v@w@w+x@y@z@A@< < < < < < < < < < < < < B@C@y@D@E@v@/@F@A+z+A++@G@0+}@7+H@'@9@F@I@J@$@K@8@n@9@/@I@*@+@M+b@b@2@E+L@+@0@O+J U+j@e@r@M@Z.}@++N@O@j w+i j@j@P@`.~.",
"].`.Q+Q+d@Q@e@e@Q+x+x+x+R@Q@Q+N Q@Z.,.c@b@E+O+O+O++@S@F@&@8@n@8@F@T@|@*@U@8@)@,@V@V@W@X@Y@Z@`@D+^@^@]@x@ #.#+#O@_@@###$#< < < < < < < < < < < < < %#t@A+@#&#*#.#v@=#7+-#y@;#Q@>#D+,#*#'#)#9@9@8@I@n@!#n@'@n@~#I@A+@#A++@m@y@*@*@9@U+f+x+7+{#f@`.i@]#f@N Q+Q@Q+Q+Q@f@f@P@",
"R+j@{#y+N N R@R@{#y+y+{#y+{#x+y+{#w+{.^#/#E++@+@O+(#9@!#'@_#:#.#'@.#~#~#F@.#,@<#W@,#<#X@[#_+`@K+m@y@}#|#|@,#D@O@y@I@O $#< < < < < < < < < < < < < 1#2@(#y@2#.#3#_#}#]@/@2@++W+4#K+5#u@'@<#'@6#'@9@,@'@!#7#<#W@'@9@8#8@J@A+y@|@&@9#R+O@D+E+7+0#f@a#b#Q c#x+x+x+Q+Q+{#Q w+",
"d#Q 7+C@y+D+7+7+a+a+y+{#D+7+D+D+{#Q ++e#f#+@$@(#+@K@8@g#h#i#h#:#<#W@'@'@'@'@6#h#h#j#k#l#m#t+n#o#y@@#y@y@p#.#+#e@A+|@O q#< < < < < < < < < < < < < r#y@|@y@s#.#,#8@A+A+_#_@]#}@t#x@<#n@W@3#<#7#7#u#h#'@'@v#v#i#h#<#6#'@!#8@A+$@8@w#3+f@7+z+x#c#y#n#{#Q+z#y+y+D+y+{#a+0+O@",
"P@N a+7+{#{#D+7+y+{#a+y+y+D+7+A#y+Q@G@5@B#*@|@8@8@9@'@'@7#v#h#:#<#C#<#<#:#W@3#h#C#D#E#F#G#b+{#x+y@u@F@@#|@V@D@Q+H#|@M I#< < < < < < < < < < < < < J#y@T@A+K#v@u@/@@#|@!#+@f@;#L#E+C#M#N#W@C#O#v#P#Q#W@'@h#R#S#Q#i#i#7#,@F@(#|@9@T#P@Q U#U#{#y+{#{#y+x+z#7+y+y+V#D+y+0+i ",
"O@N a+D+R@R@{#7+7+y+y+W#{#{#D+z+^@z#h@X#)@*@8@!#'@h#o@7#7#h#<#F@'@<#v#j#:#<#j#C#D#C#Y#Z#`# $R@Q 2@u@*#u@~#.#[@Q .$T@J +$< < < < < < < < < < < < < @$A+T@y@#$$$p@D@p@*#.#%$B+i@~@]@j#h#V@&$R#*$i#=$-$D#W@j#C#R#S#S#v#v#h#8@(#$@9@;$g@N 7+D+D+>$Q@>$Q+,${#D+y+C@D+y+M N i ",
"Q d@R@7+x+R@'$C@z+P+7+7+V#x+I+b@O+J+j@)$7@(#*@8#n@6#h#5@h#h#'#T@p@*#h#<#,#h#C#:#M#D#!$~${$ $>$f@1@p#_#T@u@u@=#O@p@u@J ]$< < < < < < < < < < < < < ^$*@~#/$}.D@D@[@u@,#n@O+($i@~@E+v#*$W@W@D#i#=$i#S#o@,#,#'@7#C#C#D#R#7#u@@#(#n@_$i y+z+E+z+J+{#{#{#>$n#D+7+7+7+V#M :$e ",
"<$e@N 0+Q@Q@Q+7+z+J+b@E+[$7+7+E+E+D+a >@g#}$y@A+@#u@,@6#6#7#n@I@u@.#<#,@:#j#C#<#j#|$E#1$`#q+<$2$1@-#F@V@u@p@x@O@/@p#w +$< < < < < < < < < < < < < J#I@8@_@3$4$D@5$.#.#T@_@6$Z@}@^@R#R#k#D#C#D#i#'@7#h#.#,@.#'@6#<#:#W@:#*#(#@#n@7$f@7++@L+b@E+z+U#R@x#D+z+7+7+D+D+x+Q+j@",
"e@Q+Q@Q Q+Q@x+7+z+J+b@b@E+E+J+x#y+x+h@7@F@+@_@m@m@_@5$'@>@,@'@F@u@n@,@n@,#:#<#8$*$k#D#N#9$r+0$Q =#-#.#W@'@~#a$j@@#|@I b$< < < < < < < < < < < < < c$|@5$d$e$$$p@u@.#~#8#y@a#s@K#1@C#S#v#i#j#j#<#'@i#o@!#.#'#*#)#'@.#f$'@,#p#(#u@g$O@7+O+%$+@_@b@7+x#J+z+E+E+J+J+D+N Q s@",
"e@Q+r@Q@D+y+z+E+J+J+z+b@E+b@J+x#'$0+P@h$7@_@1@J+W+j+i$6.6...&.X X ` &.&.6.;.e@,#D#<#C#~$j$g@D+Q@y@p@k$'#<#V@/$i$Q m@I l$< < < < < < < < < < < < < m$-#_@%.n$.#*#*#T@|@/@y@>${#o$b@|$v#v#j#O+W+%.Y.%.%.&.i$i$Y+6.6.t+|+q+|@|@J+(#i#g@p$_@}$y@E+z+C@J+O+b@O+E+z+z+7+x+Q s@",
"`.d@e@{#z+J+O+b@b@J+2@b@L@b@^@7+'$x+O@P R+r+r+r+r+h+^.q$[.q$`+q$r$W+^.C+].w+].9@7#j#j#s$t$u$v$K+u@*#.#.#,#V@=#w$&.m@[$l$< < < < < < < < < < < < < c$A+O@i$x$5#.#*#p#%$|@@#y$z$A$<#h#h#C#D#R+@+++r$B$d+q$q$C$}.r$h+f+D$}.++].E$U+Q+f@z+y@A++@_@O+b@b@c@O++@b@z+7+D+Q+O@`.",
"f+O@0+y+z+z+J+D+z+^@b@M+P+P+E+7+D+x+Q@B#C@{#r@3+D$S+F$O@++U+++++h+`.T+Z.e@G$w 8@'@<#H$C#I$J$K$L$p@*#_#V@_#u@M$N$q+m@P+l$< < < < < < < < < < < < < O$O+D+P$Q$V@~#p@p#A+p#R$S$T$U$V$i#W@,#7#W$#@0+].f+++T+P@].{.3+O@c@g+f+f@Q y+N+7@7+]@m@@#}$O++@O++@b@L@L@E+J+7+D+Q@s@@+",
"R+3+e@y+P+D+D+x+y+[$O+b@b@E+_@7+D+y#i@f#7+c#Q@a @+d#X$i@i Y$Z$3.`$ %#.d#~.J+{#8@N#N#k$j#.%+%@%#%$%p@u@p#p#D@%%P$q+_@G$]$< < < < < < < < < < < < < m$_@]@E$&%8#p@D@@#D@u@*%=%-%;%j#.#~#H$7#f@}$d+d#7.S+X$3.>%#.i@f@W$3+P@d@x+V#N+8@R@z+2@@#+@+@+@+@O+z+z+C@7+D+y+z#Q+`.d+",
"++g+n#U#U#y+D+'$y+z+O+y@2@b@O+1@D+n#i@7@E+p$O@,%W$@+'%^.d@~.Y$)%!%~%{%>.]%_@Q@I@.#N#v@5#^%/%(%_%p#I@@#y@|@y@:%N$%.O+M+]$< < < < < < < < < < < < < <%y@z+E$s+~#$$p#@#$%~#[%}%|%1%2%v@v@V@D#O@+@5+,%S+~.>%g+3.d#@+P@d#e@e@S+e 7+z+9@N J+/$A+m@+@A++@y@E+c@z+D+{#y+7+x+@+@+",
"[.^.x+7+J+J+7+J+7+^@J+_@_@y@O++@_@D+5+5@+@D+c#d@S+W$3%4%f+P@T+Z+5%S+6%5%e+U#{#K@V@H$v@V@^%7%8%9%D@|@-#-#@#@#0%N$1+a@a%b%< < < < < < < < < < < < < c%y@z+r$;.u@~#u@$$u@u@~$d%e%f%F#g%v@5#h%f@A+h+i%q$R+ @X$j%2+f@++N y+j%W$J+7+}$7@x+]@O+y@y@y@+@}$*@A+L+b@C@{#y+E+D+3+].",
"].~.N 7+7+7+z+z+y+J+7+J+J+E+y@y@m@J+f@)$+@D+D+U#d@^.O@k%d#O@z#+@l%#@9@%@J+m@D+K@V@H$k$H$m%n%o%p%p#p@D@[@@#(#D+N$7.M+G$q%< < < < < < < < < < < < < r%O+J+V+%. #~#u@5$~#*#[%s%t%u%F#k$k$V@<#Q K@E+m@/$+@L+N+E+z#a y+D+e w+E+J+J+*@)@x+D+_@y@y@y@y@y@}$O+$@}$E+J+z+z+7+3+++",
"@+h+0+[$z+^@+@E+y+J+2@O+^@z+v%x@2@]@f@;@L+1@J+J+_@e@{#W#,$b#v%@#@#@#/@p@[@[@n#$@W@W@N#Z#w%x%y%z%u@*#p#D@D@m@D+N$&.b@N+q%< < < < < < < < < < < < < A%y@J+[.%. #v@v@p@u@.#~$B%C%D%F#V@k$Z#6#i@m@|@E%D@*@5$(#y@_@f@J+2@y+y@}#_@2@D@F%Q@{#1@^@_@/$O+O+E+D++@2@z+z+E+N+7+`.O@",
"j+q$Q+D+7+b@m@m@J+]@2@/$^@J+J+x@x@J+Q@)@*@E+_@_@+@m@U#D+{#0$_@@#|@(#-#$%[@m@0#I@.#,#f$H$G%7%H%z%_#n@~#5$m@m@D+s+i$z+L@q%< < < < < < < < < < < < < A%+@J+[.%. #p@p@D@p@5#I%J%K%L%j#M%k$*#)#f@D@p#p@D@5$5$T@m@_@Q E+/$y@A+y@d$m@T@!#x+0%x@_@_@N%/$_@1@J+E+_@J+7+E+P+D+@+%.",
"|+++r@'$p$b@m@}$y@^@/$/$d$0%]@]@0%0%x#y++@y@[@@#|@p@m@2@]@{#y@|@$$8#p@D@O%O%P%+@T@F@8#V@Q%R%S%T%'#'@F@u@p#E%U#u+|+z+z+U%< < < < < < < < < < < < < V%!@W%X%*. #p#p@p@.#N#Y%Z%`% &j#&$k$k$W@f@D@~#~#u@u@p#p#m@y@Q@y@y@y@A+@#/$y@|@E+n#1@_@_@x@x@x@/$_@E+_@z+]@z+z+C@x#j@[.",
"u+@+r@R@{#J+]@2@m@1@0%0%x@_@m@/$:%K+c#M@m@_@y@@#D@D@p#/@_@0#m@@#E%$$.&$%=#}#a#+@p#H#_#V@+&R%@&#&*#,#'@*#~#p#1@r+&.z+P+q%< < < < < < < < < < < < < $&m@U#r+3. #u@u@*#k$k$[%%&&&*&j#2%=&k$6#]#D@~#v@~# #p#@#A+y@Q+m@+@@#|@|@y@A+$@j@c+x@-&^@1@x@_@_@/$]@]@y+D+D+D+y+R@O@W+",
"V+;&e@Q 0#{#K+0%x@1@D+J+d$}#^@m@0%y#K+Q@A+_@v%m@@#@#p@u@}#>&y@@#@#$%D@$%=#=#g@_@|@H#.$.#R#,&'&)&v@.#.#n@ #@#J+u+` E+z+q%< < < < < < < < < < < < < $&y@y+u+%.+#E%E%~#k$Z#!&%&~&{&&$v@p@v@6#2$]&k$k$u@D@D@A+y@_@x+A+@#D@|@A+/$y@I@>$-&1@0%d$1@x@^@x@O%1@D+>$Q+x+R@x+Q+Q q$",
"V+N Q+Q@Q@n#c+U#^@d$-&x@v%d$|#^&0%y#/&K+A+_@_@m@@#u@F@n@/$y#}#@#D@$%[@[@O%=#a#z+-#|@|@*#v#(&_&)&~#n@!#F@5$D@J+u+i$E+E+b%< < < < < < < < < < < < < :&/$x#s+i+A+[@[@u@.#H$Y%%&<&{&&$=&v@*#6#f@p#N#k$~#D@+#m@=#|#W#2@y@D@|@m@_@_@I@y#0%0%1@/&/&x@}#}#x@x@x#Q@<${#{#N <$d@q$",
"e+[&Q@Q@{#{#K+J+2@1@0%1@1@1@v%x@U#o#/&K++@O+/$@#@#5$~#*#m@y#/$@#+#+#+#}&O%O%f@2@@#[@[@*#v#|&1&2&f$!#n@/@p@D@C@u+&.E+E+b%< < < < < < < < < < < < < 3&y@a+s+7.4&m@y@p@v@V@5&J%6&f%W@p@~#k$<#e@5$*#7&k$=&+#[@=#}#0$x@[@A+p#m@}#m@|@0#D+1@/$|#]@x@]@1@x@/$D+x+y+D+y+Q+Q+[&].",
"E$i Q@e@x+n#{#U#_@_@d$x@1@1@x@]@]@K+x@0%%@O+/$A+D@|@/@u@m@o#O%/$O%[@@#[@=#=#a#y@@#}#m@F@D#8&9&0&*#9@F@5$D@4&U#u+&.b@E+q%< < < < < < < < < < < < < - O+y+s+6.m@m@=#p#~#.#*%a&b&1%H$$$~#.#7#f@5$.#'#~#p@[@=#/$}#>$_@[@[@p@m@|#=#=@n#0%U#_@x@}#/$0%0%_@A+J+x#'$y+x+0+Q@d@].",
"X%w+e@Q >$z#D+D+U#K+x@1@x@x@x@x@|#1@0%K++@_@/$y@A+5$u@u@m@o#1@=#4&!@@#[@}&x@]#_@A+m@ #_#v@c&d&e&=&u@T@|@|@[@x#u+f&_@P+g&< < < < < < < < < < < < < h&_@x+q+%.D@=#}#|@u@i&j&k&l&m&.#*#u@V@7#O@p#F@*#*#5$+#}&_@|#Q v%=#m@|@=#x@|#*@x#0%0%x@:%x@_@x@]@O+m@]@D+y+x+x+Q+Q+e ~.",
"4+e d@Q <$D+U#K+{#n&D+x@|#x@_@1@x@K+D+D+a@/&]@y@D@u@/@/@y@o#_@y@!@@#4$=#o&x@g@]@@#[@5$v@q@p&q&r&+#5$T@|@!@=#D+u+` E+P+g&< < < < < < < < < < < < < = E+x+r+i+!@m@m@D@D@!@M$s&t&u&/$*# #*#,@r@5$u@u@~#p@4&4&=#/$O@1@_@y@D@y@0%_@}${#x@D+y#y#c+1@_@_@_@/$U#D+z#{#x+<$e@P@q$",
"q+++O@Q@<$>$n#n#v&c+K+D+1@_@/$1@x@K+1@J+%@/$x@/$u@/@ # #=#w&4&A+@#p@D@=#}#x@o$]@@#m@D@V@x&y&z&A&y@A+*@A+@#m@R@%.X E+W%g&< < < < < < < < < < < < < B&^&Q+u+&.!@!@@#*@A+=#C&D&E&F&v@~#D@v@'@f@5$u@@#p@+#!@!@!@_@w+]@v%}#A+2@1@/$a@c+1@D+c+y#x#J+]@]@E+_@x+Q+n#>$n#<$e@P@V+",
"%.f+r@r@g@Q n#x#D+D+D+1@_@/$_@]@/$x@0%J+0@_@D+_@|@5$5$p@_@o#D@D@+# #+#=#|#x@g@^@4&=#@#G&&$H&I&J&|@$@@#m@m@m@e@%.` ]@C@K&< < < < < < < < < < < < < 3 E+0+s+../@p@5$5$D@L&M&N&O&P&'#u@D@u@,@s@D@p@/$}&E%@#=#4&_@O@y@m@_@m@_@}#^@M+y#0%:%-&0%0%U#0%U#z#J+{#Q f@Q@<$x+Q+j@[.",
"%.R+g@O@O@Q@{#D+D+U#_@/$/$_@N%]@/$O%0%D+M+x@D+^&!@p#p@D@N%w&[@p@p@$$D@m@=#O%($]@m@m@A+u@D#Q&R&S&$$u@|@O+y@2@Q %.X z+7+K&< < < < < < < < < < < < < T&_@0+s+..$@5$m@D@5$4&U&}%V&W&*#~#5$/@'@g@@#D@O%O%m@+#=#=#/$f@O+@#/$=#_@m@/$+@c+%%:%J+_@x@0%D+D+D+D+n#Q@Q Q {#{#Q+`.~.",
"%.d+s@g@f@v&D+0%x#y#D+x@1@c+0%1@E+O%0%K+N+E+K+=#D@D@K@D@J+>$/$!@!@E%=&D@m@x@g@]@y@m@A+/@R#X&Y&Z&.&8@I@+@m@^@f@Y.W z+`&K&< < < < < < < < < < < < <  *]@0+%.&.*@m@/$A+K@D@.*+*@*{&g%*#u@u@7&P@m@4&=#O%[@@#[@[@x@g@_@y@y@=#x@}#m@m@{#0%:%U#E+E+^@1@J+D+D+x#c#f@Q@x+{#Q+P@`+",
"u+{.#*Z@5+{#x@x@x#w&K+K+0%o#y#U#U#0%0%{#P+W%D+/$D@|@5$A+D+6$0%_@/$=#m@=#}#1@o$E+m@=#[@ #W@$*%*#%D@p@@#@#y@_@f@X+j+W%C@K&< < < < < < < < < < < < < &*J+Q+%.&.A+/$O%m@!@D@t$**=*-*g%8#|@/@;*j@=#A+4&m@[@m@=#/$0%s@O+}$/$x@x@x@m@a@>$D+U#D+C@]@J+E+z+U#{#x#p$x+n#n#Q@Q@P@e+",
"s+B$Z@g@f@{#1@0%x#:%1@d$x@y#c+D+K+U#D+{#P+E+]@]@m@y@4&/$c+($0%1@|#O%O%L&1@%%a#D+x@_@m@D@H$>*,*'*m@@#y@/$y@/$Q@Y.j+]@y+)*< < < < < < < < < < < < < !*J+Q+%.&.A+_@x@y@@#@#~***~&-*1$'#!@p@n@]#O%y@=#}&A+}#x@O%0%s@m@m@2@/$1@0%+@c@v&K+U#0%1@D+D+J+C@p$x#U#D+z#{#y#Q d@`.`+",
"q+R+j@]#Q@{#D+:%:%0%_@y@=#1@1@1@:%D+x#{#z+b@_@1@]@1@/$E+>$2$0%0%D+%%/&|#m@L&a#<$:%/$/$m@Z#{*]*^*/$m@y@y@=#m@Q+%.l+W%{#)*< < < < < < < < < < < < < /*E+N %. .K@=#x@/$m@@#(*_*:*<*g%~#D@@#F@]#/$m@=#/$[*_@O%x@(@i@2@m@_@x@J+1@O+@@e@K+/&_@]@{#D+U#D+x#U#U#z#D+y+>$Q@5+@+e+",
"q+2+f@f@f@Q+c#D+'$0%/$y@2@/$x@E+U#D+K+y#z+E+]@]@]@_@A+M+>$]#:%c+y#c+K+_@4&%%2#R@x@=#/$m@'@+%}*|*O%=#m@m@m@m@>$%.W C@N )*< < < < < < < < < < < < < &*E+N s+i$D@m@1@x@/$m@1*2*3*2&v@5$E%/@G&`@^&@#y@0%/$x@E+x@:%P@O+y@]@]@0%J+J+M+n#J+^@O+E+z#c#y+D+U#J+D+y+U#{#Q@f@O@M@e+",
"q+3+f@f@6$Q@>$Q+>$D+1@x@/$_@1@J+0%K+:%n#4*W%U#U#]@^@m@O+n#Z@:%0%D+K+K+y@m@5*6*D+2@m@|#A+9@7*8*9*E+O+_@/$=#=#0#Y.W C@a+)*< < < < < < < < < < < < < 0*]@x+%. .!@=#1@^@y@[*w@a*b*c*u@@#@#/@8#++E+A+y@:%x@_@N%J+c+j@b@_@D+1@0%D+J+a@Q+z#D+_@J+x#{#c+D+J+J+D+D+7+{#Q+O@g@3+[.",
";.2+w+f@f@]#Q@f@f@y#D+K+]@]@J+1@J+x#:%>$C@C@D+0%J+E+^&x@>$]#U#1@1@c+-&/$x@Z@<$O++@y@y@}$}$d*e*Q@x@_@=#/$m@_@Q@-.X W%w )*< < < < < < < < < < < < < f*E+R@Y. .D@!@=#2@m@A+J+g*h*E+u@ #=#m@*@M+M@z+/$K+5*x@x@x@x@O@E+_@1@J+1@D+J+P+f@{#D+z+D+x#U#x+{#D+D+y+x#x#{#n#]#g@f+q+",
"u+2+O@r@g@i@f@Q@>$>${#c+D+_@x@x@0%K+K+0#`&z+D+D+]@]@x@x@n#]#x@x@^&6$f@1@]#j@z+L++@O+/$M+R+X s+[&^&y@m@[@4&y@x+-.i*b@w )*< < < < < < < < < < < < < j*b@e@%.&.D@4&[@A+|@|@E+4+1+4+}$|@}#[@|@$@7+P@J+>$M@D+1@_@x@w+]@]@]@]@U#K+J+J+Q@c#D+U#{#K+K+{#>$n#{#{#n#n#>$Q@g@j@f+u+",
";.R+]#f@g@i@]#B+n#{#c+K+x#1@^&^&0%0%D+>$C@D+'$D+U#1@E+x@y#]#%%_@D+C$<$j@W$x#m@A+*@}$0%M@_+6.~.a@4&y@[@!@!@m@k*%. .E+y+l*< < < < < < < < < < < < < m*E+Q %.f&A+4&A+D@p@/@I@w+,%_+~.m@m@4&A+K@*@R@]%D+U+r@]@J+D+e C@0%0%J+0%K+0%E+Q@{#1@U#0#y#o#B+6$B+n#{#{#{#Q@f@j@P@{.u+",
"u+R+g@O@b#a#6$w&:%D+c+c+c+]@N%_@1@D+x#f@x#n#>$w&y#0%J+1@>$Z@0%x#d+e@P%i@U#x@/$*@}$E+j@n*X+Y$U#_@/$m@/$m@y@/$f@%.` D+a+o*< < < < < < < < < < < < < p*^@O@1+f&m@=#D@p#D@@#/@*@`.,%q*Z+_@O+m@+@*@/$0+`.R@r*5+{#c+P@J+]@/&D+:%U#D+J+f@{#U#J+n#>$0#($f@f@x+p$D+c#Q+Q Z@s*D$s+",
"[.d+g@f@f@f@>${#x#D+K+{#c+1@E+J+D+c+{#Q@R@>$f@6$c#0%0%J+n#t*>$h+y#Q@u*_@/$x@/$A+m@d@[+&.~.v*1@D+1@y@%%O%_@J+f@%.Z D+w*x*< < < < < < < < < < < < < y*z+s@X+f&a@O%[@[@@#D@m@O+a@3+%._+d+z+*@}$!@m@]@r@@+R@~.M@o#i@J+U#K+c+5*c+{#J+f@n#{#U#D+y#>$($f@]#{#D+D+n#n#Q j@M@{.;.",
"f+3+j@f@f@Q@>$y#{#{#K+x#D+x@]@U#K+c+y#Q@R@>$n#y#D+D+D+x@k*i@q$f@6$z*K+m@/$_@/$A+C&A*B*q$W%0%1@x@x@O+E+^&0%Q+%.6.7.P+0+x*< < < < < < < < < < < < < C*z+W$1+i$@+x#}&=#=#!@y@/$E+m@2+u+D*E*@#m@A+N%2@]@i@3+;&,%>$P@{#c+:%c+x#n#n#U#]#0#Q+:%K+:%c+0#Q@P%{#c+x#f@Q@f@f@`.f+h+",
"w+@+P%f@Q f@Q+{#c+c+z#D+D+J+J+0%K+x#{#B+R@n#D+D+{#c+:%0%Q+M@<$f@f+n#U#/$1@+@(#F*G*H*I*z+M+D+0%=#=#m@m@O+{#7.i$;.J*K*0+x*< < < < < < < < < < < < < L*W%+@q$|+A.M@N%[@[@E%@#m@U#a@*@M*N*O*P*p#*@]@/$O+x@`@M@;&{#3%>$c+:%D+D+c#Q+D+Z@f@f@y#y#D+K+>$B+($y#y#v&r@]#Z@f@i@f+f+",
"f@u*r@Q@Q@f@>$w&{#:%x#x#x#K+D+c+n#y#n#f@'$y#5*D+n#{#{#:%n#0+;&C$x#1@0%J+1@m@Q*R*S*T*U*O+b@]@O%/$}&y@y@C@%.j+q+0+E+J+0+x*< < < < < < < < < < < < < V*W%m@_@r$i$n*O@m@}#[@5$!@/$b@l@~$W*X*Y*Z*@#E+N%x@O%^&f+@+7+M@n#K+c+5*c+c+{#p$i@f@a#o#o#5*y#>$B+f@n#w&>$B+f@f@]#i@z*}@",
"g@++f@>$n#f@e@v&c+D+D+K+{#n#c+o#B+B+>$a#Q+n#x#n#Q@{#x#n#++3+d+>$d$D+K+0%_@`* =.=+=@=.&+@m@_@1@N%_@/$W%3.(+%.e@O+O+J+0+x*< < < < < < < < < < < < < #=1@O+=#[*W+l+}+<$_@m@4&=#!@y@m@u@$=%=&=*===^@E+1@D+^&U##$j%f+f@c+y#D+D+0#y#{#i@]#]#6$Q@y#o#f@f@6$y#n#n#v&0#]#Z@i@++i@",
"r@f+f@Q+{#n#>$c+y#c#c+{#y#{#y#y#B+f@>$2$y+R@x#n#y#'$R@M@P /$%%J+K+D+D+/&-=;=<&>=,=X@A+y@}&=#_@O%x@0%q+/+'=j@b@/$/$0%0+x*< < < < < < < < < < < < < )=^@y@x@y@E+r$l+j+f@/$m@/$}&4&4&A+u@;%!=~={=o#1@U#D+1@0%U#}&v*3+Q@y#z#K+>$y#]=g@Q Q@B+0#0#o#f@f@<$y#>$>$0#Q@e@r@j@++j@",
"O@++f@{#x#x#y#y#>$y#w&>$<$n#c+K+o#f@Q@g@'$]=D+c+:%n#i@d@;&U#]@D+n#0%0%(@^=/=(=_=R$K@}$m@=#=#%%%%J+[./+6.j@_@x@1@_@J+0+x*< < < < < < < < < < < < < :=_@m@/$=#/$W%[.j+X y+E+O%L&!@D@!@A+$$<=[=}=|=1=x@J+J+D+0%J+6$]%z*f@x#{#>$<$D+]#>${#y#Q@Q@B+Q@f@Q@{#o#n#n#n#Q@e@r@]%f@",
"g@++f@{#R@R@n#n#Q@0#0#>$6$B+0#y#o#B+Q@j@N p${#x#y#j@>$<$x#D+D+K+K+0%C&2=3=4=5=R$/$y@y@=#=#_@]@]@q$_+t+@+^&]@N%_@O%J+0+x*< < < < < < < < < < < < < 6=y@A+m@=#_@O+C@4+:+&.'$]@]@/$p#D@m@}#D@7=8=9=0=a=_@E+K+D+D+D+r@f@].Q@{#{#y#y+g@>${#{#>$0#f@a#f@B+>$0#{#Q+>$f@r@O@@+f@",
"j@R+]#n#v&n#Q+Q@B+B+0#0#>$o#Q@>$c+>$>$2$'${#y#{#i@b=f@c=:%K+D+0%K+C&d=e=f=_=1*=#O%y@}&/$m@_@E+U+n*1+3+_@}#]@^&=#/$1@e@x*< < < < < < < < < < < < < :=O+}$4&[@/$_@a@R@s+}+7.p$]@0%/$4&=#O%=#D@g=h=i=j=k=x@U#:%R@n#{#j@w+2+n#y#y#C@s@v&>${#n#Q@g@g@f@a#]#Q >$Q@>$Q@f@g@++j@",
"3+f+j@Q@e@Q+y#>$Q@>$Q@w&y#y#>$y#x#w&n#g@D+w&y#w&g@0%($y#:%x#J+_@l=m=n=9&o=p=/$0%O%}#=#/$m@K*]%[+q=r=O+J+x@_@O%/$/$x@d@s=< < < < < < < < < < < < < t=y@A+m@D@y@x@x@[*N %._+%.U#N%%%=#=#_@x@|#u=v=w=x=y=z=z#0%{#{#{#r@J+i@x+B+y#W%j@f@Q@>${#Q@]#($($6$f@>$y#n#Q@f@]#Z@f+3+",
"}+U+W$f@Q@>$y#0#Q@Q@>$>$y#0#>${#c#v&Q@E+]@x#c+n#n&:%i@y#x#D+0%A=B=C=D=E=F=|#]@U#O%}#x@/$=#@+G=&.d+a@]@:%x@/$=#y@y@x@j@s=< < < < < < < < < < < < < H=E+[*m@@#=#/$%%J+}$<$6.I=;.U#%%%%_@y@O%_@x@J=K=L=M=N=O=K+y#{#{#g@J+r@>$f@>$U#P+o$f@f@>$B+0$f@B+f@f@P=n#Q@f@r@]#g@^.<+",
",%g+P@f@x+{#n#Q@Q@Q@Q@Q@0#B+>$>$v&n#f@U#]=n#>$>$]#o#R+6$x#c#/&Q=R=S=T=U==#x@0%:%|#/$_@]@O@n* .^.E+x@:%K+0%]@y@m@/$D+g+< < < < < < < < < < < < < < V=D+m@4&y@}#_@x@:%_@}$W=|+X=|.U#|#[@_@/$/$0%/$u=K=Y=Z=`= ->$c+n#i@f@g@0#B+B+y+D+<$f@]#f@f@Q@Q Q@B+0$f@Q O@5+]#f@]#].6.",
"e+f+3%d@x+n#x+>$f@O@f@Q@6$0#B+>$>$P=i@0#n#f@h+r@f@]#B$Q@n#w&.-+-%*@-#-}&]@0%U#%%N%x@%%r@l+X $-.@^&0%y#c+1@N%O+^&K*Q+,.s=< < < < < < < < < < < < < %-s@E+m@=#=#_@x@x@_@W%a@@+ .&-^.1@4&y@O%=#_@1@1@(**-f=a*=-6$U#x+M@u*;#x#[.o$Q@{#j@g@f@]#g@Q Q f@e@e@f@5+O@f@f@r@r@--s+",
",.2+W$Q Q@>$Q 0#f@($f@B+w&B+($6$o#o#j@>$>$s*X%Q+f@($h+Q@Q+;->-,-'-)-M$1@/&D+%%O%O%0%<$ .j+e++@E+0%1@c+:%/$^&^&U#p$!-i+~-< < < < < < < < < < < < < {-;.'$]@/$[*O%0%1@x@U#]@m@f+` q*g+y@}&x@/$_@x@D+0%(*]-^-/-'$y+{#M@`.`.>$W+C$6$>$w+O@O@f@5+f@f@Q@Q@n#>$f@r@f@O@f@w+].%.",
"6.S @+g@f@f@f@f@0$f@f@Q@B+2$o$B+>$0#r@k*y#u*<$'$Q@t*Z$Q@{#o#(-d*P=J+D+x#5*:%x@}#O%K+Z@..;._-J+D+U#0%:%K+O%K*0%]@h+s+:-<-[-< < < < < < < < < < < < < }-e+U#E+O+x@0%0%x@0%{#U#M+u+|+~.J+a$1@/$O%0%c+p$U#|-1-2-{#a+<$s*;#i@{#>${.n#{#r@Z@($6$g@]#g@f@B+0$f@f@r@]#5+f@2$2+6.",
"#.3%f+z*u*3+u*s*3-s*Z@#*s*s*4-Z@Z@s*Q@c+Q+D+{#B+g@]#3+n#c+Q@5-6-3%y+c+n&y#c+0%0%%%D+i@q+1+O R@c+:%0%%%-&E+W%0%y@t#7-8-9-%.0-< < < < < < < < < < < < s=a-m@=#O%N%0%%%U#U#y#n#m@6.X+;.]@_@1@0%/&K+y#R@{#O@Y.l+e R@n#Z@@+M@n#w&U#x#'$w+z*i@g@3-}@s*i@s*i@;#`.;#}@s*++++U+6.",
"q+d#a@9@b-[*O+_@/$@#K@/@K@c-4&/$^&]@[*'$e@w&{#>$j@]#3+n#z+y+d-1+3%7+D+K+c+K+0%0%x@1@M@q+&.e@p$D+{#5*0%e-U#]@U#=#f-g-h-i-j-k-< < < < < < < < < < < < < l-v@[*^&]@:%0%:%:%c+>$E+Y+1+,%z+]@]@K+0%U#c+R@y+w+1+<+3%R@{#g@@+z*n#x#D+D+x#D+m@*@A+!@@#%@+@O++@L+0@0@c@l@G&m-S+*.",
"%.~.0+W%7+y+y+x#x#D+J+K*]@U#{#c+x#x+K*:%y#w&{#{#w+%.^.p$_@p$i$n-@+x@x@0%D+K+/&:%0%_@`.u+|+[&]='$c+y#:%U#J+p$:%L&o-p-q-r-s-t-< < < < < < < < < < < < < u-v-O%K+J+U#U#U#y#o#n#J+Y+s+>.P+U#U#D+U#0%c+y#w-2$X+<+R+Q+z#i@&.].{#x#D+x#y+N J+z+z+z+P+7+y+D+D+7+7+7+D+C@E+a%Y$i+",
"#.[.e R@x#K+x#p$x#n#x#D+:%K+U#U#x#n#J+D+{#x#{#'$5+|+h+D+7+0+l+'=x-y-z-A-5*%%x@:%c+]@3+s+|+O@{#:%:%y#c+c+{#h+2$w@^=B-C-D-E-t-< < < < < < < < < < < < < F-G-:%&.U#:%K+5*>$B+o#U#i$n->.p$0%0%x@]@0%5*H-I-J-%.l+'%R@{#;#l+R+{#D+x#D+D+x+U#7+7+J+D+{#D+W%{#Q+Q+Q+R@R@7+4*'.i+",
"6.~.d@y+U#D+c#D+'$Q+{#x#D+D+J+E+D+x#D+D+D+c+'$y#i@t+e+Q+y#0+i$N$K-L-M-N-5*K+1@:%n&J+++n-|+O@n#K+c+y#D+U#R@E$Z@+#^=O-P-Q-R-t-< < < < < < < < < < < < < F-F*0%w$x@U#y#w&o#Q@n#U#X %.%.'$x#x@x@0%:%-=S-T-U-r+Y+++Q+Q+z*6.S+{#D+{#x#{#Q+x#J+D+U#D+x+{#D+R@x+0#n#Q+Q+y+7+!...",
"5.|.i%R@p$'$y+x#x#>$x#x#x#a@0%x#D+D+'${#{#n#n#>$M@t+[.Q Q+N i$V-W-X-Y-Z-c+c+1@U#c+W%3+u+&.W$n#D+D+U#0%1@p$h+j@`- ;.;+;@;#;t-< < < < < < < < < < < < < F-$;]@t+^&J+c+y#w&y#c+W%l+%.>.D+W%0%x@]@D+%;&;*;=;r+` ++Q+Q+3+6.d+R@{#x#{#R@O@x+7+U#x#{#>$n#{#0+e@Q Q Q@<$x+D+4+i$",
"5.~.W$w*R@R@a+a+Q@>$x#`&y+p$n#n#{#x+Q+'$D+n#Q+Q+i@t+W+Q+x#0+|+[.W--;;;w-n#-&x@1@:%E+@+4+|+W$n#D+D+J+J+]@7+f+]#O%[#>;,;';E-t-< < < < < < < < < < < < < );!;%;n-^&U#U#:%(@5*c+]@X %.4+z+]@1@J+_@D+:%~;{;=;r+i$@+x+y+3+|+d#a+{#y+x#x+O@Q x+{#y#Q@n#D+N 0+f@e@Q@Q f@d@p$q+X ",
"];[.W$M P@P@4*G$5+d@^;[&w*i@i@O@M@u*w+'$D+n#Q+Q+u*t+~.N c#Q X r+/;(;_;(@y#D+x@D+0%]@@+s+X W$n#D+U#W%]@U#7+a@0%}&:;<;[;};|;t-< < < < < < < < < < < < < );k=e-D+N%{#U#0%c+y#y#W%X %.,%z+]@D+1@]@0%5*1;2;3;u+&.P@D+y+3+&.3+a+x#{#{#x+w+e 3+3+P@P@w+k%w+@+d#P@w+@+e k%4;4+&.",
"` 5;~.~.q+r+'.4+4+[.e+h+[.q+r+q+%.Y.U+Q+p$n#{#R@j@f@d+Q+c#i l+u+`.6;/&c+c+c+1@J+|#_@W$;.X i%n#K+U#U#]@U#U#^&N%+#7;8;9;0;a;b;< < < < < < < < < < < < < c;d;%%0%0%y+D+J+x#n#n#E+i$%.,.z+0%0%]@%%:%c+c+e;f@;.Y+W$y+x+;#++j@{#{#x#x#Q+f+[.s+s+%.%.r+4+[.q+[.4+u+%.r+4+~.!-&.",
"Z S+2+`.i@w+s@g@Q O@j@Q O@j@w+j@`.@+3%x+D+{#{#{#g@O@R+Q+c+e@f;s+3+{#x#c+c+>$U#J+E+]@W$s+&.e {#K+U#J+E+]@J+0%J+E+t#=-g;h;[#0-< < < < < < < < < < < < < i;n#0%5*0%C@D+]@D+x+{#N+&.=.,.z+_@]@O+1@:%B+n#7+O@%.f&3%y+Q+`.++3+Q+{#R@c#R@3+i@f@f@5+i@i@j@j@w+Q f@P@i@P@@+u*Z$` ",
"V {%]%5+<$Q+{#n#>$Q+Q@R@x+0+e@Q+0+w+e N x#j@Q@n#j@i@R+R@{#O@<+u+@+a+D+o#o#y#:%N%J+D+j@s+|+w+Q+D+x#U#]@D+J+U#E+0%y#5+j;k;t-< < < < < < < < < < < < < l;d@W%]@U#]@D+D+E+J+'$D+p$&.;.5;z+_@z+_@]@D+>${#7+d@%.l+3%'$y+@+U+f+R@>$++Q Q+u*r@n#n#Q@Q@Q@Q+Q@f@Q+>$Q d@O@g@g@U+i+",
"Z U+]%d@>$Q@{#n#Q@Q@Q@Q+<$Q >$n#e@f@P@{#Q+]%h+b#@+P@{.x+x+d@w$m;o$J+D+{#>$c+:%K+D+D+Q+r+X+,%Q@D+U#:%K+{#U#z+J+K+'$p$z*n;< < < < < < < < < < < < < o;[&4*x#U#E+J+n#{#]@U#{#'${.i$u+3+z+E+J+x@D+D+{#7+P+0#Q$w$e {#R@2+U+R+Q@R+^.Q Q@3+5+Q@n#Q@>$B+Q+Q r@Q@Q <$e@O@5+P@~.%.",
"i+X$3+f@Q@<$Q@Q+f@g@]#Q@<$Q Q@B+f@g@@+D+Q e@3+Q@@+s*].N R@7+e$p;q;r;5*>$>$K+n#y#y#K+}$b=[.m+;.Q+D+x#x#c+D+C@]@U#J+D+5+$#< < < < < < < < < < < < < s;J p$c#E+]@J+{#{#U#J+x+f+n*Y.f++@z+]@:%U#x#y+y+1@G-t;u;v;y+N Q@R+h+{.x+D$Q@f@>$3+M@f@Q@Q@Q@>$Q@f@g@w+e@e@Q@O@g@P@^...",
"%.].z*j@r@f@O@Q f@g@Q Q@e@Q+:$>$Q s@3+R@{#f@>$<$M@g@{.Q@M M w;x;y;z;A;5*x#c+n#c+c+c+U#A+5+%.A.!.{#U#x#D+U#]@]@]@U#Q+R+B;< < < < < < < < < < < < < C;<$x#J+]@0%J+{#'$p$C@M@n*d-C$M+W%U#1@D+x#c+z#D+$;D;E;F;G;7+d@e@f+f+{.<$f@f@f@n#z*s*]#Q O@f@f@f@5+g@g@e@Q e@e@f@j@'%&.",
"7.d+@+s@i@i@5+O@f@f@Q e@Q+{#Q+x+e@j@3+Q@D+Q@Q+e@i@D+;#N N e@^@H;I;J;K;L;(@y#5*5*K+y#y#D+m@z*7.A.h+{#D+U#C@E+J+U#J+{#f+o;< < < < < < < < < < < < < M;Q+W%]@N%0%1@y+D+7+j@}+l+q+P+z+J+D+J+J+J+D+K+N;O;P;Q;'*=#x+w+Q z*e@f+f@f@f@f@>$3+i@g@f@]#]#2$b#f@f@f@Q O@]#f@g@P@{.&.",
"D$w+5+i@t*s*Z@g@f@Q@Q@Q@Q+w&Q@f@g@t*D$d+{#y+Q+O@`.x#`.N N Q@N =#R;S;T;U;V;c+c+:%5*:%c+{#x#^&D$W;/+R+x#p$C@z+U#U#D+{#@+X;< < < < < < < < < < < < < Y;x+D+D+]@]@]@p$D+w+W X ;.a+x#x#0%D+J+D+7+x#Z;`; >.>+>R$p$N Q@f@z*Q@;#f@e@f@Q@@+B$s*]#]#Z@Z@Z@]#f@f@O@f@2$i@j@i@`.P@z*",
"]%f+u*`.;#i@j@]#f@Q@f@f@Q@>$f@f@f@g@;#V+s@x+Q+<$W$N w+e@x+x+0+Q+@>#>$>%>&>*>a$x@0%0%:%D+{#'$M+q$X A.R+0+D+J+D+J+U#<$`.=>< < < < < < < < < < < < < ->a+D+D+D+7+7+p$j@j+}+s+O Q+y#U#]@J+D+n#J+L&E&;>>>,>'>K+>$R@>$s@3+<$i@>$f@]#r@V-}@g@f@6$;#s*#*g@f@]##*Z@Z@u*i@s@`.].3+",
"++R+3+;#i@g@g@O@f@f@f@g@O@f@]#]#f@g@o$u*g@x+Q+Q+'$r@<$M@e@x+Q+Q@n#.&)>!>~>{>]>%%0%0%0%D+D+R@D+W%X%l+z.{.Q+y+7+U#D+f@`.^>< < < < < < < < < < < < < />R@p$y+D+U#{#f@ .}+3.0+p$Q >$D+z+U#U#x#U#(>_>:><>[>D+0$o#{#6$s*<$f@x#n#Q@f@]##$t*]#($5+}>s*2$f@Q ]#++++}@;#`.`.`.].++",
";#R+u*i@|>g@g@2$Z@s@O@i@f@P%f@0#Q@f@f@o$w+Q@O@Q@R@x#f@d@@+f@n#{#{#x#1>2>3>4>5>/&1@D+c+x#c+{#x+a+6>q+n*z.3+R@'${#{#f@@+^>< < < < < < < < < < < < < />w*x#D+J+U#f@&.:+%.d@y+x#Q@x+D+0%c+0%0%7>8>9>0>a>0%n#O@Q@>$i@5+f@>$w&Q@f@f@j@z*Z@O@g@]#Z@g@]#]#2$o$;#u*s*s*`.Z@s*C+;#",
"M@z*3+u*u*i@`.i@Z@i@i@Z@a#o$]#>$0#f@f@o$5+f@]#Q 0+Q+x+r@W$@+Q@{#x#{#D+b>c>d>e>f>C&D+{#x#x#D+{#x+p$p$g>}+/+`.x+{#'$Q i@^>< < < < < < < < < < < < < />R@{#D+D+Q+6.m+1+P@y+a+n#Q+{#x#U#]@|#h>i>j>k>l>x@Q@Q@Q@f@5+W$M@6$Q@f@f@f@]#P@;#g@g@g@2$]#5+f@g@i@i@Z@Z@Z@Z@Z@s@`.h+++",
"@+f+Z.;#3+3+s*i@i@i@u*s@Z@i@2$Q@Q@]#o$i@j@f@]#f@Q@O@f@{#[&]%@+<$'$c+>$'$E%m>n>o>p>(@'$Q+'$D+{#'$y+a+a+[.n*U W$R@'$e@P@q>< < < < < < < < < < < < < r>N {#{#Q+%.(+'=W$7+p${#{#{#x+D+]@%%s>t>u>v>g%0%Q@f@f@f@M@M@v+e@b=5+]#f@($]#f@3+5+f@f@($f@g@]#i@s*g@f@]#i@;#u*i@`.--++",
"++R+Z.3+3+s*`.;#s*u*i@Z@i@Z@g@O@]#2$g@i@j@f@]#f@O@j@s@Q+p$w+$-R+r@>$Q@Q x+w>x>y>z>A>%%{#p$p$D+D+y+w*4@O 3.B>}+P@{#f@M@^>< < < < < < < < < < < < < C>0+Q+Q+q+_+1+@+C@{#'$x+y+{#p$U#N%D>E>F>G>H>U#r@f@Q@f@M@V+e@r@e@5+g@r@f@g@g@5+z*j@f@f@B+f@Z@i@M@u*5+2$i@s*K#z*`.;#W+z*",
"f+{.f+;#s*Z@i@s*i@s*o$]#g@Z@>#]#g@g@g@s*j@f@Q f@b#O@j@d@P@z*i%4+R+2$f@0#Q -=<*n=I>J>V;c+p$a+{#{#R@Q+R@7+O@%.A.j+w+O@`.^>< < < < < < < < < < < < < C>d@0+4+I=6.@+z+R@Q@Q+{#D+U#D+0%Z;(&K>L>M>O%f@6$f@O@`.q+i@g@{.P@Z@g@Q@a#2$O@g@z*i@g@($f@g@i@i@i@s*g@o$;#;#++}@;#++W+{.",
"t+h+z*`.s*Z@g@i@3-Z@o$a#g@g@Z@g@g@Z@Z@z*j@e@Q Q ]#r@w+O@++B$3+u*q+++Q x+0+<$O%N>O>P>Q>g@N y+{#y+{#<$0+0+7+w+1+&-` w+`.^>< < < < < < < < < < < < < R>N d+u.d-Z$M+Q+Q Q@R@R@y+x#{#N S>T>L>U>4&Q+f@f@Q @+u+}>@+s*q$i@g@O@Q@f@g@]#P@3@;#g@o$f@Z@s*Z@i@i@g@i@;#M@`.;#s*;#C$%.",
"V>E$f+`.Z@Z@g@i@s*Z@2$f@g@g@Z@Z@Z@i@t*z*`.f@O@d@g@]#f@Q `.].W>@+i@;.g+Q N N n#L&X>Y>Z>i$P@x+n#R@a+R@x+f@e@D+3+f&A.5+M@^>< < < < < < < < < < < < < R>0+~.<+%.M+N Q <$y+D+x#R@R@Q+4+`> ,.,+#R@Q+Q@O@w+4+@+5+4+u*~.i@5+O@]#]#j@O@P@L#s*Z@Z@P%g@i@Z@i@i@g@Z@`@s*;#;#u*;#E$f&",
"W;q$f+3+i@u*s*Z@3-`@Z@i@;#Z@i@Z@Z@s*}@D$3+f@f@Q@f@f@O@d@i@+,J*U+i@M@;.3+Q@Q+Q@R@J+p$[.<+f&w+e@R@R@R@0+d@d@e@h+X _+M@3+^>< < < < < < < < < < < < < @,Q V+X j+e@Q+<$>$x#U#{#J*<$W+l+u+>$y@U#{#Q+O@`.[.z*w+C$<$i@q$j@g@g@g@]#g@]#P@L#;#s*`@5+]#g@Z@Z@3+Z@s*t*s*;#3+z*++e+i$",
"` e+f+;#`.3+s*i@s*Z@i@s*`.Z@s*s*s*;#f+{.++s@g@Q@Q@f@e@0+j@K#f@N R+j@P@q+++O@Q f@x+G$0+q+j+7.w+Q+R@x+Q@Q f@d@~.l+_+`.@+^>< < < < < < < < < < < < < #,e@[.<+A.O@f@f@Q@{#D+x+N ~.l+%.]%_@y+x#{#Q `.4+u*5+^.r@O@i@q$P@g@Z@g@g@g@s@i@L#;#u*g@]#f@o$g@#*;#3-;#t*;#z*Z.K#Z.'.&.",
" .[.f+`.M@}@$,3-Z@s@]#g@g@g@3-;#i@s*4-K#f+u*M@g@]#O@f@R@j@{.g@<$C@$-i@}@%.++O@e@Q x+W%e@%._+#.Q {#'$Q@f@<$e@W+l+A.a d#%,< < < < < < < < < < < < < &,k%4+<+A.O@Q@O@]#Q+V#R@f+n*'=@++@D+n#B+0#O@[.R+O@[.d@O@5+M@W+i@Z@s@O@f@2$g@i@L#}@s*($]#b#2$]#g@t*#*i@s*++;#z*z*D$[.X ",
" .e+R+u*;#z*z*s*j@]#f@f@5+]#g@Z@i@i@#*;#3+g@g@O@O@Q <$0+@+B$Z@f@n#R@f@f@f+4+j@0+5+O@a+N+r@t+_+U+<$N Q@e@<$Q+{.*,u.@+3+%,< < < < < < < < < < < < < &,Q q+<+A.f@f@g@g@f@x+O@W &.B$E+7+R@Q@e@f@R+h+f@0+j@d@j@Z@s*!.i@Z@j@g@5+f@i@P@f+;#s*f@]#5+Z@]#]#i@i@s@i@@+s*++z*z*[.&.",
" .!-{.++3+z*z*u*s@g@g@]#]#g@j@g@o$Z@Z@}@}@s@s@r@f@e@Q e@@+--u*Z@f@f@g@f@Z@D$[.e@Q@f@Q+a+z+'==,^.0+<$P%O@Q Q -,<+v.`.z*;,< < < < < < < < < < < < < &,O@%.[+u.r@]#]#w+w+Q+w+>,b+x#J+D+>$Q@Q+R+h+Z@f@Q@Z@O@]#i@s*W+i@i@s*;#i@Z@}@M@3+i@s*g@g@g@t*Z@g@g@Z@i@`.@+u*u*++Z.q+&.",
"X [.d+++++}@s*s*Z@i@s@j@Z@Z@g@j@g@3-;#K#3+s@g@g@w+r@Q r@++W+u*i@f@f@s@f@5+}>m;P@d@Q d@x+z#,,',),e@e@O@w+Q f@q$<+z.@+3+;,< < < < < < < < < < < < < &,O@%.:+v.w+r@]#f@Q@R@B+!,~,{,{#c#n#Q+Q@;.;#g@f@Q@s@s@g@i@i@W+`.s@i@s*i@i@;#`.z*Z@g@#*i@i@;#s*i@g@Z@s*u*++++3+++D$;.X ",
"l+h+],z*}@}@s*Z@i@i@g@g@s@g@f@g@Z@;#z*K#3+j@g@O@f@r@O@f@;#r$`.Z@O@f@g@g@`@i@--D$s@f@r@x+x@^,/,(,i e@e@f@Q@f@}.l+v.`.++%,< < < < < < < < < < < < < _,j %.m+^+j@f@]#f@>${#:,<,[,},D+v&6$Q@f@r+u*Z@Q@<$j@|>Z@`@M@q$i@s@Z@i@s*;#;#@+3+j@g@i@i@Z@s*s*Z@i@Z@`.`.@+@+@+++3@'.X ",
"<+e+h+++z*u*Z@i@s*E@Z@Z@j@Z@O@j@s*z*}@Z.++j@g@O@O@r@f@f@3+q$i@5+b#f@]#Z@3-t*C$].s@5+j@e@1@|,1,2,f@0+N 0+e@e@^.l+^+@+2+;,< < < < < < < < < < < < < _,O@;.:+v.j@f@O@($f@Q+a=3,4,5,K+>$P%]#]#E$M@s@Q@<$Z@s*i@i@`.q$@+5+r@r@i@u*;#M@3+g@Z@i@i@g@g@g@j@s@P@u*++3+u*`.3+{.4+X ",
"j+~.].z*K#s*`.M@u*s*i@`.i@`.Z@g@u*z*}@D$2+j@g@i@`.`.g@w+f+--o$g@g@f@]#Z@Z@i@q$++r@j@i@Q@^@6,7,8,]#i N 0+x+0+q$l+u.@+U+;,< < < < < < < < < < < < < 9,w+%.*,v.j@f@5+]#O@Q a=0,a,5,c+f@]#O@f@[.j@f@>$Q@s@i@i@i@`.h+@+g@f@Q g@i@s*`.3+i@s*s*M@Z@g@5+j@s@g@s@@+3+;#u*f+--4+W ",
"}+E${.Z.t#z*;#;#i@`.s@@+;#`.`.P@u*z*++3@2+W$`.i@`.i@j@O@++q$s*s@g@]#]#g@Z@i@W+R+j@s@g@e@1@b,c,d,2$d@N :$Q+N [.j+u.d#T+;,< < < < < < < < < < < < < e,w+%.<+v.j@5+s@j@j@f@a=f,g,h,y#f@]#g@r@s+g@O@f@Q j@i@`.j@P@q$i@g@f@Q O@;#s@`.z*3+}@;#;#i@`.`.`.j@P@P@P@`.M@M@f+h+4+l+",
"[+[.].Z.-,{.z*`.s@i@g@M@;#;#i@M@`.;#++3@R+P@@+s*P@M@g@f@;#C+;#i@a#f@f@P%Z@i@r${.i@5+r@j@z#i,j,k,2$d@0+Q+>$Q+V+<+z.T+R+;,< < < < < < < < < < < < < e,f@%.l,^+P@s@i@j@s@a#m,n,o,h,n&f@]#g@O@;.w+5+]#O@i@j@g@j@`.~.@+g@j@r@Z@s*5+s@D$+,}@}@}>s@i@`.P@P@`.`.`.@+i@@+{.[.[.W ",
"n*e+].R+{.f+z*`.g@g@5+M@3+M@i@@+}@p,++3@U+@+@+i@`.@+j@O@3+].`.i@]#6$f@]#s@s*W+'%h@g@5+g@K+q,r,8,a#O@f@x+>$f@W+<+'+2+d+;,< < < < < < < < < < < < < 9,O@%.(+v.i@s@5+g@s@a#s,t,u,h,v,f@Z@o$O@;.g@O@j@i@M@h@j@i@u*~.`.i@s@i@i@u*i@P@Z.z*K#3+j@5+M@@+@+++@+@+@+M@u*@+{.V+q+}+",
"j+|.h+R+3+;#++`.s@s@i@++;#i@P@`.++;#`.R+R+@+P@s@M@P@`.i@z*h+u*j@O@r@2$Z@i@M@r$T+w+g@Z@O@{#w,x,y,Z@r@e@Q+Q@O@W+k+'+++R+;,< < < < < < < < < < < < < z,O@;.[+)+P@g@]#f@f@a#A,B,g,C,Q@g@#*]#Q =.g@i g@i@@+`.P@u*++V+3+P@i@M@M@}@i@P@f+@+;#i@5+g@P@;#++++@+3+++z*3+@+R+W+q+j+",
"j+~.].++@+3+++++;#;#}@z*z*++i@M@++;#}@R+2+`.M@j@i@g@i@3+{.h+i@5+j@]#g@i@i@`.q$2+O@j@i@Q {#D,E,F,#*5+d@<$f@O@B$k+'+d#R+;,< < < < < < < < < < < < < G,j q+[+]+P@P%O@f@O@o$J-H,I,J,f@O@Z@O@O@%.P@i w+`.`.i@@+u*++[.M@M@g@j@;#+,@+`.f+`.P@i@i@g@P@;#++`.`.u*3+{.R+{.].W+q+l+",
"X <.h+f+3+3+3+z*z*z*3+@+3+++`.;#++z*z*3@R+@+`.j@g@O@i@3+D$W+i@O@j@g@j@s@i@i@V+++i w+O@Q@K,L,M,N,M@j@O@d@Q O@B$<+'+d#'%;,< < < < < < < < < < < < < O,w+q+_+{+j@f@5+b#g@j@P,Q,R,S,Z@O@i@s@g@%.@+O@w+@+`.i@`.u*++!.3+i@5+g@;#z*@+`.R+@+`.P@M@s@`.`.3+;#++z*3+f+{.--q$e+[.X ",
"l+[.C+R+f+f+++;#;#++u*j@M@i@s@@+++3+++3@U+@+@+@+i@w+P@i@{.V+3+2$5+O@Z@s@Z@u*E$'%w+i O@O@4#T,U,V,`.j@P@g@]#r@].f;]+3+S+;,< < < < < < < < < < < < < z,w+q+A.]+O@f@g@O@s@i@W,X,Y,Z,`.w+i@`.j@%.@+O@j@@+`.s@g@i@f+!.;#;#i@M@$,Z.++a {.++++`.@+@+`.3+3+z*++3+u*3+f+h+--h+[.` ",
"[+[.h+`,f+f+++`.;#f+;#s@`.P@j@s@@+++z*f+d+3+3+`.i@w+j@j@R+[.z*s@Z@5+i@i@`.;#V-Z+P@O@f@>$(* '.'+'$,j@P@j@Z@j@q$<+'+g+R+;,< < < < < < < < < < < < < @'s@;.n+{+w+f@r@g@j@r@#'$'%'&'-=5+M@s@j@%.`.r@j@`.3+i@g@i@++W+++3+++++z*D$z*@+{.++;#i@;#M@3+u*@+3+z*3+;#++3@B${.].q+X ",
"n* %~.{.f+++f+;#;#++;#i@@+@+s@j@j@`.++f+R+3+++M@P@j@s@`.].r+z*M@i@Z@s*u*s*;#r+^.j@P@i@5+(@*'='-'`.j@j 5+5+@+[.[+'+@+4%;,< < < < < < < < < < < < < ;'3%*.I={+w+Q@f@O@f@f@A&>','''B+i@s*u*P@%.P@5+M@;#z*@+s@`.2+|.++++3+z*z*D$z*@+].3+`.s@s@i@3+`.@+;#++@+++++f+{.{.3@,.X ",
"n*'.q${.{.Z.D$z*}@u*;#i@`.M@i@P@s@M@3+R+R+3+++M@i@s@M@3+].r+f+++i@s@;#;#i@;#r+^.j@i@M@j@)'!'~'y,i@h@h@P@w+M@q+m+{+3+R+{'< < < < < < < < < < < < < ;'3%%._+)+w+Q@]#O@r@f@]'^'/'f>f@`.i@u*j@%.3+`.}>i@}@++`.]%].;.R+z*++z*f+Z.f+g+].++@+`.P@@+3+@+`.++`.@+@+3+f+R+R+{.'.}+",
"_+*.`+{.R+{.{.D$++u*M@`.@+G@`.@+@+`.@+3@R+3+++`.;#++z*z*h+u+{.Z.++u*3+s*i@;#q+d+`.M@M@j@('!'_'2,Z@e j P@P@@+N$(+]+'%S+{'< < < < < < < < < < < < < ;'P@X+_+)+W$]#Z@j@s@]#:'t,<'['2$`.s@M@;#X+f+;#u*3+}@3+3+++}.%.R+f+z*z*f+3@R+3+d+T+++++++++++3+`.G@`.++f+3+f+++Z.].=.V ",
"/+%.[.].R+Z.3@Z.}@z*@+`.@+@+a u*@+M@3+{.U+3+++++z*D$3@R+q$u+{.z*Z.z*}@s*;#z*N$U+3+`.s@s@)'}'|'1'f@e@O@w+P@3+s+[+]+4%S+{'< < < < < < < < < < < < < 2'`.t+A.]+`.P@M@i@`.i@7>3'4'C,f@Z@5+g@`.t+D$++3+f+3+3+++{.W+-.{.R+z*z*f+R+f+@+^.{.R+f+D${.{.++G@@+@+3+Z.;#3+++T+^.%.X ",
"/+%.V+].f+R+{.3@z*Z.z*@+3+@+`.3+@+@+++d+e M@++Z.D${.f+z*h+u+{.D$3@++u*;#}@z*u+'%G@`.s@s@5*q,5'1'f@d@j w+g@`.;.m+]+2+2+{'< < < < < < < < < < < < < 6'`.|+u.]+@+P@i@;#}@i@7'3'8'9'P=g@]#s@P@6.++++u*f+`.++z*{.q$%.D$z*f+f+Z.R+3+W$Z$R+++++z*-,B$f+3+++@+++++3+3+++++'%u+j+",
"~.;.V+].U+R+Z.++++Z.++u*++@+`.u*`.3+R+3%@+++R+{.h+q+{.T+!.r+R+z*{.f+3+u*}@3+4+U+@+`.`.s@5*q,0'a'2$i e P@j@`.4+U '+3+{%{'< < < < < < < < < < < < < 6'W$..A.]+@+M@u*@+`.}>b'3'8'c'P=5+j@g@g@X+3+++@+R+3+++++Z.W+%.v+R+;.{.Z.f+f+`.w+].++++;#D$B$f+3+2+3+++3+f+R+f+R+{.q+--",
"%.6.r+--].'%T+++++f+f+3+u*M@`.i@`.3+W+2+3+f+].h+d',%h+`+&.u+;.4+u+Y.[.r+u+].[.{.@+i@`.g@5*e'r,2,Z@O@O@e 3%@+V+q*]+r='%f'< < < < < < < < < < < < < g'`.&.v.h'@+;#3+M@`.Z@i'j'k'C,($j@w+O@g@1+f+%.W+|.%.4+4+%.r+Z e+q$%.&.].Z.f+@+W$4+f+3+3+h+].R+z*f+R+++++R+f+f+].h+%.q+",
"/+ .r+h+{.R+R+++++R+R+++;#3+3+`.;#3@r+R+++R+h+7.3.d+V+&.%.i$3._+X 5.j+d'<+R+r+h+3+s*@+w+c+l'm'n'i@j O@j@P@`.[.m+]+2+S+f'< < < < < < < < < < < < < o'3%..z.~+@+s*3+`.M@M@b't,p'q'a#j@s@P@j@1+R+i+` r's't'Z @.}+%.X [.<.%.&.^.Z.@+P@;.{.++++{.R+++++D$R+++f+].f+'%].q$-.X ",
"1+5.[.}.{.{.Z.f+f+++++3+3+;#z*]%]%h+r+R+f+{.[.&.~.q+Z 1+r+%./+7.Z U d'/+Z E$s+h+@+;#3+i@v&u'v'w'i@j w+P@i@M@4+m+]+R+U+f'< < < < < < < < < < < < < }-@+|+v.!+`.M@M@j@j@s@J-t,x'q']#P@`.`.P@1+^.X y'@.&-s'f&0.z'6.1+X q+e+&.[.++3+a %.{.++++++f+3+++v+f+R+R+f+Z.R+{.W+#.%.",
"&.&.[.W+].].R+R+T+R+R+f+++z*R+3+3+].r+U+f+h+d+h+4+&.7.4+q+A'Z  .}+d'X=f&j+q$s+d+j@M@u*j@0#B'C'D'i@w+O@`.`.z*X%(+]+4%X$f'< < < < < < < < < < < < < E'd#` I={+@+`.j@w+w+g@F'G'H'I'O@i@;#@+P@#.].|+ .J'd'U ]; .X=|+q+[.f&%.[.Z.{.++a %.h+f+++z*++3+3+R+++f+3+3+R+'%h+V+%.f&",
"4+;.V+q$q$q${.z*3+++R+{.{.R+{.T+++].V+d#3+h+V+4+|+#.K'^.[.X%e+E$V+q+4+4+u+Z$~.++w+i@j@O@f@L'M'N'`.j@w+@+`.++s+m+z.2+~.f'< < < < < < < < < < < < < O'++&._+^+g+@+M@P@w+Z@P'4=Q'R'd@P@;#P@j@6.W$4+g>r+W+!-4+u+;.u+!.S',%X r+q$D$f+j@s+q$R+z*f+R+++@+++g+]%@+3+f+h+W+[.q+r+",
"u+r+W+W+V+q${.`,++++R+{.{.R+R+R+R+h+W+n#x@c+n#U#{.r+4+Y.Y.%.1+1+Y.q=t+|+i+%.;.W$j@`.w+i `.T'U'V'`.P@`.3+@+++s+<+~.3%Z+f'< < < < < < < < < < < < < O'T+{.X ^+T+`.@+s@j@`.9$+-W'.-e a @+s@e g>q+%.l+q=6.1+#.1+6.X+1+%.X+[.x#5*0%X'}&[.W+R+++++R+R+d#@+g+f+++R+{.h+h+W+r+u+",
"u+[.V+[.[.W+],R+{.{.f+f+f+f+++R+{.q$%.S+g+@+@+j@k*(@%%U#:%n#>$P=o#P=y#w&Y'Z'e@3%P@@+O@++`'e*V,n-++`.3+++3+z*u+*.Q@`.~.f'< < < < < < < < < < < < <  )R+P@~._+z*@+i@g@i@z*m;.)+)@)~.P@s@w+j@i@#)$)%)]#w&n#k*U#K*W%c+n&5*c+O W$@+s@j@1+W+R+R+3@D$v+2+g+2+R+++2+{.d+h+!.[.q+",
"s+u+q+V+V+W+].{.h+h+{.f+++R+++f+{.C$*.S+++3+;#3+P@5+`.j@O@w+`.@+@+Z.3+z*z*`.@+`.P@`.O@f+&)*)q=%.++`.++z*z*f+s+..3+@+~.f'< < < < < < < < < < < < < =)3+d#4+A.++3+u*j@j@z*-);)>),)4+e w+w+j ;#`.`.i@s@i@3+s@O@j@P@3+3+3+M@@+++++3+`.|+q$D${.].].{.2+++R+{.f+'%{.{.h+e+[.%.",
"s+[.4+V+[.W+{.].h+q${.f+R+{.R+D$D$B$%.'%3%@+3+3+@+P@++P@O@s@P@`.`.++3+++++P@w+3+@+`.P@{.l,')t+;.++@+++z*f+f+s+&.z*3+<.))< < < < < < < < < < < < < !)++3+q+v.++++3+i@j@z*V-l,X l,*.`.j@j@s@w+P@`.`.j@P@++@+`.P@@+G@3+R+f+3+f+f+@+@+|+!.h+B$].--{.2+f+{.^.U+{.].~.q$W+[.%.",
";.[.4+e+!.^.h+{.h+h+h+R+{.R+f+{.].q$%.U+@+3+++3+++d#++`.`.`.d#++@+++++`.j@w+`.3+++G@@+^.~){)1+;.++`.++R+T+R+%.&.f+++|.))< < < < < < < < < < < < < ])++++*.v.f+3+f+@+P@++W+*,i$(+;.d#P@`.j@j e s@j@j P@++@+G@a ++++R+{.z*3+@+++M@a 6.V+h+q$W+W+].2+++Z.h+~.^.`,~.q$!.[.%.",
"%.4+e+~.~.q$q${.h+q$h+{.{.{.{.R+B$q$-.4%@+]%f+f+++R+f+d#9 @+3+d#d#G@@+j@O@P@@+@+++++++^.(+)+'=3.T+++++R+R+`,%.|+{.++,.))< < < < < < < < < < < < < ^)4%T+=.v.f+++R+2+P@++!.l+i$[+q+s@s@P@a P@@+i j@j@`.3+@+++@+d#d#R+++u*3+i@3+@+P@|+V+h+q$W+[.~.R+2+f+].h+q$h+W+`+`+'.%.",
"n-[.e+q$q$W+q$B${@q$q$].].h+--].B$C$%.4%@+++R+R+3+'%R+++@+P@@+d#++++@+j@s@`.@+G@++f+2+~._+')t+#.U+++Z.{.R+R+%.` ].'%*./)< < < < < < < < < < < < < ^)++T+*.'+{.R+`,f+++f+!.()X n*;.@+a a h@a g@O@e @+3+f+@+d#@+d#d#R+Z.u*3+++`.@+P@|+[.--}.W+r+~.R+f+3@q$e+e+W+[.4+e+4+%.",
"%.[.W+q$E$V+r$}.W+q${@].^.--q$q$].W+%.S+@+++f+d#@+R+R+T+`.e e d#T+++++a a @+`.`.@+3+f+q$_+)+6.%.].f+{.h+].v+%. .].'%*./)< < < < < < < < < < < < < ^)++R+%.)+{.f+R+Z.{.h+r+l+i$n*%.T+++++@+G@h@P@3%d#++3+@+++@+d#d#`.++P@d#3+`.@+e |+[.q$q$V+r+~.d+^.d+~.!.e+[.[.[.!.[.%.",
"1+;.[.W+W+e+!.q$W+W+W+].q$r$r$~.q$W+1+6%++R+3+`.3+z*++++++d a d#T+++++3+`.`.@+++T+++T+~. .l+;.%.^.'%{.^.{.^.1+X ^.].*./)< < < < < < < < < < < < < _)U+{.%.z.d+R+].C+h+h+q+X #.7.;.R+R+++++G@@+e P@`.++++@+++++++++G@d#a @+@+@+@+i |+r+q$W+W+V+q$].q$~.W+!.W+!.V+V+[.u+1+",
"|+%.q+[.V+V+!.V+V+[.V+q$V+W+~.W+W+[.%.g+2+2+++++3+f+++++d#d#G@++++++`.++T+d#@+T+'%f+T+~.l+%.4+*.^.],].h+].W+1+` ~.^.*./)< < < < < < < < < < < < < :)^.^.%.v.h+d+h+C+h+~.q+%.Z+6.;.R+].{.R+f+3+@+d#P@<)T+++f+T+`,Z.T+++G@++T+++f+`.;.;.W+q$V+V+q$~.!.!.[.'.4+V+V+q+;.;.i+",
"Z #.%.%.s+u+u+r+r+q+q+[.[.[.V+V+[.%.g+++++R+++f+++'%f+++++9 T+T+T+++++++++d#f+R+].S+##~.i$[)<.%.~.].{@`+].{@6.X Z+^.*./)< < < < < < < < < < < < < })^.^.%.v.h+{.].h+].h+[.*.S |+,%k%{.{.].{.f+f+++3+'%R+'%R+],],`,Z.R+R+T+'%++{.R+3+n-4+[.r+u+'.[.[.q+u+s+s+%.;.%.-.-.|+",
"j+<+l+X X i$X i$i$&.|+&.&.&.|+6.|+^.d+^.^.~.].^.^.~.^.].].].].^.^.^.^.].].].].^.~.Z+X$*.j+7.Z q$q$^.`+!.q$].&.W ~.^.#./)< < < < < < < < < < < < < |)Z+^.6.{+{.].h+].].W+q$&. .l+1+4%~.W+q$^.d+].`+h+~.~.h+~.`+~.].^.~.~.~.~.~.!.|.!.{.|+q=|+d-&.|+|+i$i$i$X X X l+j+:+B>",
"1)n-n-r+V-q$E$[.q+s+r+X%[.[.[.C$~.%._+'+!+~+o+!+]+]+{+'+]+]+{+{+{+{+'+]+)+I=q*j+}+U :+j+1+s+^.W+[.'.4+q+5.<.W V ~.^.#./)< < < < < < < < < < < < < |)^.2)#.)+R+;.%.V+e+4+e+~.Y.s+X }+_+_+:+m+A.v.{+!+p+]+]+o+~+!+!+o+p+!+]+)+]+]+{+v.|+m;h+B$r$C$C$q$r$q$W+[.X%s+q+n-%.6.",
"3)S.S.S.4)5)5)6)5)5)5)6)7)6)5)6)8)6)4)S.4);+9)=+0)>+0)5)6)5)6)5)>+S.S.S.5)5)6)5)5)0)5)6)5)0)5)S.;+-+=+S.S.a)b)X W+!.../)< < < < < < < < < < < < < c)!.!.i+d)e)4)S.;+f);+S.4)5)g)g)g)6)5)5)0)S.;+4)5)>+>+5)5)5)5)0);+=+S.4)S.4)S.0)5)g)h)i)g)5)5)S.4)5)5)5)5)j)-+-+k)T.J.",
"l)o+]+]+)+B.B.n+n+v.v.(+(+m)n+n+n+B.n+_+v.B.)+^+v.v.v.A.(+n+v.B.)+B.B.B.n)n)v.v.v.v.n+n+v.v._+<+l,o)n+n+;)p)q)r)X+&.U /)< < < < < < < < < < < < < s)f&..d-t)u)v)l,_+o)u.n)n+o)_+(+k+(+_+B.n)n+v.v.n+n)n+m)(+(+_+n+v.B.B.v.B.u.v.B.B.o)(+w)x)B.y)B.B.B.I=n+n+v.)+]+)+]+z)",
"e j A)g P w+d@P P k%d@4*a+Q O@i i i k%u ^;i i k%m m M I 4*u M 0+O@e@d@d@P P O a+M a+M a+w a+w a+a+N P k%d@Q Q@0+N a+w*s=< < < < < < < < < < < < < B);&N R@p$Q+0+y+a+J M J*R@R@{#R@C)J M P D)q e@d@f@d@R@M M u ^;N a+w*w*R@M p$w*e@O@O@d@0+[&e P@j e a k%d@d@A)d@ @E)R 5%",
"F)G)G)V=H)H)I)I)H)J)J)K)I)G)L)M)N)O)P)Q)R)I)S)V=I)R)T)Q)U)V)W)T)I)V=V=V=I)V=I)W)X)E)X)Y)Y)Y)K)R)R)I)V=J)Z)V=V=V=H)E)`)0-< < < < < < < < < < < < <  !I)H)H)P)P)P)R)W).!+!R)X)@!P)R)Y)#!W)K)$!R)I)V=V=V=K)Y)W)W)R)P)R)P)E)#!X)Y)R)K)V=V=V=V=G)%!%!G)%!&!*!N)N)N)V=J)=!-!-!"};
