/* XPM */
static char * so_door21_tex_xpm[] = {
"132 132 1432 2",
"  	c #2D3741",
". 	c #2D3842",
"+ 	c #2E3944",
"@ 	c #2E3943",
"# 	c #2F3A45",
"$ 	c #2E3842",
"% 	c #2E3841",
"& 	c #2F3B46",
"* 	c #2F3944",
"= 	c #2F3A46",
"- 	c #303C46",
"; 	c #303B46",
"> 	c #303C47",
", 	c #303A45",
"' 	c #313D4A",
") 	c #313E4A",
"! 	c #323E4A",
"~ 	c #323F4A",
"{ 	c #313D48",
"] 	c #35393C",
"^ 	c #393939",
"/ 	c #303B45",
"( 	c #323F4B",
"_ 	c #313D49",
": 	c #303C48",
"< 	c #2E3843",
"[ 	c #2E3A44",
"} 	c #2E3942",
"| 	c #253544",
"1 	c #243544",
"2 	c #253545",
"3 	c #253645",
"4 	c #263746",
"5 	c #273847",
"6 	c #263645",
"7 	c #273645",
"8 	c #283847",
"9 	c #283948",
"0 	c #293A49",
"a 	c #283949",
"b 	c #273848",
"c 	c #293B4A",
"d 	c #293949",
"e 	c #293B4B",
"f 	c #293A4A",
"g 	c #2A3B4B",
"h 	c #2A3B4A",
"i 	c #2B3D4C",
"j 	c #2C3F4F",
"k 	c #2D3F4F",
"l 	c #2C3F50",
"m 	c #2D4151",
"n 	c #2C3D4C",
"o 	c #33393E",
"p 	c #2B3C4B",
"q 	c #2A3C4B",
"r 	c #293C4B",
"s 	c #2D4050",
"t 	c #283848",
"u 	c #283A49",
"v 	c #273948",
"w 	c #273947",
"x 	c #263846",
"y 	c #253746",
"z 	c #17242D",
"A 	c #17222D",
"B 	c #17232D",
"C 	c #192530",
"D 	c #19242F",
"E 	c #1A2630",
"F 	c #1A2732",
"G 	c #1A2631",
"H 	c #1A2833",
"I 	c #18252F",
"J 	c #1B2833",
"K 	c #1B2834",
"L 	c #1A2733",
"M 	c #1B2934",
"N 	c #1C2934",
"O 	c #1C2A35",
"P 	c #1C2A36",
"Q 	c #1D2A36",
"R 	c #1D2B38",
"S 	c #1E2D39",
"T 	c #1F2F3C",
"U 	c #1F2E3B",
"V 	c #1F2E3A",
"W 	c #1F2C39",
"X 	c #313437",
"Y 	c #303337",
"Z 	c #1F2C38",
"` 	c #1E2C38",
" .	c #1C2B37",
"..	c #1D2D3A",
"+.	c #1D2B37",
"@.	c #1C2935",
"#.	c #1B2733",
"$.	c #1B2933",
"%.	c #1A2632",
"&.	c #1A2731",
"*.	c #192631",
"=.	c #192630",
"-.	c #18242E",
";.	c #070C11",
">.	c #070B10",
",.	c #070C10",
"'.	c #080D12",
").	c #070D12",
"!.	c #070D13",
"~.	c #080E12",
"{.	c #080E13",
"].	c #080F14",
"^.	c #080D13",
"/.	c #080E14",
"(.	c #090E14",
"_.	c #091015",
":.	c #09131B",
"<.	c #091C2B",
"[.	c #0F1E29",
"}.	c #131F27",
"|.	c #131E27",
"1.	c #131C24",
"2.	c #2F3031",
"3.	c #2E2F31",
"4.	c #131E26",
"5.	c #141F28",
"6.	c #121E27",
"7.	c #091C29",
"8.	c #08151F",
"9.	c #081015",
"0.	c #090F14",
"a.	c #090F15",
"b.	c #0C141A",
"c.	c #0D151B",
"d.	c #0C141B",
"e.	c #0B131A",
"f.	c #0D151C",
"g.	c #0E171E",
"h.	c #0B1218",
"i.	c #0B1319",
"j.	c #0C151B",
"k.	c #0A1117",
"l.	c #0A1116",
"m.	c #0C1319",
"n.	c #0E1821",
"o.	c #0F1E2A",
"p.	c #192733",
"q.	c #20303E",
"r.	c #223341",
"s.	c #303336",
"t.	c #2F3236",
"u.	c #21313F",
"v.	c #223340",
"w.	c #101E28",
"x.	c #0E1A23",
"y.	c #0B151B",
"z.	c #0A1218",
"A.	c #0F161E",
"B.	c #0E161D",
"C.	c #0D161C",
"D.	c #0E171D",
"E.	c #0F181F",
"F.	c #131D27",
"G.	c #142028",
"H.	c #14202A",
"I.	c #142029",
"J.	c #16212B",
"K.	c #15222C",
"L.	c #15212B",
"M.	c #16222B",
"N.	c #182530",
"O.	c #192732",
"P.	c #21313E",
"Q.	c #21323F",
"R.	c #1C2B36",
"S.	c #233644",
"T.	c #1E303F",
"U.	c #293C4C",
"V.	c #233340",
"W.	c #313438",
"X.	c #2F3337",
"Y.	c #263947",
"Z.	c #283B4A",
"`.	c #192834",
" +	c #263B4B",
".+	c #1F2F3B",
"++	c #1D2C38",
"@+	c #20313E",
"#+	c #22333F",
"$+	c #1E2E3A",
"%+	c #192731",
"&+	c #16222C",
"*+	c #15212C",
"=+	c #16232D",
"-+	c #15202A",
";+	c #131F28",
">+	c #182631",
",+	c #1A2934",
"'+	c #1B2935",
")+	c #1F303C",
"!+	c #243644",
"~+	c #273949",
"{+	c #283B4B",
"]+	c #2A3E4E",
"^+	c #2C4253",
"/+	c #243847",
"(+	c #1E2E3B",
"_+	c #283C4C",
":+	c #2A3F4F",
"<+	c #243442",
"[+	c #313538",
"}+	c #303438",
"|+	c #283A4B",
"1+	c #293D4D",
"2+	c #273B4C",
"3+	c #2D4253",
"4+	c #2B4050",
"5+	c #2B3F4F",
"6+	c #2B4051",
"7+	c #2A3E4D",
"8+	c #263948",
"9+	c #20303D",
"0+	c #202F3B",
"a+	c #21303E",
"b+	c #20303C",
"c+	c #1B2A36",
"d+	c #1C2B38",
"e+	c #1D2C39",
"f+	c #192632",
"g+	c #1B2A35",
"h+	c #263744",
"i+	c #2C4151",
"j+	c #2C4152",
"k+	c #2A3F4E",
"l+	c #2E4354",
"m+	c #2E4455",
"n+	c #2D4353",
"o+	c #2F4456",
"p+	c #2D4354",
"q+	c #2D4454",
"r+	c #32485A",
"s+	c #324A5C",
"t+	c #32495B",
"u+	c #32495C",
"v+	c #31485B",
"w+	c #31485A",
"x+	c #2C4354",
"y+	c #1E303E",
"z+	c #1E2D3A",
"A+	c #293E4E",
"B+	c #2A3E4F",
"C+	c #2E4557",
"D+	c #263C4C",
"E+	c #2A3F50",
"F+	c #323639",
"G+	c #303539",
"H+	c #2B4153",
"I+	c #203240",
"J+	c #2D4355",
"K+	c #293D4E",
"L+	c #2B3F51",
"M+	c #1F2F3D",
"N+	c #293D4B",
"O+	c #344B5E",
"P+	c #314658",
"Q+	c #314859",
"R+	c #2F4557",
"S+	c #304658",
"T+	c #2D4252",
"U+	c #2B4151",
"V+	c #2B3F50",
"W+	c #2C4051",
"X+	c #233543",
"Y+	c #223442",
"Z+	c #1E2C39",
"`+	c #2E4355",
" @	c #2E4353",
".@	c #2B4152",
"+@	c #304759",
"@@	c #344C5F",
"#@	c #2D4457",
"$@	c #1E313F",
"%@	c #243745",
"&@	c #233443",
"*@	c #2A3D4E",
"=@	c #2E4558",
"-@	c #2E4659",
";@	c #294052",
">@	c #293E4F",
",@	c #2B4052",
"'@	c #273745",
")@	c #32363A",
"!@	c #30353A",
"~@	c #293D4C",
"{@	c #2C4355",
"]@	c #213443",
"^@	c #2F4558",
"/@	c #223240",
"(@	c #374F62",
"_@	c #2E4456",
":@	c #2F4457",
"<@	c #2D4455",
"[@	c #2B3E4F",
"}@	c #253846",
"|@	c #253847",
"1@	c #304558",
"2@	c #2E4457",
"3@	c #2D4152",
"4@	c #30485B",
"5@	c #31495D",
"6@	c #2D4659",
"7@	c #1F3342",
"8@	c #223543",
"9@	c #223542",
"0@	c #2D4557",
"a@	c #30475A",
"b@	c #2B4254",
"c@	c #243645",
"d@	c #2C4254",
"e@	c #273846",
"f@	c #33373B",
"g@	c #30363B",
"h@	c #213343",
"i@	c #2F4659",
"j@	c #2A4052",
"k@	c #2C4153",
"l@	c #213240",
"m@	c #223645",
"n@	c #31485C",
"o@	c #30485A",
"p@	c #31495C",
"q@	c #31475A",
"r@	c #2E4658",
"s@	c #273A4A",
"t@	c #334A5C",
"u@	c #304557",
"v@	c #2D4254",
"w@	c #304659",
"x@	c #32495D",
"y@	c #324A5E",
"z@	c #1B2F3D",
"A@	c #2A3F51",
"B@	c #293E50",
"C@	c #30373C",
"D@	c #203341",
"E@	c #32495E",
"F@	c #1A2B38",
"G@	c #30495C",
"H@	c #324A5D",
"I@	c #334B5E",
"J@	c #2F4658",
"K@	c #374E62",
"L@	c #344A5D",
"M@	c #304657",
"N@	c #314759",
"O@	c #334A5E",
"P@	c #344C60",
"Q@	c #324B5F",
"R@	c #334C61",
"S@	c #2E485B",
"T@	c #1D3140",
"U@	c #263A49",
"V@	c #253949",
"W@	c #2D4356",
"X@	c #33373C",
"Y@	c #30373D",
"Z@	c #1F303F",
"`@	c #233645",
" #	c #1D2E3B",
".#	c #334A5D",
"+#	c #344D61",
"@#	c #375063",
"##	c #243746",
"$#	c #293C4D",
"%#	c #314758",
"&#	c #334B5F",
"*#	c #334C60",
"=#	c #344D62",
"-#	c #314A5F",
";#	c #1F3241",
">#	c #2D4357",
",#	c #34383D",
"'#	c #31383F",
")#	c #1F303E",
"!#	c #1E2F3D",
"~#	c #324A5F",
"{#	c #30475B",
"]#	c #344D60",
"^#	c #354E61",
"/#	c #354D61",
"(#	c #344E62",
"_#	c #354D62",
":#	c #385164",
"<#	c #233442",
"[#	c #283D4C",
"}#	c #283B4C",
"|#	c #233342",
"1#	c #344C5E",
"2#	c #324C5F",
"3#	c #2F485C",
"4#	c #1F3140",
"5#	c #1A2834",
"6#	c #273A49",
"7#	c #2E4458",
"8#	c #34393D",
"9#	c #31393F",
"0#	c #1E303D",
"a#	c #2D4558",
"b#	c #2C4052",
"c#	c #314A5E",
"d#	c #344C61",
"e#	c #354E62",
"f#	c #354E63",
"g#	c #385165",
"h#	c #233544",
"i#	c #334B5D",
"j#	c #334D61",
"k#	c #2F495D",
"l#	c #203140",
"m#	c #253948",
"n#	c #35393D",
"o#	c #313940",
"p#	c #2A4051",
"q#	c #233746",
"r#	c #3A5368",
"s#	c #233341",
"t#	c #2C4252",
"u#	c #334B60",
"v#	c #2F475B",
"w#	c #253947",
"x#	c #233545",
"y#	c #1C2B39",
"z#	c #2B4154",
"A#	c #2D4456",
"B#	c #243846",
"C#	c #395367",
"D#	c #273B4B",
"E#	c #344B60",
"F#	c #1E3140",
"G#	c #253747",
"H#	c #283E4F",
"I#	c #35393E",
"J#	c #313A41",
"K#	c #293D4F",
"L#	c #1B2C39",
"M#	c #233646",
"N#	c #30465A",
"O#	c #375064",
"P#	c #273B4A",
"Q#	c #33495B",
"R#	c #17242E",
"S#	c #203444",
"T#	c #2F475A",
"U#	c #353A3E",
"V#	c #313A42",
"W#	c #182734",
"X#	c #223544",
"Y#	c #18242F",
"Z#	c #283C4B",
"`#	c #1D2D39",
" $	c #1C2C39",
".$	c #314C60",
"+$	c #2B475C",
"@$	c #213D51",
"#$	c #243E50",
"$$	c #17242F",
"%$	c #2A3D4D",
"&$	c #1D2E3C",
"*$	c #253B4D",
"=$	c #253E52",
"-$	c #2A465A",
";$	c #1E2F3B",
">$	c #1D2E39",
",$	c #1F303D",
"'$	c #1C2C38",
")$	c #2E4352",
"!$	c #2B3E4E",
"~$	c #30485C",
"{$	c #37546B",
"]$	c #1F4965",
"^$	c #1A74A2",
"/$	c #2A495E",
"($	c #2A4153",
"_$	c #1A2935",
":$	c #323B43",
"<$	c #1A2A36",
"[$	c #1C2D3A",
"}$	c #2C4659",
"|$	c #2A5B7B",
"1$	c #265F82",
"2$	c #305069",
"3$	c #365064",
"4$	c #233542",
"5$	c #263A4A",
"6$	c #273A4B",
"7$	c #22323F",
"8$	c #1F2E39",
"9$	c #1E2D38",
"0$	c #20313D",
"a$	c #20303B",
"b$	c #1D2C37",
"c$	c #355065",
"d$	c #1D4864",
"e$	c #127BB7",
"f$	c #2A4A61",
"g$	c #2C4356",
"h$	c #283E4E",
"i$	c #1B2B38",
"j$	c #2E4A5E",
"k$	c #286388",
"l$	c #246287",
"m$	c #2F4E66",
"n$	c #202F3A",
"o$	c #253745",
"p$	c #293B4C",
"q$	c #1B2A34",
"r$	c #202F3C",
"s$	c #233440",
"t$	c #1D2C36",
"u$	c #21303B",
"v$	c #21313D",
"w$	c #21333F",
"x$	c #385268",
"y$	c #1E4864",
"z$	c #137BB9",
"A$	c #2B4B61",
"B$	c #273C4C",
"C$	c #303941",
"D$	c #2F4A5E",
"E$	c #296489",
"F$	c #236389",
"G$	c #2F4F66",
"H$	c #30485D",
"I$	c #243543",
"J$	c #233441",
"K$	c #21303D",
"L$	c #1F2D39",
"M$	c #243542",
"N$	c #21303C",
"O$	c #1E4966",
"P$	c #0F7CC1",
"Q$	c #2B4A61",
"R$	c #283D4D",
"S$	c #2B404F",
"T$	c #363A3D",
"U$	c #313B43",
"V$	c #28658A",
"W$	c #23668D",
"X$	c #2F5067",
"Y$	c #2E475A",
"Z$	c #334C5F",
"`$	c #233643",
" %	c #223440",
".%	c #263745",
"+%	c #2E4253",
"@%	c #385368",
"#%	c #1F4966",
"$%	c #0E7DC4",
"%%	c #2C4B62",
"&%	c #36393D",
"*%	c #313A43",
"=%	c #2A6488",
"-%	c #22668F",
";%	c #2F5069",
">%	c #283A4A",
",%	c #263848",
"'%	c #243646",
")%	c #2A3E50",
"!%	c #365267",
"~%	c #1E4765",
"{%	c #1279C2",
"]%	c #2D4A61",
"^%	c #303A44",
"/%	c #2A668B",
"(%	c #216690",
"_%	c #2F526B",
":%	c #2C4456",
"<%	c #32485B",
"[%	c #253848",
"}%	c #365167",
"|%	c #1277C2",
"1%	c #2F485D",
"2%	c #2B658A",
"3%	c #206692",
"4%	c #30526B",
"5%	c #31495E",
"6%	c #293F50",
"7%	c #233745",
"8%	c #354F65",
"9%	c #1E4967",
"0%	c #107AC4",
"a%	c #2E4C63",
"b%	c #363A3E",
"c%	c #313B45",
"d%	c #293E4D",
"e%	c #1B2B36",
"f%	c #2F495E",
"g%	c #2B658C",
"h%	c #1F6693",
"i%	c #30536D",
"j%	c #223441",
"k%	c #2C4457",
"l%	c #344F64",
"m%	c #0F7BC7",
"n%	c #2D4C63",
"o%	c #2F3A43",
"p%	c #2C658B",
"q%	c #1F6692",
"r%	c #30526C",
"s%	c #2D4458",
"t%	c #283C4D",
"u%	c #26394A",
"v%	c #1E4763",
"w%	c #0F7AC6",
"x%	c #2C4C63",
"y%	c #2F4A5F",
"z%	c #21668F",
"A%	c #2F5169",
"B%	c #2C4255",
"C%	c #2A4050",
"D%	c #283D4E",
"E%	c #204763",
"F%	c #0F7CC6",
"G%	c #303B44",
"H%	c #216790",
"I%	c #2A4152",
"J%	c #1F4763",
"K%	c #0E7DC5",
"L%	c #2C4D64",
"M%	c #2F3B45",
"N%	c #2B4253",
"O%	c #304A5F",
"P%	c #22658F",
"Q%	c #2F4759",
"R%	c #1F4864",
"S%	c #0D7EC7",
"T%	c #2D4E65",
"U%	c #2B6386",
"V%	c #23648C",
"W%	c #1D445F",
"X%	c #127CBC",
"Y%	c #2B4B62",
"Z%	c #18252E",
"`%	c #36393C",
" &	c #2F3A44",
".&	c #2E4559",
"+&	c #2D475B",
"@&	c #2B6081",
"#&	c #266083",
"$&	c #2B4A60",
"%&	c #2A3F52",
"&&	c #1F3A4E",
"*&	c #2A5875",
"=&	c #253F53",
"-&	c #254A62",
";&	c #224862",
">&	c #1C3040",
",&	c #253A49",
"'&	c #2C4759",
")&	c #244055",
"!&	c #254F69",
"~&	c #243C4E",
"{&	c #2E3A43",
"]&	c #273E50",
"^&	c #25485E",
"/&	c #254962",
"(&	c #294458",
"_&	c #304758",
":&	c #1D4561",
"<&	c #1B73A7",
"[&	c #28485F",
"}&	c #37393C",
"|&	c #293F51",
"1&	c #294356",
"2&	c #2A5F80",
"3&	c #255F83",
"4&	c #2C4960",
"5&	c #293F4F",
"6&	c #1D4764",
"7&	c #127BBD",
"8&	c #2A4B62",
"9&	c #2E3A45",
"0&	c #2C475B",
"a&	c #236289",
"b&	c #2E4D65",
"c&	c #1E4A67",
"d&	c #107CC4",
"e&	c #2A4A62",
"f&	c #293E4C",
"g&	c #2E3A46",
"h&	c #2C485D",
"i&	c #29668C",
"j&	c #216590",
"k&	c #1E4866",
"l&	c #107BC4",
"m&	c #2D3A44",
"n&	c #29668A",
"o&	c #206792",
"p&	c #2D4F68",
"q&	c #304859",
"r&	c #1E4A68",
"s&	c #107BC3",
"t&	c #2A4961",
"u&	c #37393B",
"v&	c #2D3943",
"w&	c #2B475B",
"x&	c #263949",
"y&	c #1D4966",
"z&	c #1279BD",
"A&	c #2A485F",
"B&	c #2D3A45",
"C&	c #2B4559",
"D&	c #296386",
"E&	c #236489",
"F&	c #2D4F67",
"G&	c #2B4252",
"H&	c #1579B5",
"I&	c #29485E",
"J&	c #2B4558",
"K&	c #296082",
"L&	c #256083",
"M&	c #2A3D4C",
"N&	c #263B4C",
"O&	c #1D2F3B",
"P&	c #1A384C",
"Q&	c #21526E",
"R&	c #253E51",
"S&	c #2C3842",
"T&	c #214962",
"U&	c #204962",
"V&	c #2B4457",
"W&	c #1A2A37",
"X&	c #1A3040",
"Y&	c #2C3742",
"Z&	c #1D303F",
"`&	c #1C2E3D",
" *	c #263845",
".*	c #17232E",
"+*	c #2C3944",
"@*	c #253A48",
"#*	c #38393B",
"$*	c #2D3B45",
"%*	c #15212A",
"&*	c #37393A",
"**	c #2B3944",
"=*	c #152029",
"-*	c #1F303B",
";*	c #213442",
">*	c #213340",
",*	c #273C4A",
"'*	c #18242D",
")*	c #273A48",
"!*	c #38393A",
"~*	c #2C3945",
"{*	c #20313F",
"]*	c #172B39",
"^*	c #182833",
"/*	c #2B3844",
"(*	c #172936",
"_*	c #213647",
":*	c #253845",
"<*	c #284155",
"[*	c #1B3F56",
"}*	c #255A77",
"|*	c #1F394B",
"1*	c #273B49",
"2*	c #293F4E",
"3*	c #2A3843",
"4*	c #223746",
"5*	c #285773",
"6*	c #1B445D",
"7*	c #223E53",
"8*	c #294357",
"9*	c #1D4159",
"0*	c #1973A8",
"a*	c #24648A",
"b*	c #2B495F",
"c*	c #293642",
"d*	c #275471",
"e*	c #0F7DC0",
"f*	c #1E4964",
"g*	c #264257",
"h*	c #294153",
"i*	c #1D3F56",
"j*	c #1C6F9F",
"k*	c #1E6D9C",
"l*	c #2D536D",
"m*	c #293743",
"n*	c #304D64",
"o*	c #285E81",
"p*	c #0980C9",
"q*	c #1E4863",
"r*	c #264055",
"s*	c #273C4D",
"t*	c #1B3648",
"u*	c #1A72A5",
"v*	c #2D5570",
"w*	c #192833",
"x*	c #2A3844",
"y*	c #24638A",
"z*	c #147AB2",
"A*	c #1C3E54",
"B*	c #273C4B",
"C*	c #1A3141",
"D*	c #1D3B4F",
"E*	c #285D7C",
"F*	c #2B536D",
"G*	c #293844",
"H*	c #2F4D65",
"I*	c #285A78",
"J*	c #1F425A",
"K*	c #1A3346",
"L*	c #253C4E",
"M*	c #1B394F",
"N*	c #275876",
"O*	c #285A77",
"P*	c #2A4C62",
"Q*	c #293845",
"R*	c #2D4A60",
"S*	c #224D68",
"T*	c #206A96",
"U*	c #1C4057",
"V*	c #253F52",
"W*	c #253946",
"X*	c #263B4A",
"Y*	c #1D3C53",
"Z*	c #275777",
"`*	c #127DBD",
" =	c #2C4E65",
".=	c #1971A8",
"+=	c #216692",
"@=	c #1B3E56",
"#=	c #263E51",
"$=	c #283E51",
"%=	c #1E3D54",
"&=	c #265474",
"*=	c #2D5774",
"==	c #2B465B",
"-=	c #182630",
";=	c #21323E",
">=	c #383939",
",=	c #263641",
"'=	c #2C4559",
")=	c #2E526D",
"!=	c #1474B3",
"~=	c #236189",
"{=	c #1B3D56",
"]=	c #263C4F",
"^=	c #253A4A",
"/=	c #283F50",
"(=	c #1D3C54",
"_=	c #234E6C",
":=	c #0782D3",
"<=	c #2B5B7B",
"[=	c #2C485E",
"}=	c #15222A",
"|=	c #263440",
"1=	c #141F27",
"2=	c #2C4458",
"3=	c #2D5470",
"4=	c #0E7ABF",
"5=	c #265B7D",
"6=	c #1A3A4F",
"7=	c #243A4B",
"8=	c #1E3B50",
"9=	c #1F4C6A",
"0=	c #0382DA",
"a=	c #2A5C7E",
"b=	c #2C4A60",
"c=	c #24323F",
"d=	c #233642",
"e=	c #141E26",
"f=	c #0E7CC3",
"g=	c #275676",
"h=	c #193549",
"i=	c #25394B",
"j=	c #243948",
"k=	c #1E3241",
"l=	c #193950",
"m=	c #295F82",
"n=	c #2C4A62",
"o=	c #1E2E39",
"p=	c #1C2933",
"q=	c #151F27",
"r=	c #2B5471",
"s=	c #1A2C3A",
"t=	c #213341",
"u=	c #253A4B",
"v=	c #162936",
"w=	c #1A3447",
"x=	c #2B516C",
"y=	c #2D4B61",
"z=	c #1C2C37",
"A=	c #333537",
"B=	c #282D32",
"C=	c #284F69",
"D=	c #1E4256",
"E=	c #162733",
"F=	c #162835",
"G=	c #283C4A",
"H=	c #101C25",
"I=	c #141D26",
"J=	c #353738",
"K=	c #252E35",
"L=	c #24394A",
"M=	c #1A2D3A",
"N=	c #172430",
"O=	c #16242E",
"P=	c #182732",
"Q=	c #152531",
"R=	c #122C3E",
"S=	c #103C55",
"T=	c #383839",
"U=	c #212F3A",
"V=	c #17252F",
"W=	c #273D4C",
"X=	c #1C303D",
"Y=	c #162C3B",
"Z=	c #124361",
"`=	c #11688D",
" -	c #103447",
".-	c #35383A",
"+-	c #29343E",
"@-	c #1A2933",
"#-	c #1B3140",
"$-	c #153143",
"%-	c #134B6C",
"&-	c #0B729B",
"*-	c #10394F",
"=-	c #35383B",
"--	c #293640",
";-	c #2C4558",
">-	c #273D4E",
",-	c #213645",
"'-	c #245570",
")-	c #27455C",
"!-	c #263C4D",
"~-	c #163449",
"{-	c #144D6E",
"]-	c #0A749E",
"^-	c #103B52",
"/-	c #283641",
"(-	c #284255",
"_-	c #263F52",
":-	c #205371",
"<-	c #233B4D",
"[-	c #233B4C",
"}-	c #127CA8",
"|-	c #274F6C",
"1-	c #263D4F",
"2-	c #153449",
"3-	c #154D6F",
"4-	c #0774A3",
"5-	c #103B53",
"6-	c #29495F",
"7-	c #0E7BAD",
"8-	c #234358",
"9-	c #1B2B37",
"0-	c #243E4F",
"a-	c #0A84B7",
"b-	c #28516F",
"c-	c #273E51",
"d-	c #294051",
"e-	c #1B303F",
"f-	c #153247",
"g-	c #144C6E",
"h-	c #0675A5",
"i-	c #0F3A52",
"j-	c #284256",
"k-	c #283E4D",
"l-	c #2A4B61",
"m-	c #0783B8",
"n-	c #24455B",
"o-	c #0E81B0",
"p-	c #28506C",
"q-	c #153347",
"r-	c #144C6D",
"s-	c #0973A0",
"t-	c #28343F",
"u-	c #274053",
"v-	c #2A495F",
"w-	c #0C7EAC",
"x-	c #233848",
"y-	c #275E7C",
"z-	c #29475D",
"A-	c #1C3141",
"B-	c #153043",
"C-	c #144A6B",
"D-	c #0975A1",
"E-	c #103B51",
"F-	c #284154",
"G-	c #275B77",
"H-	c #243C4F",
"I-	c #263F51",
"J-	c #1D3241",
"K-	c #152D3D",
"L-	c #144764",
"M-	c #0D7299",
"N-	c #11384D",
"O-	c #35373A",
"P-	c #28323C",
"Q-	c #283F51",
"R-	c #273F51",
"S-	c #16222D",
"T-	c #15364A",
"U-	c #124D69",
"V-	c #212F3B",
"W-	c #1B2D3A",
"X-	c #172A3A",
"Y-	c #2D373F",
"Z-	c #1E2C37",
"`-	c #1C2D39",
" ;	c #2F3439",
".;	c #333639",
"+;	c #1E3749",
"@;	c #27526E",
"#;	c #27455B",
"$;	c #2F363C",
"%;	c #204A63",
"&;	c #214A60",
"*;	c #1B2E3C",
"=;	c #2E4759",
"-;	c #224259",
";;	c #0880D0",
">;	c #285C7E",
",;	c #254259",
"';	c #33363A",
");	c #2E343A",
"!;	c #24526F",
"~;	c #088ACD",
"{;	c #254E68",
"];	c #2A4254",
"^;	c #2F4C62",
"/;	c #285372",
"(;	c #008AE3",
"_;	c #275675",
":;	c #254156",
"<;	c #2E3439",
"[;	c #283F53",
"};	c #244E69",
"|;	c #0683D2",
"1;	c #276083",
"2;	c #2F5168",
"3;	c #295979",
"4;	c #0087E2",
"5;	c #265270",
"6;	c #253F54",
"7;	c #17252E",
"8;	c #33373A",
"9;	c #2E353B",
"0;	c #273D4F",
"a;	c #254A63",
"b;	c #0A7ECC",
"c;	c #216997",
"d;	c #294E68",
"e;	c #2B4356",
"f;	c #2B4E66",
"g;	c #266088",
"h;	c #0188DB",
"i;	c #25516E",
"j;	c #263F53",
"k;	c #34373B",
"l;	c #2F353C",
"m;	c #1479B7",
"n;	c #1B71A7",
"o;	c #284E68",
"p;	c #2D475C",
"q;	c #2B4F67",
"r;	c #236692",
"s;	c #117EBB",
"t;	c #234C66",
"u;	c #274052",
"v;	c #34373A",
"w;	c #2E353C",
"x;	c #26475D",
"y;	c #1D6F9E",
"z;	c #1577B4",
"A;	c #28506B",
"B;	c #2D485D",
"C;	c #2D485B",
"D;	c #2B4F68",
"E;	c #226994",
"F;	c #256487",
"G;	c #213E51",
"H;	c #2B3F4E",
"I;	c #213A4C",
"J;	c #205571",
"K;	c #137AB1",
"L;	c #274F69",
"M;	c #304D63",
"N;	c #2E495D",
"O;	c #27465C",
"P;	c #224358",
"Q;	c #224A66",
"R;	c #234258",
"S;	c #1B2B35",
"T;	c #264256",
"U;	c #1E4B64",
"V;	c #204157",
"W;	c #24465C",
"X;	c #2E4C61",
"Y;	c #244155",
"Z;	c #0C7EC5",
"`;	c #23648E",
" >	c #24435A",
".>	c #16212A",
"+>	c #34383B",
"@>	c #2E363C",
"#>	c #274357",
"$>	c #235572",
"%>	c #0886C7",
"&>	c #23475E",
"*>	c #2F4B60",
"=>	c #26516F",
"->	c #0083DD",
";>	c #265C82",
">>	c #234157",
",>	c #152129",
"'>	c #2D353C",
")>	c #264054",
"!>	c #224F6C",
"~>	c #0588D4",
"{>	c #265471",
"]>	c #2F4D63",
"^>	c #0181DA",
"/>	c #255372",
"(>	c #0882CF",
"_>	c #27597A",
":>	c #2C4C64",
"<>	c #2E516A",
"[>	c #245170",
"}>	c #1774AD",
"|>	c #1E3C51",
"1>	c #2D343B",
"2>	c #1E3546",
"3>	c #206A99",
"4>	c #294D66",
"5>	c #213441",
"6>	c #1D2D38",
"7>	c #2A485C",
"8>	c #203E52",
"9>	c #192A38",
"0>	c #172733",
"a>	c #1F3C4F",
"b>	c #28455A",
"c>	c #1F313E",
"d>	c #2C353B",
"e>	c #2C333B",
"f>	c #203340",
"g>	c #343739",
"h>	c #2C333A",
"i>	c #223443",
"j>	c #15222D",
"k>	c #1D2E3A",
"l>	c #182834",
"m>	c #1E2F3C",
"n>	c #353739",
"o>	c #182632",
"p>	c #213342",
"q>	c #162D3D",
"r>	c #17455B",
"s>	c #1D3342",
"t>	c #18384B",
"u>	c #16394E",
"v>	c #23394A",
"w>	c #163E57",
"x>	c #1A7198",
"y>	c #204054",
"z>	c #2B3239",
"A>	c #253D4F",
"B>	c #255673",
"C>	c #1F5978",
"D>	c #244257",
"E>	c #223342",
"F>	c #17425D",
"G>	c #147AAD",
"H>	c #204359",
"I>	c #295D7D",
"J>	c #235E7F",
"K>	c #25455B",
"L>	c #184461",
"M>	c #107CB7",
"N>	c #22445B",
"O>	c #2A3239",
"P>	c #2A5E7F",
"Q>	c #225F82",
"R>	c #18435F",
"S>	c #107CB8",
"T>	c #21445B",
"U>	c #263847",
"V>	c #2A323A",
"W>	c #2A5F7F",
"X>	c #235F83",
"Y>	c #24445B",
"Z>	c #18425E",
"`>	c #0F7DBB",
" ,	c #21445C",
".,	c #14212B",
"+,	c #243F53",
"@,	c #295F7F",
"#,	c #236084",
"$,	c #20323F",
"%,	c #17415D",
"&,	c #117CB9",
"*,	c #131D26",
"=,	c #243E52",
"-,	c #2A5F7E",
";,	c #226084",
">,	c #25394A",
",,	c #17405B",
"',	c #147AB1",
"),	c #204257",
"!,	c #293138",
"~,	c #121D26",
"{,	c #223C4E",
"],	c #2A5E7C",
"^,	c #234359",
"/,	c #173D57",
"(,	c #1677AA",
"_,	c #204155",
":,	c #2A3139",
"<,	c #121C25",
"[,	c #2A5C79",
"},	c #255D7D",
"|,	c #214055",
"1,	c #1D2F3D",
"2,	c #17354A",
"3,	c #21607E",
"4,	c #1D394C",
"5,	c #293139",
"6,	c #121D25",
"7,	c #203646",
"8,	c #204F6A",
"9,	c #1E506B",
"0,	c #1A3345",
"a,	c #182D3B",
"b,	c #1F3E52",
"c,	c #1C2F3D",
"d,	c #1F3340",
"e,	c #1E384B",
"f,	c #1F394D",
"g,	c #1A2B39",
"h,	c #213241",
"i,	c #1A3F57",
"j,	c #1C6A8D",
"k,	c #1D3C4F",
"l,	c #293038",
"m,	c #21394A",
"n,	c #23536F",
"o,	c #1F5471",
"p,	c #27455A",
"q,	c #153F59",
"r,	c #1578A7",
"s,	c #1F4055",
"t,	c #283038",
"u,	c #2A5C7A",
"v,	c #225978",
"w,	c #224258",
"x,	c #263A4B",
"y,	c #16415C",
"z,	c #137AB0",
"A,	c #363739",
"B,	c #233C4E",
"C,	c #2A5E7E",
"D,	c #235A7A",
"E,	c #253849",
"F,	c #127BB1",
"G,	c #223B4D",
"H,	c #225B7C",
"I,	c #234257",
"J,	c #17425E",
"K,	c #117CB4",
"L,	c #20445A",
"M,	c #273037",
"N,	c #2B5F7F",
"O,	c #235D7E",
"P,	c #107DB7",
"Q,	c #272F37",
"R,	c #223A4C",
"S,	c #245C7E",
"T,	c #244359",
"U,	c #107DB9",
"V,	c #20435A",
"W,	c #223C4D",
"X,	c #24445A",
"Y,	c #192730",
"Z,	c #17405C",
"`,	c #363738",
" '	c #272F36",
".'	c #111C23",
"+'	c #233C4D",
"@'	c #2B607F",
"#'	c #235C7F",
"$'	c #163F5B",
"%'	c #127AB7",
"&'	c #204258",
"*'	c #262E35",
"='	c #111B23",
"-'	c #235B7E",
";'	c #224157",
">'	c #152028",
",'	c #1B2832",
"''	c #18232C",
")'	c #153E59",
"!'	c #1379AF",
"~'	c #1E4156",
"{'	c #121C24",
"]'	c #225C7E",
"^'	c #17222B",
"/'	c #17232C",
"('	c #19252E",
"_'	c #142129",
":'	c #143D57",
"<'	c #1279A9",
"['	c #1D4056",
"}'	c #242C33",
"|'	c #223A4B",
"1'	c #2B5E7B",
"2'	c #225B7D",
"3'	c #223F54",
"4'	c #162129",
"5'	c #19262F",
"6'	c #273946",
"7'	c #133A51",
"8'	c #167198",
"9'	c #1C3D51",
"0'	c #232B32",
"a'	c #21384A",
"b'	c #205978",
"c'	c #213C4F",
"d'	c #293B49",
"e'	c #142B3C",
"f'	c #184057",
"g'	c #1B2E3D",
"h'	c #17384E",
"i'	c #294050",
"j'	c #243848",
"k'	c #253C4C",
"l'	c #142430",
"m'	c #232C33",
"n'	c #172835",
"o'	c #1F3749",
"p'	c #182F3E",
"q'	c #263D4E",
"r'	c #263D4D",
"s'	c #233846",
"t'	c #111F2A",
"u'	c #0F1A23",
"v'	c #242C34",
"w'	c #1B2A37",
"x'	c #131F29",
"y'	c #15232D",
"z'	c #12202A",
"A'	c #111C25",
"B'	c #373738",
"C'	c #232B34",
"D'	c #14212A",
"E'	c #111D25",
"F'	c #232B33",
"G'	c #22313F",
"H'	c #202F3D",
"I'	c #222B33",
"J'	c #373838",
"K'	c #16232E",
"L'	c #233240",
"M'	c #222A32",
"N'	c #1F2E3C",
"O'	c #202A32",
"P'	c #21303F",
"Q'	c #23333F",
"R'	c #202931",
"S'	c #1F272E",
"T'	c #111B24",
"U'	c #17222C",
"V'	c #202E3B",
"W'	c #111C24",
"X'	c #0F1920",
"Y'	c #101A20",
"Z'	c #0E181F",
"`'	c #0E161C",
" )	c #0F171F",
".)	c #0F1820",
"+)	c #0F1921",
"@)	c #111E28",
"#)	c #1E262D",
"$)	c #121F28",
"%)	c #111C26",
"&)	c #0D161E",
"*)	c #101A21",
"=)	c #101B23",
"-)	c #101B22",
";)	c #131E28",
">)	c #132029",
",)	c #13222D",
"')	c #132939",
"))	c #162530",
"!)	c #1B2229",
"~)	c #142938",
"{)	c #132431",
"])	c #14222C",
"^)	c #141F29",
"/)	c #13212A",
"()	c #283A48",
"_)	c #25323D",
":)	c #2B3E4D",
"<)	c #273746",
"[)	c #22303C",
"})	c #23303C",
"|)	c #23313E",
"1)	c #243440",
"2)	c #283845",
"3)	c #253441",
"4)	c #24333F",
"5)	c #24313F",
"6)	c #263442",
"7)	c #283744",
"8)	c #273643",
"9)	c #263542",
"0)	c #253542",
"a)	c #263643",
"b)	c #263543",
"c)	c #253440",
"d)	c #24313E",
"e)	c #23323E",
"f)	c #24343F",
"g)	c #25343F",
"h)	c #242F38",
"i)	c #273543",
"j)	c #253541",
"k)	c #243441",
"l)	c #253442",
"m)	c #25333F",
"  . + @ + # $ % @ # # # & # * * * = = - # ; > - & & # # = & # & ; > , > > > ' ) ! ! ~ { ] ^ ^ ^ ^ ^ ^ ^ ^ ^ ^ ^ ^ ^ ^ ^ ^ ^ ^ ^ ^ ^ ^ ^ ^ ^ ^ ^ ^ ^ ^ ^ ^ ^ ^ ^ ^ ^ ^ ^ ^ ^ ^ ^ ] / > > ! ! ! ( ! ) _ ; > > : > ; # # < # > # # # # = # # # # & # # # # # [ @ @ . } @ [ ",
"| 1 2 3 4 5 4 6 7 8 9 9 0 a 9 8 8 a a a 4 b c c a a 9 a d e f 0 f g h g h i j k j l m n o ^ ^ ^ ^ ^ ^ ^ ^ ^ ^ ^ ^ ^ ^ ^ ^ ^ ^ ^ ^ ^ ^ ^ ^ ^ ^ ^ ^ ^ ^ ^ ^ ^ ^ ^ ^ ^ ^ ^ ^ ^ ^ ^ o p q r l m s k i i c 0 h q h a 9 9 b 5 a q f d a 9 0 t t a d c a t u u v w x y 3 3 3 y ",
"z A A B C C D D D C C E F F G G G F H F I C J K F F L H J K J M N O P Q P R S T U V V W X ^ ^ ^ ^ ^ ^ ^ ^ ^ ^ ^ ^ ^ ^ ^ ^ ^ ^ ^ ^ ^ ^ ^ ^ ^ ^ ^ ^ ^ ^ ^ ^ ^ ^ ^ ^ ^ ^ ^ ^ ^ ^ ^ Y Z `  ...S ` ` +.P @.J O Q O #.#.J J J $.M J F F G %.G #.F J J #.&.H H *.=.C C D I -.I ",
";.>.,.;.'.'.).'.'.'.!.~.{.{.'.{.{.{.{.].!.^./.]./././.].]./.{.{.{././.(.]._.:.<.[.}.|.1.2.^ ^ ^ ^ ^ ^ ^ ^ ^ ^ ^ ^ ^ ^ ^ ^ ^ ^ ^ ^ ^ ^ ^ ^ ^ ^ ^ ^ ^ ^ ^ ^ ^ ^ ^ ^ ^ ^ ^ ^ ^ ^ ^ 3.4.5.6.7.8.9.0.0.0.(./.(.0.0./.].].].].0.a./.{./.'.^.{././.(.(./.{././.{.{.{.{.{.^.).).",
"b.b.c.d.e.b.d.b.b.f.g.d.h.h.i.e.b.i.b.c.b.i.b.f.c.j.b.d.b.i.k.l.0.a.l.m.b.b.n.o.p.q.r.W s.^ ^ ^ ^ ^ ^ ^ ^ ^ ^ ^ ^ ^ ^ ^ ^ ^ ^ ^ ^ ^ ^ ^ ^ ^ ^ ^ ^ ^ ^ ^ ^ ^ ^ ^ ^ ^ ^ ^ ^ ^ ^ ^ t.u.v.S w.x.y.z.i.i.h.l.l.z.b.f.g.A.B.j.f.B.g.d.b.d.b.d.C.B.f.d.d.d.c.D.E.E.g.B.c.j.b.d.",
"4.4.4.|.F.F.F.5.5.G.H.I.I.I.J.K.K.K.L.L.I.I.M.B B -.N.*.O.N.C O +.V P.Q.V R.S.T. .v U.V.W.^ ^ ^ ^ ^ ^ ^ ^ ^ ^ ^ ^ ^ ^ ^ ^ ^ ^ ^ ^ ^ ^ ^ ^ ^ ^ ^ ^ ^ ^ ^ ^ ^ ^ ^ ^ ^ ^ ^ ^ ^ ^ ^ X.Y.Z.S.`. +.+++@+#+$+S V O.H M M J K H %+H A J.&+J.L.*+K.B =+M.-+I.G.I.I.I.}.;+5.;+5.G.",
"J M J *.I I I >+*.H ,+'+P P  .P R.P '+'+H H P S S S V )+.+$+V !+v ~+{+U.]+U.^+/+(+_+:+<+[+^ ^ ^ ^ ^ ^ ^ ^ ^ ^ ^ ^ ^ ^ ^ ^ ^ ^ ^ ^ ^ ^ ^ ^ ^ ^ ^ ^ ^ ^ ^ ^ ^ ^ ^ ^ ^ ^ ^ ^ ^ ^ ^ }+|+1+2+..3+4+5+6+7+{+8+Z.9+0+9+Q.a+b+V S V R.c+ . .d+++++e+d+R.'+K H p.f+p.>+*.f+ .d+ .",
"K g+h+{+7+i+7+j+k+]+4+l+m+n+o+p+q+p+j+n+j+n+r+s+t+u+v+w+x+y+z+O ~+A+B+1+j+m+C+D+v.A+E+h+F+^ ^ ^ ^ ^ ^ ^ ^ ^ ^ ^ ^ ^ ^ ^ ^ ^ ^ ^ ^ ^ ^ ^ ^ ^ ^ ^ ^ ^ ^ ^ ^ ^ ^ ^ ^ ^ ^ ^ ^ ^ ^ ^ G+{+B+H+I+p+n+l+J+K+L+1+V U M+N+w+O+t+P+Q+R+m+n+o+S+o+R+l+m+T+U+4+6+j+V+5+T+T+W+]+7+.+P ",
"X+Y+Z+0 7+7+{+]+1+:+j+p+p+j+`+p+ @^+j+.@j+j+J++@+@+@v+@@#@$@%@&@U.:+*@U.:+=@-@;@!+>@,@'@)@^ ^ ^ ^ ^ ^ ^ ^ ^ ^ ^ ^ ^ ^ ^ ^ ^ ^ ^ ^ ^ ^ ^ ^ ^ ^ ^ ^ ^ ^ ^ ^ ^ ^ ^ ^ ^ ^ ^ ^ ^ ^ ^ !@~@,@{@]@-@C+^@^+]+^+j+/@Y.I+U.(@v+S+^@_@:@m+<@R++@S+C+_@p+j+4+V+V+L+:+[@j+T+6+r b+X+}@",
"v |@q.O W+V+:+6+6+6+j+1@^@o+R++@R+^@2@J+p+3@R+w+u+4@4@5@6@7@8@9@_+B+B+A+>@0@a@b@c@E+d@e@f@^ ^ ^ ^ ^ ^ ^ ^ ^ ^ ^ ^ ^ ^ ^ ^ ^ ^ ^ ^ ^ ^ ^ ^ ^ ^ ^ ^ ^ ^ ^ ^ ^ ^ ^ ^ ^ ^ ^ ^ ^ ^ ^ g@*@^+d@h@i@a@-@j@U.k@,@l@|@m@_+n@i@o@p@S+S+R+_@+@q@+@v++@r@_@^+d@^+j+.@,@p+p+S+b+@+~+U.",
"{+s@!+T t@u@:+j+j+6+v@S+q@v+w@x@a@v+a@r@r@^@a@u+y@5@n@y@6@z@I.9@2+.@,@A@B@J+n@{@c@,@_@w f@^ ^ ^ ^ ^ ^ ^ ^ ^ ^ ^ ^ ^ ^ ^ ^ ^ ^ ^ ^ ^ ^ ^ ^ ^ ^ ^ ^ ^ ^ ^ ^ ^ ^ ^ ^ ^ ^ ^ ^ ^ ^ ^ C@L+v@,@D@a@E@w@A@A+C+L+u.e+F@2+G@=@v+y@v+H@v+S+u+v+q@I@y@5@v+S+J@R+:@^+,@J+o+K@9+c@_+:+",
"_+s@y u.L@M@j+m+v@j+<@R+N@O@P@O@x@y@5@v+v+v+v+H@O@O@Q@R@S@T@>+U@V@,@d@,@,@W@a@b@}@^+J+w X@^ ^ ^ ^ ^ ^ ^ ^ ^ ^ ^ ^ ^ ^ ^ ^ ^ ^ ^ ^ ^ ^ ^ ^ ^ ^ ^ ^ ^ ^ ^ ^ ^ ^ ^ ^ ^ ^ ^ ^ ^ ^ ^ Y@,@J+,@Z@a@n@R+^+^+w@E+`@I+ #>@y@+@5@E@y@I@I@.#O@v+v++#+#P@O@y@H@v+q@R+^+m+R+@#Q.##U.]+",
"$#{+|@/@O+%#p+J+R+R+S+v+v+I@+#O@x@y@&#y@y@x@5@E@O@&#*#=#-#;#`.s@~+,@=@^@d@J+4@{@8+>#J+u ,#^ ^ ^ ^ ^ ^ ^ ^ ^ ^ ^ ^ ^ ^ ^ ^ ^ ^ ^ ^ ^ ^ ^ ^ ^ ^ ^ ^ ^ ^ ^ ^ ^ ^ ^ ^ ^ ^ ^ ^ ^ ^ ^ '#,@2@^+)#-@=@C+d@J+q@j+##l@!#:+&#~#{#5@&#]#+#^#/#5@v+O@(#_#/#P@P@I@u+^@v@J+S+:#<#y [#[#",
"]+B+}#|#1#w+p+R+q@v+O@@@I@I@O@y@^@v+y@+#Q@x@y@Q@&#*#&#2#3#4#5#6#y L+=@i@=@r@a@H+y 7#2@r 8#^ ^ ^ ^ ^ ^ ^ ^ ^ ^ ^ ^ ^ ^ ^ ^ ^ ^ ^ ^ ^ ^ ^ ^ ^ ^ ^ ^ ^ ^ ^ ^ ^ ^ ^ ^ ^ ^ ^ ^ ^ ^ ^ 9#^+2@,@0#a##@{@#@i@a@b#/+Y+y+A+Q@O@4@c#(#d#P@e#f#*#5@Q@&#(#_#_#+#+#O@R+v@m+S+g#h#v U._+",
"V+6+1+X+i#Q+v@p+J@+@H@O@O+O@O@o@2@#@i@O@y@n@O@&#x@~#*#j#k#l#5#m###K+W@w@2@=@=@j@c@#@=@r n#^ ^ ^ ^ ^ ^ ^ ^ ^ ^ ^ ^ ^ ^ ^ ^ ^ ^ ^ ^ ^ ^ ^ ^ ^ ^ ^ ^ ^ ^ ^ ^ ^ ^ ^ ^ ^ ^ ^ ^ ^ ^ ^ o#p+r@p#..{@{@H+=@n@+@6+q#Y+y+:++#d#5@5@*#P@e#P@_#@@n@n@v+I@&#&#*#(#I@=@d@v@+@r#3 {+]+:+",
":+:+_+s#t+N@t#,@^+d@=@u+H@H@I@+@_@=@a@y@u+x@Q@&#y@Q@u#=#v#4#g+w#x#K+k@^@4@=@#@>@c@C+W@e 8#^ ^ ^ ^ ^ ^ ^ ^ ^ ^ ^ ^ ^ ^ ^ ^ ^ ^ ^ ^ ^ ^ ^ ^ ^ ^ ^ ^ ^ ^ ^ ^ ^ ^ ^ ^ ^ ^ ^ ^ ^ ^ ^ '#_@R+E+y#z#{@A#a@a@2@E+B#8@I+B+(#(#R@*#&#*#P@v+I@O@a@u+a@v+H@y@x@5@x@i@v@d@+@C###U.j+3+",
"D#{+~+|#Q+^@j+E+.@.@E+A#v+t+u+v+^@=@+@u++@n@x@y@E#d#R@*#{#F#c+G#y j@k@a@5@v+r@H#X+d@J+q I#^ ^ ^ ^ ^ ^ ^ ^ ^ ^ ^ ^ ^ ^ ^ ^ ^ ^ ^ ^ ^ ^ ^ ^ ^ ^ ^ ^ ^ ^ ^ ^ ^ ^ ^ ^ ^ ^ ^ ^ ^ ^ ^ J#J+A#K#L#a##@=@a@r@J@,@M#&@)#K+&#_#+#P@Q@Q@y@v+P@@@q@a@o@i@p@v+a@N#v+n@W@v@=@O#c@U.6+b#",
"D#P#Y.<#Q#Q+E+K+1+e+&+R#*.*.C I B B -.I I *.M }@n@*#y@&#k#S#h#_+|@,@#@T#o@y@4@p#R#y .@q U#^ ^ ^ ^ ^ ^ ^ ^ ^ ^ ^ ^ ^ ^ ^ ^ ^ ^ ^ ^ ^ ^ ^ ^ ^ ^ ^ ^ ^ ^ ^ ^ ^ ^ ^ ^ ^ ^ ^ ^ ^ ^ ^ V#k@E+H W#a@i@i@2@J+C+,@m#s@X#V+u#+#+#Q@6+e+H p.H H I R#R#Y#*.*.>+N.g+J+J+1+v@P@h#Z#E+t#",
"U.P#~+c@x 9+c+c+c+c+$+V `# .`#Z+`# $e+V (+U !+U S+I@Q@Q@.$+$@$#$2+=@i@a@a@n@4@j@$$I .@%$U#^ ^ ^ ^ ^ ^ ^ ^ ^ ^ ^ ^ ^ ^ ^ ^ ^ ^ ^ ^ ^ ^ ^ ^ ^ ^ ^ ^ ^ ^ ^ ^ ^ ^ ^ ^ ^ ^ ^ ^ ^ ^ ^ J#^+c@R#&$G@a@i@W@b#J+d@*$=$-$y@O@O@&#*#9+v.u. $;$.+`#`#>$.. $$+@+,$..u.U '$b+8+##]+,@^+",
"U._+~+|@%#~@s@%@Q.,$0+)$c@u.b+u.u.$+r.a+q.}@!$e R+v+y@~$&#{$]$^$/$#@i@w@4@w@=@($_$g+.@7+U#^ ^ ^ ^ ^ ^ ^ ^ ^ ^ ^ ^ ^ ^ ^ ^ ^ ^ ^ ^ ^ ^ ^ ^ ^ ^ ^ ^ ^ ^ ^ ^ ^ ^ ^ ^ ^ ^ ^ ^ ^ ^ ^ :$6+_+<$[$4@r@#@W@^+W@}$|$1$2$3$P@5@n@I@4$l+Y.U @+u.a+<#U T Q.c@W+#+@+##y {+5+Q+U.A+.@d@",
"U._+5$Y+M@U.6$|@s#v.7$8$Y+3 9$0$$.a$b$F 7$S 1+s@R+{#{#T#Q@c$d$e$f$g$#@=@W@W@{@h$<$g+E+!$n#^ ^ ^ ^ ^ ^ ^ ^ ^ ^ ^ ^ ^ ^ ^ ^ ^ ^ ^ ^ ^ ^ ^ ^ ^ ^ ^ ^ ^ ^ ^ ^ ^ ^ ^ ^ ^ ^ ^ ^ ^ ^ ^ V#E+A+'$i$J@#@{@d@{@=@j$k$l$m$Q@a@r@~$I@##t#.+7$=.0+8$$.n$F Y+##4$Q.<#o$~+p$5+R+6#]+L+d@",
"K+_+U@Y+Q+:+Z#c@q$4$v.r$V o$S 9$s$t$u$v$N w$E+|@_@a@{#-@G@x$y$z$A$W@_@d@,@J+,@B$_$H 6+4+n#^ ^ ^ ^ ^ ^ ^ ^ ^ ^ ^ ^ ^ ^ ^ ^ ^ ^ ^ ^ ^ ^ ^ ^ ^ ^ ^ ^ ^ ^ ^ ^ ^ ^ ^ ^ ^ ^ ^ ^ ^ ^ ^ C$,@]+'$,+r@a#W@d@g$r@D$E$F$G$H$-@-@4@*#c@j+S.q$0+S n$#+$.7$v.<#7$}@}@0+I$U.]+S+v 1+p#^+",
"j+E+_+S.O+j+_+6$o$0+4$J$K$@+<#a+L$M$0+N$M$++[#s@<@4@~$-@4@x$O$P$Q${@J+k@k@d@d@R$_$O.U+S$T$^ ^ ^ ^ ^ ^ ^ ^ ^ ^ ^ ^ ^ ^ ^ ^ ^ ^ ^ ^ ^ ^ ^ ^ ^ ^ ^ ^ ^ ^ ^ ^ ^ ^ ^ ^ ^ ^ ^ ^ ^ ^ ^ U$,@]+ $M =@r@=@a#=@=@k#V$W$X$-#Y$-@G@Z$##^+$+`$`#9+h+8$ %P.##u.v {+ %4$1+U.t#Q+~+A+6+,@",
",@.@1+##i#j+_+_+[#o$V c@.%7$c@}#j++%l+S+n+1+.@_+<@4@~$T#~$@%#%$%%%W@#@{@H+d@v@_+_$=.4+!$&%^ ^ ^ ^ ^ ^ ^ ^ ^ ^ ^ ^ ^ ^ ^ ^ ^ ^ ^ ^ ^ ^ ^ ^ ^ ^ ^ ^ ^ ^ ^ ^ ^ ^ ^ ^ ^ ^ ^ ^ ^ ^ ^ *%6+1+d+H 0@r@=@A#r@i@D$=%-%;%-#T#T#4@y@y <@:+.@p#j+3+5+:+}#s#{+_+I$!+:+1+1+p+w+~+_+E+,@",
">@L+A+##s+3+K+1+1+E+}@s@>%,%'%)%d@d@d@C+#@H+H+U@m+5@5@{#3#!%~%{%]%=@i@W@{@{@.@_+_$I V+5+&%^ ^ ^ ^ ^ ^ ^ ^ ^ ^ ^ ^ ^ ^ ^ ^ ^ ^ ^ ^ ^ ^ ^ ^ ^ ^ ^ ^ ^ ^ ^ ^ ^ ^ ^ ^ ^ ^ ^ ^ ^ ^ ^ ^%,@1+ .H 0@-@-@#@=@a@k#/%(%_%-#4@T#3#H@Y+.@J+:%{@p+A#v@,@E+##1+L+{+,@A@E+L+{@<%|@s@K+B+",
">@>@1+|@w+p+:+E+E+j+.@[#_+s@G#E+d@J+v@k@g$H+.@[%_@a@n@N#~$}%O$|%]%w@+@r@A#.@.@_+,+R#]+[@&%^ ^ ^ ^ ^ ^ ^ ^ ^ ^ ^ ^ ^ ^ ^ ^ ^ ^ ^ ^ ^ ^ ^ ^ ^ ^ ^ ^ ^ ^ ^ ^ ^ ^ ^ ^ ^ ^ ^ ^ ^ ^ ^ ^%j+1+ .H 0@#@#@{@#@G@1%2%3%4%Q@5%T#i@p@##{@W@#@{@A#A#2@.@E+y :+p#,@^+,@K#.@2@q@~+R$>@E+",
"A+R$R$D#{+j+,@H+d@J+#@.@L+A+s@,@J+a#J@#@{@6%6%7%j+2@^@J@4@8%9%0%a%o@v+^@=@W@:%[#'+N.]+]+b%^ ^ ^ ^ ^ ^ ^ ^ ^ ^ ^ ^ ^ ^ ^ ^ ^ ^ ^ ^ ^ ^ ^ ^ ^ ^ ^ ^ ^ ^ ^ ^ ^ ^ ^ ^ ^ ^ ^ ^ ^ ^ ^ c%x+d%e%J 0@W@#@#@a@{#f%g%h%i%Q@c#T#T#5@##{@r@r@=@=@W@W@.@,@|@,@,@,@^+d@p#,@J+:+U@K+E+E+",
"p#B$2+6$j%.@E+,@d@{@{@W@C+E+[%.@d@:%a#k%g$j@A@M#j+W@>#w@4@l%9%m%n%i@n@v+i@r@W@K+c+I ]+7+&%^ ^ ^ ^ ^ ^ ^ ^ ^ ^ ^ ^ ^ ^ ^ ^ ^ ^ ^ ^ ^ ^ ^ ^ ^ ^ ^ ^ ^ ^ ^ ^ ^ ^ ^ ^ ^ ^ ^ ^ ^ ^ ^ o%.@[#c+$.0@=@=@i@T#T#D$p%q%r%Q@H$s%T#H@`@{@r@-@r@0@W@d@^+,@8+.@j+d@J+J+,@^+m+X+ +>@t%B+",
".@R$5$2+|@^+E+)%.@d@d@#@=@A@u%,@d@d@g${@g$j@j@h#E+J+>#7#a@(#v%w%x%-@a@a@+@0@d@1+'+-.:+]+&%^ ^ ^ ^ ^ ^ ^ ^ ^ ^ ^ ^ ^ ^ ^ ^ ^ ^ ^ ^ ^ ^ ^ ^ ^ ^ ^ ^ ^ ^ ^ ^ ^ ^ ^ ^ ^ ^ ^ ^ ^ ^ ^ o%,@{+'+H b@:%:%r@T#3#y%p%z%A%c#-@#@-@H@x#B%T#T#=@{@{@^+,@E+~+^+d@{@J+^+p#,@_@m#t%K+R$K#",
"C%R$5$D%2+^+E+E+.@d@=@^@+@p#5$A@d@{@g$H+H+6%j@M#]+k@J+J+i@+#E%F%x%r@+@q@^@A#{@1+'+R#:+:+T$^ ^ ^ ^ ^ ^ ^ ^ ^ ^ ^ ^ ^ ^ ^ ^ ^ ^ ^ ^ ^ ^ ^ ^ ^ ^ ^ ^ ^ ^ ^ ^ ^ ^ ^ ^ ^ ^ ^ ^ ^ ^ ^ G%p#D#,+%+^+H+H+=@a@~$f%p%H%A%c#s%-@i@H@##W@{#T#r@{@b@.@j@B@>%L+,@{@J+.@E+E+_@5$R$R$K+D%",
">@[#V@D%2+j+6+p#d@d@A#r@i@.@5$p#d@b@b@b@I%6%6%##L+d@H+H+i@+#J%K%L%N#q@+@C+#@{@~@'+I :+:+T$^ ^ ^ ^ ^ ^ ^ ^ ^ ^ ^ ^ ^ ^ ^ ^ ^ ^ ^ ^ ^ ^ ^ ^ ^ ^ ^ ^ ^ ^ ^ ^ ^ ^ ^ ^ ^ ^ ^ ^ ^ ^ ^ M%,@Z.,+=.N%.@,@#@-@4@O%2%P%X$5@#@r@T#y@}@A#i@Q%T#s%b@H+j@A@G#>@H+^+W@.@A@.@J+[%_+K+p#B@",
"A+A+2+>@R$n+6+p#^+{@J+C+=@.@V@6%p#6%H+d@H+j@j@M#,@d@A@.@^@*#R%S%T%i@S+^@A#{@N%[#'+I V+:+&%^ ^ ^ ^ ^ ^ ^ ^ ^ ^ ^ ^ ^ ^ ^ ^ ^ ^ ^ ^ ^ ^ ^ ^ ^ ^ ^ ^ ^ ^ ^ ^ ^ ^ ^ ^ ^ ^ ^ ^ ^ ^ ^ # 6+{+,+*..@.@j@W@r@a@j$U%V%G$~$a#r@a@I@##A#a@o@r@#@H+j@p#A@m#E+H+H+#@.@B@j@q+U@R$[#E+>@",
">@B@K+R$2+j+E+p#,@^+A#=@=@.@V@K+j@N%x+d@H+I%>@`@E+^+.@0@w@-@W%X%Y%s%=@2@J+J+H+D#'+Z%E+7+`%^ ^ ^ ^ ^ ^ ^ ^ ^ ^ ^ ^ ^ ^ ^ ^ ^ ^ ^ ^ ^ ^ ^ ^ ^ ^ ^ ^ ^ ^ ^ ^ ^ ^ ^ ^ ^ ^ ^ ^ ^ ^ ^  &E+~+g+H {@j@A@J+=@.&+&@&#&$&a@i@=@4@I@c@W@^@i@i@A#b@I%E+B@y )%j@.@J+j@>@B@p+D#R$R$>@B$",
"K+>@2+_+_+U+D%A+,@{@=@C+C+,@V@E+,@x+d@z#j@%&>@h#A+d@H+A#-@$@&&*&=&b@A#2@J+x+j@_+'+-.:+7+`%^ ^ ^ ^ ^ ^ ^ ^ ^ ^ ^ ^ ^ ^ ^ ^ ^ ^ ^ ^ ^ ^ ^ ^ ^ ^ ^ ^ ^ ^ ^ ^ ^ ^ ^ ^ ^ ^ ^ ^ ^ ^ ^ @ :+~+c+%+x+.@.@{@{@x+($-&;&>&p#i@0@i@u+%@A#=@=@r@#@N%N%j@p#c@K+E+,@{@,@R$E+t#s@>@_+5$5$",
"K+>@2+K+1+n+p#>@p#=@C+0@0@j@,&N%^+d@#@{@j@A@>@X#A+d@.@{@4@'&)&!&~&,@^+p+^+d@.@6#H B :+d%`%^ ^ ^ ^ ^ ^ ^ ^ ^ ^ ^ ^ ^ ^ ^ ^ ^ ^ ^ ^ ^ ^ ^ ^ ^ ^ ^ ^ ^ ^ ^ ^ ^ ^ ^ ^ ^ ^ ^ ^ ^ ^ ^ {&C%8+'+I x+x+d@p+^+j@]&^&/&(&-@r@{@-@v+##A#=@d@#@b@x+x+x+E+!+A+)%A@^+L+K+p#U+ +K+_+ +5$",
"A+p#>@R$1+T+E+_+E+J+A#A##@E+V@{@{@b@0@b@j@B@>@h#B+N%j@d@_&c#:&<&[&J+m+d@.@.@.@}@H -.A+~@}&^ ^ ^ ^ ^ ^ ^ ^ ^ ^ ^ ^ ^ ^ ^ ^ ^ ^ ^ ^ ^ ^ ^ ^ ^ ^ ^ ^ ^ ^ ^ ^ ^ ^ ^ ^ ^ ^ ^ ^ ^ ^ ^ [ :+Y.,+C C+#@A#A#{@|&1&2&3&4&o@=@{@=@u+&@{@#@p#I%:%d@j@N%E+c@,@.@E+.@E+A@B+4+5$R$B$t%R$",
"A+p#6%R$_+4+>@_+C%x+W@#@{@5&,&H+#@#@a#{@.@j@6%q#A+.@.@^+=@*#6&7&8&a#=@J+6+,@L+y H B ]+U.}&^ ^ ^ ^ ^ ^ ^ ^ ^ ^ ^ ^ ^ ^ ^ ^ ^ ^ ^ ^ ^ ^ ^ ^ ^ ^ ^ ^ ^ ^ ^ ^ ^ ^ ^ ^ ^ ^ ^ ^ ^ ^ ^ 9&E+Y.,+C m+A#.@{@A#N%0&E$a&b&i@r@A#C+v+h#d@{@6%6%.@b@j@j@p###6+d@p#j@E+.@p#j+ +h$B$1+E+",
"K+:+6%R$2+5+:+2+j@{@{@<@{@1+m#p#x+x+:%s%{@.@>@h#A+,@.@^+C+(#c&d&e&k%R+_@j+.@B+##p.A ]+f&}&^ ^ ^ ^ ^ ^ ^ ^ ^ ^ ^ ^ ^ ^ ^ ^ ^ ^ ^ ^ ^ ^ ^ ^ ^ ^ ^ ^ ^ ^ ^ ^ ^ ^ ^ ^ ^ ^ ^ ^ ^ ^ ^ g&A+Y.H I p+.@p#^+<@{@h&i&j&A%Y$i@=@=@Q%<#.@N%j@6%H+d@H+H+>@h#E+,@,@j@>@A@.@.@s@R$B$[#:+",
"[#[#R$R$s@7+d%_+p#{@J+A#^+_+B#R$E+p#j@.@j@A@K+X#:+.@j@H+0@5@k&l&f${@#@d@d@,@E+##f+&+d%~@}&^ ^ ^ ^ ^ ^ ^ ^ ^ ^ ^ ^ ^ ^ ^ ^ ^ ^ ^ ^ ^ ^ ^ ^ ^ ^ ^ ^ ^ ^ ^ ^ ^ ^ ^ ^ ^ ^ ^ ^ ^ ^ ^ m&1+8+H I ^+p#6%.@x+{@+$n&o&p&Y$J@J+C+q&X+j@^+N%.@H+.@j@p#R$&@6+t#p#>@>@>@.@U+m#_+[#_+~@",
"_+2+[#_+s@7+:+A+A+.@,@N%p# +q#R$K+B@6%6%|&K+h$M#_+>@E+.@{@~$r&s&t&.@d@,@p#,@p#|@p.&+A+{+u&^ ^ ^ ^ ^ ^ ^ ^ ^ ^ ^ ^ ^ ^ ^ ^ ^ ^ ^ ^ ^ ^ ^ ^ ^ ^ ^ ^ ^ ^ ^ ^ ^ ^ ^ ^ ^ ^ ^ ^ ^ ^ ^ v&1+8+H I ^+E+>@,@d@d@w&n&z%p&v#o@x+#@+@`@6%,@j@I%^+A@>@6%R$&@.@.@L+p#K+R$j+W+x&2+[#R$K+",
"K+B$_+D#s@]+V+E+K+A+K+p#:+m#x#R$R$_+h$D%B@.@|&M#w#B$p#p#.@3#y&z&A&p#.@,@,@j@.@8+H =+d%s@u&^ ^ ^ ^ ^ ^ ^ ^ ^ ^ ^ ^ ^ ^ ^ ^ ^ ^ ^ ^ ^ ^ ^ ^ ^ ^ ^ ^ ^ ^ ^ ^ ^ ^ ^ ^ ^ ^ ^ ^ ^ ^ ^ B&:+v H z <@j@>@p#.@d@C&D&E&F&Y$r@{@d@^@`@p#.@j@p#G&E+6%>@D+Y+L+.@E+>@1+K+6+k+}@2+D%E+A+",
":+[#_+2+5$]+:+A+A+A+E+^+4+m#`@B$ +5$ +2+E+N%h$D@6#>@j@p#.@v+d$H&I&6%j@.@.@.@.@m#H A ~@v u&^ ^ ^ ^ ^ ^ ^ ^ ^ ^ ^ ^ ^ ^ ^ ^ ^ ^ ^ ^ ^ ^ ^ ^ ^ ^ ^ ^ ^ ^ ^ ^ ^ ^ ^ ^ ^ ^ ^ ^ ^ ^ ^ m&:+v ,+R#{@.@K+>@p#.@J&K&L&L%-@A#:%C+_&9@C%d@,@R$p#>@:+>@B$<#6+,@A+A+R$1+1+4+U@1+B+6+:+",
"1+R$2+B$U@M&d%[#[#A+B+.@6+U@8@B$R$_+2+2+,@.@N&O&_+L+.@B@^+S+P&Q&R&:+6+E+p#j@j@[%p.A ~@Z.u&^ ^ ^ ^ ^ ^ ^ ^ ^ ^ ^ ^ ^ ^ ^ ^ ^ ^ ^ ^ ^ ^ ^ ^ ^ ^ ^ ^ ^ ^ ^ ^ ^ ^ ^ ^ ^ ^ ^ ^ ^ ^ ^ S&A+~+H z x+j@K+B+,@G&;@T&U&V&=@d@d@C+J@u.:+^+,@B$>@E+5&1+ +X+V+E+_+K+R$_+1+U+8+}#_+E+1+",
"K+1+D#B$m#~@~@_+R$1+:+C%>@m#`@[#K+K+ +t%p#>@8@w#6+j+,@,@t#t#W&X&|@>@E+j@p#.@E+|@L B d%e u&^ ^ ^ ^ ^ ^ ^ ^ ^ ^ ^ ^ ^ ^ ^ ^ ^ ^ ^ ^ ^ ^ ^ ^ ^ ^ ^ ^ ^ ^ ^ ^ ^ ^ ^ ^ ^ ^ ^ ^ ^ ^ ^ Y&:+6#p.z {@x+j@L+.@^+1+Z&`&:+=@0@j@.@p+4+j%]+p#2+N&>@>@>@>@c@:+E+K+1+K+_+1+7+##s@_+]+_+",
">@R$2+2+[%f&]+_+_+A+A+>@>@U@`@>@>@C%B###K+`@X+]+3+j+6+p#4+9+B ,+ *C%,@.@H+N%,@~+L .*V+e u&^ ^ ^ ^ ^ ^ ^ ^ ^ ^ ^ ^ ^ ^ ^ ^ ^ ^ ^ ^ ^ ^ ^ ^ ^ ^ ^ ^ ^ ^ ^ ^ ^ ^ ^ ^ ^ ^ ^ ^ ^ ^ ^ +*V+}@H I {@N%H+^+J+J+:+R.O.R.t#J+A@H+J+m+U.<#1+m#j%_+K+E+>@!+A+A+A+A+[#2+1+1+|@6$_+[#s@",
"C%R$R$_+m#~@_+P#_+[#K+:+>@5$`@h$E+_+>$w#X+4$D#.@^+p+t#R$j%I.*.S U+N%,@H+x+x+.@@*H z :+{+#*^ ^ ^ ^ ^ ^ ^ ^ ^ ^ ^ ^ ^ ^ ^ ^ ^ ^ ^ ^ ^ ^ ^ ^ ^ ^ ^ ^ ^ ^ ^ ^ ^ ^ ^ ^ ^ ^ ^ ^ ^ ^ ^ $*:+y H Z%^+N%^+{@#@C+_@!+q$I.S .@.@N%^+<@p+6#w$_+b+%@A+1+_+I$~@R$R$1+R$2+R$:+|@s@K+[#[%",
"E+K+_+D###D#U@m#,&5$R$1+K+m#8@R$D#.+}@7%Y+[#>@p#p+t#:+X+%*f+9$[#E+p#.@p#.@,@p###H -._+Z.&*^ ^ ^ ^ ^ ^ ^ ^ ^ ^ ^ ^ ^ ^ ^ ^ ^ ^ ^ ^ ^ ^ ^ ^ ^ ^ ^ ^ ^ ^ ^ ^ ^ ^ ^ ^ ^ ^ ^ ^ ^ ^ ^ **B+c@O.Z%.@j@{@W@{@d@C+p+r.q$=*L$E+6+.@j+p+p#Y.r.6#-*S.s@ +<#1+A+D%_+B$[#_+1+##s@[#1+U@",
"1+_+ +s@|@6#m###B#6$R$R$1+U@;*m#$+5$|@>*E+p#>@p#^+.@o$L.I S ,*K+_+K+,@h$6%E+1+##H '*_+)*!*^ ^ ^ ^ ^ ^ ^ ^ ^ ^ ^ ^ ^ ^ ^ ^ ^ ^ ^ ^ ^ ^ ^ ^ ^ ^ ^ ^ ^ ^ ^ ^ ^ ^ ^ ^ ^ ^ ^ ^ ^ ^ ^ ~*]+&@f+Z%U+6%H+H+d@{@.@6+U+Q.H I..+]+p+t#x+.@A+%@v.6#S j%V@Y+1+[#2+ +N& +s@1+##U@s@[#_+",
"[#2+ +5$|@6#m#U@5$_+_+_+>@@*Y+`###B#{*2+.@p#E+p#^+]&]*^*`#d%R$K+>@>@6+:+C%R$8+H *.=.7+Y.!*^ ^ ^ ^ ^ ^ ^ ^ ^ ^ ^ ^ ^ ^ ^ ^ ^ ^ ^ ^ ^ ^ ^ ^ ^ ^ ^ ^ ^ ^ ^ ^ ^ ^ ^ ^ ^ ^ ^ ^ ^ ^ ^ /*]+4$O.R#v.D#I%j@j@x+,@p#:+.@P.'+(*_*d@.@^+5&L+A+Y+Q.:*q$m#<#s@ +B$ +D#U@U@[#`@[%8+B$2+",
"R$2+D#s@/+6#U@_+_+s@ +B$R$8+j%w###@+U@[#p#K+j+v@<*[*}*|*]+4+_+R$j@j@.@.@6+s@=.R#M 1*2*Y.!*^ ^ ^ ^ ^ ^ ^ ^ ^ ^ ^ ^ ^ ^ ^ ^ ^ ^ ^ ^ ^ ^ ^ ^ ^ ^ ^ ^ ^ ^ ^ ^ ^ ^ ^ ^ ^ ^ ^ ^ ^ ^ ^ 3*d%j+`#N.5.j%5&H+H+:%d@.@[#U+p+4*5*6*7*W@p+A+p#6+>@9@j%:*s@J$m# +B$_+_+6$8+_+8@####5$5$",
" +U@5$U@##P#5$N&_+U@s@s@B$U@Y.:*>$D#K+R$1+K+.@8*9*0*a*b*6+V+A+6%p#I%,@,@~@H &+g+Y.:+1+Y.!*^ ^ ^ ^ ^ ^ ^ ^ ^ ^ ^ ^ ^ ^ ^ ^ ^ ^ ^ ^ ^ ^ ^ ^ ^ ^ ^ ^ ^ ^ ^ ^ ^ ^ ^ ^ ^ ^ ^ ^ ^ ^ ^ c*d%.@E+ $R#%*c@.@A@H+A#x+p#V+ @k#d*e*f*g*d@:+5&>@6%C%@+v.U.j%U@2+ +N& + +s@Z#Y+##M#V@V@",
"V@/+/+m#M#8+U@D#U@|@s@D#U@u.Q..+m#K#_+2+R$E+h*i*j*k*l*k%j+.@E+K+5&E+p#d%$.H.H }@6+6+1+Y.!*^ ^ ^ ^ ^ ^ ^ ^ ^ ^ ^ ^ ^ ^ ^ ^ ^ ^ ^ ^ ^ ^ ^ ^ ^ ^ ^ ^ ^ ^ ^ ^ ^ ^ ^ ^ ^ ^ ^ ^ ^ ^ ^ m*K+6+j@G&e+=+M.w#E+.@N%j@x+,@.@=@n*o*p*q*r*B+:+K+_+C%[#0# %@+## +5$_+_+[%5$s@Y+`@`@B#|@",
"5$/+##m#x#{+6#D#U@5$P#6#j%x p#h$1+2+_+_+D%s*t*H%u*v*6@^+,@I%j@E+6%>@R$g+G.w*X+V+p#p#R$Y.!*^ ^ ^ ^ ^ ^ ^ ^ ^ ^ ^ ^ ^ ^ ^ ^ ^ ^ ^ ^ ^ ^ ^ ^ ^ ^ ^ ^ ^ ^ ^ ^ ^ ^ ^ ^ ^ ^ ^ ^ ^ ^ ^ x*B+,@>@,@:+ $=+&+##p#.@p#I%N%N%^+=@m$y*z*A*V@K+[#_+K+R$[#I%,*Q.|@5$}#2+m#5$B*h#y |@/+[%",
"2+V@##|@h#P#B*_+ +B$U@Y+o$:*[#A+_+U@R$R$D+C*D*E*F*}$<@t#.@j@j@h$h$1+ .G.*.X+E+>@K+E+1+Y.!*^ ^ ^ ^ ^ ^ ^ ^ ^ ^ ^ ^ ^ ^ ^ ^ ^ ^ ^ ^ ^ ^ ^ ^ ^ ^ ^ ^ ^ ^ ^ ^ ^ ^ ^ ^ ^ ^ ^ ^ ^ ^ ^ G*E+.@p#j@p#d% .&+B {+:+6%|&x+{@x+^+a#H*I*J*K*L*>@1+1+_+R$1+B#w${*##D#s@m#w#_+`@m#s@5$|@",
"5$V@/+|@X+v Z#s@D#5$X+m#w#D#_+_+2+2+R$]&M*N*O*P*}$p#,@,@j@j@E+A+A+`#I.>+v.C%A+5&E+6%1+Y.!*^ ^ ^ ^ ^ ^ ^ ^ ^ ^ ^ ^ ^ ^ ^ ^ ^ ^ ^ ^ ^ ^ ^ ^ ^ ^ ^ ^ ^ ^ ^ ^ ^ ^ ^ ^ ^ ^ ^ ^ ^ ^ ^ Q*,@^+.@j@E+6+~@R.J.I P#A+A+p#W@{@.@A@{@R*S*T*U*V*E+:+2+_+_+_+%@##U |@s@s@5${+h#m#s@s@m#",
"m# +m#m#x#P#s@5$s@Y+W*##X*B$2+_+R$2+]&Y*Z*`*F*J&j@6%,@I%p#.@E+:+b+%*O.Q.E+A@A+C%j@p#K+}@!*^ ^ ^ ^ ^ ^ ^ ^ ^ ^ ^ ^ ^ ^ ^ ^ ^ ^ ^ ^ ^ ^ ^ ^ ^ ^ ^ ^ ^ ^ ^ ^ ^ ^ ^ ^ ^ ^ ^ ^ ^ ^ ^ G*6+t#N%H+p#E+U+6#,+M.=.Z#A+R$p#N%j@6%j@{@ =.=+=@=#=>@[#B$6#U@s@X+!+P.U@5$5$~@&@x&m#s@U@",
"5$D#,&U@h#_+,&5$,&h#R$q#5$B$D#1+E+$=%=&=S%*===p#R$6%A@j@p#.@2*w$L.-=;=6+1+>@E+6%p#p#>@o$>=^ ^ ^ ^ ^ ^ ^ ^ ^ ^ ^ ^ ^ ^ ^ ^ ^ ^ ^ ^ ^ ^ ^ ^ ^ ^ ^ ^ ^ ^ ^ ^ ^ ^ ^ ^ ^ ^ ^ ^ ^ ^ ^ ,=,@^+.@{@,@>@>@G&v H I.H [#5&h$j@j@E+>@B@'=)=!=~={=]=}#R$s@s@s@%@1+Y+~+/+5$d%X+##|@m#s@",
"s@6$x&|@:+A+D# +U@^=B$Y+5$D#_+R$/=(=_=:=<=[=B@A+[#6%A@>@p#j@v.}=I .+U+A+B$>@p#j@,@,@>@X+>=^ ^ ^ ^ ^ ^ ^ ^ ^ ^ ^ ^ ^ ^ ^ ^ ^ ^ ^ ^ ^ ^ ^ ^ ^ ^ ^ ^ ^ ^ ^ ^ ^ ^ ^ ^ ^ ^ ^ ^ ^ ^ ^ |=:+G&.@d@j@p#h$1+t#w#*.1=M [#h$h$E+,@6%E+>@2=3=4=5=6=7=2+5$s@s@h#1+%@m###m#[#7+X#####m#",
"m#x&U@##[#B*U@m#m#`@V@9+B#D#6$D%8=9=0=a=b=j@>@R$B$B@p#E+A+c@%*z V :+>@B$2+R$A+,@.@p#_+#+^ ^ ^ ^ ^ ^ ^ ^ ^ ^ ^ ^ ^ ^ ^ ^ ^ ^ ^ ^ ^ ^ ^ ^ ^ ^ ^ ^ ^ ^ ^ ^ ^ ^ ^ ^ ^ ^ ^ ^ ^ ^ ^ ^ c=_+.@N%,@A@E+>@B$E+t#d=N.e=+.[#B@H+E+p#p#R$p#'=3=f=g=h=i=m# +U@Y+##h#[%/+/+{+_+w###`@##",
"m#m#j=Y+[%U@##$+%@##`@;$|@U@,&k=l=l&m=n=I%A+R$[#h$5&>@h$%@=+B o=i+C%R$5$ +K+5&6+C%2*8+O >=^ ^ ^ ^ ^ ^ ^ ^ ^ ^ ^ ^ ^ ^ ^ ^ ^ ^ ^ ^ ^ ^ ^ ^ ^ ^ ^ ^ ^ ^ ^ ^ ^ ^ ^ ^ ^ ^ ^ ^ ^ ^ ^ p=&@:+.@j@j@E+>@>@E+d%U+v.z q=V K+N%,@6%j@E+K+K+C&r=`*T&s=B#[#~+j%>*l@D# .X#|@s@X+h###`@",
"B#V@V@X+m#m#t=e%8+##q#$+|@8+u=v=w=x=y=($K+D%_+h$6%6%R$w#z &+++j+:+R$K+ +B$p#C%C%[#Z#z=%+A=^ ^ ^ ^ ^ ^ ^ ^ ^ ^ ^ ^ ^ ^ ^ ^ ^ ^ ^ ^ ^ ^ ^ ^ ^ ^ ^ ^ ^ ^ ^ ^ ^ ^ ^ ^ ^ ^ ^ ^ ^ ^ ^ B=M P#A+p#G&6%R$K+>@[#A+.@@+-.=*#+,@I%>@p#E+>@_+R$C&C=D=E=P#{+s@j%r.r.m#e+>$B#m#!+c@c@##",
"/+m#[%%@@*5$>*w#P#|@;*0$|@s@V@F=W&j=1+_+D#N&B$>@A@6%2+8@C M G=1+_+[#R$B$2+6%2*R$A+$+,+H=I=J=^ ^ ^ ^ ^ ^ ^ ^ ^ ^ ^ ^ ^ ^ ^ ^ ^ ^ ^ ^ ^ ^ ^ ^ ^ ^ ^ ^ ^ ^ ^ ^ ^ ^ ^ ^ ^ ^ ^ ^ ^ ^ ^ K=++[#:+6+>@R$R$>@R$s@[#4+'+N.S 1+H#K+p#6%R$ +Z#[#L=M=N=s@Z.w#t=l@Y+s@m#T U@s@%@8@q#B#",
"8@8@t=|@ +8+_+s@/+h#`@Q.U@ +|@O=P=J${+ +^=5$ +R$R$h$_+Y+g+O.w 6# +B$R$h$t%:+d%R$,@ #Q=R=S=H T=^ ^ ^ ^ ^ ^ ^ ^ ^ ^ ^ ^ ^ ^ ^ ^ ^ ^ ^ ^ ^ ^ ^ ^ ^ ^ ^ ^ ^ ^ ^ ^ ^ ^ ^ ^ ^ ^ ^ ^ ^ ^ >=U=.@j@6%5&R$h$[#[#5$U@.@*.f+M A+E+K+R$D%2+5$6#s@c@p.=+I$6#U@8@v.j%U@,&[#D#P#!+{*Y+h#",
"p#C%A+G&P#}@,&s@m#X+`@Q.U@]+{+V=O.J$U._+2+ +2+R$R$>@K+j%g+I }@Z#_+s@N&R$W=[#A+[#j@X=Y=Z=`= -.-^ ^ ^ ^ ^ ^ ^ ^ ^ ^ ^ ^ ^ ^ ^ ^ ^ ^ ^ ^ ^ ^ ^ ^ ^ ^ ^ ^ ^ ^ ^ ^ ^ ^ ^ ^ ^ ^ ^ ^ ^ ^ ^ +--@G&C%A+B$R$B$B$ +m#:+Y#O.q$]+A+A+2+R$[# +6#{+!+O.K.J$6#s@h#v.{*U@D#_+_+D#_+.@p+^+",
" +D#~+2*B$5$,&s@s@!+H V Z#E+Z#R#@-v.>@>@R$_+2+D%B$R$E+r.'+N. *B*P# +5$B$[#1+Z#B$|&#-$-%-&-*-=-^ ^ ^ ^ ^ ^ ^ ^ ^ ^ ^ ^ ^ ^ ^ ^ ^ ^ ^ ^ ^ ^ ^ ^ ^ ^ ^ ^ ^ ^ ^ ^ ^ ^ ^ ^ ^ ^ ^ ^ ^ ^ ^ --;-6%2+1+[#[#[#5$V@U@1+Y#,+N 7+[#[#_+[#R$ +5$>-x#f+K.9+8+}#Y+I U s@D#_+D#{+v 1+]+]+",
"[#D#U@1+_+s@D#s@P#S.N.$+_+U.Y.=+w*,-'-)-!-N&h$>@B$ +A+Q.,+N.c@s@B$B$5$ + +s@$+x#;@C*~-{-]-^-=-^ ^ ^ ^ ^ ^ ^ ^ ^ ^ ^ ^ ^ ^ ^ ^ ^ ^ ^ ^ ^ ^ ^ ^ ^ ^ ^ ^ ^ ^ ^ ^ ^ ^ ^ ^ ^ ^ ^ ^ ^ ^ ^ /-(-B$I [#B$2+N&m#/+V@[#R#@-N Z#R$R$>@A+R$N&_-:-<-H =+r$6#s@l@=+9+s@_+D#_+_+~+[#U.U.",
":+_+D#_+_+_+ +P#5$Y+>+++8+5$Y.R#_$[-}-|-1-N&2+K+B$^=1+u.@-N.c@U@2+ +5$_+[#6#'$8@b@C*2-3-4-5-=-^ ^ ^ ^ ^ ^ ^ ^ ^ ^ ^ ^ ^ ^ ^ ^ ^ ^ ^ ^ ^ ^ ^ ^ ^ ^ ^ ^ ^ ^ ^ ^ ^ ^ ^ ^ ^ ^ ^ ^ ^ ^ ^ /-<*R$$$>@[#5$,&V@|@U@[#B H H P#D#>@>@R$B$s*6-7-8-c+Y#u.8+8+{**.0+s@_+s@D#s@8+D#1+_+",
"D#_+_+P#s@s@U@U@m#j%>+ .y 8+v R#9-0-a-b-c- + +K+[# +d%Q.'+I 4$U@_+_+[#R$K+Z#$+X+d-e-f-g-h-i-=-^ ^ ^ ^ ^ ^ ^ ^ ^ ^ ^ ^ ^ ^ ^ ^ ^ ^ ^ ^ ^ ^ ^ ^ ^ ^ ^ ^ ^ ^ ^ ^ ^ ^ ^ ^ ^ ^ ^ ^ ^ ^ ^ /-j-A+>+C%1+ +5$,&5$ +d%=+H N _+d%R$>@A+_+k-l-m-n-c+-.u.8+8+Q.*..+6#s@D#s@6#c@~+U.[#",
"U@s@~+8+P#_+U@8+8+Y+>+e+8+D#Y.N. .0-o-p->-U@t%>@K+B$:+v.R.N.4$U@_+_+1+1+A+U.@+`@6%z@q-r-s-^-=-^ ^ ^ ^ ^ ^ ^ ^ ^ ^ ^ ^ ^ ^ ^ ^ ^ ^ ^ ^ ^ ^ ^ ^ ^ ^ ^ ^ ^ ^ ^ ^ ^ ^ ^ ^ ^ ^ ^ ^ ^ ^ ^ t-u-k-@-C%[#[#B$D+N& +A+B H R.]+A+K+1+E+_+B$v-w-n-c+R#v.~+{+Q.N.7$Z.s@{+D#~+c@y ~+s@",
"c@j%>*!+P#_+U@8+8+>*>+S v 6$y B c+x-y-z-D+5$_+>@_+R$A+v.,+B 4$U@_+[#d%A+[#U.U+R$I%A-B-C-D-E-=-^ ^ ^ ^ ^ ^ ^ ^ ^ ^ ^ ^ ^ ^ ^ ^ ^ ^ ^ ^ ^ ^ ^ ^ ^ ^ ^ ^ ^ ^ ^ ^ ^ ^ ^ ^ ^ ^ ^ ^ ^ ^ ^ t-#=W=_+5&s@[#R$ +5$5$d%B H q$]+A+_+K+A+R$N&F-G-H-'+I <#_+{+Q.I Q.Z.D#s@s@~+!+I$Q.Q.",
"g+H p.b+8+Z#U@s@6#X+##.+8+6$3 =+'+r.I-D% + + +K+1+B@E+4$M B `$U@2+[#[#A+[#[#C%5&b@J-K-L-M-N-O-^ ^ ^ ^ ^ ^ ^ ^ ^ ^ ^ ^ ^ ^ ^ ^ ^ ^ ^ ^ ^ ^ ^ ^ ^ ^ ^ ^ ^ ^ ^ ^ ^ ^ ^ ^ ^ ^ ^ ^ ^ ^ ^ P-Q-h$R$R${+_+1+D#U@U@:+R#H O ]+R$R$A+h$B$ + +R-##M Y#4${+~+l@u.X+s@s@D#D#8+@+ .,+,+",
"X+r.v.J$~+_+s@s@s@h#c@9+8+ +}@S-,+Q.s@D# + +m#[#1+:+A+4$,+I I$s@2+[#1+:+A+1+R$1+:+ #s=T-U-z@T=^ ^ ^ ^ ^ ^ ^ ^ ^ ^ ^ ^ ^ ^ ^ ^ ^ ^ ^ ^ ^ ^ ^ ^ ^ ^ ^ ^ ^ ^ ^ ^ ^ ^ ^ ^ ^ ^ ^ ^ ^ ^ ^ V-U@R$N&R$~@_+A+_+~+s@5+I K O ]+E+A+6+K+B$/+U@U.c@H Z%J${+8+r.u.Q.8+s@6#6$6#Q.Y+####",
"8+Y.!+I$v D#X+|@U@X+Y+9+6#s@c@K.'+v.Z._+V@V@5$B$5&1+_+X+,+N.!+8+_+D#[#A+_+1+[#:+R$5$S.W-X-=-^ ^ ^ ^ ^ ^ ^ ^ ^ ^ ^ ^ ^ ^ ^ ^ ^ ^ ^ ^ ^ ^ ^ ^ ^ ^ ^ ^ ^ ^ ^ ^ ^ ^ ^ ^ ^ ^ ^ ^ ^ ^ ^ Y-o$d%A+[#A+_+_+:+1+P#_+Z#I M Z-]+E+]+E+A+_+m#s@U.o$H =+J$P#{+v.b+@+6#m#u.y 8+>*%@U@U@",
"U@}@##<#s@8+w$$+'%v.<#T ~+~+o$$$`-X#1+_+s@m# +B$2+_+_+8+c+f+q$|@_+[#B$2+s@[#]+1+2+P#Z#{* ;^ ^ ^ ^ ^ ^ ^ ^ ^ ^ ^ ^ ^ ^ ^ ^ ^ ^ ^ ^ ^ ^ ^ ^ ^ ^ ^ ^ ^ ^ ^ ^ ^ ^ ^ ^ ^ ^ ^ ^ ^ ^ ^ .; *M&D#[#:+1+U@s@A+[#s@P#T R#'+Q.]+:+1+>@_+_+s@U.7+[%[$$$I$s@6#P.b+9+|@9+V y |@Q.S.|@U@",
"/+##h#v._+y }@Q.|@v.t=U v 6#U.L#+;@;#;N&m#m#2+U@5$5$2+t#W* .-+M 8+_+D#D# +_+~@A+[#1+_+S.f@^ ^ ^ ^ ^ ^ ^ ^ ^ ^ ^ ^ ^ ^ ^ ^ ^ ^ ^ ^ ^ ^ ^ ^ ^ ^ ^ ^ ^ ^ ^ ^ ^ ^ ^ ^ ^ ^ ^ ^ ^ ^ ^ $;r Z#6$:+A+1+s@s@[#1+~+@+%*p.@+j+]+A+B$[#D#{+{+K+(-%;&;*;{+v |@9+$+T ~+,$|@##m#Q.j%##|@",
"m#y &@Q.6#s@##m#w#j%h#T |@u u =;-;;;>;,;N&D# +U@ + + +[#^+S.H 5.R s@[#D#_+[#A+A+A+[#8+9+';^ ^ ^ ^ ^ ^ ^ ^ ^ ^ ^ ^ ^ ^ ^ ^ ^ ^ ^ ^ ^ ^ ^ ^ ^ ^ ^ ^ ^ ^ ^ ^ ^ ^ ^ ^ ^ ^ ^ ^ ^ ^ ^ );w#D#1+A+R$1+s@P#Z#~@j%%*V=>$4+d%[#K+_+D# +}#_+j-!;~;{;];U.o$}@@+@+T w#######U@{*t=`@y ",
"~+}@X+Q.|@_+|@8+}@Y+_+l@v v }@B+^;/;(;_;:;D+5$N&N&2+5$5$_+.@{*=.5.$+s@_+[#~@:+1+[#1+s@@+.;^ ^ ^ ^ ^ ^ ^ ^ ^ ^ ^ ^ ^ ^ ^ ^ ^ ^ ^ ^ ^ ^ ^ ^ ^ ^ ^ ^ ^ ^ ^ ^ ^ ^ ^ ^ ^ ^ ^ ^ ^ ^ ^ <;8+d%A+5&R$K+{+_+U.X+M.=+g+7+]+1+_+1+1+1+_+2+[;};|;1;t&j@~+!+y {*}@@+########m#Q.Y+h###",
"##h#;*,$.+s@{+8+c@r.D#r.v v |@v j@2;3;4;5;6; + +B$N&B$ +s@D#C%,$7;G.9+D#Z#~@]+[#[#_+s@v.8;^ ^ ^ ^ ^ ^ ^ ^ ^ ^ ^ ^ ^ ^ ^ ^ ^ ^ ^ ^ ^ ^ ^ ^ ^ ^ ^ ^ ^ ^ ^ ^ ^ ^ ^ ^ ^ ^ ^ ^ ^ ^ ^ 9;~+_+_+A+A+A+Z#_+!+A B M Z.D#D#R$_+1+_+U.D#0;a;b;c;d;}$Z#v |@##{*|@l@##}@##|@v.;$t=`@`@",
"####h#l@d+&@~+8+w#4$v !+}@~+~+Y.8+e;f;g;h;i;j;H#>@R$R$B$_+s@P#4+`#B 5.9+Y._+1+_+1+[#w#r.k;^ ^ ^ ^ ^ ^ ^ ^ ^ ^ ^ ^ ^ ^ ^ ^ ^ ^ ^ ^ ^ ^ ^ ^ ^ ^ ^ ^ ^ ^ ^ ^ ^ ^ ^ ^ ^ ^ ^ ^ ^ ^ ^ l;Z._+_+_+U.U.Z#X+&+M.,+w 8+5$[#A+1+_+U@1+|&/&m;n;o;p;2+m#6#m#&@Q.w#Y+m###`@%@9-I+h###B#",
"`@##h#X#>*h#~+8+8+P#%@w#j%}@~+8+|@U@k%q;r;s;t;u;h$R$R$R$_+_+6#_+d%e%=+4.T 8+{+U.[#_+##r.v;^ ^ ^ ^ ^ ^ ^ ^ ^ ^ ^ ^ ^ ^ ^ ^ ^ ^ ^ ^ ^ ^ ^ ^ ^ ^ ^ ^ ^ ^ ^ ^ ^ ^ ^ ^ ^ ^ ^ ^ ^ ^ ^ w;6#Z#{+_+[#s@##z M.$.Y.Z#y m#_+]+[#[#D#[#x;y;z;A;B;_+G#V@s@B#t=w###D#U@|@##`@0#;*`@q#S.",
"[%|@####X#!+|@c@|@6#D###o$v.##U@s@s@D#C;D;E;F;G;D%K+_+ +D# +s@~+Z.H;g+%*4.Q.6#P#s@s@##v.v;^ ^ ^ ^ ^ ^ ^ ^ ^ ^ ^ ^ ^ ^ ^ ^ ^ ^ ^ ^ ^ ^ ^ ^ ^ ^ ^ ^ ^ ^ ^ ^ ^ ^ ^ ^ ^ ^ ^ ^ ^ ^ ^ w;)*D#_+1+[###I J.H o${+D#|@~+_+R$ +R$R$I;J;K;L;M;R$U@c@|@m#Y+S.##m#,&|@####X+{*8@c@h#`@",
"m#[%####X#S.##`@y Y.8+~+%@4$v.|@s@D#s@_+N;O;P;Q;R;]&_+s@D#D#_+s@~+Z#Z#S;M.G.r.~+s@P#y Y+v;^ ^ ^ ^ ^ ^ ^ ^ ^ ^ ^ ^ ^ ^ ^ ^ ^ ^ ^ ^ ^ ^ ^ ^ ^ ^ ^ ^ ^ ^ ^ ^ ^ ^ ^ ^ ^ ^ ^ ^ ^ ^ ^ w;6#s@_+_+8+*.-+O.<#{+Z.U@8+s@D#[#A+B@T;U;V;W;X;>@|@|@|@##S.4$j%B#|@######`@<#l@h#h#h#x#",
"|@|@`@X#Y+X+##`@##|@c@##s@ *w$v.w#P# +m#P#:%Y;Z;`; >D+P#8+P#_+s@P#{+Z.Z. .%*.>4$6#P#}@<#+>^ ^ ^ ^ ^ ^ ^ ^ ^ ^ ^ ^ ^ ^ ^ ^ ^ ^ ^ ^ ^ ^ ^ ^ ^ ^ ^ ^ ^ ^ ^ ^ ^ ^ ^ ^ ^ ^ ^ ^ ^ ^ ^ @>v s@s@8+H H.w*4$U.Z#s@s@s@~+_+A+h$#>$>%>&>Y$R$|@######j%j%)+}@W*S.`@##q#`@##Q.S.####q#",
"c@`@x#h#Y+X+##`@##c@X+&@8+Z#!+o=9+%@m#|@y ~+*>=>->;>>>h$s@Z#Z#_+_+{+)*N+w $.,>M.<#s@##j%v;^ ^ ^ ^ ^ ^ ^ ^ ^ ^ ^ ^ ^ ^ ^ ^ ^ ^ ^ ^ ^ ^ ^ ^ ^ ^ ^ ^ ^ ^ ^ ^ ^ ^ ^ ^ ^ ^ ^ ^ ^ ^ ^ '>Y.8+8+g+I.O.v.~@s@P#~+{+s@Z#[#5&)>!>~>{>]>[#%@##|@##j%d+}@%@}@S.h#%@##h#h#S.{*X+####/+",
"`@h#h#h#t=X+##y ##'%c@X+o$<#{*`$R.9+x###[%y s*F&&=^>/>6; +Z#Z.s@s@6#8+6#U.c@H 5.&+!+c@r.v;^ ^ ^ ^ ^ ^ ^ ^ ^ ^ ^ ^ ^ ^ ^ ^ ^ ^ ^ ^ ^ ^ ^ ^ ^ ^ ^ ^ ^ ^ ^ ^ ^ ^ ^ ^ ^ ^ ^ ^ ^ ^ ^ '>o$Y.R.1=*.v.]+6#|@8+s@_+[#_+R$0;E%(>_>:>6%##B###c@r.g+Y+h#T <#8@h#|@M#x#c@h#{*Y+h#q###",
"h#h#8@8@{*X+}@y y `@%@!+c@u.;$Q.>*g+u.y ~+Y.w#6%<>[>}>|>h#v {+s@{+s@w#Y.Y.U.!+O.q=-.!+r.v;^ ^ ^ ^ ^ ^ ^ ^ ^ ^ ^ ^ ^ ^ ^ ^ ^ ^ ^ ^ ^ ^ ^ ^ ^ ^ ^ ^ ^ ^ ^ ^ ^ ^ ^ ^ ^ ^ ^ ^ ^ ^ ^ 1>v .+}.V=0$4+8+y |@6#6#{+D#s@v 2>3>_>4>N%8+####y v.'+5>v.t=`#Y+h#c@|@##h#`@<#M+l@h#X###",
"8@8@Y+;*{*r.##c@o$h#`@##y r.U 6>v.Y+M #+y v v U@|&7>8>9>R#<#~+U@6#Z.6#~+##}@_+Q.Z%5.S.j%v;^ ^ ^ ^ ^ ^ ^ ^ ^ ^ ^ ^ ^ ^ ^ ^ ^ ^ ^ ^ ^ ^ ^ ^ ^ ^ ^ ^ ^ ^ ^ ^ ^ ^ ^ ^ ^ ^ ^ ^ ^ ^ ^ 1>Y.S K.H 4+v y w#{+_+D#6#6#8+R.0>a>b>b@6#8+|@c@!+R.v.S.R.>*S Y+S.c@`@`@X+c@<#!#t=8@8@7%",
"8@8@t=I+,$Q.####|@####c@o$Y+c>1*b+Y+j%M Q.|@8+|@6#1+Z# .K.Z%!+}@6#6#6#Y.o$o$}@$+B I.j%Q.v;^ ^ ^ ^ ^ ^ ^ ^ ^ ^ ^ ^ ^ ^ ^ ^ ^ ^ ^ ^ ^ ^ ^ ^ ^ ^ ^ ^ ^ ^ ^ ^ ^ ^ ^ ^ ^ ^ ^ ^ ^ ^ ^ d>y d+B &+}@8+w#m#D#[#s@1*w#e+=+'+m#,@[#s@8+c@r. .{*!+>$w#Y+`#X+h#h#h#`@h#`@<#!#l@t=9@S.",
"t=t=l@@+T u.&@h#|@|@##}@Y.X+)###v 9+X+<#g+u.c@y ##~+!$Y.g+&+=.!+8+6#~+|@y ##o$S =+I.r.v.v;^ ^ ^ ^ ^ ^ ^ ^ ^ ^ ^ ^ ^ ^ ^ ^ ^ ^ ^ ^ ^ ^ ^ ^ ^ ^ ^ ^ ^ ^ ^ ^ ^ ^ ^ ^ ^ ^ ^ ^ ^ ^ ^ e>}@ .K.5.c@####|@s@_+~+v S =+H w$E+{+D#s@y r.R.>*S.V %@c@Y+`#<#h#8@h#h#h#&@Y+!#l@>*h#`@",
"l@Y+t=f>)#@+>*j%h#`@c@##6#X+T h#w#~@o=Y+I+H u.c@}@y ~+d%}@H I.F y s@P#|@##w#}@e+=+5.s#7$g>^ ^ ^ ^ ^ ^ ^ ^ ^ ^ ^ ^ ^ ^ ^ ^ ^ ^ ^ ^ ^ ^ ^ ^ ^ ^ ^ ^ ^ ^ ^ ^ ^ ^ ^ ^ ^ ^ ^ ^ ^ ^ ^ h>.%R.K.5.c@|@c@`@8+p$6#@+%*w*v.j+_+U@/+[%c@ .9+c@ .o$c@S.j%e+Y+8@&@c@##x#h#Y+!#I+t=q#`@",
"8@Y+Y+i>l@Q.h#h#c@c@y w#Y.v.;$8@##U@6#####@+R.X+Y.S.c@Z.5+%@>+I.b+w#v |@}@w#8+T j>}.v.Q.g>^ ^ ^ ^ ^ ^ ^ ^ ^ ^ ^ ^ ^ ^ ^ ^ ^ ^ ^ ^ ^ ^ ^ ^ ^ ^ ^ ^ ^ ^ ^ ^ ^ ^ ^ ^ ^ ^ ^ ^ ^ ^ ^ h>y g+K.5.####h#h###~+c@A I ;$:+U.6#|@}@##9+$+##Y.X+o$X+8@t=R Y+8@X+h#S.##Y+<#@+l@t=##`@",
"h#X#8@8@I+I+&@&@%@##}@y }@v.k>>*8@####h###8@,$ .}@|@##8+Z.]+w*l>V Y.w#7%c@y y m>K.|.r.{*n>^ ^ ^ ^ ^ ^ ^ ^ ^ ^ ^ ^ ^ ^ ^ ^ ^ ^ ^ ^ ^ ^ ^ ^ ^ ^ ^ ^ ^ ^ ^ ^ ^ ^ ^ ^ ^ ^ ^ ^ ^ ^ ^ h>c@H L.}.%@`@`@!+!+8+!+o>`.D#1+_+m#|@8+9+$+8@##|@8@c@`@Y+t=e+Y+Y+t=l@Y+8@I+j%Q.Y+t=h#h#",
"X+h#p>l@)#Q.&@h#h#!+%@y %@u.e+>*Y+####&@##S.5>`-<#o$y o$~+}#q>r>s>}@}@c@!+y ##`#K.4.v.Q.n>^ ^ ^ ^ ^ ^ ^ ^ ^ ^ ^ ^ ^ ^ ^ ^ ^ ^ ^ ^ ^ ^ ^ ^ ^ ^ ^ ^ ^ ^ ^ ^ ^ ^ ^ ^ ^ ^ ^ ^ ^ ^ ^ h>c@H J.|.!+%@`@##|@6#/+t>u>v>s@6$U@8+|@M l@h###|@&@&@h#Y+Y+e+r.&@Y+t=Y+Y+l@r.{*8@h#i>Y+",
"h#8@l@{*)#Q.X+h#c@##%@c@##l@ $r.8@c@##h#h#9@Y+k>,$&@##%@~+>@w>x>y>3 }@}@##|@##..=+|.r.u.g>^ ^ ^ ^ ^ ^ ^ ^ ^ ^ ^ ^ ^ ^ ^ ^ ^ ^ ^ ^ ^ ^ ^ ^ ^ ^ ^ ^ ^ ^ ^ ^ ^ ^ ^ ^ ^ ^ ^ ^ ^ ^ ^ z>1 H -+F.X+##`@##m#s@A>B>C>D>_+x&B#|@##c+>*8@|@w#X+E>8@9@j%`#Y+&@8@Y+t=l@l@v.Q.X+h#Y+Y+",
"X+t={*I+q.u.X+h#c@c@%@####Q.`#Y+S.'%##`@8@p>;*>$U &@S.X+}@K+F>G>H>##Y.v Y.}@}@V =+F.v.P.n>^ ^ ^ ^ ^ ^ ^ ^ ^ ^ ^ ^ ^ ^ ^ ^ ^ ^ ^ ^ ^ ^ ^ ^ ^ ^ ^ ^ ^ ^ ^ ^ ^ ^ ^ ^ ^ ^ ^ ^ ^ ^ ^ z>c@M J.|.X+##c@q###8+V*I>J>K>2+m#7%`@`@'$j%&@|@w#8@t=Y+Y+r.`#v.S.%@%@Y+>*l@j%Q.h#8@Y+Y+",
"h#>*{*I+,$P.X+h#Y+r.r.h#!+@+k>X#h#h###`@8@8@Y+`#u.%@X+Y+|@B+L>M>N>`@3 v Y.~+Y.`#=+}.v.b+n>^ ^ ^ ^ ^ ^ ^ ^ ^ ^ ^ ^ ^ ^ ^ ^ ^ ^ ^ ^ ^ ^ ^ ^ ^ ^ ^ ^ ^ ^ ^ ^ ^ ^ ^ ^ ^ ^ ^ ^ ^ ^ ^ O>!+H j>|.X+##S.`@c@y V*P>Q>K> +##`@c@## .X+##m#|@&@Y+Y+Y+r.$+v.h###y h#Y+t=r.Q.Y+t=t=j%",
"<#>*{*u.M+P.4$r.Y+r.Y+X+c@u.`#t=&@h#`@`@h#8@Y+e+9+X+&@h#}@K+R>S>T>x#o$v U>8+v  .&+}.7$a+n>^ ^ ^ ^ ^ ^ ^ ^ ^ ^ ^ ^ ^ ^ ^ ^ ^ ^ ^ ^ ^ ^ ^ ^ ^ ^ ^ ^ ^ ^ ^ ^ ^ ^ ^ ^ ^ ^ ^ ^ ^ ^ ^ V>!+H K.|.X+S.&@X+X+##V*W>X>Y>5$##`@h#%@,+h#c@##y X+Y+r.X+<#`#Y+h###y c@l@&@r.{*Q.I+l@l@",
"j%r.l@u.M+9+<#v.t=<#j%h###l@(+l@Y+M#####7%8@Y+ $T Y+S.%@X+}#Z>`> ,x#o$Y.8+m#8+d+K.4.a+9+n>^ ^ ^ ^ ^ ^ ^ ^ ^ ^ ^ ^ ^ ^ ^ ^ ^ ^ ^ ^ ^ ^ ^ ^ ^ ^ ^ ^ ^ ^ ^ ^ ^ ^ ^ ^ ^ ^ ^ ^ ^ ^ ^ V>##H .,F.<#&@Y+X+&@M#+,@,#,Y>^=##`@h#c@M !+S.`@c@Y+X+h#X+r.S v.h#X+%@8@t=S.&@,$c>I+I+5>",
"v.I+$,u.M+b+v.v.Y+r.v.X+c@Q.U r.Y+`@B###`@&@t=e+r$|#h#S.h#2+%,&,N>M#c@##~+m###e+K.*,P..+n>^ ^ ^ ^ ^ ^ ^ ^ ^ ^ ^ ^ ^ ^ ^ ^ ^ ^ ^ ^ ^ ^ ^ ^ ^ ^ ^ ^ ^ ^ ^ ^ ^ ^ ^ ^ ^ ^ ^ ^ ^ ^ ^ O>c@H H.|.Y+&@S.h#&@M#=,-,;,Y>>,##8@X#c@M h#c@X+Y+j%|#X+Y+>*S r.Y+&@Y+Y+>*Y+<#q.{*)#Q.X+",
"r.u.l@r.9+9+v.<#&@j%<#r.Y+{*$+>*X+c@%@x#8@Y+j% $a+!+h#8@c@s@,,',),8@%@}@8+|@c@e+*+*,u.9+n>^ ^ ^ ^ ^ ^ ^ ^ ^ ^ ^ ^ ^ ^ ^ ^ ^ ^ ^ ^ ^ ^ ^ ^ ^ ^ ^ ^ ^ ^ ^ ^ ^ ^ ^ ^ ^ ^ ^ ^ ^ ^ ^ !,c@M L.~,<#h#`@####M#{,],X>^,|@h#i>`@y K h#3 h#Y+v.r.<#>*u.d+Q.<#Y+j%j%I+Y+<#@+v.l@Y+S.",
"j%u.l@I+9+P.r.j%X+Y+h#Y+Q.T $+Y+S.X+`@h#Y+Y+r.`#P.c@X+Y+y s@/,(,_,i>S.o$w###c@;$*+*,7$9+n>^ ^ ^ ^ ^ ^ ^ ^ ^ ^ ^ ^ ^ ^ ^ ^ ^ ^ ^ ^ ^ ^ ^ ^ ^ ^ ^ ^ ^ ^ ^ ^ ^ ^ ^ ^ ^ ^ ^ ^ ^ ^ ^ :,1 g+L.<,<#7%c@##c@X#<-[,},|,##c@8@c@c@H <#3 !+r.r.Y+v.>*u. .j%j%h#X+l@c>v.r.@+r.<#Y+Y+",
"l@u.{*{*M+9+v.r.X+h#c@Y+Q.,$e+Y+c@X+h#X+&@Y+Y+d+u.3 !+c@|@1,2,3,4,j%X+c@o$y c@;$K.*,7$r$n>^ ^ ^ ^ ^ ^ ^ ^ ^ ^ ^ ^ ^ ^ ^ ^ ^ ^ ^ ^ ^ ^ ^ ^ ^ ^ ^ ^ ^ ^ ^ ^ ^ ^ ^ ^ ^ ^ ^ ^ ^ ^ ^ 5,!+g+I.6,X+##S.'%h#X+7,8,9,0,8@c@Y+&@h#H v.c@!+v.r.Y+r.>*u.R Q.Y+S.h#l@{*v.r.9+v.r.<#j%",
"v.u.Q.u.M+b+v.v.v.Y+!+<#Y+T d+Q.x#S.c@8@&@8@>*'$r$!+3 c@c@F@a,b,c,r.X+<#h#`@%@U S-<,Q.0+n>^ ^ ^ ^ ^ ^ ^ ^ ^ ^ ^ ^ ^ ^ ^ ^ ^ ^ ^ ^ ^ ^ ^ ^ ^ ^ ^ ^ ^ ^ ^ ^ ^ ^ ^ ^ ^ ^ ^ ^ ^ ^ ^ !,!+g+5.<,c@##h#c@&@Y+d,e,f,g,r.!+Y+r.X+H v.c@X+v.r.&@h#Y+@+R l@l@Y+j%h,q.u.s#T u.u.r.v.",
"&@v.u.{*@+.+Q.Q.r.Y+!+X+X+9+ .{*&@8@S.Y+Y+r.l@9-L$<#c@##m#C&i,j,k,h,X+<#X+8@X+`#K.*,#+9+n>^ ^ ^ ^ ^ ^ ^ ^ ^ ^ ^ ^ ^ ^ ^ ^ ^ ^ ^ ^ ^ ^ ^ ^ ^ ^ ^ ^ ^ ^ ^ ^ ^ ^ ^ ^ ^ ^ ^ ^ ^ ^ ^ l,&@M ;+6,!+##%@h#X+%@m,n,o,p,s*S.j%&@X+H r.%@X+r.Q.Y+h#Y+u.e+u.Q.u.u.{*,${*v.T u.l@Y+l@",
"X+X+r.u.@+9+Q.u.j%<#X+&@r.U c+{*j%Y+8@t=>*t=l@c+V X+<#Y+S.D+q,r,s,r.X+1 S.S.v. .L.*,v.K$n>^ ^ ^ ^ ^ ^ ^ ^ ^ ^ ^ ^ ^ ^ ^ ^ ^ ^ ^ ^ ^ ^ ^ ^ ^ ^ ^ ^ ^ ^ ^ ^ ^ ^ ^ ^ ^ ^ ^ ^ ^ ^ ^ t,J$J 1=6,!+|@##c@####~&u,v,w,/+Y+t=>*<#H <#S.j%l@{*v.&@r.P.+.u.u.Q.{*{*,${*v.U Q.r.&@&@",
"<#&@j%Q.9+9+Q.u.j%Y+&@j%Q.U c+@+u.Y+&@l@l@Y+l@c+V X+Y+j%X+x,y,z,),Y+|#|#<#!+j%g+-+6,Q.9+A,^ ^ ^ ^ ^ ^ ^ ^ ^ ^ ^ ^ ^ ^ ^ ^ ^ ^ ^ ^ ^ ^ ^ ^ ^ ^ ^ ^ ^ ^ ^ ^ ^ ^ ^ ^ ^ ^ ^ ^ ^ ^ ^ t,J$H I.~,!+|@`@c@%@##B,C,D,R;##r.Y+>*X+H Q.r.5>Y+I+u.r.w$U M 9+{*u.{*@+q.@+#+U u.v.r.<#",
"v.v.r.v.M+9+Q.u.r.l@u.{*{*$+'+T q.u.>*Q.t=Y+l@g+.+r.j%j%X+E,y,F,H>8@I$1 <#<#v._$H.<,r$0+A,^ ^ ^ ^ ^ ^ ^ ^ ^ ^ ^ ^ ^ ^ ^ ^ ^ ^ ^ ^ ^ ^ ^ ^ ^ ^ ^ ^ ^ ^ ^ ^ ^ ^ ^ ^ ^ ^ ^ ^ ^ ^ ^ t,<#f+I.~,4$`@8@X+&@`@G,-,H,I,x#r.&@j%l@f+@+l@>*Q.I+Q.Q.u...H 9+@+{*{*@+M+9+Q..+a+u.u.u.",
">*v.j%Q.T b+Q.u.u.{*,$M+9+`#'+T {*q.{*I+t=l@{*_$b+Q.r.&@&@x,J,K,L,##}@c@!+<#Q.,+L.<,K$0+A,^ ^ ^ ^ ^ ^ ^ ^ ^ ^ ^ ^ ^ ^ ^ ^ ^ ^ ^ ^ ^ ^ ^ ^ ^ ^ ^ ^ ^ ^ ^ ^ ^ ^ ^ ^ ^ ^ ^ ^ ^ ^ ^ M,r.>+5.<,r.<#j%Y+r.Y+I;N,O,^,##8@S.h#r.>+,$u.Q.@+Q.Q.u.T e+L T 9+{*{*@+9+@+v.V T 9+@+,$",
"Q.v.v.u..+I$j%u.q.,$T @+{*$+'+T ,$M+u.>*l@I+{*'+r$/@r.&@&@N&%,P,L,##o$1 !+h#r.M -+<,P.P.A,^ ^ ^ ^ ^ ^ ^ ^ ^ ^ ^ ^ ^ ^ ^ ^ ^ ^ ^ ^ ^ ^ ^ ^ ^ ^ ^ ^ ^ ^ ^ ^ ^ ^ ^ ^ ^ ^ ^ ^ ^ ^ ^ Q,r.N.}.<,v.<#Y+l@I+Y+R,N,S,T,j=h#`@&@<#*.u.u.>*@+r.u.{*T `#H ,${*@+@+q.9+Q.4$0$9+u.u.{*",
">*r.Q.9+J$v.u.9+T $+g+T a+R c+9+{*T @+Q.>*I+Q.R.b+v.r.r.&@N&%,U,V,x#3 I$<#X+r.R..>*,Q.v$A,^ ^ ^ ^ ^ ^ ^ ^ ^ ^ ^ ^ ^ ^ ^ ^ ^ ^ ^ ^ ^ ^ ^ ^ ^ ^ ^ ^ ^ ^ ^ ^ ^ ^ ^ ^ ^ ^ ^ ^ ^ ^ ^ Q,4$C 5.<,v.j%>*v.r.5>W,N,S,X,j=S.X+h#h#f+Q.u.v.9+Q.u.u.q.e+H )+9+M T q.@+@+r.!+U u.u.l@",
"Y+r.Q.e+P.Q.@+U $+Y,q$$+Z+I '+M R.'+p. .c+'+U  .T v.Y+r.h#N&Z,&,H>8@c@c@I$J$v.d+=*<,;=r$`,^ ^ ^ ^ ^ ^ ^ ^ ^ ^ ^ ^ ^ ^ ^ ^ ^ ^ ^ ^ ^ ^ ^ ^ ^ ^ ^ ^ ^ ^ ^ ^ ^ ^ ^ ^ ^ ^ ^ ^ ^ ^ ^  'r.I |..'v.l@Q.j%r.8@+'@'#'^,q#X+!+c@h#O.@+H e++.H R.R.H c+'*++`#H I U q.@+v.4$R.@+Q.Q.",
"r.l@M+c+9+u.9+$+=.$..+d+I H R#$.I.B &.&+Y,K.9+c+$+Q.t=v.!+ +$'%'&'Y+1 c@X+<#r. .-+<,P.0+`,^ ^ ^ ^ ^ ^ ^ ^ ^ ^ ^ ^ ^ ^ ^ ^ ^ ^ ^ ^ ^ ^ ^ ^ ^ ^ ^ ^ ^ ^ ^ ^ ^ ^ ^ ^ ^ ^ ^ ^ ^ ^ ^ *'J$C 4.='v.t=Q.r.j%j%W,-,-';'M#X+&@<#X+O.9+%+-.>',''''*E M.H B  .` H I V q.v.<#M T u.u.",
"w$w$$+c+9+@+T  .I S g+'*O.c+H G.=.'*.>Y,G.'*'$,+$+v.l@Q.Y+x&)'!'~'Y+1 !+<#Y+j%R.-+<,9+b+`,^ ^ ^ ^ ^ ^ ^ ^ ^ ^ ^ ^ ^ ^ ^ ^ ^ ^ ^ ^ ^ ^ ^ ^ ^ ^ ^ ^ ^ ^ ^ ^ ^ ^ ^ ^ ^ ^ ^ ^ ^ ^ ^ K=v.N.|.{'r.j%j%X+X+&@<--,]';'`@<#r.r.<#O.V B ^'E q=,'Z%/'('*.O.B g+++I  .u.Q.s#H T u.u.",
"Q.Q.U c+b+@+$+.+$+R.I =.R.g+_''*z M.Y,e=Z%&+`#,+.+X+j%>*X+[%:'<'['Y+!+c@r.r.{*e%H.<,K$8$`,^ ^ ^ ^ ^ ^ ^ ^ ^ ^ ^ ^ ^ ^ ^ ^ ^ ^ ^ ^ ^ ^ ^ ^ ^ ^ ^ ^ ^ ^ ^ ^ ^ ^ ^ ^ ^ ^ ^ ^ ^ ^ ^ }'7$-.1=6,v.r.X+!+!+h#|'1'2'3'c@Y+l@v.<#F U N.z 4'Y,.>5'z e=N.g+ .Z%H  .q.T u.s#H $+@+u.",
"a+u.U d+7$Q.$+d+R.N.F 6'V  .e%++'$d+g+R.R.'+0$S u.!+Y+X+c@##7'8'9'r.X+!+v.r.u.,+-+4.P.S `,^ ^ ^ ^ ^ ^ ^ ^ ^ ^ ^ ^ ^ ^ ^ ^ ^ ^ ^ ^ ^ ^ ^ ^ ^ ^ ^ ^ ^ ^ ^ ^ ^ ^ ^ ^ ^ ^ ^ ^ ^ ^ ^ 0'u.I I.F.#+v.j%<#!+8@a'O*b'c'o$<#l@<#X+*.4$R.S;c+e+z=R.'+M '+R d'q$B c+`#,$@+X+,+`#9+{*",
"9+9+$+e+U@>@ +U@[#T c+R.p.p.H O.O.p.-=>+N.%+H M 4$X+r.!+3 r.e'f'g'r.<#r.Q.v.u.,+K.S J$L$`,^ ^ ^ ^ ^ ^ ^ ^ ^ ^ ^ ^ ^ ^ ^ ^ ^ ^ ^ ^ ^ ^ ^ ^ ^ ^ ^ ^ ^ ^ ^ ^ ^ ^ ^ ^ ^ ^ ^ ^ ^ ^ ^ 0'a+T B F.a+r.v.&@X+r.F#l=h'k=I$s#v.&@I$S;g+H =+-=*.O.F O.*.f+O.H f+ .D#N&R$i'I% .e+9+u.",
"9+T `#H 0+#+v.v.X+@*D+h$[#B$U@m#j=V@j=5$,&j'k'}@J$<#v.c@u.l'X&c,@-u.r.Q.u.Q.{*'+J |@r.S `,^ ^ ^ ^ ^ ^ ^ ^ ^ ^ ^ ^ ^ ^ ^ ^ ^ ^ ^ ^ ^ ^ ^ ^ ^ ^ ^ ^ ^ ^ ^ ^ ^ ^ ^ ^ ^ ^ ^ ^ ^ ^ ^ m'9+<#S I.{*v.Y+h#Y+{*`-n'o'p'S <#&@!+X+Y+q'r's'`@,&U@@*[#2*d% +^=N& +w 4$v.&@X+O.e+9+9+",
"@+T >$J 0+u.Q.l@Q.<#S.r.X+c@!+r.v.v.q.Q.{*{*r.v.r.<#r.c@@+t'u'-=H u.r.u.{*{*@+,+C Q.v.S `,^ ^ ^ ^ ^ ^ ^ ^ ^ ^ ^ ^ ^ ^ ^ ^ ^ ^ ^ ^ ^ ^ ^ ^ ^ ^ ^ ^ ^ ^ ^ ^ ^ ^ ^ ^ ^ ^ ^ ^ ^ ^ ^ v'Q.7$R.5.u.Q.>*X+X+{*w'x'y'z'R.I$!+!+1 l@r.r.Y+&@Y+Q.&@c@X+<#Q.Q.Q.j%v.u.u.Q.r.N.`#,$T ",
",$,$;$H r$J$v.Q.Q.v.<#u.<#c@&@<#r.r.u.Q.u.u.<#!+Q.v.r.<#T .,A'>+M u.v.u.{*@+@+,+I {*Q.` B'^ ^ ^ ^ ^ ^ ^ ^ ^ ^ ^ ^ ^ ^ ^ ^ ^ ^ ^ ^ ^ ^ ^ ^ ^ ^ ^ ^ ^ ^ ^ ^ ^ ^ ^ ^ ^ ^ ^ ^ ^ ^ ^ C'u.Q.g+|.u.u.Q.Y+X+{*9-.,B .,J r.X+X+&@!+<#r.r.X+<#u.v.r.<#v./@Q.9+@+Q.@+@+v.v.N.R $+;$",
"T U `#H b+v.Q.u.Q.u.7$u.r.r.r.7$u.v.u.u.r.X+!+r.Q.u./@v.V D'E'O.M u.r.u.9+a+9+H I @+u.+.B'^ ^ ^ ^ ^ ^ ^ ^ ^ ^ ^ ^ ^ ^ ^ ^ ^ ^ ^ ^ ^ ^ ^ ^ ^ ^ ^ ^ ^ ^ ^ ^ ^ ^ ^ ^ ^ ^ ^ ^ ^ ^ ^ F'u.u.J |.@+Q.@+v.<#u.e+j>R#H.M 7$<#r.X+1 I$&@X+1 <#u.v./@s#u.u.9+T {*Q.v.u.j%s#*.d+$+`#",
"9+;$`#L K$v.w$@+@+u.9+@+7$G'v.Q.7$7$/@v.X+c@<#v.v.u.u.u.V H.~,w*$.a+u.u.9+9+H'H N.T u.O B'^ ^ ^ ^ ^ ^ ^ ^ ^ ^ ^ ^ ^ ^ ^ ^ ^ ^ ^ ^ ^ ^ ^ ^ ^ ^ ^ ^ ^ ^ ^ ^ ^ ^ ^ ^ ^ ^ ^ ^ ^ ^ ^ I'K$a+K |.@+u.9+P.<#u.R =+R#L.g+&@&@<#s#<#v.3 X+X+r.Q.v.u.v.7$7$9+u.>*Q.Y+Q.v.<#N.d+$+`#",
"U ;$>$H K$v.u.9+9+Q.r$9+u.v.<#v.7$u.u.v.X+&@r.v./@u.@+P.S I.A'>+F b+u.q.T 9+9+H -.U r$J J'^ ^ ^ ^ ^ ^ ^ ^ ^ ^ ^ ^ ^ ^ ^ ^ ^ ^ ^ ^ ^ ^ ^ ^ ^ ^ ^ ^ ^ ^ ^ ^ ^ ^ ^ ^ ^ ^ ^ ^ ^ ^ ^ I'u.a+J *,T 9+H'@+u.@+R K'B %*M v.s#s#|#s#h#c@I$v.Q.@+v.7$v.7$7$9+q.>*Q.u.r.v.<#N. .k>..",
"`#U e+H 0+v.u.@+7$v.9+9+a+r.I$I$7$a+u.u.s#s#v.r.r.v.Q.@+`#I.~,*.H U @+T $+U )+H z U r$J J'^ ^ ^ ^ ^ ^ ^ ^ ^ ^ ^ ^ ^ ^ ^ ^ ^ ^ ^ ^ ^ ^ ^ ^ ^ ^ ^ ^ ^ ^ ^ ^ ^ ^ ^ ^ ^ ^ ^ ^ ^ ^ ^ I'u.9+H ~,T @+9+q.T $+c+=+R#%*H a+u.u.v./@|#<#J$7$u.Q.v.u.v.7$7$r.u.<#7$Q.r.v.I$N. .`#`#",
"S `#e+O.N$u.9+Q.r.Q.{*u.u.u.L's#7$a+u.u.Q.r.r.v.u.a+u.a+S z =+M H V r$T V T V O.B V U J J'^ ^ ^ ^ ^ ^ ^ ^ ^ ^ ^ ^ ^ ^ ^ ^ ^ ^ ^ ^ ^ ^ ^ ^ ^ ^ ^ ^ ^ ^ ^ ^ ^ ^ ^ ^ ^ ^ ^ ^ ^ ^ ^ M'b+T H 4..+9+U (+$+$+g+B F =.M 9+9+u.u./@v.I$<#r.u.u.v.u.u.u.u./@7$s#v.v.v.v.3 N.c+`#e+",
"e+e+ .H #+P.P.u.u.Q.@+u.u.7$7$/@u.u.u.r.u.a+7$v.a+r$@+a+S =+H R.J V N'U $+U e+O.-.S V J J'^ ^ ^ ^ ^ ^ ^ ^ ^ ^ ^ ^ ^ ^ ^ ^ ^ ^ ^ ^ ^ ^ ^ ^ ^ ^ ^ ^ ^ ^ ^ ^ ^ ^ ^ ^ ^ ^ ^ ^ ^ ^ ^ O'V V H |.$+.+$+(+$+S g+H L$*.M 9+U T 9+@+Q.v.7$<#P'a+u.@+a+H'q.a+u./@u.a+u.@+r.M M e+`#",
"d+ .H #+u.u.9+u.@+u.r$@+u.u.G'a+a+a+u.u.u.u.7$@+9+U 0+e@S R#Q'` H S U z+Z+U z+*.B L$V J J'^ ^ ^ ^ ^ ^ ^ ^ ^ ^ ^ ^ ^ ^ ^ ^ ^ ^ ^ ^ ^ ^ ^ ^ ^ ^ ^ ^ ^ ^ ^ ^ ^ ^ ^ ^ ^ ^ ^ ^ ^ ^ ^ R'V V H |.$+T U $+U $+ .J V.N.q$.%T T U T @+@+u.Q.r$9+r$9+N'N'H'q.9+9+a+r$u.T 9+Q.@-R. .",
"*.N.V .+V V S U V V S V U U U U V V V V U U U U V S L$8$J &+=.'*`#`#V Z+R `#U I A S V F J'^ ^ ^ ^ ^ ^ ^ ^ ^ ^ ^ ^ ^ ^ ^ ^ ^ ^ ^ ^ ^ ^ ^ ^ ^ ^ ^ ^ ^ ^ ^ ^ ^ ^ ^ ^ ^ ^ ^ ^ ^ ^ ^ S'L$V *.6,T U $+U U e+`#I z =+O.K$S e+`#V .+U Z+$+S S $+S Z+S U V S S S S S R +.R T N.-=",
">$S H I.*,{'='T'{'<,<,6,*,<,<,6,6,6,6,*,<,~,1==*&+M..>J.&+O.,+V e+ .P R.g+&.` A U'S V F J'^ ^ ^ ^ ^ ^ ^ ^ ^ ^ ^ ^ ^ ^ ^ ^ ^ ^ ^ ^ ^ ^ ^ ^ ^ ^ ^ ^ ^ ^ ^ ^ ^ ^ ^ ^ ^ ^ ^ ^ ^ ^ ^ S'V V'F ~,9+M H d+++R.++S p.,+B M.I.I.J.-+5.|.6,{'W'<,<,T'='{'{'T'W'{'<,~,<,<,6,|.N.`-$+",
"X'Y'X'Z'g.Z'D.`'B. )E. ).)X'.)X'.)E.g.g.g..).)X'.).) ).)X'.) ).)g.D.C.B.g.g.+)@)B e+R C J'^ ^ ^ ^ ^ ^ ^ ^ ^ ^ ^ ^ ^ ^ ^ ^ ^ ^ ^ ^ ^ ^ ^ ^ ^ ^ ^ ^ ^ ^ ^ ^ ^ ^ ^ ^ ^ ^ ^ ^ ^ ^ ^ #)R R %+$)%)Z'g.D.&)D.g.Z'.)*)*)*)X'.).) )g.D.Z'.)E.E..).).).) )D.B.g.Z'g.Z'g. ).)*)=)-)",
";+;+6.;+I.|.6.~,F.|.|.|.5.H.;+|.6.~,6.6.6.;);)|.|.|.|.;+;+|.|.I.K..,>);+;+x',)')))f+I .>J'^ ^ ^ ^ ^ ^ ^ ^ ^ ^ ^ ^ ^ ^ ^ ^ ^ ^ ^ ^ ^ ^ ^ ^ ^ ^ ^ ^ ^ ^ ^ ^ ^ ^ ^ ^ ^ ^ ^ ^ ^ ^ ^ !)Z%C V=~){)]).,I.>)}.;);+>)I.H.*+H.I.6.;);+|.|.;+;);+^)H.H.I.;+|.6.6.|.6.}.|.6.6.>)H./)",
"3 3 3 .%c ()3 3 .%5 5 u q M&c u Y.c@}@o$o$x x w Z.u Z.u Z.e Z.e Z.Z.v x .%o$y |@Y.v Z.)*>=^ ^ ^ ^ ^ ^ ^ ^ ^ ^ ^ ^ ^ ^ ^ ^ ^ ^ ^ ^ ^ ^ ^ ^ ^ ^ ^ ^ ^ ^ ^ ^ ^ ^ ^ ^ ^ ^ ^ ^ ^ ^ ^ _):*v 6#Z#8+Y.{+Z.r u 1*6#6#s@6#:)r u x <)9 }@o$##o$6#u u c ()v Z.)*)*6#u Z#)*}@c@c@o$Y.",
"[)})|)1)2)3)4)5)c=4)3)6)2)7)8)9)6)4)c=c=c=4)c=4)9)0)a)0)b)b)b)c)3)3)4)c=d)e)c=c=c=f)a)g)T=^ ^ ^ ^ ^ ^ ^ ^ ^ ^ ^ ^ ^ ^ ^ ^ ^ ^ ^ ^ ^ ^ ^ ^ ^ ^ ^ ^ ^ ^ ^ ^ ^ ^ ^ ^ ^ ^ ^ ^ ^ ^ ^ h)4)f)f)1)1)1)3)9)i)j)3)0)k)1)3)b)l)9)c)m)3)Q'c=c=c=c)b)9)9)3)1)3)1)a)l)0)b)3)c)c=c=c=c="};
