/* XPM */
static char * so_door8_tex_xpm[] = {
"132 132 1475 2",
"  	c #2D3640",
". 	c #2C353E",
"+ 	c #2C3640",
"@ 	c #2D3741",
"# 	c #2E3841",
"$ 	c #2D3641",
"% 	c #2D3842",
"& 	c #2E3944",
"* 	c #2E3943",
"= 	c #2F3A45",
"- 	c #2E3842",
"; 	c #2F3B46",
"> 	c #2F3944",
", 	c #2F3A46",
"' 	c #303C46",
") 	c #303B46",
"! 	c #303C47",
"~ 	c #303A45",
"{ 	c #313D4A",
"] 	c #313E4A",
"^ 	c #323E4A",
"/ 	c #323F4A",
"( 	c #313D48",
"_ 	c #35393C",
": 	c #393939",
"< 	c #303B45",
"[ 	c #323F4B",
"} 	c #313D49",
"| 	c #303C48",
"1 	c #2E3843",
"2 	c #2E3A44",
"3 	c #2E3942",
"4 	c #2C363F",
"5 	c #2E3741",
"6 	c #2C363E",
"7 	c #2C353F",
"8 	c #23313F",
"9 	c #233341",
"0 	c #243341",
"a 	c #243342",
"b 	c #233240",
"c 	c #243543",
"d 	c #243443",
"e 	c #253544",
"f 	c #253646",
"g 	c #253645",
"h 	c #243544",
"i 	c #253545",
"j 	c #263746",
"k 	c #273847",
"l 	c #263645",
"m 	c #273645",
"n 	c #283847",
"o 	c #283948",
"p 	c #293A49",
"q 	c #283949",
"r 	c #273848",
"s 	c #293B4A",
"t 	c #293949",
"u 	c #293B4B",
"v 	c #293A4A",
"w 	c #2A3B4B",
"x 	c #2A3B4A",
"y 	c #2B3D4C",
"z 	c #2C3F4F",
"A 	c #2D3F4F",
"B 	c #2C3F50",
"C 	c #2D4151",
"D 	c #2C3D4C",
"E 	c #33393E",
"F 	c #2B3C4B",
"G 	c #2A3C4B",
"H 	c #293C4B",
"I 	c #2D4050",
"J 	c #283848",
"K 	c #283A49",
"L 	c #273948",
"M 	c #273947",
"N 	c #263846",
"O 	c #253746",
"P 	c #253543",
"Q 	c #16212A",
"R 	c #17222C",
"S 	c #17222D",
"T 	c #17232D",
"U 	c #18222D",
"V 	c #18242D",
"W 	c #18242E",
"X 	c #17242D",
"Y 	c #192530",
"Z 	c #19242F",
"` 	c #1A2630",
" .	c #1A2732",
"..	c #1A2631",
"+.	c #1A2833",
"@.	c #18252F",
"#.	c #1B2833",
"$.	c #1B2834",
"%.	c #1A2733",
"&.	c #1B2934",
"*.	c #1C2934",
"=.	c #1C2A35",
"-.	c #1C2A36",
";.	c #1D2A36",
">.	c #1D2B38",
",.	c #1E2D39",
"'.	c #1F2F3C",
").	c #1F2E3B",
"!.	c #1F2E3A",
"~.	c #1F2C39",
"{.	c #313437",
"].	c #303337",
"^.	c #1F2C38",
"/.	c #1E2C38",
"(.	c #1C2B37",
"_.	c #1D2D3A",
":.	c #1D2B37",
"<.	c #1C2935",
"[.	c #1B2733",
"}.	c #1B2933",
"|.	c #1A2632",
"1.	c #1A2731",
"2.	c #192631",
"3.	c #192630",
"4.	c #19252F",
"5.	c #18232D",
"6.	c #060B0E",
"7.	c #060B0F",
"8.	c #060C10",
"9.	c #070C11",
"0.	c #070B10",
"a.	c #070C10",
"b.	c #070D11",
"c.	c #070D12",
"d.	c #080D12",
"e.	c #070D13",
"f.	c #080E12",
"g.	c #080E13",
"h.	c #080F14",
"i.	c #080D13",
"j.	c #080E14",
"k.	c #090E14",
"l.	c #091015",
"m.	c #09131B",
"n.	c #091C2B",
"o.	c #0F1E29",
"p.	c #131F27",
"q.	c #131E27",
"r.	c #131C24",
"s.	c #2F3031",
"t.	c #2E2F31",
"u.	c #131E26",
"v.	c #141F28",
"w.	c #121E27",
"x.	c #091C29",
"y.	c #08151F",
"z.	c #081015",
"A.	c #090F14",
"B.	c #090F15",
"C.	c #0C1319",
"D.	c #0C141A",
"E.	c #0B1219",
"F.	c #0B1218",
"G.	c #0C131A",
"H.	c #0B1319",
"I.	c #0D151B",
"J.	c #0C141B",
"K.	c #0B131A",
"L.	c #0D151C",
"M.	c #0E171E",
"N.	c #0C151B",
"O.	c #0A1117",
"P.	c #0A1116",
"Q.	c #0E1821",
"R.	c #0F1E2A",
"S.	c #192733",
"T.	c #20303E",
"U.	c #223341",
"V.	c #303336",
"W.	c #2F3236",
"X.	c #21313F",
"Y.	c #223340",
"Z.	c #101E28",
"`.	c #0E1A23",
" +	c #0B151B",
".+	c #0A1218",
"++	c #0F161E",
"@+	c #0E161D",
"#+	c #0D161C",
"$+	c #0E171D",
"%+	c #0F181F",
"&+	c #0B141A",
"*+	c #0A1217",
"=+	c #131D26",
"-+	c #121D26",
";+	c #121C24",
">+	c #111B23",
",+	c #121D25",
"'+	c #121C25",
")+	c #131D27",
"!+	c #142028",
"~+	c #14202A",
"{+	c #142029",
"]+	c #16212B",
"^+	c #15222C",
"/+	c #15212B",
"(+	c #16222B",
"_+	c #182530",
":+	c #192732",
"<+	c #21313E",
"[+	c #21323F",
"}+	c #1C2B36",
"|+	c #233644",
"1+	c #1E303F",
"2+	c #293C4C",
"3+	c #233340",
"4+	c #313438",
"5+	c #2F3337",
"6+	c #263947",
"7+	c #283B4A",
"8+	c #192834",
"9+	c #263B4B",
"0+	c #1F2F3B",
"a+	c #1D2C38",
"b+	c #20313E",
"c+	c #22333F",
"d+	c #1E2E3A",
"e+	c #192731",
"f+	c #16222C",
"g+	c #15212C",
"h+	c #16232D",
"i+	c #15202A",
"j+	c #131F28",
"k+	c #111B24",
"l+	c #111C24",
"m+	c #1B2A35",
"n+	c #1B2A36",
"o+	c #1A2934",
"p+	c #182631",
"q+	c #1B2935",
"r+	c #1F303C",
"s+	c #243644",
"t+	c #273949",
"u+	c #283B4B",
"v+	c #2A3E4E",
"w+	c #2C4253",
"x+	c #243847",
"y+	c #1E2E3B",
"z+	c #283C4C",
"A+	c #2A3F4F",
"B+	c #243442",
"C+	c #313538",
"D+	c #303438",
"E+	c #283A4B",
"F+	c #293D4D",
"G+	c #273B4C",
"H+	c #2D4253",
"I+	c #2B4050",
"J+	c #2B3F4F",
"K+	c #2B4051",
"L+	c #2A3E4D",
"M+	c #263948",
"N+	c #20303D",
"O+	c #202F3B",
"P+	c #21303E",
"Q+	c #20303C",
"R+	c #1C2B38",
"S+	c #1D2C39",
"T+	c #192632",
"U+	c #1F2D39",
"V+	c #1E2C39",
"W+	c #263744",
"X+	c #2C4151",
"Y+	c #2C4152",
"Z+	c #2A3F4E",
"`+	c #2E4354",
" @	c #2E4455",
".@	c #2D4353",
"+@	c #2F4456",
"@@	c #2D4354",
"#@	c #2D4454",
"$@	c #32485A",
"%@	c #324A5C",
"&@	c #32495B",
"*@	c #32495C",
"=@	c #31485B",
"-@	c #31485A",
";@	c #2C4354",
">@	c #1E303E",
",@	c #1E2D3A",
"'@	c #293E4E",
")@	c #2A3E4F",
"!@	c #2E4557",
"~@	c #263C4C",
"{@	c #2A3F50",
"]@	c #323639",
"^@	c #303539",
"/@	c #2B4153",
"(@	c #203240",
"_@	c #2D4355",
":@	c #293D4E",
"<@	c #2B3F51",
"[@	c #1F2F3D",
"}@	c #293D4B",
"|@	c #344B5E",
"1@	c #314658",
"2@	c #314859",
"3@	c #2F4557",
"4@	c #304658",
"5@	c #2D4252",
"6@	c #2B4151",
"7@	c #2B3F50",
"8@	c #2C4051",
"9@	c #253745",
"0@	c #253846",
"a@	c #243746",
"b@	c #233544",
"c@	c #233342",
"d@	c #223442",
"e@	c #233543",
"f@	c #2E4355",
"g@	c #2E4353",
"h@	c #2B4152",
"i@	c #304759",
"j@	c #344C5F",
"k@	c #2D4457",
"l@	c #1E313F",
"m@	c #243745",
"n@	c #233443",
"o@	c #2A3D4E",
"p@	c #2E4558",
"q@	c #2E4659",
"r@	c #294052",
"s@	c #293E4F",
"t@	c #2B4052",
"u@	c #273745",
"v@	c #32363A",
"w@	c #30353A",
"x@	c #293D4C",
"y@	c #2C4355",
"z@	c #213443",
"A@	c #2F4558",
"B@	c #223240",
"C@	c #374F62",
"D@	c #2E4456",
"E@	c #2F4457",
"F@	c #2D4455",
"G@	c #2B3E4F",
"H@	c #223441",
"I@	c #233444",
"J@	c #243645",
"K@	c #233442",
"L@	c #253847",
"M@	c #273A49",
"N@	c #304558",
"O@	c #2E4457",
"P@	c #2D4152",
"Q@	c #30485B",
"R@	c #31495D",
"S@	c #2D4659",
"T@	c #1F3342",
"U@	c #223543",
"V@	c #223542",
"W@	c #2D4557",
"X@	c #30475A",
"Y@	c #2B4254",
"Z@	c #2C4254",
"`@	c #273846",
" #	c #33373B",
".#	c #30363B",
"+#	c #213343",
"@#	c #2F4659",
"##	c #2A4052",
"$#	c #2C4153",
"%#	c #213240",
"&#	c #223645",
"*#	c #31485C",
"=#	c #30485A",
"-#	c #31495C",
";#	c #31475A",
">#	c #2E4658",
",#	c #273A4A",
"'#	c #233645",
")#	c #334A5C",
"!#	c #304557",
"~#	c #2D4254",
"{#	c #304659",
"]#	c #32495D",
"^#	c #324A5E",
"/#	c #1B2F3D",
"(#	c #2A3F51",
"_#	c #293E50",
":#	c #30373C",
"<#	c #203341",
"[#	c #32495E",
"}#	c #1A2B38",
"|#	c #30495C",
"1#	c #324A5D",
"2#	c #334B5E",
"3#	c #2F4658",
"4#	c #374E62",
"5#	c #253848",
"6#	c #233646",
"7#	c #243646",
"8#	c #273A4B",
"9#	c #344A5D",
"0#	c #304657",
"a#	c #314759",
"b#	c #334A5E",
"c#	c #344C60",
"d#	c #324B5F",
"e#	c #334C61",
"f#	c #2E485B",
"g#	c #1D3140",
"h#	c #263A49",
"i#	c #253949",
"j#	c #2D4356",
"k#	c #33373C",
"l#	c #30373D",
"m#	c #1F303F",
"n#	c #1D2E3B",
"o#	c #334A5D",
"p#	c #344D61",
"q#	c #375063",
"r#	c #273B4B",
"s#	c #263A4A",
"t#	c #283B4C",
"u#	c #293C4D",
"v#	c #314758",
"w#	c #334B5F",
"x#	c #334C60",
"y#	c #344D62",
"z#	c #314A5F",
"A#	c #1F3241",
"B#	c #2D4357",
"C#	c #34383D",
"D#	c #31383F",
"E#	c #1F303E",
"F#	c #1E2F3D",
"G#	c #324A5F",
"H#	c #30475B",
"I#	c #344D60",
"J#	c #354E61",
"K#	c #354D61",
"L#	c #344E62",
"M#	c #354D62",
"N#	c #385164",
"O#	c #283D4C",
"P#	c #293B4C",
"Q#	c #283A4A",
"R#	c #344C5E",
"S#	c #324C5F",
"T#	c #2F485C",
"U#	c #1F3140",
"V#	c #1A2834",
"W#	c #2E4458",
"X#	c #34393D",
"Y#	c #31393F",
"Z#	c #1E303D",
"`#	c #2D4558",
" $	c #2C4052",
".$	c #314A5E",
"+$	c #344C61",
"@$	c #354E62",
"#$	c #354E63",
"$$	c #385165",
"%$	c #253948",
"&$	c #263848",
"*$	c #273B4A",
"=$	c #334B5D",
"-$	c #334D61",
";$	c #2F495D",
">$	c #203140",
",$	c #35393D",
"'$	c #313940",
")$	c #2A4051",
"!$	c #233746",
"~$	c #3A5368",
"{$	c #263847",
"]$	c #2A3D4D",
"^$	c #2C4252",
"/$	c #334B60",
"($	c #2F475B",
"_$	c #253947",
":$	c #233545",
"<$	c #1C2B39",
"[$	c #2B4154",
"}$	c #2D4456",
"|$	c #243846",
"1$	c #395367",
"2$	c #344B60",
"3$	c #1E3140",
"4$	c #253747",
"5$	c #283E4F",
"6$	c #35393E",
"7$	c #313A41",
"8$	c #293D4F",
"9$	c #1B2C39",
"0$	c #30465A",
"a$	c #375064",
"b$	c #33495B",
"c$	c #17242E",
"d$	c #203444",
"e$	c #2F475A",
"f$	c #353A3E",
"g$	c #313A42",
"h$	c #182734",
"i$	c #223544",
"j$	c #18242F",
"k$	c #283C4B",
"l$	c #1D2D39",
"m$	c #1C2C39",
"n$	c #314C60",
"o$	c #2B475C",
"p$	c #213D51",
"q$	c #243E50",
"r$	c #17242F",
"s$	c #1D2E3C",
"t$	c #253B4D",
"u$	c #253E52",
"v$	c #2A465A",
"w$	c #1E2F3B",
"x$	c #1D2E39",
"y$	c #1F303D",
"z$	c #1C2C38",
"A$	c #2E4352",
"B$	c #2B3E4E",
"C$	c #30485C",
"D$	c #37546B",
"E$	c #1F4965",
"F$	c #1A74A2",
"G$	c #2A495E",
"H$	c #2A4153",
"I$	c #1A2935",
"J$	c #323B43",
"K$	c #1A2A36",
"L$	c #1C2D3A",
"M$	c #2C4659",
"N$	c #2A5B7B",
"O$	c #265F82",
"P$	c #305069",
"Q$	c #365064",
"R$	c #233542",
"S$	c #22323F",
"T$	c #1F2E39",
"U$	c #1E2D38",
"V$	c #20313D",
"W$	c #20303B",
"X$	c #1D2C37",
"Y$	c #355065",
"Z$	c #1D4864",
"`$	c #127BB7",
" %	c #2A4A61",
".%	c #2C4356",
"+%	c #283E4E",
"@%	c #1B2B38",
"#%	c #2E4A5E",
"$%	c #286388",
"%%	c #246287",
"&%	c #2F4E66",
"*%	c #202F3A",
"=%	c #1B2A34",
"-%	c #202F3C",
";%	c #233440",
">%	c #1D2C36",
",%	c #21303B",
"'%	c #21313D",
")%	c #21333F",
"!%	c #385268",
"~%	c #1E4864",
"{%	c #137BB9",
"]%	c #2B4B61",
"^%	c #273C4C",
"/%	c #303941",
"(%	c #2F4A5E",
"_%	c #296489",
":%	c #236389",
"<%	c #2F4F66",
"[%	c #30485D",
"}%	c #233441",
"|%	c #21303D",
"1%	c #243542",
"2%	c #21303C",
"3%	c #1E4966",
"4%	c #0F7CC1",
"5%	c #2B4A61",
"6%	c #283D4D",
"7%	c #2B404F",
"8%	c #363A3D",
"9%	c #313B43",
"0%	c #28658A",
"a%	c #23668D",
"b%	c #2F5067",
"c%	c #2E475A",
"d%	c #334C5F",
"e%	c #233643",
"f%	c #223440",
"g%	c #263745",
"h%	c #2E4253",
"i%	c #385368",
"j%	c #1F4966",
"k%	c #0E7DC4",
"l%	c #2C4B62",
"m%	c #36393D",
"n%	c #313A43",
"o%	c #2A6488",
"p%	c #22668F",
"q%	c #2F5069",
"r%	c #2A3E50",
"s%	c #365267",
"t%	c #1E4765",
"u%	c #1279C2",
"v%	c #2D4A61",
"w%	c #303A44",
"x%	c #2A668B",
"y%	c #216690",
"z%	c #2F526B",
"A%	c #2C4456",
"B%	c #32485B",
"C%	c #365167",
"D%	c #1277C2",
"E%	c #2F485D",
"F%	c #2B658A",
"G%	c #206692",
"H%	c #30526B",
"I%	c #31495E",
"J%	c #293F4F",
"K%	c #293F50",
"L%	c #233745",
"M%	c #354F65",
"N%	c #1E4967",
"O%	c #107AC4",
"P%	c #2E4C63",
"Q%	c #363A3E",
"R%	c #313B45",
"S%	c #293E4D",
"T%	c #1B2B36",
"U%	c #2F495E",
"V%	c #2B658C",
"W%	c #1F6693",
"X%	c #30536D",
"Y%	c #2C4457",
"Z%	c #344F64",
"`%	c #0F7BC7",
" &	c #2D4C63",
".&	c #2F3A43",
"+&	c #2C658B",
"@&	c #1F6692",
"#&	c #30526C",
"$&	c #2D4458",
"%&	c #283C4D",
"&&	c #253845",
"*&	c #26394A",
"=&	c #1E4763",
"-&	c #0F7AC6",
";&	c #2C4C63",
">&	c #2F4A5F",
",&	c #21668F",
"'&	c #2F5169",
")&	c #2C4255",
"!&	c #2A4050",
"~&	c #283D4E",
"{&	c #204763",
"]&	c #0F7CC6",
"^&	c #303B44",
"/&	c #216790",
"(&	c #263845",
"_&	c #2A4152",
":&	c #1F4763",
"<&	c #0E7DC5",
"[&	c #2C4D64",
"}&	c #2F3B45",
"|&	c #2B4253",
"1&	c #304A5F",
"2&	c #22658F",
"3&	c #2F4759",
"4&	c #1F4864",
"5&	c #0D7EC7",
"6&	c #2D4E65",
"7&	c #2B6386",
"8&	c #23648C",
"9&	c #1D445F",
"0&	c #127CBC",
"a&	c #2B4B62",
"b&	c #18252E",
"c&	c #36393C",
"d&	c #2F3A44",
"e&	c #2E4559",
"f&	c #2D475B",
"g&	c #2B6081",
"h&	c #266083",
"i&	c #2B4A60",
"j&	c #253A4A",
"k&	c #2A3F52",
"l&	c #1F3A4E",
"m&	c #2A5875",
"n&	c #253F53",
"o&	c #254A62",
"p&	c #224862",
"q&	c #1C3040",
"r&	c #263949",
"s&	c #253A49",
"t&	c #2C4759",
"u&	c #244055",
"v&	c #254F69",
"w&	c #243C4E",
"x&	c #2E3A43",
"y&	c #273E50",
"z&	c #25485E",
"A&	c #254962",
"B&	c #294458",
"C&	c #304758",
"D&	c #1D4561",
"E&	c #1B73A7",
"F&	c #28485F",
"G&	c #37393C",
"H&	c #293F51",
"I&	c #294356",
"J&	c #2A5F80",
"K&	c #255F83",
"L&	c #2C4960",
"M&	c #1D4764",
"N&	c #127BBD",
"O&	c #2A4B62",
"P&	c #2E3A45",
"Q&	c #2C475B",
"R&	c #236289",
"S&	c #2E4D65",
"T&	c #1E4A67",
"U&	c #107CC4",
"V&	c #2A4A62",
"W&	c #293E4C",
"X&	c #2E3A46",
"Y&	c #2C485D",
"Z&	c #29668C",
"`&	c #216590",
" *	c #223443",
".*	c #1E4866",
"+*	c #107BC4",
"@*	c #2D3A44",
"#*	c #29668A",
"$*	c #206792",
"%*	c #2D4F68",
"&*	c #304859",
"**	c #1E4A68",
"=*	c #107BC3",
"-*	c #2A4961",
";*	c #37393B",
">*	c #2D3943",
",*	c #2B475B",
"'*	c #1D4966",
")*	c #1279BD",
"!*	c #2A485F",
"~*	c #2D3A45",
"{*	c #2B4559",
"]*	c #296386",
"^*	c #236489",
"/*	c #2D4F67",
"(*	c #2B4252",
"_*	c #1579B5",
":*	c #29485E",
"<*	c #2B4558",
"[*	c #296082",
"}*	c #256083",
"|*	c #2A3D4C",
"1*	c #263B4C",
"2*	c #1D2F3B",
"3*	c #1A384C",
"4*	c #21526E",
"5*	c #253E51",
"6*	c #2C3842",
"7*	c #214962",
"8*	c #204962",
"9*	c #2B4457",
"0*	c #1A2A37",
"a*	c #1A3040",
"b*	c #2C3742",
"c*	c #1D303F",
"d*	c #1C2E3D",
"e*	c #17232E",
"f*	c #2C3944",
"g*	c #253A48",
"h*	c #38393B",
"i*	c #2D3B45",
"j*	c #15212A",
"k*	c #37393A",
"l*	c #2B3944",
"m*	c #152029",
"n*	c #1F303B",
"o*	c #213341",
"p*	c #213442",
"q*	c #213340",
"r*	c #273C4A",
"s*	c #273A48",
"t*	c #38393A",
"u*	c #2C3945",
"v*	c #20313F",
"w*	c #172B39",
"x*	c #182833",
"y*	c #2B3844",
"z*	c #172936",
"A*	c #213647",
"B*	c #284155",
"C*	c #1B3F56",
"D*	c #255A77",
"E*	c #1F394B",
"F*	c #273B49",
"G*	c #293F4E",
"H*	c #2A3843",
"I*	c #223746",
"J*	c #285773",
"K*	c #1B445D",
"L*	c #223E53",
"M*	c #294357",
"N*	c #1D4159",
"O*	c #1973A8",
"P*	c #24648A",
"Q*	c #2B495F",
"R*	c #293642",
"S*	c #275471",
"T*	c #0F7DC0",
"U*	c #1E4964",
"V*	c #264257",
"W*	c #294153",
"X*	c #1D3F56",
"Y*	c #1C6F9F",
"Z*	c #1E6D9C",
"`*	c #2D536D",
" =	c #293743",
".=	c #304D64",
"+=	c #285E81",
"@=	c #0980C9",
"#=	c #1E4863",
"$=	c #264055",
"%=	c #273C4D",
"&=	c #1B3648",
"*=	c #1A72A5",
"==	c #2D5570",
"-=	c #192833",
";=	c #2A3844",
">=	c #24638A",
",=	c #147AB2",
"'=	c #1C3E54",
")=	c #273C4B",
"!=	c #1A3141",
"~=	c #1D3B4F",
"{=	c #285D7C",
"]=	c #2B536D",
"^=	c #293844",
"/=	c #2F4D65",
"(=	c #285A78",
"_=	c #1F425A",
":=	c #1A3346",
"<=	c #253C4E",
"[=	c #1B394F",
"}=	c #275876",
"|=	c #285A77",
"1=	c #2A4C62",
"2=	c #293845",
"3=	c #2D4A60",
"4=	c #224D68",
"5=	c #206A96",
"6=	c #1C4057",
"7=	c #253F52",
"8=	c #253946",
"9=	c #263B4A",
"0=	c #1D3C53",
"a=	c #275777",
"b=	c #127DBD",
"c=	c #2C4E65",
"d=	c #1971A8",
"e=	c #216692",
"f=	c #1B3E56",
"g=	c #263E51",
"h=	c #283E51",
"i=	c #1E3D54",
"j=	c #265474",
"k=	c #2D5774",
"l=	c #2B465B",
"m=	c #182630",
"n=	c #21323E",
"o=	c #383939",
"p=	c #263641",
"q=	c #2C4559",
"r=	c #2E526D",
"s=	c #1474B3",
"t=	c #236189",
"u=	c #1B3D56",
"v=	c #263C4F",
"w=	c #283F50",
"x=	c #1D3C54",
"y=	c #234E6C",
"z=	c #0782D3",
"A=	c #2B5B7B",
"B=	c #2C485E",
"C=	c #15222A",
"D=	c #263440",
"E=	c #141F27",
"F=	c #2C4458",
"G=	c #2D5470",
"H=	c #0E7ABF",
"I=	c #265B7D",
"J=	c #1A3A4F",
"K=	c #243A4B",
"L=	c #243948",
"M=	c #1E3B50",
"N=	c #1F4C6A",
"O=	c #0382DA",
"P=	c #2A5C7E",
"Q=	c #2C4A60",
"R=	c #24323F",
"S=	c #233642",
"T=	c #141E26",
"U=	c #0E7CC3",
"V=	c #275676",
"W=	c #193549",
"X=	c #25394B",
"Y=	c #1E3241",
"Z=	c #193950",
"`=	c #295F82",
" -	c #2C4A62",
".-	c #1E2E39",
"+-	c #1C2933",
"@-	c #151F27",
"#-	c #2B5471",
"$-	c #1A2C3A",
"%-	c #1D2E3A",
"&-	c #253A4B",
"*-	c #162936",
"=-	c #1A3447",
"--	c #2B516C",
";-	c #2D4B61",
">-	c #1C2C37",
",-	c #333537",
"'-	c #282D32",
")-	c #284F69",
"!-	c #1E4256",
"~-	c #162733",
"{-	c #162835",
"]-	c #283C4A",
"^-	c #101C25",
"/-	c #141D26",
"(-	c #353738",
"_-	c #252E35",
":-	c #24394A",
"<-	c #1A2D3A",
"[-	c #172430",
"}-	c #213342",
"|-	c #203340",
"1-	c #16242E",
"2-	c #182732",
"3-	c #152531",
"4-	c #122C3E",
"5-	c #103C55",
"6-	c #383839",
"7-	c #212F3A",
"8-	c #2E4556",
"9-	c #2B4354",
"0-	c #17252F",
"a-	c #273D4C",
"b-	c #1C303D",
"c-	c #162C3B",
"d-	c #124361",
"e-	c #11688D",
"f-	c #103447",
"g-	c #35383A",
"h-	c #29343E",
"i-	c #324859",
"j-	c #1A2933",
"k-	c #1B3140",
"l-	c #153143",
"m-	c #134B6C",
"n-	c #0B729B",
"o-	c #10394F",
"p-	c #35383B",
"q-	c #293640",
"r-	c #2C4558",
"s-	c #273D4E",
"t-	c #213645",
"u-	c #245570",
"v-	c #27455C",
"w-	c #263C4D",
"x-	c #163449",
"y-	c #144D6E",
"z-	c #0A749E",
"A-	c #103B52",
"B-	c #283641",
"C-	c #284255",
"D-	c #263F52",
"E-	c #205371",
"F-	c #233B4D",
"G-	c #233B4C",
"H-	c #127CA8",
"I-	c #274F6C",
"J-	c #263D4F",
"K-	c #153449",
"L-	c #154D6F",
"M-	c #0774A3",
"N-	c #103B53",
"O-	c #29495F",
"P-	c #0E7BAD",
"Q-	c #234358",
"R-	c #1B2B37",
"S-	c #243E4F",
"T-	c #0A84B7",
"U-	c #28516F",
"V-	c #273E51",
"W-	c #294051",
"X-	c #1B303F",
"Y-	c #153247",
"Z-	c #144C6E",
"`-	c #0675A5",
" ;	c #0F3A52",
".;	c #284256",
"+;	c #283E4D",
"@;	c #2A4B61",
"#;	c #0783B8",
"$;	c #24455B",
"%;	c #0E81B0",
"&;	c #28506C",
"*;	c #153347",
"=;	c #144C6D",
"-;	c #0973A0",
";;	c #28343F",
">;	c #274053",
",;	c #2A495F",
"';	c #0C7EAC",
");	c #283A48",
"!;	c #233848",
"~;	c #275E7C",
"{;	c #29475D",
"];	c #1C3141",
"^;	c #153043",
"/;	c #144A6B",
"(;	c #0975A1",
"_;	c #103B51",
":;	c #284154",
"<;	c #275B77",
"[;	c #243C4F",
"};	c #2A3D4B",
"|;	c #1E2C37",
"1;	c #263F51",
"2;	c #1D3241",
"3;	c #152D3D",
"4;	c #144764",
"5;	c #0D7299",
"6;	c #11384D",
"7;	c #35373A",
"8;	c #28323C",
"9;	c #283F51",
"0;	c #273F51",
"a;	c #16222D",
"b;	c #15364A",
"c;	c #124D69",
"d;	c #212F3B",
"e;	c #1B2D3A",
"f;	c #172A3A",
"g;	c #2D373F",
"h;	c #1C2D39",
"i;	c #2F3439",
"j;	c #333639",
"k;	c #1E3749",
"l;	c #27526E",
"m;	c #27455B",
"n;	c #2F363C",
"o;	c #204A63",
"p;	c #214A60",
"q;	c #1B2E3C",
"r;	c #2E4759",
"s;	c #224259",
"t;	c #0880D0",
"u;	c #285C7E",
"v;	c #254259",
"w;	c #33363A",
"x;	c #2E343A",
"y;	c #24526F",
"z;	c #088ACD",
"A;	c #254E68",
"B;	c #2A4254",
"C;	c #2F4C62",
"D;	c #285372",
"E;	c #008AE3",
"F;	c #275675",
"G;	c #254156",
"H;	c #2E3439",
"I;	c #283F53",
"J;	c #244E69",
"K;	c #0683D2",
"L;	c #276083",
"M;	c #2F5168",
"N;	c #295979",
"O;	c #0087E2",
"P;	c #265270",
"Q;	c #253F54",
"R;	c #17252E",
"S;	c #33373A",
"T;	c #2E353B",
"U;	c #273D4F",
"V;	c #254A63",
"W;	c #0A7ECC",
"X;	c #216997",
"Y;	c #294E68",
"Z;	c #2B4356",
"`;	c #2B4E66",
" >	c #266088",
".>	c #0188DB",
"+>	c #25516E",
"@>	c #263F53",
"#>	c #34373B",
"$>	c #2F353C",
"%>	c #1479B7",
"&>	c #1B71A7",
"*>	c #284E68",
"=>	c #2D475C",
"->	c #2B4F67",
";>	c #236692",
">>	c #117EBB",
",>	c #234C66",
"'>	c #274052",
")>	c #34373A",
"!>	c #2E353C",
"~>	c #26475D",
"{>	c #1D6F9E",
"]>	c #1577B4",
"^>	c #28506B",
"/>	c #2D485D",
"(>	c #213441",
"_>	c #223342",
":>	c #2D485B",
"<>	c #2B4F68",
"[>	c #226994",
"}>	c #256487",
"|>	c #213E51",
"1>	c #2B3F4E",
"2>	c #213A4C",
"3>	c #205571",
"4>	c #137AB1",
"5>	c #274F69",
"6>	c #304D63",
"7>	c #2E495D",
"8>	c #27465C",
"9>	c #224358",
"0>	c #224A66",
"a>	c #234258",
"b>	c #1B2B35",
"c>	c #264256",
"d>	c #1E4B64",
"e>	c #204157",
"f>	c #24465C",
"g>	c #2E4C61",
"h>	c #244155",
"i>	c #0C7EC5",
"j>	c #23648E",
"k>	c #24435A",
"l>	c #34383B",
"m>	c #2E363C",
"n>	c #274357",
"o>	c #235572",
"p>	c #0886C7",
"q>	c #23475E",
"r>	c #2F4B60",
"s>	c #26516F",
"t>	c #0083DD",
"u>	c #265C82",
"v>	c #234157",
"w>	c #152129",
"x>	c #2D353C",
"y>	c #264054",
"z>	c #224F6C",
"A>	c #0588D4",
"B>	c #265471",
"C>	c #2F4D63",
"D>	c #0181DA",
"E>	c #255372",
"F>	c #0882CF",
"G>	c #27597A",
"H>	c #2C4C64",
"I>	c #2E516A",
"J>	c #245170",
"K>	c #1774AD",
"L>	c #1E3C51",
"M>	c #2D343B",
"N>	c #1E3546",
"O>	c #206A99",
"P>	c #294D66",
"Q>	c #1D2D38",
"R>	c #2A485C",
"S>	c #203E52",
"T>	c #192A38",
"U>	c #172733",
"V>	c #1F3C4F",
"W>	c #28455A",
"X>	c #1F313E",
"Y>	c #2C353B",
"Z>	c #2C333B",
"`>	c #213241",
" ,	c #343739",
".,	c #2C333A",
"+,	c #15222D",
"@,	c #182834",
"#,	c #1E2F3C",
"$,	c #353739",
"%,	c #182632",
"&,	c #162D3D",
"*,	c #17455B",
"=,	c #1D3342",
"-,	c #18384B",
";,	c #16394E",
">,	c #23394A",
",,	c #1F2E3C",
"',	c #163E57",
"),	c #1A7198",
"!,	c #204054",
"~,	c #2B3239",
"{,	c #253D4F",
"],	c #255673",
"^,	c #1F5978",
"/,	c #244257",
"(,	c #17425D",
"_,	c #147AAD",
":,	c #204359",
"<,	c #295D7D",
"[,	c #235E7F",
"},	c #25455B",
"|,	c #184461",
"1,	c #107CB7",
"2,	c #22445B",
"3,	c #2A3239",
"4,	c #2A5E7F",
"5,	c #225F82",
"6,	c #18435F",
"7,	c #107CB8",
"8,	c #21445B",
"9,	c #2A323A",
"0,	c #2A5F7F",
"a,	c #235F83",
"b,	c #24445B",
"c,	c #18425E",
"d,	c #0F7DBB",
"e,	c #21445C",
"f,	c #14212B",
"g,	c #243F53",
"h,	c #295F7F",
"i,	c #236084",
"j,	c #20323F",
"k,	c #17415D",
"l,	c #117CB9",
"m,	c #243E52",
"n,	c #2A5F7E",
"o,	c #226084",
"p,	c #25394A",
"q,	c #17405B",
"r,	c #147AB1",
"s,	c #204257",
"t,	c #293138",
"u,	c #223C4E",
"v,	c #2A5E7C",
"w,	c #234359",
"x,	c #173D57",
"y,	c #1677AA",
"z,	c #204155",
"A,	c #2A3139",
"B,	c #2A5C79",
"C,	c #255D7D",
"D,	c #214055",
"E,	c #1D2F3D",
"F,	c #17354A",
"G,	c #21607E",
"H,	c #1D394C",
"I,	c #293139",
"J,	c #203646",
"K,	c #204F6A",
"L,	c #1E506B",
"M,	c #1A3345",
"N,	c #182D3B",
"O,	c #1F3E52",
"P,	c #1C2F3D",
"Q,	c #1F3340",
"R,	c #1E384B",
"S,	c #1F394D",
"T,	c #1A2B39",
"U,	c #202F3D",
"V,	c #1A3F57",
"W,	c #1C6A8D",
"X,	c #1D3C4F",
"Y,	c #293038",
"Z,	c #21394A",
"`,	c #23536F",
" '	c #1F5471",
".'	c #27455A",
"+'	c #153F59",
"@'	c #1578A7",
"#'	c #1F4055",
"$'	c #283038",
"%'	c #2A5C7A",
"&'	c #225978",
"*'	c #224258",
"='	c #263A4B",
"-'	c #16415C",
";'	c #137AB0",
">'	c #363739",
",'	c #233C4E",
"''	c #2A5E7E",
")'	c #235A7A",
"!'	c #253849",
"~'	c #127BB1",
"{'	c #223B4D",
"]'	c #225B7C",
"^'	c #234257",
"/'	c #17425E",
"('	c #117CB4",
"_'	c #20445A",
":'	c #273037",
"<'	c #2B5F7F",
"['	c #235D7E",
"}'	c #107DB7",
"|'	c #272F37",
"1'	c #223A4C",
"2'	c #245C7E",
"3'	c #244359",
"4'	c #107DB9",
"5'	c #20435A",
"6'	c #223C4D",
"7'	c #24445A",
"8'	c #192730",
"9'	c #17405C",
"0'	c #363738",
"a'	c #272F36",
"b'	c #111C23",
"c'	c #233C4D",
"d'	c #2B607F",
"e'	c #235C7F",
"f'	c #163F5B",
"g'	c #127AB7",
"h'	c #204258",
"i'	c #262E35",
"j'	c #235B7E",
"k'	c #224157",
"l'	c #152028",
"m'	c #1B2832",
"n'	c #18232C",
"o'	c #153E59",
"p'	c #1379AF",
"q'	c #1E4156",
"r'	c #225C7E",
"s'	c #17222B",
"t'	c #17232C",
"u'	c #19252E",
"v'	c #142129",
"w'	c #143D57",
"x'	c #1279A9",
"y'	c #1D4056",
"z'	c #242C33",
"A'	c #223A4B",
"B'	c #2B5E7B",
"C'	c #225B7D",
"D'	c #223F54",
"E'	c #162129",
"F'	c #19262F",
"G'	c #273946",
"H'	c #133A51",
"I'	c #167198",
"J'	c #1C3D51",
"K'	c #232B32",
"L'	c #21384A",
"M'	c #205978",
"N'	c #213C4F",
"O'	c #293B49",
"P'	c #142B3C",
"Q'	c #184057",
"R'	c #1B2E3D",
"S'	c #17384E",
"T'	c #294050",
"U'	c #243848",
"V'	c #253C4C",
"W'	c #142430",
"X'	c #232C33",
"Y'	c #172835",
"Z'	c #1F3749",
"`'	c #182F3E",
" )	c #263D4E",
".)	c #263D4D",
"+)	c #233846",
"@)	c #111F2A",
"#)	c #0F1A23",
"$)	c #242C34",
"%)	c #1B2A37",
"&)	c #131F29",
"*)	c #15232D",
"=)	c #12202A",
"-)	c #111C25",
";)	c #373738",
">)	c #232B34",
",)	c #14212A",
"')	c #111D25",
"))	c #232B33",
"!)	c #22313F",
"~)	c #222B33",
"{)	c #373838",
"])	c #16232E",
"^)	c #222A32",
"/)	c #202A32",
"()	c #21303F",
"_)	c #23333F",
":)	c #202931",
"<)	c #1F272E",
"[)	c #202E3B",
"})	c #0E181F",
"|)	c #0F1820",
"1)	c #0F1920",
"2)	c #101920",
"3)	c #101A20",
"4)	c #0E161C",
"5)	c #0F171F",
"6)	c #0F1921",
"7)	c #111E28",
"8)	c #1E262D",
"9)	c #121F28",
"0)	c #111C26",
"a)	c #0D161E",
"b)	c #101A21",
"c)	c #101B23",
"d)	c #101B22",
"e)	c #0D181F",
"f)	c #0C161C",
"g)	c #141F29",
"h)	c #131E28",
"i)	c #132029",
"j)	c #13222D",
"k)	c #132939",
"l)	c #162530",
"m)	c #1B2229",
"n)	c #142938",
"o)	c #132431",
"p)	c #14222C",
"q)	c #13212A",
"r)	c #132028",
"s)	c #121D27",
"t)	c #253644",
"u)	c #25323D",
"v)	c #2B3E4D",
"w)	c #273746",
"x)	c #263643",
"y)	c #23313D",
"z)	c #24343F",
"A)	c #24333F",
"B)	c #24313E",
"C)	c #253440",
"D)	c #23313C",
"E)	c #22303C",
"F)	c #23303C",
"G)	c #23313E",
"H)	c #243440",
"I)	c #283845",
"J)	c #253441",
"K)	c #24313F",
"L)	c #263442",
"M)	c #283744",
"N)	c #273643",
"O)	c #263542",
"P)	c #253542",
"Q)	c #263543",
"R)	c #23323E",
"S)	c #25343F",
"T)	c #242F38",
"U)	c #273543",
"V)	c #253541",
"W)	c #243441",
"X)	c #253442",
"Y)	c #25333F",
"Z)	c #222F3B",
"`)	c #212C39",
" !	c #232F3B",
".!	c #222F39",
"+!	c #23303B",
"      . . + @ #     @ $ @ # @ % & * & = - # * = = = ; = > > > , , ' = ) ! ' ; ; = = , ; = ; ) ! ~ ! ! ! { ] ^ ^ / ( _ : : : : : : : : : : : : : : : _ < ! ! ^ ^ ^ [ ^ ] } ) ! ! | ! ) = = 1 = ! = = = = , = = = = ; = = = = = 2 * * % 3 * 2 - - * # -   + 4   5 #   6 7 ",
"8 9 0 9 a b c d a d e e f g e h i g j k j l m n o o p q o n n q q q j r s s q q o q t u v p v w x w x y z A z B C D E : : : : : : : : : : : : : : : E F G H B C I A y y s p x G x q o o r k q G v t q o p J J q t s q J K K L M N O g g g O l j j g e i d 0 a d P P P 0 ",
"Q R R S S R T S U S V V W W X S S T Y Y Z Z Z Y Y `  . ....... .+. .@.Y #.$. . .%.+.#.$.#.&.*.=.-.;.-.>.,.'.).!.!.~.{.: : : : : : : : : : : : : : : ].^./.(._.,././.:.-.<.#.=.;.=.[.[.#.#.#.}.&.#. . ...|...[. .#.#.[.1.+.+.2.3.Y Y Z @.W @.4.Y 4.W V W W S 5.S V V V R ",
"6.7.8.9.0.a.9.0.9.9.b.b.c.b.9.0.a.9.d.d.c.d.d.d.e.f.g.g.d.g.g.g.g.h.e.i.j.h.j.j.j.h.h.j.g.g.g.j.j.k.h.l.m.n.o.p.q.r.s.: : : : : : : : : : : : : : : t.u.v.w.x.y.z.A.A.A.k.j.k.A.A.j.h.h.h.h.A.B.j.g.j.d.i.g.j.j.k.k.j.g.j.j.g.g.g.g.g.i.c.c.g.g.i.c.b.c.c.9.9.8.a.9.9.8.",
"C.D.D.E.F.G.D.F.H.D.D.D.D.D.D.D.I.J.K.D.J.D.D.L.M.J.F.F.H.K.D.H.D.I.D.H.D.L.I.N.D.J.D.H.O.P.A.B.P.C.D.D.Q.R.S.T.U.~.V.: : : : : : : : : : : : : : : W.X.Y.,.Z.`. +.+H.H.F.P.P..+D.L.M.++@+N.L.@+M.J.D.J.D.J.#+@+L.J.J.J.I.$+%+%+M.@+I.N.D.J.J.D.K.&+D.K.K.H.E.E.O.*+*+O.",
"=+-+-+;+>+>+,+'+'+'+=+=+-+=+u.u.u.q.)+)+)+v.v.!+~+{+{+{+]+^+^+^+/+/+{+{+(+T T W _+2.:+_+Y =.:.!.<+[+!.}+|+1+(.L 2+3+4+: : : : : : : : : : : : : : : 5+6+7+|+8+9+0+a+b+c+d+,.!.:++.&.&.#.$.+.e++.S ]+f+]+/+g+^+T h+(+i+{+!+{+{+{+p.j+v.j+v.!+)+-+,+w.)+)+-+-+,+'+k+'+l+,+",
"=.-.(.=.+.+.m+n+m+o+&.&.+.%.#.&.#.2.@.@.@.p+2.+.o+q+-.-.(.-.}+-.q+q++.+.-.,.,.,.!.r+0+d+!.s+L t+u+2+v+2+w+x+y+z+A+B+C+: : : : : : : : : : : : : : : D+E+F+G+_.H+I+J+K+L+u+M+7+N+O+N+[+P+Q+!.,.!.}+n+(.(.R+a+a+S+R+}+q+$.+.S.T+S.p+2.T+(.R+(.o++.o+q+q+q+o+$.+.+.+.+.+.+.",
"&.U+!.,.V+>.>.(.>.a+a+-.$.+.$.m+W+u+L+X+L+Y+Z+v+I+`+ @.@+@@@#@@@Y+.@Y+.@$@%@&@*@=@-@;@>@,@=.t+'@)@F+Y+ @!@~@Y.'@{@W+]@: : : : : : : : : : : : : : : ^@u+)@/@(@@@.@`+_@:@<@F+!.).[@}@-@|@&@1@2@3@ @.@+@4@+@3@`+ @5@6@I+K+Y+7@J+5@5@8@v+L+0+-.(.q+q+o+o+n+-.(.q+q+&.&.m++.",
"X.9@0@a@O b@c@h g g a@s+d@c@e@d@V+p L+L+u+v+F+A+Y+@@@@Y+f@@@g@w+Y+h@Y+Y+_@i@i@i@=@j@k@l@m@n@2+A+o@2+A+p@q@r@s+s@t@u@v@: : : : : : : : : : : : : : : w@x@t@y@z@q@!@A@w+v+w+Y+B@6+(@2+C@=@4@A@D@E@ @F@3@i@4@!@D@@@Y+I+7@7@<@A+G@Y+5@K+H Q+e@0@m@H@T.(@X.I@J@h s+g e@e@K@U.",
"U.M+M+9@L@0@0@M+t+t+t+M@L@M+L L@T.=.8@7@A+K+K+K+Y+N@A@+@3@i@3@A@O@_@@@P@3@-@*@Q@Q@R@S@T@U@V@z+)@)@'@s@W@X@Y@J@{@Z@`@ #: : : : : : : : : : : : : : : .#o@w+Z@+#@#X@q@##2+$#t@%#L@&#z+*#@#=#-#4@4@3@D@i@;#i@=@i@>#D@w+Z@w+Y+h@t@@@@@4@Q+b+t+2+,#a@U.d@'#a@L M+L@M+M+L@a@a@",
"e@,#u+L L M@M@,#u+u+,#u+,#t+u+,#s+'.)#!#A+Y+Y+K+~#4@;#=@{#]#X@=@X@>#>#A@X@*@^#R@*#^#S@/#{+V@G+h@t@(#_#_@*#y@J@t@D@M  #: : : : : : : : : : : : : : : :#<@~#t@<#X@[#{#(#'@!@<@X.S+}#G+|#p@=@^#=@1#=@4@*@=@;#2#^#R@=@4@3#3@E@w+t@_@+@4#N+J@z+A+2+5#a@6#7#O 8#t+t+t+M+M+,#O ",
"O 2+x@u+z+2+2+7+7+u+,#z+2+z+z+,#O X.9#0#Y+ @~#Y+F@3@a#b#c#b#]#^#R@=@=@=@=@1#b#b#d#e#f#g#p+h#i#t@Z@t@t@j#X@Y@0@w+_@M k#: : : : : : : : : : : : : : : l#t@_@t@m#X@*#3@w+w+{#{@'#(@n#s@^#i@R@[#^#2#2#o#b#=@=@p#p#c#b#^#1#=@;#3@w+ @3@q#[+a@2+v+r#8#s#h#,#M+t#u+u+z+u+,#7+6+",
"L 7+2+,#,#z+2+u+,#7+u+u+z+2+u#u+L@B@|@v#@@_@3@3@4@=@=@2#p#b#]#^#w#^#^#]#R@[#b#w#x#y#z#A#8+,#t+t@p@A@Z@_@Q@y@M+B#_@K C#: : : : : : : : : : : : : : : D#t@O@w+E#q@p@!@Z@_@;#Y+a@%#F#A+w#G#H#R@w#I#p#J#K#R@=@b#L#M#K#c#c#2#*@A@~#_@4@N#K@O O#O#,#u+,#,#u+t+t#2+u+u+P#z+u+6+",
"L 7+z+M@M@,#2+2+u+u+Q#,#,#z+v+)@t#c@R#-@@@3@;#=@b#j@2#2#b#^#A@=@^#p#d#]#^#d#w#x#w#S#T#U#V#M@O <@p@@#p@>#X@/@O W#O@H X#: : : : : : : : : : : : : : : Y#w+O@t@Z#`#k@y@k@@#X@ $x+d@>@'@d#b#Q@.$L#+$c#@$#$x#R@d#w#L#M#M#p#p#b#3@~# @4@$$b@L 2+z+z+%$L@%$M+&$,#z+u+x@z+u+K L ",
"9@M@2+t+M@*$x@v+L+2+2+P#t+E+7@K+F+e@=$2@~#@@3#i@1#b#|@b#b#=#O@k@@#b#^#*#b#w#]#G#x#-$;$>$V#%$a@:@j#{#O@p@p@##J@k@p@H ,$: : : : : : : : : : : : : : : '$@@>#)$_.y@y@/@p@*#i@K+!$d@>@A+p#+$R@R@x#c#@$c#M#j@*#*#=@2#w#w#x#L#2#p@Z@~#i@~$g u+v+A+v+F+,#,#,#%$h#z+2+2+2+P#K {$",
"0@L 6+L@L@M+2+v+F+7@A+]$2+2+A+A+z+9 &@a#^$t@w+Z@p@*@1#1#2#i@D@p@X@^#*@]#d#w#^#d#/$y#($U#m+_$:$:@$#A@Q@p@k@s@J@!@j#u X#: : : : : : : : : : : : : : : D#D@3@{@<$[$y@}$X@X@O@{@|$U@(@)@L#L#e#x#w#x#c#=@2#b#X@*@X@=@1#^#]#R@]#@#~#Z@i@1$a@2+Y+H+7@A+v+O#M@r#z+v+2+2+z+z+t+M+",
"M+L@O M+L@t+2+v+F+7@7@A+A+F+r#u+t+c@2@A@Y+{@h@h@{@}$=@&@*@=@A@p@i@*@i@*#]#^#2$+$e#x#H#3$n+4$O ##$#X@R@=@>#5$e@Z@_@G 6$: : : : : : : : : : : : : : : 7$_@}$8$9$`#k@p@X@>#3#t@6#n@E#:@w#M#p#c#d#d#^#=@c#j@;#X@=#@#-#=@X@0$=@*#j#~#p@a$J@2+K+ $Y+{@7@2+r#F+v+A+A+F+F+z+L O ",
"M+m@L@z+u+v+A+F+F+v+7@A+7@F+r#*$6+K@b$2@{@:@F+S+f+c$2.2.Y @.T T W @.@.2.&.0@*#x#^#w#;$d$b@z+L@t@k@e$=#^#Q@)$c$O h@G f$: : : : : : : : : : : : : : : g$$#{@+.h$X@@#@#O@_@!@t@%$,#i$7@/$p#p#d#K+S++.S.+.+.@.c$c$j$2.2.p+_+m+_@_@F+~#c#b@k${@^$t@A+v+x@F+K+7@K+A+v+v+2+t+O ",
"9@0@,#v+F+K+7@7@F+<@7@G@7@)@2+*$t+J@N N+n+n+n+n+d+!.l$(.l$V+l$m$S+!.y+).s+).4@2#d#d#n$o$p$q$G+p@@#X@X@*#Q@##r$@.h@]$f$: : : : : : : : : : : : : : : 7$w+J@c$s$|#X@@#j# $_@Z@t$u$v$^#b#b#w#x#N+Y.X.m$w$0+l$l$x$_.m$d+b+y$_.X.).z$Q+M+a@v+t@w+Y+{@K+7@7@8@K+Y+7@v+2+z+M+J@",
"J@6+u+v+v+F+z+v+)@7@I+L+L+A+2+z+t+L@v#x@,#m@[+y$O+A$J@X.Q+X.X.d+U.P+T.0@B$u 3@=@^#C$w#D$E$F$G$k@@#{#Q@{#p@H$I$m+h@L+f$: : : : : : : : : : : : : : : J$K+z+K$L$Q@>#k@j#w+j#M$N$O$P$Q$c#R@*#2#R$`+6+).b+X.P+K@).'.[+J@8@c+b+a@O u+J+2@2+'@h@Z@^$K+Y+K+Y+7@G@G@A+F+2+z+L@n@",
"[+0@u+L+z+z+t+u+]$K+7@7@A+{@2+z+s#d@0#2+8#L@9 Y.S$T$d@g U$V$}.W$X$ .S$,.F+,#3@H#H#e$d#Y$Z$`$ %.%k@p@j#j#y@+%K$m+{@B$,$: : : : : : : : : : : : : : : g${@'@z$@%3#k@y@Z@y@p@#%$%%%&%d#X@>#C$2#a@^$0+S$3.O+T$}.*% .d@a@R$[+K@9@t+P#J+3@M@v+<@Z@Y+Y+Y+Y+K+v+v+x@2+z+u+t#M+U.",
"c+h#O#O#u+z+*$u+v+K+t@<@7@K+:@z+h#d@2@A+k$J@=%R$Y.-%!.9@,.U$;%>%,%'%*.)%{@L@D@X@H#q@|#!%~%{%]%j#D@Z@t@_@t@^%I$+.K+I+,$: : : : : : : : : : : : : : : /%t@v+z$o+>#`#j#Z@.%>#(%_%:%<%[%q@q@Q@x#J@Y+|+=%O+,.*%c+}.S$Y.K@S$0@0@O+c 2+v+4@L F+)$w+h@Y+w+Y+t@A+8@v+z+,#u+2+t+Y.",
"!.t+2+F+F+2+F+2+)@F+{@{@t@K+Y+{@z+|+|@Y+z+8#9@O+R$}%|%b+K@P+U+1%O+2%1%a+O#,#F@Q@C$q@Q@!%3%4%5%y@_@$#$#Z@Z@6%I$:+6@7%8%: : : : : : : : : : : : : : : 9%t@v+m$&.p@>#p@`#p@p@;$0%a%b%z#c%q@|#d%a@w+d+e%l$N+W+T$f%<+a@X.L u+f%R$F+2+^$2@t+'@K+t@t@t@Y+^$@@w+H+7@x@,#u+A+z+[+",
",.L 2+2+2+v+v+u+F+2+F+F+A+t@t@h@F+a@=$Y+z+z+O#9@!.J@g%S$J@t#Y+h%`+4@.@F+h@z+F@Q@C$e$C$i%j%k%l%j#k@y@/@Z@~#z+I$3.I+B$m%: : : : : : : : : : : : : : : n%K+F+R++.W@>#p@}$>#@#(%o%p%q%z#e$e$Q@^#O F@A+h@)$Y+H+J+A+t#9 u+z+c s+A+F+F+@@-@t+z+{@t@t@t@t@t@^$K+ @^$A+F+v+v+2+[+",
"d+6+]$v+)@Y+A+u+F+<@K+)@v+r%s@<@'@a@%@H+:@F+F+{@0@,#Q#&$7#r%Z@Z@Z@!@k@/@/@h# @R@R@H#T#s%t%u%v%p@@#j#y@y@h@z+I$@.7@J+m%: : : : : : : : : : : : : : : w%t@F+(.+.W@q@q@k@p@X@;$x%y%z%z#Q@e$T#1#d@h@_@A%y@@@}$~#t@{@a@F+<@u+t@(#{@<@y@B%L@,#:@)@{@)$K+K+A+z+Y+<@v+v+A+J+2+U.",
"l$M+z+2+7@h@h@F+'@<@)$)@F+F+s@s@F+L@-@@@A+{@{@Y+h@O#z+,#4${@Z@_@~#$#.%/@h@5#D@X@*#0$C$C%3%D%v%{#i@>#}$h@h@z+o+c$v+G@m%: : : : : : : : : : : : : : : w%Y+F+(.+.W@k@k@y@k@|#E%F%G%H%d#I%e$@#-#a@y@j#k@y@}$}$O@h@{@O A+)$t@w+t@8$h@O@;#t+6%s@{@{@J%)${@:@F+A+{@F+2+A+L+z+Y.",
"X.m@*$k$7@h@^$t@)@)$)$8$6%'@'@6%6%r#u+Y+t@/@Z@_@k@h@<@'@,#t@_@`#3#k@y@K%K%L%Y+O@A@3#Q@M%N%O%P%=#=@A@p@j#A%O#q+_+v+v+Q%: : : : : : : : : : : : : : : R%;@S%T%#.W@j#k@k@X@H#U%V%W%X%d#.$e$e$R@a@y@>#>#p@p@j#j#h@t@L@t@t@t@w+Z@)$t@_@A+h#:@{@{@s@s@s@)${@A+{@v+'@v+v+x@r#e@",
"Y.m@M@,#F+'@<@h@:@6%6%s@{@h@)$^%G+8#H@h@{@t@Z@y@y@j#!@{@5#h@Z@A%`#Y%.%##(#6#Y+j#B#{#Q@Z%N%`% &@#*#=@@#>#j#:@n+@.v+L+m%: : : : : : : : : : : : : : : .&h@O#n+}.W@p@p@@#e$e$(%+&@&#&d#[%$&e$1#'#y@>#q@>#W@j#Z@w+t@M+h@Y+Z@_@_@t@w+ @e@9+s@%&)@:@s@{@{@)$'@'@u+z+z+z+u+M@J@",
"&&0@O 5#,#G+6%s@:@z+F+8$(#)@h@6%s#G+L@w+{@r%h@Z@Z@k@p@(#*&t@Z@Z@.%y@.%####b@{@_@B#W#X@L#=&-&;&q@X@X@i@W@Z@F+q+W A+v+m%: : : : : : : : : : : : : : : .&t@u+q++.Y@A%A%>#e$T#>&+&,&'&.$q@k@q@1#:$)&e$e$p@y@y@w+t@{@t+w+Z@y@_@w+)$t@D@%$%&:@6%8$:@s@)@s@K%:@z+%$M+t+M@t+M+O ",
"L M+L@L@h#9+O#)@8$%&s@r%8$_#!&6%s#~&G+w+{@{@h@Z@p@A@i@)$s#(#Z@y@.%/@/@K%##6#v+$#_@_@@#p#{&]&;&>#i@;#A@}$y@F+q+c$A+A+8%: : : : : : : : : : : : : : : ^&)$r#o+e+w+/@/@p@X@C$U%+&/&'&.$$&q@@#1#a@j#H#e$>#y@Y@h@##_#Q#<@t@y@_@h@{@{@D@s#6%6%:@~&~&s@(#(#s@s@r#L@_$,#,#L _$9@",
"(&L@L@,#,#G+F+<@:@6%:@:@:@r%s@O#i#~&G+Y+K+)$Z@Z@}$>#@#h@s#)$Z@Y@Y@Y@_&K%K%a@<@Z@/@/@@#p#:&<&[&0$;#i@!@k@y@x@q+@.A+A+8%: : : : : : : : : : : : : : : }&t@7+o+3.|&h@t@k@q@Q@1&F%2&b%R@k@>#e$^#0@}$@#3&e$$&Y@/@##(#4$s@/@w+j#h@(#h@_@5#z+:@)$_#'@s@'@:@s@)$z+t+u+z+u+M+M+(&",
"g L@0@t+h#,#O#{@{@8$s@:@:@s@'@'@G+s@6%.@K+)$w+y@_@!@p@h@i#K%)$K%/@Z@/@####6#t@Z@(#h@A@x#4&5&6&@#4@A@}$y@|&O#q+@.7@A+m%: : : : : : : : : : : : : : : = K+u+o+2.h@h@##j#>#X@#%7&8&<%C$`#>#X@2#a@}$X@=#>#k@/@##)$(#%${@/@/@k@h@_####@h#6%O#{@s@(#)$6%6%{@w+F+r#*$u+t+6+L@9@",
"s+0@O %$t#z+z+O#G+s@:@s@s@s@s@_#:@6%G+Y+{@)$t@w+}$p@p@h@i#:@##|&;@Z@/@_&s@'#{@w+h@W@{#q@9&0&a&$&p@O@_@_@/@r#q+b&{@L+c&: : : : : : : : : : : : : : : d&{@t+m++.y@##(#_@p@e&f&g&h&i&X@@#p@Q@2#J@j#A@@#@#}$Y@_&{@_#O r%##h@_@##s@_#@@r#6%6%s@^%s@{@s@'@K+h@'@z+u+t+t+M+M+c ",
"c 9@O _$z+O#G+,#j&z+s@_#s@{@:@s@G+z+z+6@~&'@t@y@p@!@!@t@i#{@t@;@Z@[$##k&s@b@'@Z@/@}$q@l@l&m&n&Y@}$O@_@;@##z+q+W A+L+c&: : : : : : : : : : : : : : : * A+t+n+e+;@h@h@y@y@;@H$o&p&q&)$@#W@@#*@m@}$p@p@>#k@|&|&##)$J@:@{@t@y@t@6%{@^$,#s@z+s#s#9+:@{@{@{@)$O#z+t#,#t+_$0@K@",
"X.J@L@_$%$h#h#r&9+G+z+:@{@)$:@s@G+:@F+.@)$s@)$p@!@W@W@##s&|&w+Z@k@y@##(#s@i$'@Z@h@y@Q@t&u&v&w&t@w+@@w+Z@h@M@+.T A+S%c&: : : : : : : : : : : : : : : x&!&M+q+@.;@;@Z@@@w+##y&z&A&B&q@>#y@q@=@a@}$p@Z@k@Y@;@;@;@{@s+'@r%(#w+<@:@)$6@9+:@z+9+s#r#F+'@'@A+{@t+M+h#%$h#_$0@K@",
"b+m@m@b@O h#r#z+z+z+:@{@)${@'@)$s@6%F+5@{@z+{@_@}$}$k@{@i#y@y@Y@W@Y@##_#s@b@)@|&##Z@C&.$D&E&F&_@ @Z@h@h@h@0@+.W '@x@G&: : : : : : : : : : : : : : : 2 A+6+o+Y !@k@}$}$y@H&I&J&K&L&=#p@y@p@*@n@y@k@)$_&A%Z@##|&{@J@t@h@{@h@{@(#)@I+s#6%^%%&6%6%O#6%O#t#F+,#O a@L@_$t+M+e@",
"N+b@J@J@L@,#z+z+O#{@)$)${@J%'@)$K%6%z+I+s@z+!&;@j#k@y@J%s&/@k@k@`#y@h@##K%!$'@h@h@w+p@x#M&N&O&`#p@_@K+t@<@O +.T v+2+G&: : : : : : : : : : : : : : : P&{@6+o+Y  @}$h@y@}$|&Q&_%R&S&@#>#}$!@=@b@Z@y@K%K%h@Y@####)$a@K+Z@)$##{@h@)$Y+9++%^%F+{@s@6%z+z+z+z+h#L@O O ,#,#M+U.",
"0+n@b@a@r&z+6%r#s#z+s@:@9+6%:@A+K%6%G+J+A+G+##y@y@F@y@F+%$)$;@;@A%$&y@h@s@b@'@t@h@w+!@L#T&U&V&Y%3@D@Y+h@)@a@S.S v+W&G&: : : : : : : : : : : : : : : X&'@6++.@.@@h@)$w+F@y@Y&Z&`&'&c%@#p@p@3&K@h@|&##K%/@Z@/@/@s@b@{@t@t@##s@(#h@h@,#6%^%O#A+A+)@:@F+z+z+r#8#a@L@t+,#M+K@",
"'. *U@|+,#s@s@r#s&G+G+6%i#s#O#O#6%6%,#L+S%z+)$y@_@}$w+z+|$6%{@)$##h@##(#:@i$A+h@##/@W@R@.*+* %y@k@Z@Z@t@{@a@T+f+S%x@G&: : : : : : : : : : : : : : : @*F+M++.@.w+)$K%h@;@y@o$#*$*%*c%3#_@!@&*e@##w+|&h@/@h@##)$6%n@K+^$)$s@s@s@h@6@%$z+O#z+x@'@F+A+v+O#,#r#k$t+h#h#L@L@K@",
"w$U@b@a@,#:@6%r#^%:@8$s@s#9+z+G+O#z+,#L+A+'@'@h@t@|&)$9+!$6%:@_#K%K%H&:@+%6#z+s@{@h@y@C$**=*-*h@Z@t@)$t@)$L@S.f+'@u+;*: : : : : : : : : : : : : : : >*F+M++.@.w+{@s@t@Z@Z@,*#*,&%*($=#;@k@i@'#K%t@##_&w+(#s@K%6%n@h@h@<@)$:@6%Y+8@r&G+O#6%:@z+z+F+x@k$r#O#z+t#,#s#O 9@U.",
"N+e@'#L@,#z+^%^%6%{@t@##:@:@:@^%z+r#,#v+7@{@:@'@:@)$A+%$:$6%6%z++%~&_#h@H&6#_$^%)$)$h@T#'*)*!*)$h@t@t@##h@M++.h+S%,#;*: : : : : : : : : : : : : : : ~*A+L +.X F@##s@)$h@Z@{*]*^*/*c%>#y@Z@A@'#)$h@##)$(*{@K%s@~@d@<@h@{@s@F+:@K+Z+0@G+~&{@'@,#z+O#z+r#O#O#t#z+u+%$L@|+Y.",
"<+a@a@a@M+8#z+*$6%)$t@<@)$s@A+O#z+G+s#v+A+'@'@'@{@w+I+%$'#^%9+s#9+G+{@|&+%<#M@s@##)$h@=@Z$_*:*K%##h@h@h@h@%$+.S x@L ;*: : : : : : : : : : : : : : : @*A+L o+c$y@h@:@s@)$h@<*[*}*[&q@}$A%!@C&V@!&Z@t@6%)$s@A+s@^%K@K+t@'@'@6%F+F+I+h#F+)@K+A+t#8#u+z+O#F+z+u+O#,#L@a@J@H@",
"[+a@a@|$L@%$M+%$z+:@s@)${@:@F+6%G+^%h#|*S%O#O#'@)@h@K+h#U@^%6%z+G+G+t@h@1*2*z+<@h@_#w+4@3*4*5*A+K+{@)$####5#S.S x@7+;*: : : : : : : : : : : : : : : 6*'@t++.X ;@##:@)@t@(*r@7*8*9*p@Z@Z@!@3#X.A+w+t@^%s@{@J%F+9+e@7@{@z+:@6%z+F+6@M+t#z+{@F+r#,#9+z+F+F+z+z+2+,#M+J@b@[+",
"<+s+a@a@'#L@a@a@s#z+G+'@'@F+:@F+r#^%%$x@x@z+6%F+A+!&s@%$'#O#:@:@9+%&)$s@U@_$K+Y+t@t@^$^$0*a*L@s@{@##)$h@{@L@%.T S%u ;*: : : : : : : : : : : : : : : b*A+M@S.X y@;@##<@h@w+F+c*d*A+p@W@##h@@@I+H@v+)$G+1*s@s@s@s@J@A+{@:@F+:@z+F+L+a@,#z+v+z+r#O#t+,#z+z+u+r#r#,#h#'#b@b+",
"<+J@m@b@d@a@L@%$%$,#9+z+{@s@s@6%G+G+5#W&v+z+z+'@'@s@s@h#'#s@s@!&|$a@:@'#e@v+H+Y+K+)$I+N+T o+(&!&t@h@/@|&t@t+%.e*7@u ;*: : : : : : : : : : : : : : : f*7@0@+.@.y@|&/@w+_@_@A+}+:+}+^$_@(#/@_@ @2+K@F+%$H@z+:@{@s@s+'@'@'@'@O#G+F+F+L@8#z+O#,#G+G+,#%$h#,#,#h#h#%$L@b@e@b+",
"N+'#a@b@d@'#x+h#,#9+G+r#:@!&!&6%6%z+%$x@z+*$z+O#:@A+s@s#'#+%{@z+x$_$e@R$r#h@w+@@^$6%H@{+2.,.6@|&t@/@;@;@h@g*+.X A+u+h*: : : : : : : : : : : : : : : i*A+O +.b&w+|&w+y@k@!@D@s+=%{+,.h@h@|&w+F@@@M@)%z+Q+m@'@F+z+c x@6%6%F+6%G+6%A+L@,#:@O#5#s#i#x+|$x+h#,#,#,#L@a@e@K@'.",
"N+b@J@7#6#|$s&^%z+9+9+9+'@J%{@:@z+r#a@r#h#%$s&s#6%F+:@%$U@6%r#0+0@L%d@O#s@)$@@^$A+e@j*T+U$O#{@)$h@)$h@t@)$a@+.W z+7+k*: : : : : : : : : : : : : : : l*)@J@:+b&h@##y@j#y@Z@!@@@U.=%m*U+{@K+h@Y+@@)$6+U.M@n*|+,#9+K@F+'@~&z+^%O#z+F+a@,#O#F+h#%$5#!$a@a@t+k$z+8#M+O U@o*y$",
"0+b@a@a@a@%$,#r#z+G+,#9+:@A+F+z+9+,#L@M@%$a@|$8#6%6%F+h#p*%$d+s#L@q*{@)$s@)$w+h@9@/+@.,.r*:@z+:@t@+%K%{@F+a@+.V z+s*t*: : : : : : : : : : : : : : : u*v+n@T+b&6@K%/@/@Z@y@h@K+6@[++.{+0+v+@@^$;@h@'@m@Y.M@,.H@i#d@F+O#G+9+1*9+,#F+a@h#,#O#z+s#%$!$a@'#,#z+z+h#h#O e@H@'.",
"[+e@a@a@L@%$s#,#,#G+r#z+s@'@O#G+9+s#L@M@%$h#s#z+z+z+s@g*d@l$a@|$v*G+h@)${@)$w+y&w*x*l$S%6%:@s@s@K+A+!&6%M++.2.3.L+6+t*: : : : : : : : : : : : : : : y*v+R$:+c$Y.r#_&####;@t@)$A+h@<+q+z*A*Z@h@w+J%<@'@d@[+&&=%%$K@,#9+^%9+r#h#h#O#'#5#M+^%G+^%9+5#L@L%,#9+r#a@L@a@a@U.b+",
"Y.L%a@O a@M+,#9+9+t#z+z+F+F+6%G+r#,#x+M@h#z+z+,#9+^%6%M+H@_$a@b+h#O#)$:@Y+~#B*C*D*E*v+I+z+6%####h@h@K+,#3.c$&.F*G*6+t*: : : : : : : : : : : : : : : H*S%Y+l$_+v.H@J%/@/@A%Z@h@O#6@@@I*J*K*L*j#@@'@)$K+s@V@H@&&,#}%%$9+^%z+z+8#M+z+U@a@a@s#s#z+G+%$x+!$s#s#r&m@'#U@a@d@b+",
"q*m@L@L@a@%$s&,#^%r#r#r#G+z+9+h#s#h#a@*$s#1*z+h#,#,#^%h#6+&&x$r#:@6%F+:@h@M*N*O*P*Q*K+7@'@K%)$_&t@t@x@+.f+m+6+A+F+6+t*: : : : : : : : : : : : : : : R*S%h@{@m$c$j*J@h@(#/@}$;@)$7@g@;$S*T*U*V*Z@A+J%s@K%!&b+Y.2+H@h#G+9+1*9+9+,#k$d@a@6#i#i#1*s#%$x+a@h#s&%$x+a@a@'#d@v*",
"X.a@%$h#a@0@r&9+z+z+G+,#h#9+i#x+x+%$6#M+h#r#h#L@,#r#h#X.[+0+%$8$z+G+6%{@W*X*Y*Z*`*Y%Y+h@{@:@J%{@)$S%}.~++.0@K+K+F+6+t*: : : : : : : : : : : : : : :  =:@K+##(*S+h+(+_${@h@|&##;@t@h@p@.=+=@=#=$=)@A+:@z+!&O#Z#f%b+a@9+s#z+z+5#s#,#d@'#'#|$L@s#i#a@a@|$s#h#h#r&5#'#U@d@X.",
"b+a@M+,#h#%$9+s#8#9+,#s#,#s#s#x+a@%$:$u+M@r#h#s#*$M@H@N )$+%F+G+z+z+~&%=&=/&*===S@w+t@_&##{@K%s@6%m+!+-=e@7@)$)$6%6+t*: : : : : : : : : : : : : : : ;=)@t@s@t@A+m$h+f+a@)$h@)$_&|&|&w+p@&%>=,='=i#:@O#z+:@6%O#_&r*[+L@s#t#G+%$s#)=b@O L@x+5#5#i#a@a@_$s#%$%$5#L@0@m@e@X.",
"X.a@,#r#r#s#s#%$s#s&%$_$h#9+G+i#a@L@b@*$)=z+9+^%h#d@9@&&O#'@z+h#6%6%~@!=~={=]=M$F@^$h@####+%+%F+(.!+2.e@{@s@:@{@F+6+t*: : : : : : : : : : : : : : : ^={@h@)$##)$S%(.f+T u+A+K%H&;@y@;@w+`#/=(=_=:=<=s@F+F+z+6%F+|$)%v*a@r#,#%$_$z+'#%$,#s#L@L@x+L@a@L@,#i#h#h#h#L@0@m@)%",
"X.a@,#M@M@h#h#L@5#5#%$|$x+5#s#i#x+L@e@L k$,#r#s#e@%$_$r#z+z+G+G+6%y&[=}=|=1=M$)$t@t@####{@'@'@l${+p+Y.!&'@J%{@K%F+6+t*: : : : : : : : : : : : : : : 2=t@w+h@##{@K+x@}+]+@.*$'@'@)$j#y@h@(#y@3=4=5=6=7={@A+G+z+z+z+m@a@).L@,#,#s#u+b@%$,#,#%$5#a@6#a@x+%$5#,#M+%$a@m@J@Y.",
"N+'#h#r&h#M+L@x+x+5#5#%$i#L@%$9+%$%$:$*$,#s#,#d@8=a@9=^%G+z+6%G+y&0=a=b=]=<*##K%t@_&)$h@{@A+Q+j*:+[+{@(#'@!&##)$:@0@t*: : : : : : : : : : : : : : : ^=K+^$|&/@)${@6@M@o+(+3.k$'@6%)$|&##K%##y@c=d=e=f=g=s@O#^%M@h#,#e@s+<+h#s#s#x@n@r&%$,#h#L@b@b@a@6#'#O %$L@%$L@a@b@X.",
"b+e@L@0@M+s#%$L@%$L@s&s#s#%$s#r#s&h#b@z+s&s#s&b@6%!$s#^%r#F+{@h=i=j=5&k=l=)$6%K%(###)$h@G*)%/+m=n=K+F+s@{@K%)$)$s@9@o=: : : : : : : : : : : : : : : p=t@w+h@y@t@s@s@(*L +.{++.O#J%+%####{@s@_#q=r=s=t=u=v=t#6%,#,#,#m@F+d@t+x+s#S%e@a@L@%$,#L@'#!$!$|$a@%$s#h#L@a@'#U@b+",
"Q+R$a@L@%$s#5#L@L@%$%$s#5#%$,#8#r&L@A+'@r#9+h#j&^%d@s#r#z+6%w=x=y=z=A=B=_#'@O#K%(#s@)$##Y.C=@.0+6@'@^%s@)$##t@t@s@e@o=: : : : : : : : : : : : : : : D=A+(*h@Z@##)$+%F+^$_$2.E=&.O#+%+%{@t@K%{@s@F=G=H=I=J=K=G+s#,#,#b@F+m@%$a@%$O#L+i$a@a@%$x+4$a@x+a@a@L=h#L@a@m@'#b@!.",
"c+K@a@t+,#h#L@L@L@L@L@5#x+%$%$r&h#a@O#)=h#%$%$'#i#N+|$r#8#~&M=N=O=P=Q=##s@6%^%_#)${@'@J@j*X !.A+s@^%G+6%'@t@h@)$z+c+: : : : : : : : : : : : : : : : R=z+h@|&t@(#{@s@^%{@^$S=_+T=:.O#_#/@{@)$)$6%)$q=G=U=V=W=X=%$9+h#d@a@b@5#x+x+u+z+_$a@'#a@a@L@O L@x+4$a@O J@|+'#a@'#).",
"b+}%9@t+h#t+%$a@J@a@L@|$5#x+%$%$L=d@5#h#a@d+m@a@'#w$L@h#s&Y=Z=+*`= -_&'@6%O#+%J%s@+%m@h+T .-X+!&6%s#9+:@J%K+!&G*M+=.o=: : : : : : : : : : : : : : : +-n@A+h@####{@s@s@{@S%6@Y.X @-!.:@|&t@K%##{@:@:@{*#-b=7*$-|$O#t+H@q*%#r#(.i$L@,#e@b@a@'#b@O O a@0@0@a@|+J@a@a@m@m@%-",
"<+R$O L@%$O 5#a@!$a@x+s&x+!$|$i#i#e@%$%$o*T%M+a@!$d+L@M+&-*-=---;-H$:@~&z++%K%K%6%_$X f+a+Y+A+6%:@9+^%)$!&!&O#k$>-e+,-: : : : : : : : : : : : : : : '-&.*$'@)$(*K%6%:@s@O#'@h@b+W m*c+t@_&s@)${@s@z+6%{*)-!-~-*$u+,#H@U.U.%$S+x$|$%$s+J@J@a@|+a@a@L@L@h#%$a@m@a@J@a@s+).",
"3+Y.b@a@a@a@a@4$a@a@L@x+:$i$x+%$5#m@g*s#q*_$*$L@p*V$L@,#i#{-0*L=F+z+r#1*^%s@(#K%G+U@Y &.]-F+z+O#6%^%G+K%G*6%'@d+o+^-/-(-: : : : : : : : : : : : : : : _-a+O#A+K+s@6%6%s@6%,#O#I+q+_+,.F+5$:@)$K%6%9+k$O#:-<-[-,#7+_$o*%#d@,#%$'.h#,#m@U@!$|$b@'#b@a@x+4$a@a@m@'#|+a@:$<+",
"}%b+v*q*[+q*o*}-o*U@ *o*o*|-U@U@o*L@9+M+z+,#x+b@'#[+h#9+L@1-2-}%u+9+j&s#9+6%6%+%z+d@m+:+M M@9+^%6%+%%&A+S%6%t@n#3-4-5-+.6-: : : : : : : : : : : : : : o=7-h@##K%J%6%+%O#O#s#h#h@2.T+&.'@{@:@6%~&G+s#M@,#J@S.h+c M@h#U@Y.H@h#s&O#r#*$s+v*d@b@}-(@o*d@o*d@%#U.%#(@o*X.X.Q+",
"S$6@4@8-(*K+{@)$Z@F@!@F@9-|&)$!&'@(**$0@s&,#%$e@'#[+h#v+u+0-:+}%2+z+G+9+G+6%6%s@:@H@m+@.0@k$z+,#1*6%a-O#'@O###b-c-d-e-f-g-: : : : : : : : : : : : : : : h-q@(*!&'@^%6%^%^%9+%$A+j$:+=%v+'@'@G+6%O#9+M@u+s+:+^+}%M@,#b@Y.v*h#r#z+z+r#z+h@@@w+;@Z@.@Y+K+Y+H+5@5@8@g@C&i-O+",
",.6+S%2+u+u+r#r#z+F+G*'@O#,#9+r#t+G*^%s#s&,#,#s++.!.k${@k$c$j-Y.s@s@6%z+G+~&^%6%{@U.q+_+(&)=*$9+s#^%O#F+k$^%H&k-l-m-n-o-p-: : : : : : : : : : : : : : : q-r-K%G+F+O#O#O#s#i#h#F+j$o+*.L+O#O#z+O#6%9+s#s-:$T+^+N+M+t#d@@.).,#r#z+r#u+L F+v+v+v+L+2+u+z+z+2+2+2+z+x@A+7%U$",
"(.c M@r#G+r#k$r#h#r#z+^%G+O#O#r#h#F+z+,#r#,#*$|+_+d+z+2+6+h+-=t-u-v-w-1*+%s@^%9+'@[+o+_+J@,#^%^%s#9+9+,#d+:$r@!=x-y-z-A-p-: : : : : : : : : : : : : : : B-C-^%@.O#^%G+1*%$x+i#O#c$j-*.k$6%6%s@'@6%1*D-E-F-+.h+-%M@,#%#h+N+,#z+r#z+z+t+O#2+2+F+z+,#z+S%,#M+M+M+M@M@2+|*-.",
",.9@u+O#z+8#z+*$M+,#r#z+z+F+A+z+r#z+z+z+9+*$s#d@p+a+M+s#6+c$I$G-H-I-J-1*G+:@^%j&F+X.j-_+J@h#G+9+s#z+O#M@z$U@Y@!=K-L-M-N-p-: : : : : : : : : : : : : : : B-B*6%r$s@O#s#s&i#L@h#O#T +.+.*$r#s@s@6%^%%=O-P-Q-n+j$X.M+M+v*2.O+,#z+,#r#,#M+r#F+z+O#z+t+,#z+M@t+5#h#M+M+u+2+>.",
":.e%M@k$*$u+r#r#%$r#r#r#6@6%r#z+z+*$,#,#h#h#%$H@p+(.O M+L c$R-S-T-U-V-9+9+:@O#9+S%[+q+@.R$h#z+z+O#6%:@k$d+e@W-X-Y-Z-`- ;p-: : : : : : : : : : : : : : : B-.;'@p+!&F+9+s#s&s#9+S%h++.*.z+S%6%s@'@z++;@;#;$;n+W X.M+M+[+2.0+M@,#r#,#M@J@t+2+O#r#,#%$h#,#6+0@O O L@_$t+z+}+",
",.R$s*M@M@7+7+L@%$r#W&u+k$h#h#,#t+M+*$z+h#M+M+d@p+S+M+r#6+_+(.S-%;&;s-h#%&s@:@^%A+Y.}+_+R$h#z+z+F+F+'@2+b+'#K%/#*;=;-;A-p-: : : : : : : : : : : : : : : ;;>;+;j-!&O#O#^%~@1*9+'@T +.}+v+'@:@F+{@z+^%,;';$;n+c$Y.t+u+[+_+S$7+,#u+r#t+J@O t+,#s#L@h#z+L 6+a@0@L@O a@9@k$m+",
"(.R$K K@K@|*B$|+9@);(&s*d@d@J@H@q*s+*$z+h#M+M+q*p+,.L 8#O T n+!;~;{;~@s#z+s@z+6%'@Y.o+T R$h#z+O#S%'@O#2+6@6%_&];^;/;(;_;p-: : : : : : : : : : : : : : : ;;g=a-z+J%,#O#6%9+s#s#S%T +.=%v+'@z+:@'@6%1*:;<;[;q+@.K@z+u+[+@.[+7+r#,#,#t+s+c [+[+K@K@s+g%s+Y.S$K@s+Y.c g%};}+",
"|;,.,.m+n+-.}+}+(.a+d+(.m+n+m++.S.Q+M+k$h#,#M@e@a@0+M+8#g h+q+U.1;~&9+9+9+:@F+_#{@R$&.T e%h#G+O#O#'@O#O#!&J%Y@2;3;4;5;6;7;: : : : : : : : : : : : : : : 8;9;+%6%6%u+z+F+r#h#h#A+c$+.=.v+6%6%'@+%^%9+9+0;a@&.j$R$u+t+%#X.e@,#,#r#r#M+b+(.o+o++.+.n+}+(.m+(.}+q++.n+}+,.>-",
"O+<+U.d@s+n@b@O J@e@O J@e@s+e@U.Y.}%t+z+,#,#,#b@J@N+M+9+0@a;o+[+,#r#9+9+%$O#F+A+'@R$o+@.c ,#G+O#F+A+'@F+6%F+A+n#$-b;c;/#6-: : : : : : : : : : : : : : : d;h#6%1*6%x@z+'@z+t+,#J+@.$.=.v+{@'@K+:@^%x+h#2+J@+.b&}%u+M+U.X.[+M+,#M@8#M@[+d@a@a@|+d@d@e@e@s+O a@K@d@K@Y.q*V$",
"'%)%|+_$M+,#h#%$M+L@M@t+6+0@M+6+s+c L r#e@L@h#e@d@N+M@,#J@^+q+Y.7+z+i#i#s#^%J%F+z+e@o+_+s+M+z+r#O#'@z+F+O#A+6%s#|+e;f;p-: : : : : : : : : : : : : : : g;9@S%'@O#'@z+z+A+F+*$z+k$@.&.|;v+{@v+{@'@z+%$,#2+9@+.h+}%*$u+Y.Q+b+M@%$X.O M+q*m@h#h#L@L@L@M+L@a@M+%$O 9@J@b@b@Q+",
"Q+)%9@%$L@,#h#L@L@L@M+_$O %$h#0@a@K@,#M+)%d+7#Y.K@'.t+t+9@r$h;i$F+z+,#%$9+^%G+z+z+M+n+T+=%L@z+O#^%G+,#O#v+F+G+*$k$v*i;: : : : : : : : : : : : : : : j;(&|*r#O#A+F+h#,#'@O#,#*$'.c$q+[+v+A+F+s@z+z+,#2+L+5#L$r$c ,#M@<+Q+N+L@N+!.O L@[+|+L@h#L@%$x+M+O m@L@O _$0@J@|+K@,.",
"T$[+a@L@_$L@M+a@b@'#L@_$O L@x+a@b@Y.z+O 0@[+L@Y.o*).L M@2+9$k;l;m;1*%$%$G+h#s#s#G+^$8=(.i+&.M+z+r#r#9+z+x@'@O#F+z+|+ #: : : : : : : : : : : : : : : n;H k$8#A+'@F+,#,#O#F+t+b+j*S.b+Y+v+'@^%O#r#u+u+:@C-o;p;q;u+L L@N+d+'.t+y$L@a@%$[+H@a@L@L@L@%$L@a@b@s+0@0@L@J@b@K@!.",
").v*e@m@a@J@O a@b@O L@0@M+{$%$O n@[+M@,#a@%$_$H@b@'.L@K K r;s;t;u;v;1*r#9+h#9+9+9+O#w+|++.v.>.,#O#r#z+O#'@'@'@O#M+N+w;: : : : : : : : : : : : : : : x;_$r#F+'@6%F+,#*$k$x@H@j*0-x$I+S%O#:@z+r#9+t#z+.;y;z;A;B;2+9@0@b+b+'._$a@a@a@h#v*o*'#O J@a@a@a@|+b@b@0@O 0@0@a@e@-%",
"0+Y.n@d@d@|+J@a@a@O 0@M+,#M+t+0@e@[+L@z+L@M+0@d@z+%#L L 0@)@C;D;E;F;G;~@s#1*1*G+s#s#z+h@v*3.v.d+,#z+O#x@A+F+O#F+,#b+j;: : : : : : : : : : : : : : : H;M+S%'@J%6%:@u+z+2+e@(+h+m+L+v+F+z+F+F+F+z+G+I;J;K;L;-*##t+s+O v*0@b+a@a@a@a@%$[+d@b@a@'#'#:$7#a@a@a@O J@'#a@b@K@'.",
"s+|+d@p*o*U@b@a@L@L@L@M+s&L@a@b@p*y$0+,#u+M+J@U.r#U.L L L@L ##M;N;O;P;Q;9+9+^%1*^%9+,#r#!&y$R;!+N+r#k$x@v+O#O#z+,#Y.S;: : : : : : : : : : : : : : : T;t+z+z+'@'@'@k$z+s+S T &.7+r#r#6%z+F+z+2+r#U;V;W;X;Y;M$k$L L@a@v*L@%#a@0@a@L@Y.w$o*'#'#U@U@U@'#a@a@J@a@:$d@e@d@U.K@",
"b+q*U.%#d@e@'#a@L@a@a@L@%$a@a@a@b@%#R+n@t+M+_$R$L s+0@t+t+6+M+Z;`; >.>+>@>5$s@6%6%^%z+,#*$I+l$T v.N+6+z+F+z+F+O#_$U.#>: : : : : : : : : : : : : : : $>7+z+z+z+2+2+k$e@f+(+o+M M+s#O#'@F+z+h#F+H&A&%>&>*>=>G+%$M@%$n@[+_$d@%$a@'#m@R-(@b@a@|$%#o* *b@a@'# *U@U@q*d@n@U.).",
"N+[+%#d@b@b@J@a@a@a@b@J@a@'#'#a@b@i$q*b@t+M+M+*$m@_$H@0@t+M+L@h#Y%->;>>>,>'>+%6%6%6%z+z+M@z+S%T%h+u.'.M+u+2+O#z+a@U.)>: : : : : : : : : : : : : : : !>M@k$u+z+O#,#a@X (+}.6+k$O %$z+v+O#O#r#O#~>{>]>^>/>z+4$i#,#|$o*_$a@r#h#L@a@'#Z#p*'#!$|+(>o*:$a@O '#X.X.(@%#U.U.U.).",
"N+q*d@_>b@b@:$U@n@J@d@a@L%a@5#L@a@a@i$s+L@J@L@M@r#a@9@Y.a@h#,#,#r#:><>[>}>|>~&:@z+9+r#9+,#t+7+1>m+j*u.[+M@*$,#,#a@Y.)>: : : : : : : : : : : : : : : !>s*r#z+F+O#a@@.]++.9@u+r#L@t+z+6%9+6%6%2>3>4>5>6>6%h#J@L@%$d@|+a@%$s&L@a@a@e@v*U@J@b@'#U@b@'#'#:$i$%#q*o*o*U.U@o*y+",
"v*[+q*q*d@U.d@U@d@d@U@6#i$'#%$5#a@a@i$|+a@'#O 6+M+t+m@R$Y.L@,#r#,#z+7>8>9>0>a>y&z+,#r#r#z+,#t+k$k$b>(+!+U.t+,#*$O d@)>: : : : : : : : : : : : : : : !>M@,#z+z+M+2.i+:+K@u+7+h#M+,#r#O#'@_#c>d>e>f>g>s@L@L@L@a@|+R$H@|$L@a@a@a@'#K@%#b@b@b@:$'#|+a@b@d@d@U@U@U@U@U@n@U.d+",
"b+T.%#[+[+o*d@d@d@q*n@U@d@:$L@L@'#i$d@e@a@'#a@L@J@a@,#(&)%Y._$*$9+%$*$A%h>i>j>k>~@*$M+*$z+,#*$u+7+7+(.j*Q R$M@*$0@K@l>: : : : : : : : : : : : : : : m>L ,#,#M++.~+-=R$2+k$,#,#,#t+z+'@+%n>o>p>q>c%6%L@a@a@a@H@H@r+0@8=|+'#a@!$'#a@[+|+a@a@!$a@b@'#d@o*b@a@'#d@%#q*d@U.%-",
"N+T.[+[+o*U.%#o*q*d@U@d@U@b@J@'#:$b@d@e@a@'#a@J@e@n@M+k$s+.-N+m@%$L@O t+r>s>t>u>v>+%,#k$k$z+z+u+s*}@M }.w>(+K@,#a@H@)>: : : : : : : : : : : : : : : x>6+M+M+m+{+:+Y.x@,#*$t+u+,#k$O#J%y>z>A>B>C>O#m@a@L@a@H@R+0@m@0@|+b@m@a@b@b@|+v*e@a@a@x+a@U@d@H@q*|+:$d@o*E#v*U.%#S+",
"'.b+%#o*U@d@o*d@o*i$'#b@U@&#'#b@b@b@o*e@a@O a@7#J@e@9@K@v*e%}+N+:$a@5#O %=/*j=D>E>Q;9+k$7+,#,#M@M+M@2+J@+.v.f+s+J@U.)>: : : : : : : : : : : : : : : x>9@6+}+E=2.Y.v+M@L@M+,#z+O#z+6%U;{&F>G>H>K%a@|$a@J@U.m+d@b@'.K@U@b@L@6#:$J@b@v*d@b@!$a@b@d@d@d@o*b@i$%#%#X.(@%#X.S+",
"d+v*U.o*U@b@d@}-U@i$6#b@b@U@b@b@U@U@v*e@0@O O '#m@s+J@X.w$[+q*m+X.O t+6+_$K%I>J>K>L>b@L u+,#u+,#_$6+6+2+s+:+@-W s+U.)>: : : : : : : : : : : : : : : M>L 0+p.0-V$I+M+O L@M@M@u+r#,#L N>O>G>P>|&M+a@a@O Y.q+(>Y.o*l$d@b@J@L@a@b@'#K@[@%#b@i$a@U@o*U@d@d@b@d@%#H@U.%#o*%#x$",
"z$b+U.U@U@b@d@o*U@:$a@b@b@U@U@U@d@p*v*U.a@J@9@b@'#a@O U.).Q>Y.d@&.c+O L L h#H&R>S>T>c$K@t+h#M@7+M@t+a@0@z+[+b&v.|+H@)>: : : : : : : : : : : : : : : M>6+,.^++.I+L O _$u+z+r#M@M@M+}+U>V>W>Y@M@M+L@J@s+}+Y.|+}+q*,.d@|+J@'#'#e@J@K@F#o*U@U@L%b@d@U@d@d@b@U@V@o*%#%#q*%#z$",
"l$b+[+d@q*o*U@}-V@U@d@%#U@d@U@U@o*(@y$[+a@a@L@a@a@J@9@d@X>F*Q+d@H@&.[+L@M+L@M@F+k$(.^+b&s+0@M@M@M@6+9@9@0@d+T {+H@[+)>: : : : : : : : : : : : : : : Y>O R+T f+0@M+_$%$r#O#,#F*_$S+h+q+%$t@O#,#M+J@U.(.v*s+x$_$d@l$e@b@b@b@'#b@'#K@F#%#o*V@|+'#b@U@U@[+U@o*p*o*%#[+v*X.a+",
"a+b+%#U.[+o*d@o*U@d@o*U.U@o*o*o*%#b+'.X.n@b@L@L@a@0@6+e@E#a@L N+e@K@m+X.J@O a@t+B$6+m+f+3.s+M+M@t+L@O a@9@,.h+{+U.Y.)>: : : : : : : : : : : : : : : Z>0@(.^+v.J@a@a@L@,#z+t+L ,.h++.)%{@u+r#,#O U.}+q*|+!.m@J@d@l$K@b@U@b@b@b@n@d@F#%#q*b@'#a@i$b@ *%#}-%#p*%#v*T.E#T.-.",
"(.b+U.H@(@`>}-U@n@'#b@b@b@}-%#d@o*|-E#b+q*H@b@'#J@a@M@e@'.b@_$x@.-d@(@+.X.J@0@O t+S%0@+.{+ .O ,#*$L@a@_$0@S+h+v.9 S$ ,: : : : : : : : : : : : : : : .,g%}+^+v.J@L@J@'#M+P#M@b+j*-=Y.Y+z+h#x+5#J@(.N+J@(.9@J@|+H@S+d@U@n@J@a@:$b@d@F#(@o*!$'#7#:$'#b@p* *d@o*X.%#v*v*y$(.",
"a+N+q*%#v*v*o*e@'#a@a@|+'#b@U@d@d@ *%#[+b@b@J@J@O _$6+Y.w$U@a@h#M@a@a@b+}+e@6+|+J@7+J+m@p+{+Q+_$L L@0@_$M+'.+,p.Y.[+ ,: : : : : : : : : : : : : : : .,O m+^+v.a@a@b@b@a@t+J@S @.w$A+2+M@L@0@a@N+d+a@6+e@9@e@U@o*>.d@U@e@b@|+a@d@K@b+%#o*a@'#|+U@'#'#d@d@n@d@Y.o*X.v*v*(.",
">-'.X.[+v*v*q*n@b@b@'#'#b@e@b@i$U@U@(@(@n@n@m@a@0@O 0@Y.%-q*U@a@a@b@a@U@y$(.0@L@a@M+7+v+-=@,!.6+_$L%J@O O #,^+q.U.v*$,: : : : : : : : : : : : : : : .,J@+./+p.m@'#'#s+s+M+s+%,8+r#F+z+%$L@M+N+d+U@a@L@U@J@'#d@o*S+d@d@o*%#d@U@(@H@[+d@o*b@b@b@p*U@b@b@U@d@U.Y.q*q*X.T.m+",
"(.0+X.X.(@o*o*U@d@n@e@U@U@b@e@b@}-%#E#[+n@b@b@s+m@O m@X.S+q*d@a@a@n@a@|+(>h;K@9@O 9@t+t#&,*,=,0@0@J@s+O a@l$^+u.Y.[+$,: : : : : : : : : : : : : : : .,J@+.]+q.s+m@'#a@L@M@x+-,;,>,,#8#h#M+L@&.%#b@a@L@n@n@b@d@d@S+U.n@d@o*d@d@%#U.v*U@b@ *d@d@%#o*d@b@U@o*q*X.X.[+X.y$&.",
"d+,,v*(@(@o*U@d@d@b@b@n@b@a@b@U@%#v*E#[+e@b@J@a@m@J@a@%#m$U.U@J@a@b@b@V@d@%-y$n@a@m@t+s@',),!,g 0@0@a@L@a@_.h+q.U.X. ,: : : : : : : : : : : : : : : ~,h +.i+)+e@a@'#a@%$,#{,],^,/,z+r&|$L@a@n+q*U@L@_$e@_>U@V@H@l$d@n@U@d@o*%#%#Y.[+e@b@d@d@U@o*o*U@d@U@U.U.Y.Y.Y.X.[@-.",
"a+d+X.v*q*U@d@o*z@U@U@e@U@J@e@o*v*(@T.X.e@b@J@J@m@a@a@[+l$d@|+7#a@'#U@}-p*x$).n@|+e@0@:@(,_,:,a@6+L 6+0@0@!.h+)+Y.<+$,: : : : : : : : : : : : : : : ~,J@&.]+q.e@a@J@!$a@M+7=<,[,},G+%$L%'#'#z$H@n@L@_$U@o*d@d@U.l$Y.|+m@m@d@q*%#H@[+b@U@d@d@b@b@b@e@n@K@q*X.[+q*U.[+'.}+",
",.).v*E#o*U.H@q*o*d@U.d@U.U@b@q*v*(@y$<+e@b@d@U.U.b@s+b+%-i$b@b@a@'#U@U@d@l$X.m@e@d@L@)@|,1,2,'#g L 6+t+6+l$h+p.Y.Q+$,: : : : : : : : : : : : : : : 3,s++.+,q.e@a@|+'#J@O 7=4,5,},9+a@'#J@a@(.e@a@%$L@n@d@d@d@U.d+Y.b@a@O b@d@o*U.[+d@o*o*H@U@b@|+e@n@b@n@Y.[+%#q*b+%-}+",
"z$'.T.n#v*%#%#d@U.n@Y.%#U.U.K@q*v*X.[@<+R$U.d@U.d@e@J@X.l$o*n@b@'#'#b@U@d@S+N+e@n@b@0@:@6,7,8,:$9@L {$M+L (.f+p.S$P+$,: : : : : : : : : : : : : : : 9,s++.^+q.e@|+n@e@e@a@7=0,a,b,s#a@'#b@m@o+b@J@a@O e@d@U.e@K@l$d@b@a@O J@%#n@U.v*[+(@%#%#d@U.U.U.e@K@K@K@U.H@H@b+d+}+",
"(.).T.#,'.v*U.n@d@b@H@%#%#d@H@U.%#X.[@N+K@Y.o*K@H@b@a@%#y+%#d@6#a@a@L%U@d@m$'.d@|+m@e@t#c,d,e,:$9@6+M+%$M+R+^+u.P+N+$,: : : : : : : : : : : : : : : 9,a@+.f,)+K@n@d@e@n@6#g,h,i,b,j&a@'#b@J@&.s+|+'#J@d@e@b@e@U.,.Y.b@e@m@U@o*|+n@y$X>(@(@(>n@d@U.K@K@U.U.U.Y.d@Y.'.(.(.",
"a+).N+'.b+v*U.b@b@|+H@[+H@d@Y.(@j,X.[@Q+Y.Y.d@U.Y.e@J@[+).U.d@'#|$a@'#n@o*S+-%c@b@|+b@G+k,l,2,6#J@a@t+%$a@S+^+=+<+0+$,: : : : : : : : : : : : : : : 3,J@+.~+q.d@n@|+b@n@6#m,n,o,b,p,a@U@i$J@&.b@J@e@d@H@c@e@d@q*,.U.d@n@d@d@q*d@K@T.v*E#[+e@|+H@Y.Y.X.Y.Y.Y.H@q*Y.'.R+m+",
":.d+N+[+%#X.U.n@n@d@X.%#d@K@U.X.%#U.N+N+Y.K@n@H@K@U.d@v*d+q*e@J@m@:$U@d@H@m$P+s+b@U@J@,#q,r,s,U@m@0@M+L@J@S+g+=+X.N+$,: : : : : : : : : : : : : : : t,J@&./+-+K@b@'#a@a@6#u,v,a,w,L@b@ *'#O $.b@g b@d@Y.U.K@q*X.R+[+K@d@H@H@(@d@K@b+Y.%#d@|+b@K@%#X.X.Y.[+X.v*[+Y.N+S+m+",
",.).X.Y.[+X.X.%#%#(@v*v*X.d@H@X.%#(@N+<+U.H@e@d@b@d@[+'.d+d@|+e@'#b@d@d@U.l$<+J@e@d@O ,#x,y,z, *|+9@_$a@J@w$g+=+S$N+$,: : : : : : : : : : : : : : : A,h m+/+'+K@L%J@a@J@i$F-B,C,D,a@J@U@J@J@+.K@g s+U.U.d@Y.q*X.(.H@H@b@e@%#X>Y.U.b+U.K@d@d@b@K@%#X.U.U.q*[+'.N+'.).S+m+",
"/.d+b+[+[+[+v*v*v*[+Y.[+X.U.%#X.v*v*[@N+Y.U.e@b@J@d@[+y$S+d@J@e@b@e@n@d@d@R+X.g s+J@L@E,F,G,H,H@e@J@9@O J@w$^+=+S$-%$,: : : : : : : : : : : : : : : I,s+m+{+,+e@a@|+7#b@e@J,K,L,M,U@J@d@n@b@+.Y.J@s+Y.U.d@U.q*X.>.[+d@|+b@%#v*Y.U.N+Y.U.K@H@n@U.U.[+%#X.v*[+b+'.%-l$a+(.",
"(.y+N+b+b+X.%#%#X.q*e@H@d@n@Y.X.[+X.[@Q+Y.Y.Y.d@s+K@d@'.R+[+:$|+J@U@n@U@q*z$-%s+g J@J@}#N,O,P,U.e@K@b@'#m@).a;'+[+O+$,: : : : : : : : : : : : : : : t,s+m+v.'+J@a@b@J@n@d@Q,R,S,T,U.s+d@U.e@+.Y.J@e@Y.U.n@b@d@b+>.%#%#d@H@`>T.X.9 '.X.X.U.Y.Y.U.[+[+v*X.[+q*[+b+d+%-d+(.",
"(.d+U,b+b+X.U.%#b+%#n@U.K@e@n@Y.X.v*b+0+[+[+U.d@s+e@e@N+(.v*n@U@|+d@d@U.%#R-U+K@J@a@%${*V,W,X,`>e@K@e@U@e@l$^+=+c+N+$,: : : : : : : : : : : : : : : Y,n@&.j+,+s+a@m@b@e@m@Z,`, '.'%=|+H@n@e@+.U.m@e@U.[+d@b@d@X.S+X.[+X.X.v*y$v*Y.'.X.%#d@%#H@[+q*Y.[+v*[+%#X.[@w$'.).m+",
"X$,.'.b+X.b+%#%#X.%#d@Y.Y.n@e@e@U.X.b+N+[+X.H@K@e@n@U.).n+v*H@d@U@o*q*o*%#n+!.e@K@d@|+~@+'@'#'U.e@h |+|+Y.(./+=+Y.|%$,: : : : : : : : : : : : : : : $'}%#.E=,+s+L@a@J@a@a@w&%'&'*'x+d@o*q*K@+.K@|+H@%#v*Y.n@U.<+:.X.X.[+v*v*y$v*Y.).[+U.n@n@d@[+U.Y.%#X.Y.X.X.b+'.'.[@=.",
"-.l$'.'.T.y$v*(@q*%#d@U.H@d@K@n@H@[+N+N+[+X.H@d@n@H@[+).n+b+X.d@n@%#%#d@%#n+!.e@d@H@e@='-';'s,d@c@c@K@s+H@m+i+,+[+N+>': : : : : : : : : : : : : : : $'}%+.{+-+s+L@'#J@m@a@,''')'a>a@U.d@q*e@+.[+U.(>d@(@X.U.)%).&.N+v*X.v*b+T.b+c+).X.Y.U.K@Y.[+Y.U.X.U.Y.Y.[+b+N+N+'.-.",
"#.V+'.N+'.'.y$X.q*H@U.Y.B@U.Y.Y.U.Y.[@N+[+X.U.%#X.v*v*d+q+'.T.X.q*[+o*d@%#m+0+U.H@H@e@!'-'~':,U@c h K@K@Y.I$~+'+-%O+>': : : : : : : : : : : : : : : $'K@T+{+-+R$'#U@e@n@'#{'n,]'^':$U.n@H@%#T+b+%#q*[+(@[+[+X._.+.N+b+v*v*b+[@N+[+0+P+X.X.X.X.X.[+U.B@U.X.b+[+b+X.T.).$.",
"+.(.).N+T.[@T.(@v*Y.U.Y.Y.9 q*Y.H@[+'.Q+[+X.X.v*y$[@N+l$q+'.v*T.v*(@o*%#v*I$Q+[+U.n@n@='/'('_'a@0@J@s+K@[+o+/+'+|%O+>': : : : : : : : : : : : : : : :'U.p+v.'+U.K@H@d@U.d@2><'['w,a@U@|+b@U.p+y$X.[+b+[+[+X.'.S+%.'.N+v*v*b+N+b+Y.!.'.N+b+y$'.'.X.B@Y.Y.[+T.%#[+X.P+!.+.",
"+.R+).b+N+'.[@v*T.v*Y.[+Y.U.[+Y.Y.X.0+c H@X.T.y$'.b+v*d+q+'.y$[@X.q*%#(@v*q+-%B@U.n@n@1*k,}'_'a@9@h s+b@U.&.i+'+<+<+>': : : : : : : : : : : : : : : |'U._+p.'+Y.K@d@%#(@d@1'<'2'3'L=b@'#n@K@2.X.X.q*b+U.X.v*'.l$+.y$v*b+b+T.N+[+R$V$N+X.X.v*#,w$b+[+X.Y.X.X.[+[+X.X.-%q+",
"&.R+).Q+N+T.X.X.T.X.q*X.Y.U.q*U.[+N+}%Y.X.N+'.d+m+'.P+>.n+N+v*'.b+[+q*(@[+}+Q+Y.U.U.n@1*k,4'5':$g c K@e@U.}+Q =+[+'%>': : : : : : : : : : : : : : : |'R$Y v.'+Y.H@q*Y.U.(>6'<'2'7'L=|+e@b@b@T+[+X.Y.N+[+X.X.T.S++.r+N+&.'.T.b+b+U.s+).X.X.%#y$w$b+[+<+[+X.[+b+N+b+N+'.m+",
"2.n+%-).-%P+X.X.b+b+[+q*H@U.d@U.[+S+<+[+b+).d+8'=%d+V+@.q+&.}+q+S.(.n+q+).(.'.Y.d@U.b@1*9'l,:,U@J@J@c }%Y.R+m*'+n=-%0': : : : : : : : : : : : : : : a'U.@.q.b'Y.%#[+H@U.U@c'd'e'w,!$e@s+J@b@:+b++.S+:.+.}+}++.n+V a+l$+.@.).T.b+Y.R$}+b+[+[+d+).N+v*b+N+X.X.N+b+b+).d++.",
"X n+d+'.N+N+X.X.N+N+X.%#[+[+U.%#[@n+N+X.N+d+3.}.0+R+@.+.c$}.{+T 1.f+8'^+N+n+d+[+o*Y.s+9+f'g'h'd@h J@e@K@U.(.i+'+<+O+0': : : : : : : : : : : : : : : i'}%Y u.>+Y.o*[+U.H@H@6'n,j'k'6#e@n@K@e@:+N+e+W l'm'n'V ` (++.T (./.+.@.!.T.Y.K@&.'.X.X.'.N+X.X.y$N+X.b+).b+-%).l$%.",
"1.(._.'.'.T.b+b+X.X.[+[+%#v*)%)%d+n+N+b+'.(.@.,.m+V :+n++.!+3.V Q 8'!+V z$o+d+Y.%#[+d@r&o'p'q'd@h s+K@d@H@}+i+'+N+Q+0': : : : : : : : : : : : : : : _-Y._+q.;+U.H@H@e@e@n@F-n,r'k''#K@U.U.K@:+!.T s'` @-m'b&t'u'2.:+T m+a+@.(.X.[+9 +.'.X.X.X.b+[+X.r+b+N+N+b+T.N+'.S+ .",
"@.(.S+).).N+N+P+N+N+b+X.v*N+[+[+).n+Q+b+d+0+d+}+@.3.}+m+v'V X (+8'T=b&f+l$o+0+e@H@q*e@5#w'x'y'd@s+J@U.U.v*T%~+'+|%T$0': : : : : : : : : : : : : : : z'S$W E=,+Y.U.e@s+s+b@A'B'C'D'J@d@%#Y.K@ .)._+X E'8'Q F'X T=_+m+(.b&+.(.T.'.X.9 +.d+b+X.v*X.[+[+N+X.b+[+[+N+-%d+R++.",
"&.R+l$l$l$'.v*[+X.N+'.'.N+'.P+X.).R+S$[+d+R+}+_+ .G'!.(.T%a+z$R+m+}+}+q+V$,.X.s+d@e@J@a@H'I'J'U.e@s+Y.U.X.o+i+u.<+,.0': : : : : : : : : : : : : : : K'X.@.{+)+c+Y.H@K@s+U@L'|=M'N'9@K@%#K@e@2.R$}+b>n+S+>-}+q+&.q+>.O'=%T n+l$y$b+e@o+l$N+v*b+N+X.Y.X.c+)%Y.[+b+d+S+(.m+",
"n+S+S+R+l$'.U,X.X.N+'.'.N+N+N+N+d+S+h#s@9+h#O#'.n+}+S.S.+.:+:+S.m=p+_+e++.&.R$e@U.s+g U.P'Q'R'U.K@U.[+Y.X.o+^+,.}%U+0': : : : : : : : : : : : : : : K'P+'.T )+P+U.Y.n@e@U.3$Z=S'Y=c 9 Y.n@c b>m++.h+m=2.:+ .:+2.T+:++.T+(.r#1*6%T'_&(.S+N+X.X.N+N+S$Y.c+b+X.N+'.d+d+S+n+",
"(.R+(.(.S+,,N+'.'.b+b+b+b+X.N+'.l$+.O+c+Y.Y.e@g*~@+%O#^%h#%$L=i#L=s#s&U'V'0@}%K@Y.J@X.W'a*P,j-X.U.[+X.[+v*q+#.L@U.,.0': : : : : : : : : : : : : : : X'N+K@,.{+v*Y.d@b@d@v*h;Y'Z'`',.K@n@s+e@d@ ).)+)'#s&h#g*O#G*S%9+j&1*9+M R$Y.n@e@:+S+N+N+[@y$r+<+c+<+N+X.<+'.0+d+>.(.",
"q+m+R+R+S+).'.d+d+'.b+X.N+X.b+'.x$#.O+X.[+%#[+K@|+U.e@J@s+U.Y.Y.T.[+v*v*U.Y.U.K@U.J@b+@)#)m=+.X.U.X.v*v*b+o+Y [+Y.,.0': : : : : : : : : : : : : : : $)[+S$}+v.X.[+q*e@e@v*%)&)*)=)}+c s+s+h %#U.U.d@n@d@[+n@J@e@K@[+[+[+H@Y.X.X.[+U._+l$y$'.).).'.<+X.N+'.b+-%'.'.d+a+(.",
"(.}+R+(.S+'.).d+l$'.b+N+'.N+y$y$w$+.-%}%Y.[+[+Y.K@X.K@J@n@K@U.U.X.[+X.X.K@s+[+Y.U.K@'.f,-)p+&.X.Y.X.v*b+b+o+@.v*[+/.;): : : : : : : : : : : : : : : >)X.[+m+q.X.X.[+d@e@v*R-f,T f,#.U.e@e@n@s+K@U.U.e@K@X.Y.U.K@Y.B@[+N+b+[+b+b+Y.Y._+>.d+w$).%-'.<+b+'.!.Q+'.).,.l$S+(.",
"(.}+a+>.!.d+'.d+d+d+N+'.N+b+'.).l$+.Q+Y.[+X.[+X.S$X.U.U.U.S$X.Y.X.X.U.e@s+U.[+X.B@Y.!.,)'):+&.X.U.X.N+P+N++.@.b+X.:.;): : : : : : : : : : : : : : : ))X.X.#.q.b+[+b+Y.K@X.S++,c$~+&.S$K@U.e@h c n@e@h K@X.Y.B@9 X.X.N+'.v*[+Y.X.H@9 2.R+d+l$S+S+).<+X.T.d+,.!.U,,.l$>.(.",
"}+a+,.,.l$l$'.d+l$d+'.'.'.'.N+w$l$%.|%Y.)%b+b+X.N+b+S$!)Y.[+S$S$B@Y.e@J@K@Y.Y.X.X.X.!.~+-+-=}.P+X.X.N+N+U,+._+'.X.=.;): : : : : : : : : : : : : : : ~)|%P+$.q.b+X.N+<+K@X.>.h+c$/+m+n@n@K@9 K@Y.g e@e@U.[+Y.X.Y.S$S$N+X.q*[+d@[+Y.K@_+R+d+l$S+(.,.N+<+b+).d+l$d+S+V+V+-.",
"(.a+l$l$S+l$w$,@l$l$).).d+%-).w$x$+.|%Y.X.N+N+[+-%N+X.Y.K@Y.S$X.X.Y.e@n@U.Y.B@X.b+<+,.{+-)p+ .Q+X.T.'.N+N++.W ).-%#.{): : : : : : : : : : : : : : : ~)X.P+#.=+'.N+U,b+X.b+>.])T j*&.Y.9 9 c@9 b@J@c Y.[+b+Y.S$Y.S$S$N+T.q*[+X.U.Y.K@_+(.%-_.S+n+,.N+b+[@l$a+a+S+(.}+a+}+",
"(.S+l$z$R+m$_.S+l$,@).!.%-l$l$).S++.O+Y.X.b+S$Y.N+N+P+U.c c S$P+X.X.9 9 Y.U.U.Y.[+b+l${+-+2.+.).b+'.d+).r++.X ).-%#.{): : : : : : : : : : : : : : : ~)X.N++.-+'.b+N+T.'.d+n+h+c$j*+.P+X.X.Y.B@c@K@}%S$X.[+Y.X.Y.S$S$U.X.K@S$[+U.Y.c _+(.l$l$R+n+,.0+!.0+,.>.a+(.(.(.>.(.",
"&.(.S+S+a+>.l$S+S+S+).l$m$m$,.l$S+:+2%X.N+[+U.[+v*X.X.X.b 9 S$P+X.X.[+U.U.Y.X.P+X.P+,.X h+&.+.!.-%'.!.'.!.:+T !.).#.{): : : : : : : : : : : : : : : ^)Q+'.+.u.0+N+).y+d+d+m+T  .3.&.N+N+X.X.B@Y.c K@U.X.X.Y.X.X.X.X.B@S$9 Y.Y.Y.Y.g _+n+l$S+S+R+l$).l$,.S+>.S+>.R+R+(.q+",
"+.m+(.R+R+>.R+R+(.R+l$R+S+,.S+S+(.+.c+<+<+X.X.[+b+X.X.S$S$B@X.X.X.U.X.P+S$Y.P+-%b+P+,.h++.}+#.!.,,).d+).S+:+W ,.!.#.{): : : : : : : : : : : : : : : /)!.!.+.q.d+0+d+y+d+,.m++.U+2.&.N+).'.N+b+[+Y.S$K@()P+X.b+P+U,T.P+X.B@X.P+X.b+U.&.&.S+l$R+R+l$,.>.>.(.-.}+R+R+m+&.&.",
" .+.+.o+q+q+n+n+m+m+(.(.(.R+R+(.+.c+X.X.N+X.b+X.-%b+X.X.!)P+P+P+X.X.X.X.S$b+N+).O+`@,.c$_)/.+.,.).,@V+).,@2.T U+!.#.{): : : : : : : : : : : : : : : :)!.!.+.q.d+'.).d+).d+(.#.3+_+=%g%'.'.).'.b+b+X.[+-%N+-%N+,,,,U,T.N+N+P+-%X.'.N+[+j-}+(.n+q+-.(.(.m+q+o+o++.&.+.%.%.",
"^+h+T T c$T c$c$@._+@.@.@._+2._+!.0+!.!.,.).!.!.,.!.).).).).!.!.!.!.).).).).!.,.U+T$#.f+3.V l$l$!.V+>.l$).@.S ,.!. .{): : : : : : : : : : : : : : : <)U+!.2.,+'.).d+).).S+l$@.X h+:+|%,.S+l$!.0+).V+d+,.,.d+,.V+,.).!.,.,.,.,.,.>.:.>.'._+m=_+0-@._+_+c$c$c$T T T h+f+]+",
"j-j-n+R-l$z$(.m+o+n+T%(.(.(.x$,.+.{+=+;+>+k+;+'+'+,+=+'+'+,+,+,+,+=+'+-+E=m*f+(+Q ]+f+:+o+!.S+(.-.}+m+1./.S R ,.!. .{): : : : : : : : : : : : : : : <)!.[) .-+N+&.+.R+a+}+a+,.S.o+T (+{+{+]+i+v.q.,+;+l+'+'+k+>+;+;+k+l+;+'+-+'+'+,+q._+h;d+w$m$x$x$l$m$l$S+(.T%o+m+j-+.",
"M.M.M.})|)|)1)|)|)|)1)2)1)|)1)3)1)})M.})$+4)@+5)%+5)|)1)|)1)|)%+M.M.M.|)|)1)|)|)5)|)1)|)5)|)M.$+#+@+M.M.6)7)T S+>.Y {): : : : : : : : : : : : : : : 8)>.>.e+9)0)})M.$+a)$+M.})|)b)b)b)1)|)|)5)M.$+})|)%+%+|)|)|)|)5)$+@+M.})M.})M.5)|)b)c)d)b)|)|)M.})|)|)|)|)e)#+#+f)N.",
"k+'+'+-+w.w.j+j+q.q.~+~+g)j+j+j+w.j+{+q.w.-+)+q.q.q.v.~+j+q.w.-+w.w.w.h)h)q.q.q.q.j+j+q.q.{+^+f,i)j+j+&)j)k)l)T+@.Q {): : : : : : : : : : : : : : : m)b&Y 0-n)o)p)f,{+i)p.h)j+i){+~+g+~+{+w.h)j+q.q.j+h)j+g)~+~+{+j+q.w.w.q.w.p.q.w.w.i)~+q)r)w.s)w.w.w.E=j+j+q.-+'+-+'+",
"h t)e N s+9@N N g%9@|*7+O J@g g g g%s );g g g%k k K G |*s K 6+J@0@9@9@N N M 7+K 7+K 7+u 7+u 7+7+L N g%9@O L@6+L 7+s*o=: : : : : : : : : : : : : : : u)&&L M@k$M+6+u+7+H K F*M@M@,#M@v)H K N w)o 0@9@a@9@M@K K s );L 7+s*s*M@K k$s*0@J@J@9@6+(&c K@h c 9 g%9@9@t)9@W+x)P ",
"y)y)R=z)z)A)A)z)B)B)C)A)y)D)E)F)G)H)I)J)A)K)R=A)J)L)I)M)N)O)L)A)R=R=R=A)R=A)O)P)x)P)Q)Q)Q)C)J)J)A)R=B)R)R=R=R=z)x)S)6-: : : : : : : : : : : : : : : T)A)z)z)H)H)H)J)O)U)V)J)P)W)H)J)Q)X)O)C)Y)J)A)R=R=R=C)Q)O)O)J)H)J)H)x)X)P)Q)J)C)R=R=R=R=y)Z)Z)y)Z)`) !F)F)F)R=B).!+!"};
