/* XPM */
static char * so_door25_tex_xpm[] = {
"132 132 1391 2",
"  	c #2E3943",
". 	c #2F3A45",
"+ 	c #2F3B46",
"@ 	c #2F3944",
"# 	c #2F3A46",
"$ 	c #303C46",
"% 	c #303B46",
"& 	c #303C47",
"* 	c #303A45",
"= 	c #313D4A",
"- 	c #313E4A",
"; 	c #323E4A",
"> 	c #323F4A",
", 	c #313D48",
"' 	c #35393C",
") 	c #393939",
"! 	c #303B45",
"~ 	c #323F4B",
"{ 	c #313D49",
"] 	c #303C48",
"^ 	c #2E3843",
"/ 	c #273645",
"( 	c #283847",
"_ 	c #283948",
": 	c #293A49",
"< 	c #283949",
"[ 	c #263746",
"} 	c #273848",
"| 	c #293B4A",
"1 	c #293949",
"2 	c #293B4B",
"3 	c #293A4A",
"4 	c #2A3B4B",
"5 	c #2A3B4A",
"6 	c #2B3D4C",
"7 	c #2C3F4F",
"8 	c #2D3F4F",
"9 	c #2C3F50",
"0 	c #2D4151",
"a 	c #2C3D4C",
"b 	c #33393E",
"c 	c #2B3C4B",
"d 	c #2A3C4B",
"e 	c #293C4B",
"f 	c #2C4050",
"g 	c #273847",
"h 	c #283848",
"i 	c #283A49",
"j 	c #19242F",
"k 	c #192530",
"l 	c #1A2630",
"m 	c #1A2732",
"n 	c #1A2631",
"o 	c #1A2833",
"p 	c #18252F",
"q 	c #1B2833",
"r 	c #1B2834",
"s 	c #1A2733",
"t 	c #1B2934",
"u 	c #1C2934",
"v 	c #1C2A35",
"w 	c #1C2A36",
"x 	c #1D2A36",
"y 	c #1D2B38",
"z 	c #1E2D39",
"A 	c #1F2F3C",
"B 	c #1F2E3B",
"C 	c #1F2E3A",
"D 	c #1F2C39",
"E 	c #313437",
"F 	c #303337",
"G 	c #1F2C38",
"H 	c #1E2C38",
"I 	c #1C2B37",
"J 	c #1D2D3A",
"K 	c #1D2B37",
"L 	c #1C2935",
"M 	c #1B2733",
"N 	c #1B2933",
"O 	c #1A2632",
"P 	c #1A2731",
"Q 	c #080D12",
"R 	c #070D13",
"S 	c #080E12",
"T 	c #080E13",
"U 	c #080F14",
"V 	c #080D13",
"W 	c #080E14",
"X 	c #090E14",
"Y 	c #091015",
"Z 	c #09131B",
"` 	c #091C2B",
" .	c #0F1E29",
"..	c #131F27",
"+.	c #131E27",
"@.	c #131C24",
"#.	c #2F3031",
"$.	c #2E2F31",
"%.	c #131E26",
"&.	c #141F28",
"*.	c #121E27",
"=.	c #091C29",
"-.	c #08151F",
";.	c #081015",
">.	c #090F14",
",.	c #090F15",
"'.	c #0C141A",
").	c #0D151C",
"!.	c #0E171E",
"~.	c #0C141B",
"{.	c #0B1218",
"].	c #0B1319",
"^.	c #0B131A",
"/.	c #0D151B",
"(.	c #0C151B",
"_.	c #0A1117",
":.	c #0A1116",
"<.	c #0C1319",
"[.	c #0E1821",
"}.	c #0F1E2A",
"|.	c #192733",
"1.	c #20303E",
"2.	c #223341",
"3.	c #303336",
"4.	c #2F3236",
"5.	c #21313F",
"6.	c #223340",
"7.	c #101E28",
"8.	c #0E1A23",
"9.	c #0B151B",
"0.	c #0A1218",
"a.	c #0F161E",
"b.	c #0E161D",
"c.	c #0D161C",
"d.	c #0E171D",
"e.	c #142028",
"f.	c #14202A",
"g.	c #142029",
"h.	c #16212B",
"i.	c #15222C",
"j.	c #15212B",
"k.	c #16222B",
"l.	c #17232D",
"m.	c #18242E",
"n.	c #182530",
"o.	c #192631",
"p.	c #192732",
"q.	c #21313E",
"r.	c #21323F",
"s.	c #1C2B36",
"t.	c #233644",
"u.	c #1E303F",
"v.	c #273948",
"w.	c #293C4C",
"x.	c #233340",
"y.	c #313438",
"z.	c #2F3337",
"A.	c #263947",
"B.	c #283B4A",
"C.	c #192834",
"D.	c #263B4B",
"E.	c #1F2F3B",
"F.	c #1D2C38",
"G.	c #20313E",
"H.	c #22333F",
"I.	c #1E2E3A",
"J.	c #192731",
"K.	c #17222D",
"L.	c #16222C",
"M.	c #15212C",
"N.	c #16232D",
"O.	c #15202A",
"P.	c #1A2934",
"Q.	c #1B2935",
"R.	c #1F303C",
"S.	c #243644",
"T.	c #273949",
"U.	c #283B4B",
"V.	c #2A3E4E",
"W.	c #2C4253",
"X.	c #243847",
"Y.	c #1E2E3B",
"Z.	c #283C4C",
"`.	c #2A3F4F",
" +	c #243442",
".+	c #313538",
"++	c #303438",
"@+	c #283A4B",
"#+	c #293D4D",
"$+	c #273B4C",
"%+	c #2D4253",
"&+	c #2B4050",
"*+	c #2B3F4F",
"=+	c #2B4051",
"-+	c #2A3E4D",
";+	c #263948",
">+	c #20303D",
",+	c #202F3B",
"'+	c #21303E",
")+	c #20303C",
"!+	c #1B2A36",
"~+	c #1C2B38",
"{+	c #1D2C39",
"]+	c #2A3F4E",
"^+	c #2E4354",
"/+	c #2E4455",
"(+	c #2D4353",
"_+	c #2F4456",
":+	c #2D4354",
"<+	c #2D4454",
"[+	c #2C4152",
"}+	c #32485A",
"|+	c #324A5C",
"1+	c #32495B",
"2+	c #32495C",
"3+	c #31485B",
"4+	c #31485A",
"5+	c #2C4354",
"6+	c #1E303E",
"7+	c #1E2D3A",
"8+	c #293E4E",
"9+	c #2A3E4F",
"0+	c #2E4557",
"a+	c #263C4C",
"b+	c #2A3F50",
"c+	c #263744",
"d+	c #323639",
"e+	c #303539",
"f+	c #2B4153",
"g+	c #203240",
"h+	c #2D4355",
"i+	c #293D4E",
"j+	c #2B3F51",
"k+	c #1F2F3D",
"l+	c #293D4B",
"m+	c #344B5E",
"n+	c #314658",
"o+	c #314859",
"p+	c #2F4557",
"q+	c #304658",
"r+	c #2D4252",
"s+	c #2B4151",
"t+	c #2B3F50",
"u+	c #2E4355",
"v+	c #2E4353",
"w+	c #2B4152",
"x+	c #304759",
"y+	c #344C5F",
"z+	c #2D4457",
"A+	c #1E313F",
"B+	c #243745",
"C+	c #233443",
"D+	c #2A3D4E",
"E+	c #2E4558",
"F+	c #2E4659",
"G+	c #294052",
"H+	c #293E4F",
"I+	c #2B4052",
"J+	c #273745",
"K+	c #32363A",
"L+	c #30353A",
"M+	c #293D4C",
"N+	c #2C4355",
"O+	c #213443",
"P+	c #2F4558",
"Q+	c #223240",
"R+	c #374F62",
"S+	c #2E4456",
"T+	c #2F4457",
"U+	c #2D4455",
"V+	c #304558",
"W+	c #2E4457",
"X+	c #2D4152",
"Y+	c #30485B",
"Z+	c #31495D",
"`+	c #2D4659",
" @	c #1F3342",
".@	c #223543",
"+@	c #223542",
"@@	c #2D4557",
"#@	c #30475A",
"$@	c #2B4254",
"%@	c #243645",
"&@	c #2C4254",
"*@	c #273846",
"=@	c #33373B",
"-@	c #30363B",
";@	c #213343",
">@	c #2F4659",
",@	c #2A4052",
"'@	c #2C4153",
")@	c #213240",
"!@	c #253847",
"~@	c #223645",
"{@	c #31485C",
"]@	c #30485A",
"^@	c #31495C",
"/@	c #31475A",
"(@	c #2E4658",
"_@	c #2D4254",
":@	c #304659",
"<@	c #32495D",
"[@	c #324A5E",
"}@	c #1B2F3D",
"|@	c #2A3F51",
"1@	c #293E50",
"2@	c #273947",
"3@	c #30373C",
"4@	c #203341",
"5@	c #32495E",
"6@	c #1A2B38",
"7@	c #30495C",
"8@	c #324A5D",
"9@	c #334B5E",
"0@	c #2F4658",
"a@	c #314759",
"b@	c #334A5E",
"c@	c #344C60",
"d@	c #324B5F",
"e@	c #334C61",
"f@	c #2E485B",
"g@	c #1D3140",
"h@	c #182631",
"i@	c #263A49",
"j@	c #253949",
"k@	c #2D4356",
"l@	c #253846",
"m@	c #33373C",
"n@	c #30373D",
"o@	c #1F303F",
"p@	c #233645",
"q@	c #1D2E3B",
"r@	c #334A5D",
"s@	c #344D61",
"t@	c #334B5F",
"u@	c #334C60",
"v@	c #344D62",
"w@	c #314A5F",
"x@	c #1F3241",
"y@	c #273A4A",
"z@	c #2D4357",
"A@	c #34383D",
"B@	c #31383F",
"C@	c #1F303E",
"D@	c #243746",
"E@	c #1E2F3D",
"F@	c #324A5F",
"G@	c #30475B",
"H@	c #344D60",
"I@	c #354E61",
"J@	c #354D61",
"K@	c #344E62",
"L@	c #354D62",
"M@	c #324C5F",
"N@	c #2F485C",
"O@	c #1F3140",
"P@	c #1A2834",
"Q@	c #273A49",
"R@	c #253746",
"S@	c #2E4458",
"T@	c #34393D",
"U@	c #31393F",
"V@	c #1E303D",
"W@	c #2D4558",
"X@	c #2C4052",
"Y@	c #223442",
"Z@	c #314A5E",
"`@	c #344C61",
" #	c #354E62",
".#	c #354E63",
"+#	c #334D61",
"@#	c #2F495D",
"##	c #203140",
"$#	c #253948",
"%#	c #35393D",
"&#	c #313940",
"*#	c #2A4051",
"=#	c #233746",
"-#	c #334B60",
";#	c #2F475B",
">#	c #1B2A35",
",#	c #253947",
"'#	c #233545",
")#	c #1C2B39",
"!#	c #2B4154",
"~#	c #2D4456",
"{#	c #243846",
"]#	c #344B60",
"^#	c #1E3140",
"/#	c #253747",
"(#	c #283E4F",
"_#	c #233543",
":#	c #35393E",
"<#	c #313A41",
"[#	c #293D4F",
"}#	c #1B2C39",
"|#	c #233646",
"1#	c #30465A",
"2#	c #17242E",
"3#	c #203444",
"4#	c #233544",
"5#	c #2F475A",
"6#	c #353A3E",
"7#	c #313A42",
"8#	c #182734",
"9#	c #223544",
"0#	c #18242F",
"a#	c #1D2D39",
"b#	c #1E2C39",
"c#	c #1C2C39",
"d#	c #314C60",
"e#	c #2B475C",
"f#	c #213D51",
"g#	c #243E50",
"h#	c #17242F",
"i#	c #2A3D4D",
"j#	c #1D2E3C",
"k#	c #253B4D",
"l#	c #253E52",
"m#	c #2A465A",
"n#	c #1E2F3B",
"o#	c #1D2E39",
"p#	c #1F303D",
"q#	c #2E4352",
"r#	c #2B3E4E",
"s#	c #30485C",
"t#	c #37546B",
"u#	c #1F4965",
"v#	c #1A74A2",
"w#	c #2A495E",
"x#	c #2A4153",
"y#	c #1A2935",
"z#	c #323B43",
"A#	c #1A2A36",
"B#	c #1C2D3A",
"C#	c #2C4659",
"D#	c #2A5B7B",
"E#	c #265F82",
"F#	c #305069",
"G#	c #365064",
"H#	c #233542",
"I#	c #233442",
"J#	c #2C4051",
"K#	c #233341",
"L#	c #22323F",
"M#	c #1F2E39",
"N#	c #253645",
"O#	c #1E2D38",
"P#	c #20313D",
"Q#	c #20303B",
"R#	c #1D2C37",
"S#	c #355065",
"T#	c #1D4864",
"U#	c #127BB7",
"V#	c #2A4A61",
"W#	c #2C4356",
"X#	c #283E4E",
"Y#	c #1C2C38",
"Z#	c #1B2B38",
"`#	c #2E4A5E",
" $	c #286388",
".$	c #246287",
"+$	c #2F4E66",
"@$	c #2C4252",
"#$	c #192630",
"$$	c #202F3A",
"%$	c #253745",
"&$	c #1B2A34",
"*$	c #202F3C",
"=$	c #233440",
"-$	c #1D2C36",
";$	c #21303B",
">$	c #21313D",
",$	c #21333F",
"'$	c #385268",
")$	c #1E4864",
"!$	c #137BB9",
"~$	c #2B4B61",
"{$	c #273C4C",
"]$	c #303941",
"^$	c #2F4A5E",
"/$	c #296489",
"($	c #236389",
"_$	c #2F4F66",
":$	c #30485D",
"<$	c #233441",
"[$	c #21303D",
"}$	c #1F2D39",
"|$	c #243542",
"1$	c #21303C",
"2$	c #283D4C",
"3$	c #1E4966",
"4$	c #0F7CC1",
"5$	c #2B4A61",
"6$	c #283D4D",
"7$	c #2B404F",
"8$	c #363A3D",
"9$	c #313B43",
"0$	c #28658A",
"a$	c #23668D",
"b$	c #2F5067",
"c$	c #2E475A",
"d$	c #334C5F",
"e$	c #233643",
"f$	c #223440",
"g$	c #263745",
"h$	c #283B4C",
"i$	c #2E4253",
"j$	c #385368",
"k$	c #1F4966",
"l$	c #0E7DC4",
"m$	c #2C4B62",
"n$	c #36393D",
"o$	c #313A43",
"p$	c #2A6488",
"q$	c #22668F",
"r$	c #2F5069",
"s$	c #243543",
"t$	c #283A4A",
"u$	c #263848",
"v$	c #243646",
"w$	c #2A3E50",
"x$	c #365267",
"y$	c #1E4765",
"z$	c #1279C2",
"A$	c #2D4A61",
"B$	c #303A44",
"C$	c #2A668B",
"D$	c #216690",
"E$	c #2F526B",
"F$	c #2C4456",
"G$	c #253848",
"H$	c #365167",
"I$	c #1277C2",
"J$	c #2B3E4F",
"K$	c #2F485D",
"L$	c #2B658A",
"M$	c #206692",
"N$	c #30526B",
"O$	c #31495E",
"P$	c #293F50",
"Q$	c #233745",
"R$	c #354F65",
"S$	c #1E4967",
"T$	c #107AC4",
"U$	c #2E4C63",
"V$	c #363A3E",
"W$	c #313B45",
"X$	c #293E4D",
"Y$	c #1B2B36",
"Z$	c #2F495E",
"`$	c #2B658C",
" %	c #1F6693",
".%	c #30536D",
"+%	c #2C4457",
"@%	c #344F64",
"#%	c #0F7BC7",
"$%	c #2D4C63",
"%%	c #2F3A43",
"&%	c #2C658B",
"*%	c #1F6692",
"=%	c #30526C",
"-%	c #2D4458",
";%	c #26394A",
">%	c #1E4763",
",%	c #0F7AC6",
"'%	c #2C4C63",
")%	c #2F4A5F",
"!%	c #21668F",
"~%	c #2F5169",
"{%	c #2C4255",
"]%	c #263A4A",
"^%	c #204763",
"/%	c #0F7CC6",
"(%	c #303B44",
"_%	c #273B4B",
":%	c #216790",
"<%	c #2A4152",
"[%	c #1F4763",
"}%	c #0E7DC5",
"|%	c #2C4D64",
"1%	c #2F3B45",
"2%	c #2B4253",
"3%	c #304A5F",
"4%	c #22658F",
"5%	c #2F4759",
"6%	c #1F4864",
"7%	c #0D7EC7",
"8%	c #2D4E65",
"9%	c #2B6386",
"0%	c #23648C",
"a%	c #1D445F",
"b%	c #127CBC",
"c%	c #2B4B62",
"d%	c #18252E",
"e%	c #36393C",
"f%	c #2F3A44",
"g%	c #2E4559",
"h%	c #2D475B",
"i%	c #2B6081",
"j%	c #266083",
"k%	c #2B4A60",
"l%	c #2A3F52",
"m%	c #1F3A4E",
"n%	c #2A5875",
"o%	c #253F53",
"p%	c #254A62",
"q%	c #224862",
"r%	c #1C3040",
"s%	c #253A49",
"t%	c #2C4759",
"u%	c #244055",
"v%	c #254F69",
"w%	c #243C4E",
"x%	c #2E3A43",
"y%	c #2A4050",
"z%	c #273E50",
"A%	c #25485E",
"B%	c #254962",
"C%	c #294458",
"D%	c #304758",
"E%	c #1D4561",
"F%	c #1B73A7",
"G%	c #28485F",
"H%	c #37393C",
"I%	c #2E3A44",
"J%	c #293F51",
"K%	c #294356",
"L%	c #2A5F80",
"M%	c #255F83",
"N%	c #2C4960",
"O%	c #293F4F",
"P%	c #1D4764",
"Q%	c #127BBD",
"R%	c #2A4B62",
"S%	c #2E3A45",
"T%	c #2C475B",
"U%	c #236289",
"V%	c #2E4D65",
"W%	c #1E4A67",
"X%	c #107CC4",
"Y%	c #2A4A62",
"Z%	c #293E4C",
"`%	c #2E3A46",
" &	c #2C485D",
".&	c #29668C",
"+&	c #216590",
"@&	c #1E4866",
"#&	c #107BC4",
"$&	c #192632",
"%&	c #2D3A44",
"&&	c #29668A",
"*&	c #206792",
"=&	c #2D4F68",
"-&	c #304859",
";&	c #1E4A68",
">&	c #107BC3",
",&	c #2A4961",
"'&	c #37393B",
")&	c #2D3943",
"!&	c #2B475B",
"~&	c #283D4E",
"{&	c #1D4966",
"]&	c #1279BD",
"^&	c #2A485F",
"/&	c #2D3A45",
"(&	c #17242D",
"_&	c #2B4559",
":&	c #296386",
"<&	c #236489",
"[&	c #2D4F67",
"}&	c #2B4252",
"|&	c #1579B5",
"1&	c #29485E",
"2&	c #2B4558",
"3&	c #296082",
"4&	c #256083",
"5&	c #263B4C",
"6&	c #1D2F3B",
"7&	c #1A384C",
"8&	c #21526E",
"9&	c #253E51",
"0&	c #2C3842",
"a&	c #214962",
"b&	c #204962",
"c&	c #2B4457",
"d&	c #283C4D",
"e&	c #1A2A37",
"f&	c #1A3040",
"g&	c #2C3742",
"h&	c #1D303F",
"i&	c #1C2E3D",
"j&	c #223441",
"k&	c #263845",
"l&	c #17232E",
"m&	c #2C3944",
"n&	c #253A48",
"o&	c #38393B",
"p&	c #2D3B45",
"q&	c #15212A",
"r&	c #37393A",
"s&	c #2B3944",
"t&	c #152029",
"u&	c #1F303B",
"v&	c #273A4B",
"w&	c #213442",
"x&	c #213340",
"y&	c #273C4A",
"z&	c #18242D",
"A&	c #273A48",
"B&	c #38393A",
"C&	c #2C3945",
"D&	c #20313F",
"E&	c #172B39",
"F&	c #182833",
"G&	c #2B3844",
"H&	c #172936",
"I&	c #213647",
"J&	c #253845",
"K&	c #284155",
"L&	c #1B3F56",
"M&	c #255A77",
"N&	c #1F394B",
"O&	c #273B49",
"P&	c #293F4E",
"Q&	c #2A3843",
"R&	c #223746",
"S&	c #285773",
"T&	c #1B445D",
"U&	c #223E53",
"V&	c #294357",
"W&	c #1D4159",
"X&	c #1973A8",
"Y&	c #24648A",
"Z&	c #2B495F",
"`&	c #293642",
" *	c #275471",
".*	c #0F7DC0",
"+*	c #1E4964",
"@*	c #264257",
"#*	c #294153",
"$*	c #1D3F56",
"%*	c #1C6F9F",
"&*	c #1E6D9C",
"**	c #2D536D",
"=*	c #293743",
"-*	c #304D64",
";*	c #285E81",
">*	c #0980C9",
",*	c #1E4863",
"'*	c #264055",
")*	c #273B4A",
"!*	c #263846",
"~*	c #273C4D",
"{*	c #1B3648",
"]*	c #1A72A5",
"^*	c #2D5570",
"/*	c #192833",
"(*	c #2A3844",
"_*	c #24638A",
":*	c #147AB2",
"<*	c #1C3E54",
"[*	c #1A3141",
"}*	c #1D3B4F",
"|*	c #285D7C",
"1*	c #2B536D",
"2*	c #293844",
"3*	c #2F4D65",
"4*	c #285A78",
"5*	c #1F425A",
"6*	c #1A3346",
"7*	c #253C4E",
"8*	c #1B394F",
"9*	c #275876",
"0*	c #285A77",
"a*	c #2A4C62",
"b*	c #293845",
"c*	c #2D4A60",
"d*	c #224D68",
"e*	c #206A96",
"f*	c #1C4057",
"g*	c #253F52",
"h*	c #253946",
"i*	c #263B4A",
"j*	c #1D3C53",
"k*	c #275777",
"l*	c #127DBD",
"m*	c #283C4B",
"n*	c #2C4E65",
"o*	c #1971A8",
"p*	c #216692",
"q*	c #1B3E56",
"r*	c #263E51",
"s*	c #283E51",
"t*	c #1E3D54",
"u*	c #265474",
"v*	c #2D5774",
"w*	c #2B465B",
"x*	c #182630",
"y*	c #21323E",
"z*	c #383939",
"A*	c #263641",
"B*	c #2C4559",
"C*	c #2E526D",
"D*	c #1474B3",
"E*	c #236189",
"F*	c #1B3D56",
"G*	c #263C4F",
"H*	c #253A4A",
"I*	c #283F50",
"J*	c #1D3C54",
"K*	c #234E6C",
"L*	c #0782D3",
"M*	c #2B5B7B",
"N*	c #2C485E",
"O*	c #15222A",
"P*	c #263440",
"Q*	c #141F27",
"R*	c #2C4458",
"S*	c #2D5470",
"T*	c #0E7ABF",
"U*	c #265B7D",
"V*	c #1A3A4F",
"W*	c #243A4B",
"X*	c #1E3B50",
"Y*	c #1F4C6A",
"Z*	c #0382DA",
"`*	c #2A5C7E",
" =	c #2C4A60",
".=	c #24323F",
"+=	c #233642",
"@=	c #141E26",
"#=	c #0E7CC3",
"$=	c #275676",
"%=	c #193549",
"&=	c #25394B",
"*=	c #1E3241",
"==	c #193950",
"-=	c #295F82",
";=	c #2C4A62",
">=	c #1E2E39",
",=	c #2C4151",
"'=	c #1C2933",
")=	c #151F27",
"!=	c #2B5471",
"~=	c #1A2C3A",
"{=	c #253A4B",
"]=	c #162936",
"^=	c #1A3447",
"/=	c #2B516C",
"(=	c #2D4B61",
"_=	c #1C2C37",
":=	c #333537",
"<=	c #282D32",
"[=	c #284F69",
"}=	c #1E4256",
"|=	c #162733",
"1=	c #162835",
"2=	c #243948",
"3=	c #283C4A",
"4=	c #101C25",
"5=	c #141D26",
"6=	c #353738",
"7=	c #252E35",
"8=	c #24394A",
"9=	c #1A2D3A",
"0=	c #172430",
"a=	c #213341",
"b=	c #16242E",
"c=	c #182732",
"d=	c #152531",
"e=	c #122C3E",
"f=	c #103C55",
"g=	c #383839",
"h=	c #212F3A",
"i=	c #17252F",
"j=	c #273D4C",
"k=	c #1C303D",
"l=	c #162C3B",
"m=	c #124361",
"n=	c #11688D",
"o=	c #103447",
"p=	c #35383A",
"q=	c #29343E",
"r=	c #1A2933",
"s=	c #273C4B",
"t=	c #1B3140",
"u=	c #153143",
"v=	c #134B6C",
"w=	c #0B729B",
"x=	c #10394F",
"y=	c #35383B",
"z=	c #293640",
"A=	c #2C4558",
"B=	c #273D4E",
"C=	c #213645",
"D=	c #245570",
"E=	c #27455C",
"F=	c #263C4D",
"G=	c #163449",
"H=	c #144D6E",
"I=	c #0A749E",
"J=	c #103B52",
"K=	c #283641",
"L=	c #284255",
"M=	c #263F52",
"N=	c #205371",
"O=	c #233B4D",
"P=	c #233B4C",
"Q=	c #127CA8",
"R=	c #274F6C",
"S=	c #263D4F",
"T=	c #153449",
"U=	c #154D6F",
"V=	c #0774A3",
"W=	c #103B53",
"X=	c #29495F",
"Y=	c #0E7BAD",
"Z=	c #234358",
"`=	c #1B2B37",
" -	c #243E4F",
".-	c #0A84B7",
"+-	c #28516F",
"@-	c #273E51",
"#-	c #294051",
"$-	c #1B303F",
"%-	c #153247",
"&-	c #144C6E",
"*-	c #0675A5",
"=-	c #0F3A52",
"--	c #284256",
";-	c #283E4D",
">-	c #2A4B61",
",-	c #0783B8",
"'-	c #24455B",
")-	c #0E81B0",
"!-	c #28506C",
"~-	c #153347",
"{-	c #144C6D",
"]-	c #0973A0",
"^-	c #28343F",
"/-	c #274053",
"(-	c #2A495F",
"_-	c #0C7EAC",
":-	c #233848",
"<-	c #275E7C",
"[-	c #29475D",
"}-	c #1C3141",
"|-	c #153043",
"1-	c #144A6B",
"2-	c #0975A1",
"3-	c #103B51",
"4-	c #284154",
"5-	c #275B77",
"6-	c #243C4F",
"7-	c #263F51",
"8-	c #1D3241",
"9-	c #152D3D",
"0-	c #144764",
"a-	c #0D7299",
"b-	c #11384D",
"c-	c #35373A",
"d-	c #28323C",
"e-	c #283F51",
"f-	c #273F51",
"g-	c #16222D",
"h-	c #15364A",
"i-	c #124D69",
"j-	c #212F3B",
"k-	c #1B2D3A",
"l-	c #172A3A",
"m-	c #2D373F",
"n-	c #1E2C37",
"o-	c #1C2D39",
"p-	c #2F3439",
"q-	c #333639",
"r-	c #2A3D4C",
"s-	c #1E3749",
"t-	c #27526E",
"u-	c #27455B",
"v-	c #2F363C",
"w-	c #204A63",
"x-	c #214A60",
"y-	c #1B2E3C",
"z-	c #2E4759",
"A-	c #224259",
"B-	c #0880D0",
"C-	c #285C7E",
"D-	c #254259",
"E-	c #33363A",
"F-	c #2E343A",
"G-	c #24526F",
"H-	c #088ACD",
"I-	c #254E68",
"J-	c #2A4254",
"K-	c #2F4C62",
"L-	c #285372",
"M-	c #008AE3",
"N-	c #275675",
"O-	c #254156",
"P-	c #2E3439",
"Q-	c #283F53",
"R-	c #244E69",
"S-	c #0683D2",
"T-	c #276083",
"U-	c #2F5168",
"V-	c #295979",
"W-	c #0087E2",
"X-	c #265270",
"Y-	c #253F54",
"Z-	c #17252E",
"`-	c #33373A",
" ;	c #2E353B",
".;	c #273D4F",
"+;	c #254A63",
"@;	c #0A7ECC",
"#;	c #216997",
"$;	c #294E68",
"%;	c #2B4356",
"&;	c #2B4E66",
"*;	c #266088",
"=;	c #0188DB",
"-;	c #25516E",
";;	c #263F53",
">;	c #34373B",
",;	c #2F353C",
"';	c #1479B7",
");	c #1B71A7",
"!;	c #284E68",
"~;	c #2D475C",
"{;	c #2B4F67",
"];	c #236692",
"^;	c #117EBB",
"/;	c #234C66",
"(;	c #274052",
"_;	c #34373A",
":;	c #2E353C",
"<;	c #26475D",
"[;	c #1D6F9E",
"};	c #1577B4",
"|;	c #28506B",
"1;	c #2D485D",
"2;	c #2D485B",
"3;	c #2B4F68",
"4;	c #226994",
"5;	c #256487",
"6;	c #213E51",
"7;	c #2B3F4E",
"8;	c #213A4C",
"9;	c #205571",
"0;	c #137AB1",
"a;	c #274F69",
"b;	c #304D63",
"c;	c #2E495D",
"d;	c #27465C",
"e;	c #224358",
"f;	c #224A66",
"g;	c #234258",
"h;	c #1B2B35",
"i;	c #264256",
"j;	c #1E4B64",
"k;	c #204157",
"l;	c #24465C",
"m;	c #2E4C61",
"n;	c #244155",
"o;	c #0C7EC5",
"p;	c #23648E",
"q;	c #24435A",
"r;	c #16212A",
"s;	c #34383B",
"t;	c #2E363C",
"u;	c #274357",
"v;	c #235572",
"w;	c #0886C7",
"x;	c #23475E",
"y;	c #2F4B60",
"z;	c #26516F",
"A;	c #0083DD",
"B;	c #265C82",
"C;	c #234157",
"D;	c #152129",
"E;	c #2D353C",
"F;	c #264054",
"G;	c #224F6C",
"H;	c #0588D4",
"I;	c #265471",
"J;	c #2F4D63",
"K;	c #0181DA",
"L;	c #255372",
"M;	c #0882CF",
"N;	c #27597A",
"O;	c #2C4C64",
"P;	c #2E516A",
"Q;	c #245170",
"R;	c #1774AD",
"S;	c #1E3C51",
"T;	c #2D343B",
"U;	c #1E3546",
"V;	c #206A99",
"W;	c #294D66",
"X;	c #213441",
"Y;	c #1D2D38",
"Z;	c #2A485C",
"`;	c #203E52",
" >	c #192A38",
".>	c #172733",
"+>	c #1F3C4F",
"@>	c #28455A",
"#>	c #1F313E",
"$>	c #2C353B",
"%>	c #2C333B",
"&>	c #343739",
"*>	c #2C333A",
"=>	c #293B4C",
"->	c #15222D",
";>	c #1D2E3A",
">>	c #182834",
",>	c #1E2F3C",
"'>	c #353739",
")>	c #182632",
"!>	c #162D3D",
"~>	c #17455B",
"{>	c #1D3342",
"]>	c #18384B",
"^>	c #16394E",
"/>	c #23394A",
"(>	c #163E57",
"_>	c #1A7198",
":>	c #204054",
"<>	c #2B3239",
"[>	c #243544",
"}>	c #131D27",
"|>	c #253D4F",
"1>	c #255673",
"2>	c #1F5978",
"3>	c #244257",
"4>	c #263949",
"5>	c #223342",
"6>	c #213342",
"7>	c #17425D",
"8>	c #147AAD",
"9>	c #204359",
"0>	c #295D7D",
"a>	c #235E7F",
"b>	c #25455B",
"c>	c #184461",
"d>	c #107CB7",
"e>	c #22445B",
"f>	c #2A3239",
"g>	c #2A5E7F",
"h>	c #225F82",
"i>	c #18435F",
"j>	c #107CB8",
"k>	c #21445B",
"l>	c #263847",
"m>	c #2A323A",
"n>	c #2A5F7F",
"o>	c #235F83",
"p>	c #24445B",
"q>	c #18425E",
"r>	c #0F7DBB",
"s>	c #21445C",
"t>	c #14212B",
"u>	c #243F53",
"v>	c #295F7F",
"w>	c #236084",
"x>	c #233342",
"y>	c #17415D",
"z>	c #117CB9",
"A>	c #131D26",
"B>	c #243E52",
"C>	c #2A5F7E",
"D>	c #226084",
"E>	c #25394A",
"F>	c #17405B",
"G>	c #147AB1",
"H>	c #204257",
"I>	c #293138",
"J>	c #121D26",
"K>	c #223C4E",
"L>	c #2A5E7C",
"M>	c #234359",
"N>	c #223443",
"O>	c #173D57",
"P>	c #1677AA",
"Q>	c #204155",
"R>	c #2A3139",
"S>	c #121C25",
"T>	c #2A5C79",
"U>	c #255D7D",
"V>	c #214055",
"W>	c #1D2F3D",
"X>	c #17354A",
"Y>	c #21607E",
"Z>	c #1D394C",
"`>	c #293139",
" ,	c #121D25",
".,	c #203646",
"+,	c #204F6A",
"@,	c #1E506B",
"#,	c #1A3345",
"$,	c #182D3B",
"%,	c #1F3E52",
"&,	c #1C2F3D",
"*,	c #1F3340",
"=,	c #1E384B",
"-,	c #1F394D",
";,	c #1A2B39",
">,	c #213241",
",,	c #1A3F57",
"',	c #1C6A8D",
"),	c #1D3C4F",
"!,	c #293038",
"~,	c #131F28",
"{,	c #21394A",
"],	c #23536F",
"^,	c #1F5471",
"/,	c #27455A",
"(,	c #153F59",
"_,	c #1578A7",
":,	c #1F4055",
"<,	c #283038",
"[,	c #2A5C7A",
"},	c #225978",
"|,	c #224258",
"1,	c #263A4B",
"2,	c #16415C",
"3,	c #137AB0",
"4,	c #363739",
"5,	c #233C4E",
"6,	c #2A5E7E",
"7,	c #235A7A",
"8,	c #253849",
"9,	c #127BB1",
"0,	c #223B4D",
"a,	c #225B7C",
"b,	c #234257",
"c,	c #17425E",
"d,	c #117CB4",
"e,	c #20445A",
"f,	c #273037",
"g,	c #2B5F7F",
"h,	c #235D7E",
"i,	c #107DB7",
"j,	c #272F37",
"k,	c #223A4C",
"l,	c #245C7E",
"m,	c #244359",
"n,	c #107DB9",
"o,	c #20435A",
"p,	c #223C4D",
"q,	c #24445A",
"r,	c #192730",
"s,	c #17405C",
"t,	c #363738",
"u,	c #272F36",
"v,	c #111C23",
"w,	c #233C4D",
"x,	c #2B607F",
"y,	c #235C7F",
"z,	c #163F5B",
"A,	c #127AB7",
"B,	c #204258",
"C,	c #262E35",
"D,	c #111B23",
"E,	c #235B7E",
"F,	c #224157",
"G,	c #152028",
"H,	c #1B2832",
"I,	c #18232C",
"J,	c #153E59",
"K,	c #1379AF",
"L,	c #1E4156",
"M,	c #121C24",
"N,	c #225C7E",
"O,	c #17222B",
"P,	c #17232C",
"Q,	c #19252E",
"R,	c #142129",
"S,	c #143D57",
"T,	c #1279A9",
"U,	c #1D4056",
"V,	c #242C33",
"W,	c #223A4B",
"X,	c #2B5E7B",
"Y,	c #225B7D",
"Z,	c #223F54",
"`,	c #162129",
" '	c #19262F",
".'	c #273946",
"+'	c #133A51",
"@'	c #167198",
"#'	c #1C3D51",
"$'	c #232B32",
"%'	c #21384A",
"&'	c #205978",
"*'	c #213C4F",
"='	c #293B49",
"-'	c #142B3C",
";'	c #184057",
">'	c #1B2E3D",
",'	c #17384E",
"''	c #243848",
")'	c #253C4C",
"!'	c #142430",
"~'	c #232C33",
"{'	c #172835",
"]'	c #1F3749",
"^'	c #182F3E",
"/'	c #263D4E",
"('	c #263D4D",
"_'	c #233846",
":'	c #111F2A",
"<'	c #0F1A23",
"['	c #242C34",
"}'	c #1B2A37",
"|'	c #131F29",
"1'	c #15232D",
"2'	c #12202A",
"3'	c #111C25",
"4'	c #373738",
"5'	c #232B34",
"6'	c #14212A",
"7'	c #111D25",
"8'	c #232B33",
"9'	c #22313F",
"0'	c #202F3D",
"a'	c #222B33",
"b'	c #373838",
"c'	c #16232E",
"d'	c #233240",
"e'	c #222A32",
"f'	c #1F2E3C",
"g'	c #202A32",
"h'	c #21303F",
"i'	c #23333F",
"j'	c #202931",
"k'	c #1F272E",
"l'	c #17222C",
"m'	c #202E3B",
"n'	c #111C24",
"o'	c #111B24",
"p'	c #0F171F",
"q'	c #0F181F",
"r'	c #0F1820",
"s'	c #0F1920",
"t'	c #0F1921",
"u'	c #111E28",
"v'	c #1E262D",
"w'	c #121F28",
"x'	c #111C26",
"y'	c #0E181F",
"z'	c #0D161E",
"A'	c #101A21",
"B'	c #131E28",
"C'	c #132029",
"D'	c #13222D",
"E'	c #132939",
"F'	c #162530",
"G'	c #1B2229",
"H'	c #142938",
"I'	c #132431",
"J'	c #14222C",
"K'	c #141F29",
"L'	c #25323D",
"M'	c #2B3E4D",
"N'	c #273746",
"O'	c #283A48",
"P'	c #24333F",
"Q'	c #253441",
"R'	c #263442",
"S'	c #283845",
"T'	c #283744",
"U'	c #273643",
"V'	c #263542",
"W'	c #253542",
"X'	c #263643",
"Y'	c #263543",
"Z'	c #253440",
"`'	c #24313E",
" )	c #23323E",
".)	c #24343F",
"+)	c #25343F",
"@)	c #242F38",
"#)	c #243440",
"$)	c #243340",
"%)	c #273543",
"&)	c #253541",
"*)	c #243441",
"=)	c #253442",
"-)	c #25333F",
"  . . . + . @ @ @ # # $ . % & $ + + . . # + . + % & * & & & = - ; ; > , ' ) ) ) ) ) ) ) ) ) ) ) ) ) ) ) ) ) ) ) ) ) ) ) ) ) ) ) ) ) ) ) ) ) ) ) ) ) ) ) ) ) ) ) ) ) ) ) ) ) ) ) ) ) ) ) ) ) ) ) ' ! & & ; ; ; ~ ; - { % & & ] & % . . ^ . & . . . . # . . . . + . . . . ",
"/ ( _ _ : < _ ( ( < < < [ } | | < < _ < 1 2 3 : 3 4 5 4 5 6 7 8 7 9 0 a b ) ) ) ) ) ) ) ) ) ) ) ) ) ) ) ) ) ) ) ) ) ) ) ) ) ) ) ) ) ) ) ) ) ) ) ) ) ) ) ) ) ) ) ) ) ) ) ) ) ) ) ) ) ) ) ) ) ) ) b c d e 9 0 f 8 6 6 | : 5 d 5 < _ _ } g < d 3 1 < _ : h h < 1 | < h i i ",
"j k k l m m n n n m o m p k q r m m s o q r q t u v w x w y z A B C C D E ) ) ) ) ) ) ) ) ) ) ) ) ) ) ) ) ) ) ) ) ) ) ) ) ) ) ) ) ) ) ) ) ) ) ) ) ) ) ) ) ) ) ) ) ) ) ) ) ) ) ) ) ) ) ) ) ) ) ) F G H I J z H H K w L q v x v M M q q q N t q m m n O n M m q q M P o o ",
"Q Q R S T T Q T T T T U R V W U W W W U U W T T T W W X U Y Z `  ...+.@.#.) ) ) ) ) ) ) ) ) ) ) ) ) ) ) ) ) ) ) ) ) ) ) ) ) ) ) ) ) ) ) ) ) ) ) ) ) ) ) ) ) ) ) ) ) ) ) ) ) ) ) ) ) ) ) ) ) ) ) $.%.&.*.=.-.;.>.>.>.X W X >.>.W U U U U >.,.W T W Q V T W W X X W T W W ",
"'.).!.~.{.{.].^.'.].'./.'.].'.)./.(.'.~.'.]._.:.>.,.:.<.'.'.[.}.|.1.2.D 3.) ) ) ) ) ) ) ) ) ) ) ) ) ) ) ) ) ) ) ) ) ) ) ) ) ) ) ) ) ) ) ) ) ) ) ) ) ) ) ) ) ) ) ) ) ) ) ) ) ) ) ) ) ) ) ) ) ) ) 4.5.6.z 7.8.9.0.].].{.:.:.0.'.).!.a.b.(.).b.!.~.'.~.'.~.c.b.).~.~.~./.d.",
"&.e.f.g.g.g.h.i.i.i.j.j.g.g.k.l.l.m.n.o.p.n.k v K C q.r.C s.t.u.I v.w.x.y.) ) ) ) ) ) ) ) ) ) ) ) ) ) ) ) ) ) ) ) ) ) ) ) ) ) ) ) ) ) ) ) ) ) ) ) ) ) ) ) ) ) ) ) ) ) ) ) ) ) ) ) ) ) ) ) ) ) ) z.A.B.t.C.D.E.F.G.H.I.z C p.o t t q r o J.o K.h.L.h.j.M.i.l.N.k.O.g.e.g.",
"o.o P.Q.w w I w s.w Q.Q.o o w z z z C R.E.I.C S.v.T.U.w.V.w.W.X.Y.Z.`. +.+) ) ) ) ) ) ) ) ) ) ) ) ) ) ) ) ) ) ) ) ) ) ) ) ) ) ) ) ) ) ) ) ) ) ) ) ) ) ) ) ) ) ) ) ) ) ) ) ) ) ) ) ) ) ) ) ) ) ) ++@+#+$+J %+&+*+=+-+U.;+B.>+,+>+r.'+)+C z C s.!+I I ~+F.F.{+~+s.Q.r o |.",
"]+V.&+^+/+(+_+:+<+:+[+(+[+(+}+|+1+2+3+4+5+6+7+v T.8+9+#+[+/+0+a+6.8+b+c+d+) ) ) ) ) ) ) ) ) ) ) ) ) ) ) ) ) ) ) ) ) ) ) ) ) ) ) ) ) ) ) ) ) ) ) ) ) ) ) ) ) ) ) ) ) ) ) ) ) ) ) ) ) ) ) ) ) ) ) e+U.9+f+g+:+(+^+h+i+j+#+C B k+l+4+m+1+n+o+p+/+(+_+q+_+p+^+/+r+s+&+=+[+t+",
"#+`.[+:+:+[+u+:+v+W.[+w+[+[+h+x+x+x+3+y+z+A+B+C+w.`.D+w.`.E+F+G+S.H+I+J+K+) ) ) ) ) ) ) ) ) ) ) ) ) ) ) ) ) ) ) ) ) ) ) ) ) ) ) ) ) ) ) ) ) ) ) ) ) ) ) ) ) ) ) ) ) ) ) ) ) ) ) ) ) ) ) ) ) ) ) L+M+I+N+O+F+0+P+W.V.W.[+Q+A.g+w.R+3+q+P+S+T+/+U+p+x+q+0+S+:+[+&+t+t+j+`.",
"=+=+[+V+P+_+p+x+p+P+W+h+:+X+p+4+2+Y+Y+Z+`+ @.@+@Z.9+9+8+H+@@#@$@%@b+&@*@=@) ) ) ) ) ) ) ) ) ) ) ) ) ) ) ) ) ) ) ) ) ) ) ) ) ) ) ) ) ) ) ) ) ) ) ) ) ) ) ) ) ) ) ) ) ) ) ) ) ) ) ) ) ) ) ) ) ) ) -@D+W.&@;@>@#@F+,@w.'@I+)@!@~@Z.{@>@]@^@q+q+p+S+x+/@x+3+x+(@S+W.&@W.[+w+",
"[+=+_@q+/@3+:@<@#@3+#@(@(@P+#@2+[@Z+{@[@`+}@g.+@$+w+I+|@1@h+{@N+%@I+S+2@=@) ) ) ) ) ) ) ) ) ) ) ) ) ) ) ) ) ) ) ) ) ) ) ) ) ) ) ) ) ) ) ) ) ) ) ) ) ) ) ) ) ) ) ) ) ) ) ) ) ) ) ) ) ) ) ) ) ) ) 3@j+_@I+4@#@5@:@|@8+0+j+5.{+6@$+7@E+3+[@3+8@3+q+2+3+/@9@[@Z+3+q+0@p+T+W.",
"_@[+U+p+a@b@c@b@<@[@Z+3+3+3+3+8@b@b@d@e@f@g@h@i@j@I+&@I+I+k@#@$@l@W.h+2@m@) ) ) ) ) ) ) ) ) ) ) ) ) ) ) ) ) ) ) ) ) ) ) ) ) ) ) ) ) ) ) ) ) ) ) ) ) ) ) ) ) ) ) ) ) ) ) ) ) ) ) ) ) ) ) ) ) ) ) n@I+h+I+o@#@{@p+W.W.:@b+p@g+q@H+[@x+Z+5@[@9@9@r@b@3+3+s@s@c@b@[@8@3+/@p+",
"p+p+q+3+3+9@s@b@<@[@t@[@[@<@Z+5@b@t@u@v@w@x@C.y@T.I+E+P+&@h+Y+N+;+z@h+i A@) ) ) ) ) ) ) ) ) ) ) ) ) ) ) ) ) ) ) ) ) ) ) ) ) ) ) ) ) ) ) ) ) ) ) ) ) ) ) ) ) ) ) ) ) ) ) ) ) ) ) ) ) ) ) ) ) ) ) B@I+W+W.C@F+E+0+&@h+/@[+D@)@E@`.t@F@G@Z+t@H@s@I@J@Z+3+b@K@L@J@c@c@9@2+P+",
"/@3+b@y+9@9@b@[@P+3+[@s@d@<@[@d@t@u@t@M@N@O@P@Q@R@j+E+>@E+(@#@f+R@S@W+e T@) ) ) ) ) ) ) ) ) ) ) ) ) ) ) ) ) ) ) ) ) ) ) ) ) ) ) ) ) ) ) ) ) ) ) ) ) ) ) ) ) ) ) ) ) ) ) ) ) ) ) ) ) ) ) ) ) ) ) U@W.W+I+V@W@z+N+z+>@#@X@X.Y@6+8+d@b@Y+Z@K@`@c@ #.#u@Z+d@t@K@L@L@s@s@b@p+",
"0@x+8@b@m+b@b@]@W+z+>@b@[@{@b@t@<@F@u@+#@###P@$#D@i+k@:@W+E+E+,@%@z+E+e %#) ) ) ) ) ) ) ) ) ) ) ) ) ) ) ) ) ) ) ) ) ) ) ) ) ) ) ) ) ) ) ) ) ) ) ) ) ) ) ) ) ) ) ) ) ) ) ) ) ) ) ) ) ) ) ) ) ) ) &#:+(@*#J N+N+f+E+{@x+=+=#Y@6+`.s@`@Z+Z+u@c@ #c@L@y+{@{@3+9@t@t@u@K@9@E+",
"W.&@E+2+8@8@9@x+S+E+#@[@2+<@d@t@[@d@-#v@;#O@>#,#'#i+'@P+Y+E+z+H+%@0+k@2 T@) ) ) ) ) ) ) ) ) ) ) ) ) ) ) ) ) ) ) ) ) ) ) ) ) ) ) ) ) ) ) ) ) ) ) ) ) ) ) ) ) ) ) ) ) ) ) ) ) ) ) ) ) ) ) ) ) ) ) B@S+p+b+)#!#N+~##@#@W+b+{#.@g+9+K@K@e@u@t@u@c@3+9@b@#@2+#@3+8@[@<@Z+<@>@",
"w+w+b+~#3+1+2+3+P+E+x+2+x+{@<@[@]#`@e@u@G@^#!+/#R@,@'@#@Z+3+(@(#_#&@h+d :#) ) ) ) ) ) ) ) ) ) ) ) ) ) ) ) ) ) ) ) ) ) ) ) ) ) ) ) ) ) ) ) ) ) ) ) ) ) ) ) ) ) ) ) ) ) ) ) ) ) ) ) ) ) ) ) ) ) ) <#h+~#[#}#W@z+E+#@(@0@I+|#C+C@i+t@L@s@c@d@d@[@3+c@y+/@#@]@>@^@3+#@1#3+{@",
"#+{+L.2#o.o.k p l.l.m.p p o.t l@{@u@[@t@@#3#4#Z.!@I+z+5#]@[@Y+*#2#R@w+d 6#) ) ) ) ) ) ) ) ) ) ) ) ) ) ) ) ) ) ) ) ) ) ) ) ) ) ) ) ) ) ) ) ) ) ) ) ) ) ) ) ) ) ) ) ) ) ) ) ) ) ) ) ) ) ) ) ) ) ) 7#'@b+o 8##@>@>@W+h+0+I+$#y@9#t+-#s@s@d@=+{+o |.o o p 2#2#0#o.o.h@n.>#h+",
"!+!+I.C a#I a#b#a#c#{+C Y.B S.B q+9@d@d@d#e#f#g#$+E+>@#@#@{@Y+,@h#p w+i#6#) ) ) ) ) ) ) ) ) ) ) ) ) ) ) ) ) ) ) ) ) ) ) ) ) ) ) ) ) ) ) ) ) ) ) ) ) ) ) ) ) ) ) ) ) ) ) ) ) ) ) ) ) ) ) ) ) ) ) <#W.%@2#j#7@#@>@k@X@h+&@k#l#m#[@b@b@t@u@>+6.5.c#n#E.a#a#o#J c#I.G.p#J 5.",
"r.p#,+q#%@5.)+5.5.I.2.'+1.l@r#2 p+3+[@s#t@t#u#v#w#z+>@:@Y+:@E+x#y#>#w+-+6#) ) ) ) ) ) ) ) ) ) ) ) ) ) ) ) ) ) ) ) ) ) ) ) ) ) ) ) ) ) ) ) ) ) ) ) ) ) ) ) ) ) ) ) ) ) ) ) ) ) ) ) ) ) ) ) ) ) ) z#=+Z.A#B#Y+(@z+k@W.k@C#D#E#F#G#c@Z+{@9@H#^+A.B G.5.'+I#B A r.%@J#H.G.D@",
"K#6.L#M#Y@N#O#P#N Q#R#m L#z #+y@p+G@G@5#d@S#T#U#V#W#z+E+k@k@N+X#A#>#b+r#%#) ) ) ) ) ) ) ) ) ) ) ) ) ) ) ) ) ) ) ) ) ) ) ) ) ) ) ) ) ) ) ) ) ) ) ) ) ) ) ) ) ) ) ) ) ) ) ) ) ) ) ) ) ) ) ) ) ) ) 7#b+8+Y#Z#0@z+N+&@N+E+`# $.$+$d@#@(@s#9@D@@$E.L##$,+M#N $$m Y@D@H#r.I#%$",
"&$H#6.*$C %$z O#=$-$;$>$u ,$b+!@S+#@G@F+7@'$)$!$~$k@S+&@I+h+I+{$y#o =+&+%#) ) ) ) ) ) ) ) ) ) ) ) ) ) ) ) ) ) ) ) ) ) ) ) ) ) ) ) ) ) ) ) ) ) ) ) ) ) ) ) ) ) ) ) ) ) ) ) ) ) ) ) ) ) ) ) ) ) ) ]$I+V.Y#P.(@W@k@&@W#(@^$/$($_$:$F+F+Y+u@%@[+t.&$,+z $$H.N L#6.I#L#l@l@,+",
"%$,+H#<$[$G.I#'+}$|$,+1$|$F.2$y@U+Y+s#F+Y+'$3$4$5$N+h+'@'@&@&@6$y#p.s+7$8$) ) ) ) ) ) ) ) ) ) ) ) ) ) ) ) ) ) ) ) ) ) ) ) ) ) ) ) ) ) ) ) ) ) ) ) ) ) ) ) ) ) ) ) ) ) ) ) ) ) ) ) ) ) ) ) ) ) ) 9$I+V.c#t E+(@E+W@E+E+@#0$a$b$w@c$F+7@d$D@W.I.e$a#>+c+M#f$q.D@5.v.U.f$H#",
"2$%$C %@g$L#%@h$[+i$^+q+(+#+w+Z.U+Y+s#5#s#j$k$l$m$k@z+N+f+&@_@Z.y##$&+r#n$) ) ) ) ) ) ) ) ) ) ) ) ) ) ) ) ) ) ) ) ) ) ) ) ) ) ) ) ) ) ) ) ) ) ) ) ) ) ) ) ) ) ) ) ) ) ) ) ) ) ) ) ) ) ) ) ) ) ) o$=+#+~+o @@(@E+~#(@>@^$p$q$r$w@5#5#Y+[@R@U+`.w+*#[+%+*+`.h$K#U.Z.s$S.`.",
"#+b+l@y@t$u$v$w$&@&@&@0+z+f+f+i@/+Z+Z+G@N@x$y$z$A$E+>@k@N+N+w+Z.y#p t+*+n$) ) ) ) ) ) ) ) ) ) ) ) ) ) ) ) ) ) ) ) ) ) ) ) ) ) ) ) ) ) ) ) ) ) ) ) ) ) ) ) ) ) ) ) ) ) ) ) ) ) ) ) ) ) ) ) ) ) ) B$I+#+I o @@F+F+z+E+#@@#C$D$E$w@Y+5#N@8@Y@w+h+F$N+:+~#_@I+b+D@#+j+U.I+|@",
"b+[+w+2$Z.y@/#b+&@h+_@'@W#f+w+G$S+#@{@1#s#H$3$I$A$:@x+(@~#w+w+Z.P.2#V.J$n$) ) ) ) ) ) ) ) ) ) ) ) ) ) ) ) ) ) ) ) ) ) ) ) ) ) ) ) ) ) ) ) ) ) ) ) ) ) ) ) ) ) ) ) ) ) ) ) ) ) ) ) ) ) ) ) ) ) ) B$[+#+I o @@z+z+N+z+7@K$L$M$N$d@O$5#>@^@D@N+k@z+N+~#~#W+w+b+R@`.*#I+W.I+",
"&@h+z+w+j+8+y@I+h+W@0@z+N+P$P$Q$[+W+P+0@Y+R$S$T$U$]@3+P+E+k@F$2$Q.n.V.V.V$) ) ) ) ) ) ) ) ) ) ) ) ) ) ) ) ) ) ) ) ) ) ) ) ) ) ) ) ) ) ) ) ) ) ) ) ) ) ) ) ) ) ) ) ) ) ) ) ) ) ) ) ) ) ) ) ) ) ) W$5+X$Y$q @@k@z+z+#@G@Z$`$ %.%d@Z@5#5#Z+D@N+(@(@E+E+k@k@w+I+!@I+I+I+W.&@",
"&@N+N+k@0+b+G$w+&@F$W@+%W#,@|@|#[+k@z@:@Y+@%S$#%$%>@{@3+>@(@k@i+!+p V.-+n$) ) ) ) ) ) ) ) ) ) ) ) ) ) ) ) ) ) ) ) ) ) ) ) ) ) ) ) ) ) ) ) ) ) ) ) ) ) ) ) ) ) ) ) ) ) ) ) ) ) ) ) ) ) ) ) ) ) ) %%w+2$!+N @@E+E+>@5#5#^$&%*%=%d@:$-%5#8@p@N+(@F+(@@@k@&@W.I+;+w+[+&@h+h+",
"w+&@&@z+E+|@;%I+&@&@W#N+W#,@,@4#b+h+z@S@#@K@>%,%'%F+#@#@x+@@&@#+Q.m.`.V.n$) ) ) ) ) ) ) ) ) ) ) ) ) ) ) ) ) ) ) ) ) ) ) ) ) ) ) ) ) ) ) ) ) ) ) ) ) ) ) ) ) ) ) ) ) ) ) ) ) ) ) ) ) ) ) ) ) ) ) %%I+U.Q.o $@F$F$(@5#N@)%&%!%~%Z@F+z+F+8@'#{%5#5#E+N+N+W.I+b+T.W.&@N+h+W.",
"w+&@E+P+x+*#]%|@&@N+W#f+f+P$,@|#V.'@h+h+>@s@^%/%'%(@x+/@P+~#N+#+Q.2#`.`.8$) ) ) ) ) ) ) ) ) ) ) ) ) ) ) ) ) ) ) ) ) ) ) ) ) ) ) ) ) ) ) ) ) ) ) ) ) ) ) ) ) ) ) ) ) ) ) ) ) ) ) ) ) ) ) ) ) ) ) (%*#_%P.J.W.f+f+E+#@s#Z$&%:%~%Z@-%F+>@8@D@k@G@5#(@N+$@w+,@1@t$j+I+N+h+w+",
"&@&@~#(@>@w+]%*#&@$@$@$@<%P$P$D@j+&@f+f+>@s@[%}%|%1#/@x+0+z+N+M+Q.p `.`.8$) ) ) ) ) ) ) ) ) ) ) ) ) ) ) ) ) ) ) ) ) ) ) ) ) ) ) ) ) ) ) ) ) ) ) ) ) ) ) ) ) ) ) ) ) ) ) ) ) ) ) ) ) ) ) ) ) ) ) 1%I+B.P.#$2%w+I+z+F+Y+3%L$4%b$Z+z+(@5#[@l@~#>@5%5#-%$@f+,@|@/#H+f+W.k@w+",
"W.N+h+0+E+w+j@P$*#P$f+&@f+,@,@|#I+&@|@w+P+u@6%7%8%>@q+P+~#N+2%2$Q.p t+`.n$) ) ) ) ) ) ) ) ) ) ) ) ) ) ) ) ) ) ) ) ) ) ) ) ) ) ) ) ) ) ) ) ) ) ) ) ) ) ) ) ) ) ) ) ) ) ) ) ) ) ) ) ) ) ) ) ) ) ) . =+U.P.o.w+w+,@k@(@#@`#9%0%_$s#W@(@#@9@D@~##@]@(@z+f+,@*#|@$#b+f+f+z+w+",
"I+W.~#E+E+w+j@i+,@2%5+&@f+<%H+p@b+W.w+@@:@F+a%b%c%-%E+W+h+h+f+_%Q.d%b+-+e%) ) ) ) ) ) ) ) ) ) ) ) ) ) ) ) ) ) ) ) ) ) ) ) ) ) ) ) ) ) ) ) ) ) ) ) ) ) ) ) ) ) ) ) ) ) ) ) ) ) ) ) ) ) ) ) ) ) ) f%b+T.>#o N+,@|@h+E+g%h%i%j%k%#@>@E+Y+9@%@k@P+>@>@~#$@<%b+1@R@w$,@w+h+,@",
"I+N+E+0+0+I+j@b+I+5+&@!#,@l%H+4#8+&@f+~#F+A+m%n%o%$@~#W+h+5+,@Z.Q.m.`.-+e%) ) ) ) ) ) ) ) ) ) ) ) ) ) ) ) ) ) ) ) ) ) ) ) ) ) ) ) ) ) ) ) ) ) ) ) ) ) ) ) ) ) ) ) ) ) ) ) ) ) ) ) ) ) ) ) ) ) )   `.T.!+J.5+w+w+N+N+5+x#p%q%r%*#>@@@>@2+B+~#E+E+(@z+2%2%,@*#%@i+b+I+N+I+",
"*#E+0+@@@@,@s%2%W.&@z+N+,@|@H+9#8+&@w+N+Y+t%u%v%w%I+W.:+W.&@w+Q@o l.`.X$e%) ) ) ) ) ) ) ) ) ) ) ) ) ) ) ) ) ) ) ) ) ) ) ) ) ) ) ) ) ) ) ) ) ) ) ) ) ) ) ) ) ) ) ) ) ) ) ) ) ) ) ) ) ) ) ) ) ) ) x%y%;+Q.p 5+5+&@:+W.,@z%A%B%C%F+(@N+F+3+D@~#E+&@z+$@5+5+5+b+S.8+w$|@W.j+",
"b+h+~#~#z+b+j@N+N+$@@@$@,@1@H+4#9+2%,@&@D%Z@E%F%G%h+/+&@w+w+w+l@o m.8+M+H%) ) ) ) ) ) ) ) ) ) ) ) ) ) ) ) ) ) ) ) ) ) ) ) ) ) ) ) ) ) ) ) ) ) ) ) ) ) ) ) ) ) ) ) ) ) ) ) ) ) ) ) ) ) ) ) ) ) ) I%`.A.P.k 0+z+~#~#N+J%K%L%M%N%]@E+N+E+2+C+N+z+*#<%F$&@,@2%b+%@I+w+b+w+b+",
"y%5+k@z+N+O%s%f+z+z+W@N+w+,@P$=#8+w+w+W.E+u@P%Q%R%W@E+h+=+I+j+R@o l.V.w.H%) ) ) ) ) ) ) ) ) ) ) ) ) ) ) ) ) ) ) ) ) ) ) ) ) ) ) ) ) ) ) ) ) ) ) ) ) ) ) ) ) ) ) ) ) ) ) ) ) ) ) ) ) ) ) ) ) ) ) S%b+A.P.k /+~#w+N+~#2%T%/$U%V%>@(@~#0+3+4#&@N+P$P$w+$@,@,@*#D@=+&@*#,@b+",
",@N+N+U+N+#+$#*#5+5+F$-%N+w+H+4#8+I+w+W.0+K@W%X%Y%+%p+S+[+w+9+D@|.K.V.Z%H%) ) ) ) ) ) ) ) ) ) ) ) ) ) ) ) ) ) ) ) ) ) ) ) ) ) ) ) ) ) ) ) ) ) ) ) ) ) ) ) ) ) ) ) ) ) ) ) ) ) ) ) ) ) ) ) ) ) ) `%8+A.o p :+w+*#W.U+N+ &.&+&~%c$>@E+E+5%I#w+2%,@P$f+&@f+f+H+4#b+I+I+,@H+",
"*#N+h+~#W.Z.{#6$b+*#,@w+,@|@i+9#`.w+,@f+@@Z+@&#&V#N+z+&@&@I+b+D@$&L.X$M+H%) ) ) ) ) ) ) ) ) ) ) ) ) ) ) ) ) ) ) ) ) ) ) ) ) ) ) ) ) ) ) ) ) ) ) ) ) ) ) ) ) ) ) ) ) ) ) ) ) ) ) ) ) ) ) ) ) ) ) %&#+;+o p W.*#P$w+5+N+e#&&*&=&c$0@h+0+-&_#,@W.2%w+f+w+,@*#6$C+=+@$*#H+H+",
"8+w+I+2%*#D.=#6$i+1@P$P$J%i+X#|#Z.H+b+w+N+s#;&>&,&w+&@I+*#I+*#!@|.L.8+U.'&) ) ) ) ) ) ) ) ) ) ) ) ) ) ) ) ) ) ) ) ) ) ) ) ) ) ) ) ) ) ) ) ) ) ) ) ) ) ) ) ) ) ) ) ) ) ) ) ) ) ) ) ) ) ) ) ) ) ) )&#+;+o p W.b+H+I+&@&@!&&&!%=&;#]@5+z+x+p@P$I+,@<%W.|@H+P$6$C+w+w+j+*#i+",
"i+8+i+*#`.$#'#6$6$Z.X#~&1@w+J%|#,#{$*#*#w+N@{&]&^&*#w+I+I+,@w+;+o N.X$y@'&) ) ) ) ) ) ) ) ) ) ) ) ) ) ) ) ) ) ) ) ) ) ) ) ) ) ) ) ) ) ) ) ) ) ) ) ) ) ) ) ) ) ) ) ) ) ) ) ) ) ) ) ) ) ) ) ) ) ) /&`.v.o (&U+,@H+*#w+&@_&:&<&[&c$(@N+&@P+p@*#w+,@*#}&b+P$H+a+Y@j+w+b+H+#+",
"8+8+b+W.&+$#p@{$D.]%D.$+b+2%X#4@Q@H+,@*#w+3+T#|&1&P$,@w+w+w+w+$#o K.M+v.'&) ) ) ) ) ) ) ) ) ) ) ) ) ) ) ) ) ) ) ) ) ) ) ) ) ) ) ) ) ) ) ) ) ) ) ) ) ) ) ) ) ) ) ) ) ) ) ) ) ) ) ) ) ) ) ) ) ) ) %&`.v.P.2#N+w+i+H+*#w+2&3&4&|%F+~#F$0+D%+@y%&@I+6$*#H+`.H+{$I#=+I+8+8+6$",
"2$8+9+w+=+i@.@{$6$Z.$+$+I+w+5&6&Z.j+w+1@W.q+7&8&9&`.=+b+*#,@,@G$|.K.M+B.'&) ) ) ) ) ) ) ) ) ) ) ) ) ) ) ) ) ) ) ) ) ) ) ) ) ) ) ) ) ) ) ) ) ) ) ) ) ) ) ) ) ) ) ) ) ) ) ) ) ) ) ) ) ) ) ) ) ) ) 0&8+T.o (&5+,@i+9+I+}&G+a&b&c&E+&@&@0+0@5.`.W.I+{$H+b+O%#+D._#t+b+Z.i+6$",
"6$#+`.y%H+$#p@2$i+i+D.d&*#H+.@,#=+[+I+I+@$@$e&f&!@H+b+,@*#w+b+!@s l.X$2 '&) ) ) ) ) ) ) ) ) ) ) ) ) ) ) ) ) ) ) ) ) ) ) ) ) ) ) ) ) ) ) ) ) ) ) ) ) ) ) ) ) ) ) ) ) ) ) ) ) ) ) ) ) ) ) ) ) ) ) g&`.Q@|.(&N+5+,@j+w+W.#+h&i&`.E+@@,@w+:+&+j&V.*#$+5&H+H+H+H+%@`.b+i+#+i+",
"Z.8+8+H+H+i@p@H+H+y%{#D@i+p@_#V.%+[+=+*#&+>+l.P.k&y%I+w+f+2%I+T.s l&t+2 '&) ) ) ) ) ) ) ) ) ) ) ) ) ) ) ) ) ) ) ) ) ) ) ) ) ) ) ) ) ) ) ) ) ) ) ) ) ) ) ) ) ) ) ) ) ) ) ) ) ) ) ) ) ) ) ) ) ) ) m&t+l@o p N+2%f+W.h+h+`.s.p.s.@$h+|@f+h+/+w.I##+$#j&Z.i+b+H+S.8+8+8+8+2$",
"Z.2$i+`.H+]%p@X#b+Z.o#,#_#H#_%w+W.:+@$6$j&g.o.z s+2%I+f+5+5+w+n&o (&`.U.o&) ) ) ) ) ) ) ) ) ) ) ) ) ) ) ) ) ) ) ) ) ) ) ) ) ) ) ) ) ) ) ) ) ) ) ) ) ) ) ) ) ) ) ) ) ) ) ) ) ) ) ) ) ) ) ) ) ) ) p&`.R@o d%W.2%W.N+z+0+S+S.&$g.z w+w+2%W.U+:+Q@,$Z.)+B+8+#+Z.s$M+6$6$#+6$",
"s%]%6$#+i+$#.@6$_%E.l@Q$Y@2$H+*#:+@$`._#q&$&O#2$b+*#w+*#w+I+*#D@o m.Z.B.r&) ) ) ) ) ) ) ) ) ) ) ) ) ) ) ) ) ) ) ) ) ) ) ) ) ) ) ) ) ) ) ) ) ) ) ) ) ) ) ) ) ) ) ) ) ) ) ) ) ) ) ) ) ) ) ) ) ) ) s&9+%@p.d%w+,@N+k@N+&@0+:+2.&$t&}$b+=+w+[+:+*#A.2.Q@u&t.y@D.I##+8+~&Z.{$",
"{#v&6$6$#+i@w&$#I.]%!@x&b+*#H+*#W.w+%$j.p z y&i+Z.i+I+X#P$b+#+D@o z&Z.A&B&) ) ) ) ) ) ) ) ) ) ) ) ) ) ) ) ) ) ) ) ) ) ) ) ) ) ) ) ) ) ) ) ) ) ) ) ) ) ) ) ) ) ) ) ) ) ) ) ) ) ) ) ) ) ) ) ) ) ) C&V.C+$&d%s+P$f+f+&@N+w+=+s+r.o g.E.V.:+@$5+w+8+B+6.Q@z j&j@Y@#+2$$+D.5&",
"]%Z.Z.Z.H+n&Y@a#D@{#D&$+w+*#b+*#W.z%E&F&a#X$6$i+H+H+=+`.y%6$;+o o.#$-+A.B&) ) ) ) ) ) ) ) ) ) ) ) ) ) ) ) ) ) ) ) ) ) ) ) ) ) ) ) ) ) ) ) ) ) ) ) ) ) ) ) ) ) ) ) ) ) ) ) ) ) ) ) ) ) ) ) ) ) ) G&V.H#p.2#6._%<%,@,@5+I+*#`.w+q.Q.H&I&&@w+W.O%j+8+Y@r.J&&$$#I#y@D.{$D._%",
"Z.y@D.{$6$;+j&,#D@G.i@2$*#i+[+_@K&L&M&N&V.&+Z.6$,@,@w+w+=+y@#$2#t O&P&A.B&) ) ) ) ) ) ) ) ) ) ) ) ) ) ) ) ) ) ) ) ) ) ) ) ) ) ) ) ) ) ) ) ) ) ) ) ) ) ) ) ) ) ) ) ) ) ) ) ) ) ) ) ) ) ) ) ) ) ) Q&X$[+a#n.&.j&O%f+f+F$&@w+2$s+:+R&S&T&U&k@:+8+*#=+H++@j&J&y@<$$#D.{$Z.Z.",
"Z.i@y@y@{$i@A.J&o#_%i+6$#+i+w+V&W&X&Y&Z&=+t+8+P$*#<%I+I+M+o L.>#A.`.#+A.B&) ) ) ) ) ) ) ) ) ) ) ) ) ) ) ) ) ) ) ) ) ) ) ) ) ) ) ) ) ) ) ) ) ) ) ) ) ) ) ) ) ) ) ) ) ) ) ) ) ) ) ) ) ) ) ) ) ) ) `&X$w+b+c#2#q&%@w+|@f+~#5+*#t+v+@# *.*+*@*&@`.O%H+P$y%G.6.w.j&i@$+D.5&D.",
"i@!@y@_%i@5.r.E.$#[#Z.$+6$b+#*$*%*&***+%[+w+b+i+O%b+*#X$N f.o l@=+=+#+A.B&) ) ) ) ) ) ) ) ) ) ) ) ) ) ) ) ) ) ) ) ) ) ) ) ) ) ) ) ) ) ) ) ) ) ) ) ) ) ) ) ) ) ) ) ) ) ) ) ) ) ) ) ) ) ) ) ) ) ) =*i+=+,@}&{+N.k.,#b+w+2%,@5+I+w+E+-*;*>*,*'*9+`.i+Z.y%2$V@f$G.D@D.]%Z.Z.",
"i@]%)*Q@j&!**#X##+$+Z.Z.~&~*{*:%]*^*`+W.I+<%,@b+P$H+6$>#e./*_#t+*#*#6$A.B&) ) ) ) ) ) ) ) ) ) ) ) ) ) ) ) ) ) ) ) ) ) ) ) ) ) ) ) ) ) ) ) ) ) ) ) ) ) ) ) ) ) ) ) ) ) ) ) ) ) ) ) ) ) ) ) ) ) ) (*9+I+H+I+`.c#N.L.D@*#w+*#<%2%2%W.E++$_*:*<*j@i+2$Z.i+6$2$<%y&r.!@]%h$$+",
"D.{$i@Y@%$J&2$8+Z.i@6$6$a+[*}*|*1*C#U+@$w+,@,@X#X##+I e.o._#b+H+i+b+#+A.B&) ) ) ) ) ) ) ) ) ) ) ) ) ) ) ) ) ) ) ) ) ) ) ) ) ) ) ) ) ) ) ) ) ) ) ) ) ) ) ) ) ) ) ) ) ) ) ) ) ) ) ) ) ) ) ) ) ) ) 2*b+w+*#,@*#X$I L.l.U.`.P$J%5+N+5+W.W@3*4*5*6*7*H+#+#+Z.6$#+{#,$D&D@_%y@",
"_%]%_#$#,#_%Z.Z.$+$+6$z%8*9*0*a*C#*#I+I+,@,@b+8+8+a#g.h@6.y%8+O%b+P$#+A.B&) ) ) ) ) ) ) ) ) ) ) ) ) ) ) ) ) ) ) ) ) ) ) ) ) ) ) ) ) ) ) ) ) ) ) ) ) ) ) ) ) ) ) ) ) ) ) ) ) ) ) ) ) ) ) ) ) ) ) b*I+W.w+,@b+=+M+s.h.p )*8+8+*#k@N+w+|@N+c*d*e*f*g*b+`.$+Z.Z.Z.B+D@B !@y@",
"y@Y@h*D@i*{$$+Z.6$$+z%j*k*l*1*2&,@P$I+<%*#w+b+`.)+q&p.r.b+|@8+y%,@*#i+l@B&) ) ) ) ) ) ) ) ) ) ) ) ) ) ) ) ) ) ) ) ) ) ) ) ) ) ) ) ) ) ) ) ) ) ) ) ) ) ) ) ) ) ) ) ) ) ) ) ) ) ) ) ) ) ) ) ) ) ) 2*=+@$2%f+*#b+s+Q@P.k.#$m*8+6$*#2%,@P$,@N+n*o*p*q*r*H+2${$Q@i@y@_#S.q.i@",
"s%4#6$=#]%{$_%#+b+s*t*u*7%v*w**#6$P$|@,@*#w+P&,$j.x*y*=+#+H+b+P$*#*#H+%$z*) ) ) ) ) ) ) ) ) ) ) ) ) ) ) ) ) ) ) ) ) ) ) ) ) ) ) ) ) ) ) ) ) ) ) ) ) ) ) ) ) ) ) ) ) ) ) ) ) ) ) ) ) ) ) ) ) ) ) A*I+W.w+N+I+H+H+}&v.o g.o 2$O%X#,@,@b+H+1@B*C*D*E*F*G*h$6$y@y@y@B+#+Y@T.",
"i@H*{$Y@]%_%Z.6$I*J*K*L*M*N*1@8+2$P$|@H+*#,@6.O*p E.s+8+{$H+*#,@I+I+H+_#z*) ) ) ) ) ) ) ) ) ) ) ) ) ) ) ) ) ) ) ) ) ) ) ) ) ) ) ) ) ) ) ) ) ) ) ) ) ) ) ) ) ) ) ) ) ) ) ) ) ) ) ) ) ) ) ) ) ) ) P*`.}&w+&@,@*#X##+@$,#o.Q*t 2$X#X#b+I+P$b+H+R*S*T*U*V*W*$+]%y@y@4##+B+$#",
"$#p@j@>+{#_%v&~&X*Y*Z*`* =,@H+6${$1@*#b+8+%@q&(&C `.H+{$$+6$8+I+w+*#Z.H.) ) ) ) ) ) ) ) ) ) ) ) ) ) ) ) ) ) ) ) ) ) ) ) ) ) ) ) ) ) ) ) ) ) ) ) ) ) ) ) ) ) ) ) ) ) ) ) ) ) ) ) ) ) ) ) ) ) ) ) .=Z.w+2%I+|@b+H+{$b+@$+=n.@=K 2$1@f+b+*#*#6$*#B*S*#=$=%=&=$#D.i@Y@D@4#G$",
"B+D@p@n#!@i@s%*===#&-=;=<%8+6$2$X#O%H+X#B+N.l.>=,=y%6$]%D.i+O%=+y%P&;+v z*) ) ) ) ) ) ) ) ) ) ) ) ) ) ) ) ) ) ) ) ) ) ) ) ) ) ) ) ) ) ) ) ) ) ) ) ) ) ) ) ) ) ) ) ) ) ) ) ) ) ) ) ) ) ) ) ) ) ) '=C+`.w+,@,@b+H+H+b+X$s+6.(&)=C i+2%I+P$,@b+i+i+_&!=l*a&~={#2$T.j&x&)@_%",
";+D@=#I.!@;+{=]=^=/=(=x#i+~&Z.X#P$P$6$,#(&L.F.[+`.6$i+D.{$*#y%y%2$m*_=J.:=) ) ) ) ) ) ) ) ) ) ) ) ) ) ) ) ) ) ) ) ) ) ) ) ) ) ) ) ) ) ) ) ) ) ) ) ) ) ) ) ) ) ) ) ) ) ) ) ) ) ) ) ) ) ) ) ) ) ) <=t )*8+*#}&P$6$i+H+2$8+w+G.m.t&H.I+<%H+*#b+H+Z.6$_&[=}=|=)*U.y@j&2.2.$#",
")*!@w&P#!@y@j@1=e&2=#+Z._%5&{$H+|@P$$+.@k t 3=#+Z.2$6${$$+P$P&6$8+I.P.4=5=6=) ) ) ) ) ) ) ) ) ) ) ) ) ) ) ) ) ) ) ) ) ) ) ) ) ) ) ) ) ) ) ) ) ) ) ) ) ) ) ) ) ) ) ) ) ) ) ) ) ) ) ) ) ) ) ) ) ) ) 7=F.2$`.=+H+6$6$H+6$y@2$&+Q.n.z #+(#i+*#P$6$D.m*2$8=9=0=y@B.,#a=)@Y@y@",
"X.4#p@r.i@D.!@b=c=<$U.D.H*]%D.6$6$X#Z.Y@>#p.2@Q@D.{$6$X#d&`.X$6$I+q@d=e=f=o g=) ) ) ) ) ) ) ) ) ) ) ) ) ) ) ) ) ) ) ) ) ) ) ) ) ) ) ) ) ) ) ) ) ) ) ) ) ) ) ) ) ) ) ) ) ) ) ) ) ) ) ) ) ) ) ) ) ) z*h=w+,@P$O%6$X#2$2$]%i@w+o.$&t 8+b+i+6$~&$+]%Q@y@%@|.N.s$Q@i@.@6.j&i@",
"$#_#p@r.i@V.U.i=p.<$w.Z.$+D.$+6$6$H+i+j&>#p l@m*Z.y@5&6$j=2$8+2$,@k=l=m=n=o=p=) ) ) ) ) ) ) ) ) ) ) ) ) ) ) ) ) ) ) ) ) ) ) ) ) ) ) ) ) ) ) ) ) ) ) ) ) ) ) ) ) ) ) ) ) ) ) ) ) ) ) ) ) ) ) ) ) ) ) q=F+}&y%8+{$6${${$D.$#`.0#p.&$V.8+8+$+6$2$D.Q@U.S.p.i.<$Q@y@4#6.D&i@",
"y@S.o C m*b+m*2#r=6.H+H+6$Z.$+~&{$6$b+2.Q.n.k&s=)*D.]%{$2$#+m*{$J%t=u=v=w=x=y=) ) ) ) ) ) ) ) ) ) ) ) ) ) ) ) ) ) ) ) ) ) ) ) ) ) ) ) ) ) ) ) ) ) ) ) ) ) ) ) ) ) ) ) ) ) ) ) ) ) ) ) ) ) ) ) ) ) ) z=A=P$$+#+2$2$2$]%j@i@#+0#P.u -+2$2$Z.2$6$D.]%B='#$&i.>+;+h$Y@p B y@",
")*t.n.I.Z.w.A.N./*C=D=E=F=5&X#H+{$D.8+r.P.n.%@y@{${$]%D.D.y@I.'#G+[*G=H=I=J=y=) ) ) ) ) ) ) ) ) ) ) ) ) ) ) ) ) ) ) ) ) ) ) ) ) ) ) ) ) ) ) ) ) ) ) ) ) ) ) ) ) ) ) ) ) ) ) ) ) ) ) ) ) ) ) ) ) ) ) K=L={$p 2${$$+5&$#X.j@2$2#r=u m*6$6$H+8+6$5&M=N=O=o N.*$Q@y@)@N.>+y@",
"]%Y@h@F.;+]%A.2#y#P=Q=R=S=5&$+i+{$H*#+5.r=n.%@i@$+D.]%Z.2$Q@Y#.@$@[*T=U=V=W=y=) ) ) ) ) ) ) ) ) ) ) ) ) ) ) ) ) ) ) ) ) ) ) ) ) ) ) ) ) ) ) ) ) ) ) ) ) ) ) ) ) ) ) ) ) ) ) ) ) ) ) ) ) ) ) ) ) ) ) K=K&6$h#H+2$]%s%j@!@i@2$l.o o )*_%H+H+6${$~*X=Y=Z=!+0#5.;+;+D&o.,+y@",
"$#j&h@I R@;+v.2#`= -.-+-@-D.D.i+2$D.X$r.Q.p H#i@Z.Z.2$6$i+m*I._##-$-%-&-*-=-y=) ) ) ) ) ) ) ) ) ) ) ) ) ) ) ) ) ) ) ) ) ) ) ) ) ) ) ) ) ) ) ) ) ) ) ) ) ) ) ) ) ) ) ) ) ) ) ) ) ) ) ) ) ) ) ) ) ) ) K=--8+h@y%#+D.]%s%]%D.X$N.o u Z.X$6$H+8+Z.;->-,-'-!+m.5.;+;+r.o.E.Q@",
";+Y@h@{+;+_%A.n.I  -)-!-B=i@d&H+i+{$`.6.s.n.H#i@Z.Z.#+#+8+w.G.p@P$}@~-{-]-J=y=) ) ) ) ) ) ) ) ) ) ) ) ) ) ) ) ) ) ) ) ) ) ) ) ) ) ) ) ) ) ) ) ) ) ) ) ) ) ) ) ) ) ) ) ) ) ) ) ) ) ) ) ) ) ) ) ) ) ) ^-/-;-r=y%2$2${$a+5&D.8+l.o s.V.8+i+#+b+Z.{$(-_-'-!+2#6.T.U.r.n.L#B.",
";+x&h@z v.v&R@l.!+:-<-[-a+]%Z.H+Z.6$8+6.P.l.H#i@Z.2$X$8+2$w.s+6$<%}-|-1-2-3-y=) ) ) ) ) ) ) ) ) ) ) ) ) ) ) ) ) ) ) ) ) ) ) ) ) ) ) ) ) ) ) ) ) ) ) ) ) ) ) ) ) ) ) ) ) ) ) ) ) ) ) ) ) ) ) ) ) ) ) ^-r*j=Z.O%y@2$6$D.]%]%X$l.o &$V.8+Z.i+8+6$5&4-5-6-Q.p I#Z.U.r.p r.B.",
"Q@_#D@E.;+v&N#N.Q.2.7-~&D.D.D.i+#+1@b+H#t l.e$i@$+2$2$8+2$2$y%O%$@8-9-0-a-b-c-) ) ) ) ) ) ) ) ) ) ) ) ) ) ) ) ) ) ) ) ) ) ) ) ) ) ) ) ) ) ) ) ) ) ) ) ) ) ) ) ) ) ) ) ) ) ) ) ) ) ) ) ) ) ) ) ) ) ) d-e-X#6$6$U.Z.#+_%i@i@`.2#o v V.6$6$8+X#{$D.D.f-D@t 0#H#U.T.)@5._#y@",
"y@4#%@>+;+D.l@g-P.r.y@_%D.D.$#2$#+`.8+H#P.p s$y@$+2$#+`.8+#+6$#+`.q@~=h-i-}@g=) ) ) ) ) ) ) ) ) ) ) ) ) ) ) ) ) ) ) ) ) ) ) ) ) ) ) ) ) ) ) ) ) ) ) ) ) ) ) ) ) ) ) ) ) ) ) ) ) ) ) ) ) ) ) ) ) ) ) j-i@6$5&6$M+Z.8+Z.T.y@*+p r v V.b+8+=+i+{$X.i@w.%@o d%<$U.;+2.5.r.;+",
"i@_#Y@>+Q@y@%@i.Q.6.B.Z.j@j@]%{$O%#+Z._#P.n.S.;+Z._%2$8+Z.#+2$`.6$]%t.k-l-y=) ) ) ) ) ) ) ) ) ) ) ) ) ) ) ) ) ) ) ) ) ) ) ) ) ) ) ) ) ) ) ) ) ) ) ) ) ) ) ) ) ) ) ) ) ) ) ) ) ) ) ) ) ) ) ) ) ) ) m-%$X$8+2$8+Z.Z.`.#+)*Z.m*p t n-V.b+V.b+8+Z.$#y@w.%$o N.<$)*U.6.)+G.Q@",
"v$6.I#A T.T.%$h#o-9##+Z.y@$#D.{$$+Z.Z.;+!+$&&$!@Z.2${$$+y@2$V.#+$+)*m*D&p-) ) ) ) ) ) ) ) ) ) ) ) ) ) ) ) ) ) ) ) ) ) ) ) ) ) ) ) ) ) ) ) ) ) ) ) ) ) ) ) ) ) ) ) ) ) ) ) ) ) ) ) ) ) ) ) ) ) ) q-k&r-_%2$`.#+i@y@8+2$y@)*A 2#Q.r.V.`.#+H+Z.Z.y@w.-+G$B#h#s$y@Q@q.)+>+!@",
"!@6.a=B v.Q@w.}#s-t-u-5&$#$#$+i@]%]%$+@$h*I O.t ;+Z._%_%D.Z.M+8+2$#+Z.t.=@) ) ) ) ) ) ) ) ) ) ) ) ) ) ) ) ) ) ) ) ) ) ) ) ) ) ) ) ) ) ) ) ) ) ) ) ) ) ) ) ) ) ) ) ) ) ) ) ) ) ) ) ) ) ) ) ) ) ) v-e m*v&`.8+#+y@y@2$#+T.G.q&|.G.[+V.8+{$2$_%U.U.i+L=w-x-y-U.v.!@>+I.A T.",
",#j&4#A !@i i z-A-B-C-D-5&_%D.i@D.D.D.2$W.t.o &.y y@2$_%Z.2$8+8+8+2$;+>+E-) ) ) ) ) ) ) ) ) ) ) ) ) ) ) ) ) ) ) ) ) ) ) ) ) ) ) ) ) ) ) ) ) ) ) ) ) ) ) ) ) ) ) ) ) ) ) ) ) ) ) ) ) ) ) ) ) ) ) F-,#_%#+8+6$#+y@)*m*M+j&q&i=o#&+X$2$i+Z._%D.h$Z.--G-H-I-J-w.%$l@G.G.A ,#",
"l@Y@Z.)@v.v.l@9+K-L-M-N-O-a+]%5&5&$+]%]%Z.w+D&#$&.I.y@Z.2$M+`.#+2$#+y@G.q-) ) ) ) ) ) ) ) ) ) ) ) ) ) ) ) ) ) ) ) ) ) ) ) ) ) ) ) ) ) ) ) ) ) ) ) ) ) ) ) ) ) ) ) ) ) ) ) ) ) ) ) ) ) ) ) ) ) ) P-;+X$8+O%6$i+U.Z.w._#k.N.>#-+V.#+Z.#+#+#+Z.$+Q-R-S-T-,&,@T.S.R@D&l@G.D@",
"%@2._%2.v.v.!@v.,@U-V-W-X-Y-D.D.{$5&{$D.y@_%y%p#Z-e.>+_%m*M+V.2$2$Z.y@6.`-) ) ) ) ) ) ) ) ) ) ) ) ) ) ) ) ) ) ) ) ) ) ) ) ) ) ) ) ) ) ) ) ) ) ) ) ) ) ) ) ) ) ) ) ) ) ) ) ) ) ) ) ) ) ) ) ) ) )  ;T.Z.Z.8+8+8+m*Z.S.K.l.t B._%_%6$Z.#+Z.w._%.;+;@;#;$;C#m*v.!@D@D&!@)@D@",
",#H#v.S.l@T.T.A.;+%;&;*;=;-;;;(#H+6$6${$Z.y@)*&+a#l.&.>+A.Z.#+Z.#+2$,#2.>;) ) ) ) ) ) ) ) ) ) ) ) ) ) ) ) ) ) ) ) ) ) ) ) ) ) ) ) ) ) ) ) ) ) ) ) ) ) ) ) ) ) ) ) ) ) ) ) ) ) ) ) ) ) ) ) ) ) ) ,;B.Z.Z.Z.w.w.m*_#L.k.P.2@;+]%2$8+#+Z.i@#+J%B%';);!;~;$+$#Q@$#C+r.,#Y@$#",
";+)*B+,#j&l@T.;+!@i@+%{;];^;/;(;X#6$6$6$Z.Z.Q@Z.X$Y$N.%.A ;+U.w.2$Z.D@2._;) ) ) ) ) ) ) ) ) ) ) ) ) ) ) ) ) ) ) ) ) ) ) ) ) ) ) ) ) ) ) ) ) ) ) ) ) ) ) ) ) ) ) ) ) ) ) ) ) ) ) ) ) ) ) ) ) ) ) :;Q@m*U.Z.2$y@D@(&k.N A.m*R@$#Z.V.2$2$_%2$<;[;};|;1;Z./#j@y@{#a=,#D@_%i@",
"!@Q@_%D@%$6.D@i@y@y@_%2;3;4;5;6;~&i+Z.D._%D.y@T.B.7;>#q&%.r.Q@)*y@y@D@6._;) ) ) ) ) ) ) ) ) ) ) ) ) ) ) ) ) ) ) ) ) ) ) ) ) ) ) ) ) ) ) ) ) ) ) ) ) ) ) ) ) ) ) ) ) ) ) ) ) ) ) ) ) ) ) ) ) ) ) :;A&_%Z.#+2$D@p h.o %$U._%!@T.Z.6$D.6$6$8;9;0;a;b;6$i@%@!@$#Y@t.D@$#s%!@",
"R@A.;+T.B+H#6.!@y@_%y@Z.c;d;e;f;g;z%Z.y@_%_%Z.y@T.m*m*h;k.e.2.T.y@)*R@Y@_;) ) ) ) ) ) ) ) ) ) ) ) ) ) ) ) ) ) ) ) ) ) ) ) ) ) ) ) ) ) ) ) ) ) ) ) ) ) ) ) ) ) ) ) ) ) ) ) ) ) ) ) ) ) ) ) ) ) ) :;Q@y@Z.Z.;+o.O.p.I#U.B.i@;+y@_%2$8+1@i;j;k;l;m;H+!@!@!@D@t.H#j&{#!@D@D@",
"D@!@%@D@y@k&,$6.,#)*D.$#)*F$n;o;p;q;a+)*;+)*Z.y@)*U.B.B.I q&r;H#Q@)*l@I#s;) ) ) ) ) ) ) ) ) ) ) ) ) ) ) ) ) ) ) ) ) ) ) ) ) ) ) ) ) ) ) ) ) ) ) ) ) ) ) ) ) ) ) ) ) ) ) ) ) ) ) ) ) ) ) ) ) ) ) t;v.y@y@;+o f./*H#w.m*y@y@y@T.Z.8+X#u;v;w;x;c$6$!@D@D@D@j&j&R.l@h*t.p@D@",
"D@%@_#C+;+m*S.>=>+B+$#!@R@T.y;z;A;B;C;X#y@m*m*Z.Z.U.A&l+2@N D;k.I#y@D@j&_;) ) ) ) ) ) ) ) ) ) ) ) ) ) ) ) ) ) ) ) ) ) ) ) ) ) ) ) ) ) ) ) ) ) ) ) ) ) ) ) ) ) ) ) ) ) ) ) ) ) ) ) ) ) ) ) ) ) ) E;A.;+;+>#g.p.6.M+y@)*T.U.y@m*2$O%F;G;H;I;J;2$B+D@!@D@j&~+l@B+l@t.4#B+D@",
"D@v$%@_#%$I#D&e$s.>+'#D@G$R@~*[&u*K;L;Y-D.m*B.y@y@Q@;+Q@w.%@o &.L.S.%@2._;) ) ) ) ) ) ) ) ) ) ) ) ) ) ) ) ) ) ) ) ) ) ) ) ) ) ) ) ) ) ) ) ) ) ) ) ) ) ) ) ) ) ) ) ) ) ) ) ) ) ) ) ) ) ) ) ) ) ) E;%$A.s.Q*o.6.V.Q@!@;+y@Z.2$Z.6$.;^%M;N;O;P$D@{#D@%@2.>#Y@4#A I#.@4#!@|#",
"R@p@B+S.%@5.n#r.x&>#5.R@T.A.,#P$P;Q;R;S;4#v.U.y@U.y@,#A.A.w.S.p.)=m.S.2._;) ) ) ) ) ) ) ) ) ) ) ) ) ) ) ) ) ) ) ) ) ) ) ) ) ) ) ) ) ) ) ) ) ) ) ) ) ) ) ) ) ) ) ) ) ) ) ) ) ) ) ) ) ) ) ) ) ) ) T;v.E...i=P#&+;+R@!@Q@Q@U._%y@v.U;V;N;W;2%;+D@D@R@6.Q.X;6.a=a#Y@4#%@!@D@",
"%$4#p@D@R@2.B Y;6.Y@t H.R@v.v.i@J%Z;`; >2#I#T.i@Q@B.Q@T.D@l@Z.r.d%&.t.j&_;) ) ) ) ) ) ) ) ) ) ) ) ) ) ) ) ) ) ) ) ) ) ) ) ) ) ) ) ) ) ) ) ) ) ) ) ) ) ) ) ) ) ) ) ) ) ) ) ) ) ) ) ) ) ) ) ) ) ) T;A.z i.o &+v.R@,#U.Z._%Q@Q@;+s..>+>@>$@Q@;+!@%@S.s.6.t.s.x&z Y@t.%@p@p@",
"!@D@D@%@%$Y@#>O&)+Y@j&t r.!@;+!@Q@#+m*I i.d%S.l@Q@Q@Q@A.%$%$l@I.l.g.j&r._;) ) ) ) ) ) ) ) ) ) ) ) ) ) ) ) ) ) ) ) ) ) ) ) ) ) ) ) ) ) ) ) ) ) ) ) ) ) ) ) ) ) ) ) ) ) ) ) ) ) ) ) ) ) ) ) ) ) ) $>R@~+l.L.l@;+,#$#_%2$y@O&,#{+N.Q.$#I+2$y@;+%@2.I D&S.o#,#Y@a#_#4#4#4#p@",
"!@!@D@l@A._#C@D@v.>+_#I#>#5.%@R@D@T.r#A.>#L.#$S.;+Q@T.!@R@D@%$z N.g.2.6._;) ) ) ) ) ) ) ) ) ) ) ) ) ) ) ) ) ) ) ) ) ) ) ) ) ) ) ) ) ) ) ) ) ) ) ) ) ) ) ) ) ) ) ) ) ) ) ) ) ) ) ) ) ) ) ) ) ) ) %>l@I i.&.%@D@D@!@y@Z.T.v.z N.o ,$b+U._%y@R@2.s.x&t.C B+%@Y@a#I#4#.@4#4#",
"4#p@%@D@Q@_#A 4#,#M+>=Y@g+o 5.%@l@R@T.X$l@o g.m R@y@)*!@D@,#l@{+N.&.K#L#&>) ) ) ) ) ) ) ) ) ) ) ) ) ) ) ) ) ) ) ) ) ) ) ) ) ) ) ) ) ) ) ) ) ) ) ) ) ) ) ) ) ) ) ) ) ) ) ) ) ) ) ) ) ) ) ) ) ) ) *>g$s.i.&.%@!@%@p@;+=>Q@G.q&/*6.[+Z.i@X.G$%@I >+%@I %$%@t.j&{+Y@.@C+%@D@",
"%@%@R@,#A.6.n#.@D@i@Q@D@D@G.s._#A.t.%@B.*+B+h@g.)+,#v.!@l@,#;+A ->..6.r.&>) ) ) ) ) ) ) ) ) ) ) ) ) ) ) ) ) ) ) ) ) ) ) ) ) ) ) ) ) ) ) ) ) ) ) ) ) ) ) ) ) ) ) ) ) ) ) ) ) ) ) ) ) ) ) ) ) ) ) *>R@>#i.&.D@D@4#4#D@T.%@K.p n#`.w.Q@!@l@D@>+I.D@A._#%$_#.@a=y Y@.@_#4#t.",
"B+D@l@R@l@6.;>x&.@D@D@4#D@.@p#I l@!@D@;+B.V./*>>C A.,#Q$%@R@R@,>i.+.2.D&'>) ) ) ) ) ) ) ) ) ) ) ) ) ) ) ) ) ) ) ) ) ) ) ) ) ) ) ) ) ) ) ) ) ) ) ) ) ) ) ) ) ) ) ) ) ) ) ) ) ) ) ) ) ) ) ) ) ) ) *>%@o j...B+p@p@S.S.;+S.)>C._%#+Z.$#!@;+>+I..@D@!@.@%@p@Y@a={+Y@Y@a=)@Y@",
"4#S.B+R@B+5.{+x&Y@D@D@C+D@t.X;o-I#%$R@%$T.h$!>~>{>l@l@%@S.R@D@a#i.%.6.r.'>) ) ) ) ) ) ) ) ) ) ) ) ) ) ) ) ) ) ) ) ) ) ) ) ) ) ) ) ) ) ) ) ) ) ) ) ) ) ) ) ) ) ) ) ) ) ) ) ) ) ) ) ) ) ) ) ) ) ) *>%@o h.+.S.B+p@D@!@Q@X.]>^>/>y@v&i@;+!@t )@4#D@!@C+C+4#Y@Y@{+2.C+Y@a=Y@",
"%@D@B+%@D@)@c#2..@%@D@4#4#+@Y@;>p#C+D@B+T.H+(>_>:>N#l@l@D@!@D@J N.+.2.5.&>) ) ) ) ) ) ) ) ) ) ) ) ) ) ) ) ) ) ) ) ) ) ) ) ) ) ) ) ) ) ) ) ) ) ) ) ) ) ) ) ) ) ) ) ) ) ) ) ) ) ) ) ) ) ) ) ) ) ) <>[>o O.}>_#D@p@D@$#y@|>1>2>3>Z.4>{#!@D@!+x&.@!@,#_#5>.@+@j&a#Y@C+.@Y@a=",
"%@%@B+D@D@r.a#Y@t.v$D@p@.@6>w&o#B C+t._#l@i+7>8>9>D@A.v.A.l@l@C N.}>6.q.'>) ) ) ) ) ) ) ) ) ) ) ) ) ) ) ) ) ) ) ) ) ) ) ) ) ) ) ) ) ) ) ) ) ) ) ) ) ) ) ) ) ) ) ) ) ) ) ) ) ) ) ) ) ) ) ) ) ) ) <>%@t h.+._#D@%@=#D@;+g*0>a>b>$+$#Q$p@p@Y#j&C+!@,#.@a=Y@Y@2.a#6.t.B+B+Y@",
"Y@2.2.4#S.G.;>9#4#4#D@p@.@.@Y@a#5.B+_#Y@!@9+c>d>e>p@N#v.A.T.A.a#N...6.)+'>) ) ) ) ) ) ) ) ) ) ) ) ) ) ) ) ) ) ) ) ) ) ) ) ) ) ) ) ) ) ) ) ) ) ) ) ) ) ) ) ) ) ) ) ) ) ) ) ) ) ) ) ) ) ) ) ) ) ) f>S.o ->+._#D@t.p@%@R@g*g>h>b>D.D@p@%@D@I _#D@$#!@C+Y@Y@Y@2.I.6.4#D@R@4#",
"Y@2.Y@_#%@5.a#a=C+4#p@p@4#.@Y@{+>+_#C+4#l@i+i>j>k>'#%$v.l>;+v.I L...L#'+'>) ) ) ) ) ) ) ) ) ) ) ) ) ) ) ) ) ) ) ) ) ) ) ) ) ) ) ) ) ) ) ) ) ) ) ) ) ) ) ) ) ) ) ) ) ) ) ) ) ) ) ) ) ) ) ) ) ) ) m>S.o i.+._#t.C+_#_#D@g*n>o>p>]%D@p@4#B+P.4#%@D@R@_#Y@2._#I#a#Y@4#D@R@%@",
"a=I#j&4#D@)@Y.)@Y@|#D@D@Q$.@Y@c#A Y@t.B+_#h$q>r>s>'#%$A.;+$#;+~+i.%.'+>+'>) ) ) ) ) ) ) ) ) ) ) ) ) ) ) ) ) ) ) ) ) ) ) ) ) ) ) ) ) ) ) ) ) ) ) ) ) ) ) ) ) ) ) ) ) ) ) ) ) ) ) ) ) ) ) ) ) ) ) m>D@o t>}>I#C+Y@_#C+|#u>v>w>p>H*D@p@4#%@t S.t.p@%@Y@_#4#_#2.z 6.4#_#B+.@",
"Y@2.6._#%@r.B 2.Y@p@{#D@p@C+a={+*$x>4#t.4#$+y>z>e>|#%@D@T.$#D@{+i.A>q.E.'>) ) ) ) ) ) ) ) ) ) ) ) ) ) ) ) ) ) ) ) ) ) ) ) ) ) ) ) ) ) ) ) ) ) ) ) ) ) ) ) ) ) ) ) ) ) ) ) ) ) ) ) ) ) ) ) ) ) ) f>%@o f.+.Y@C+t.4#C+|#B>C>D>p>E>D@.@9#%@t 4#%@_#Y@j&x>_#Y@x&z 2.Y@C+Y@Y@",
"C+j&I#2.Y@D&I.x&_#%@B+'#.@Y@j&c#'+S.4#.@%@y@F>G>H>.@B+l@;+!@%@{+M.A>5.>+'>) ) ) ) ) ) ) ) ) ) ) ) ) ) ) ) ) ) ) ) ) ) ) ) ) ) ) ) ) ) ) ) ) ) ) ) ) ) ) ) ) ) ) ) ) ) ) ) ) ) ) ) ) ) ) ) ) ) ) I>%@t j.J>I#4#p@D@D@|#K>L>o>M>!@4#N>p@R@r 4#N#4#Y@6.2.I#x&5.~+r.I#Y@j&j&",
"_#Y@4#Y@r.A I.Y@t._#p@4#Y@Y@2.a#q.%@_#Y@R@y@O>P>Q>N>t.%$,#D@%@n#M.A>L#>+'>) ) ) ) ) ) ) ) ) ) ) ) ) ) ) ) ) ) ) ) ) ) ) ) ) ) ) ) ) ) ) ) ) ) ) ) ) ) ) ) ) ) ) ) ) ) ) ) ) ) ) ) ) ) ) ) ) ) ) R>[>>#j.S>I#Q$%@D@%@9#O=T>U>V>D@%@.@%@%@o I#N#S.2.2.Y@6.x&5.I j&j&4#_#)@",
"_#4#%@Y@r.p#{+Y@%@_#4#_#C+Y@Y@~+5.N#S.%@!@W>X>Y>Z>j&_#%@%$R@%@n#i.A>L#*$'>) ) ) ) ) ) ) ) ) ) ) ) ) ) ) ) ) ) ) ) ) ) ) ) ) ) ) ) ) ) ) ) ) ) ) ) ) ) ) ) ) ) ) ) ) ) ) ) ) ) ) ) ) ) ) ) ) ) ) `>S.>#g. ,_#D@t.v$4#_#.,+,@,#,.@%@Y@C+4#o 6.%@S.6.2.Y@2.x&5.y r.Y@t.4#)@",
"6.Y@S.I#Y@A ~+r.'#t.%@.@C+.@x&Y#*$S.N#%@%@6@$,%,&,2._#I#4#p@B+B g-S>r.,+'>) ) ) ) ) ) ) ) ) ) ) ) ) ) ) ) ) ) ) ) ) ) ) ) ) ) ) ) ) ) ) ) ) ) ) ) ) ) ) ) ) ) ) ) ) ) ) ) ) ) ) ) ) ) ) ) ) ) ) I>S.>#&.S>%@D@4#%@C+Y@*,=,-,;,2.S.Y@2._#o 6.%@_#6.2.C+4#Y@G.y )@)@Y@j&>,",
"2.Y@S._#_#>+I D&C+.@t.Y@Y@2.)@`=}$I#%@D@$#_&,,',),>,_#I#_#.@_#a#i.A>H.>+'>) ) ) ) ) ) ) ) ) ) ) ) ) ) ) ) ) ) ) ) ) ) ) ) ) ) ) ) ) ) ) ) ) ) ) ) ) ) ) ) ) ) ) ) ) ) ) ) ) ) ) ) ) ) ) ) ) ) ) !,C+t ~, ,S.D@B+4#_#B+{,],^,/,~*t.j&C+_#o 2.B+_#2.r.Y@4#Y@5.{+5.r.5.5.D&",
"j&I#_#C+2.B !+D&j&Y@.@a=x&a=)@!+C _#I#Y@t.a+(,_,:,2._#[>t.t.6.I j.A>6.[$'>) ) ) ) ) ) ) ) ) ) ) ) ) ) ) ) ) ) ) ) ) ) ) ) ) ) ) ) ) ) ) ) ) ) ) ) ) ) ) ) ) ) ) ) ) ) ) ) ) ) ) ) ) ) ) ) ) ) ) <,<$q Q* ,S.!@D@%@D@D@w%[,},|,X.Y@a=x&I#o I#t.j&)@D&6.C+2.q.K 5.5.r.D&D&",
"j&Y@C+j&r.B !+G.5.Y@C+)@)@Y@)@!+C _#Y@j&_#1,2,3,H>Y@x>x>I#S.j&>#O. ,r.>+4,) ) ) ) ) ) ) ) ) ) ) ) ) ) ) ) ) ) ) ) ) ) ) ) ) ) ) ) ) ) ) ) ) ) ) ) ) ) ) ) ) ) ) ) ) ) ) ) ) ) ) ) ) ) ) ) ) ) ) <,<$o g.J>S.!@p@%@B+D@5,6,7,g;D@2.Y@x&_#o r.2.X;Y@g+5.2.,$B t >+D&5.D&G.",
"2.)@5.D&D&I.Q.A 1.5.x&r.a=Y@)@>#E.2.j&j&_#8,2,9,9>.@s$[>I#I#6.y#f.S>*$,+4,) ) ) ) ) ) ) ) ) ) ) ) ) ) ) ) ) ) ) ) ) ) ) ) ) ) ) ) ) ) ) ) ) ) ) ) ) ) ) ) ) ) ) ) ) ) ) ) ) ) ) ) ) ) ) ) ) ) ) <,I#$&g.J>H#p@.@_#C+p@0,C>a,b,'#2.C+j&)@$&G.)@x&r.g+r.r.5.J o >+G.D&D&G.",
"5.D&p#k+>+a#Q.A D&1.D&g+a=)@D&y#)+r.2.C+C+1,c,d,e,D@l@%@S.I#r.P.j.S>[$,+4,) ) ) ) ) ) ) ) ) ) ) ) ) ) ) ) ) ) ) ) ) ) ) ) ) ) ) ) ) ) ) ) ) ) ) ) ) ) ) ) ) ) ) ) ) ) ) ) ) ) ) ) ) ) ) ) ) ) ) f,2.h@&.S>2.I#j&Y@2.Y@8;g,h,M>D@.@t.4#2.h@p#5.r.G.r.r.5.A {+s A >+D&D&G.",
"1.p#A G.D&I.Q.A p#k+5.x&)@g+D&Q.*$Q+2.C+C+5&y>i,e,D@%$[>S.4#2.t O.S>q.q.4,) ) ) ) ) ) ) ) ) ) ) ) ) ) ) ) ) ) ) ) ) ) ) ) ) ) ) ) ) ) ) ) ) ) ) ) ) ) ) ) ) ) ) ) ) ) ) ) ) ) ) ) ) ) ) ) ) ) ) j,2.n...S>6.I#Y@)@g+Y@k,g,l,m,2=4#p@C+I#o.5.5.x&G.2.5.D&A a#o p#D&G.G.1.",
"A I.>#A '+y !+>+D&A G.r.x&g+r.s.)+6.2.2.C+5&y>n,o,'#N#s$I#_#2.s.r;A>r.>$4,) ) ) ) ) ) ) ) ) ) ) ) ) ) ) ) ) ) ) ) ) ) ) ) ) ) ) ) ) ) ) ) ) ) ) ) ) ) ) ) ) ) ) ) ) ) ) ) ) ) ) ) ) ) ) ) ) ) ) j,H#k &.S>6.j&x&6.2.X;p,g,l,q,2=t._#4#4#$&r.5.6.>+r.5.5.1.{+o R.>+t A 1.",
"I.r,&$I.b#p Q.t s.Q.|.I !+Q.B I A 6.Y@2.4#5&s,z>9>.@%@%@s$<$6.~+t&S>y**$t,) ) ) ) ) ) ) ) ) ) ) ) ) ) ) ) ) ) ) ) ) ) ) ) ) ) ) ) ) ) ) ) ) ) ) ) ) ) ) ) ) ) ) ) ) ) ) ) ) ) ) ) ) ) ) ) ) ) ) u,2.p +.v,6.)@r.j&2..@w,x,y,M>=#_#S.%@4#p.G.o {+K o s.s.o !+z&F.a#o p B ",
"#$N E.~+p o 2#N g.l.P L.r,i.>+!+I.r.a=6.S.D.z,A,B,Y@[>%@_#I#2.I O.S>q.,+t,) ) ) ) ) ) ) ) ) ) ) ) ) ) ) ) ) ) ) ) ) ) ) ) ) ) ) ) ) ) ) ) ) ) ) ) ) ) ) ) ) ) ) ) ) ) ) ) ) ) ) ) ) ) ) ) ) ) ) C,<$k %.D,6.a=r.2.j&j&p,C>E,F,|#_#C+I#_#p.>+J.m.G,H,I,z&l k.o l.I H o p ",
"p z >#z&p.!+o e.#$z&r;r,e.z&Y#P.I.6.)@r.Y@4>J,K,L,Y@[>S.I#Y@j&s.O.S>>+)+t,) ) ) ) ) ) ) ) ) ) ) ) ) ) ) ) ) ) ) ) ) ) ) ) ) ) ) ) ) ) ) ) ) ) ) ) ) ) ) ) ) ) ) ) ) ) ) ) ) ) ) ) ) ) ) ) ) ) ) 7=6.n.+.M,2.j&j&_#_#C+O=C>N,F,p@I#2.2.I#p.C l.O,l )=H,d%P,Q,o.p.l.>#F.p ",
"I.s.p #$s.>#R,z&(&k.r,@=d%L.a#P.E._#j&x&_#G$S,T,U,Y@S.%@2.2.D&Y$f.S>[$M#t,) ) ) ) ) ) ) ) ) ) ) ) ) ) ) ) ) ) ) ) ) ) ) ) ) ) ) ) ) ) ) ) ) ) ) ) ) ) ) ) ) ) ) ) ) ) ) ) ) ) ) ) ) ) ) ) ) ) ) V,L#m.Q* ,6.2._#S.S.4#W,X,Y,Z,%@Y@)@6.I#m B n.(&`,r,r; '(&@=n.>#I d%o I ",
"s.n.m .'C I Y$F.Y#~+>#s.s.Q.P#z 5.S.Y@_#%@D@+'@'#'2._#S.6.2.5.P.O.%.q.z t,) ) ) ) ) ) ) ) ) ) ) ) ) ) ) ) ) ) ) ) ) ) ) ) ) ) ) ) ) ) ) ) ) ) ) ) ) ) ) ) ) ) ) ) ) ) ) ) ) ) ) ) ) ) ) ) ) ) ) $'5.p g.}>H.6.j&I#S..@%'0*&'*'%$I#)@I#_#o.H#s.h;!+{+_=s.Q.t Q.y ='&$l.!+",
"2$A !+s.|.|.o p.p.|.x*h@n.J.o t H#_#2.S.N#2.-';'>'2.I#2.r.6.5.P.i.z <$}$t,) ) ) ) ) ) ) ) ) ) ) ) ) ) ) ) ) ) ) ) ) ) ) ) ) ) ) ) ) ) ) ) ) ) ) ) ) ) ) ) ) ) ) ) ) ) ) ) ) ) ) ) ) ) ) ) ) ) ) $''+A l.}>'+2.6.C+_#2.^#==,'*=s$K#6.C+s$h;>#o N.x*o.p.m p.o.$&p.o $&I _%",
"_#n&a+X#2${$i@$#2=j@2=]%s%'')'l@<$I#6.%@5.!'f&&,r=5.2.r.5.r.D&Q.q !@2.z t,) ) ) ) ) ) ) ) ) ) ) ) ) ) ) ) ) ) ) ) ) ) ) ) ) ) ) ) ) ) ) ) ) ) ) ) ) ) ) ) ) ) ) ) ) ) ) ) ) ) ) ) ) ) ) ) ) ) ) ~'>+I#z g.D&6.Y@4#Y@D&o-{']'^'z I#C+S._#Y@/'('_'p@s%i@n&2$P&X$D.H*5&D.2@",
"r.I#t.2._#%@S.2.6.6.1.r.D&D&2.6.2.I#2.%@G.:'<'x*o 5.2.5.D&D&G.P.k r.6.z t,) ) ) ) ) ) ) ) ) ) ) ) ) ) ) ) ) ) ) ) ) ) ) ) ) ) ) ) ) ) ) ) ) ) ) ) ) ) ) ) ) ) ) ) ) ) ) ) ) ) ) ) ) ) ) ) ) ) ) ['r.L#s.&.5.r.x&_#_#D&}'|'1'2's.s$S.S.[>)@2.2.Y@C+Y@r.C+%@_#I#r.r.r.j&6.",
"r.6.I#5.I#%@C+I#2.2.5.r.5.5.I#S.r.6.2.I#A t>3'h@t 5.6.5.D&G.G.P.p D&r.H 4') ) ) ) ) ) ) ) ) ) ) ) ) ) ) ) ) ) ) ) ) ) ) ) ) ) ) ) ) ) ) ) ) ) ) ) ) ) ) ) ) ) ) ) ) ) ) ) ) ) ) ) ) ) ) ) ) ) ) 5'5.r.>#+.5.5.r.Y@_#D&`=t>l.t>q 2._#_#C+S.I#2.2._#I#5.6.2.I#6.Q+r.>+G.r.",
"r.5.L#5.2.2.2.L#5.6.5.5.2._#S.2.r.5.Q+6.C 6'7'p.t 5.2.5.>+'+>+o p G.5.K 4') ) ) ) ) ) ) ) ) ) ) ) ) ) ) ) ) ) ) ) ) ) ) ) ) ) ) ) ) ) ) ) ) ) ) ) ) ) ) ) ) ) ) ) ) ) ) ) ) ) ) ) ) ) ) ) ) ) ) 8'5.5.q +.G.r.G.6.I#5.{+->2#f.t L#I#2._#[>s$C+_#[>I#5.6.Q+K#5.5.>+A D&r.",
"G.5.>+G.L#9'6.r.L#L#Q+6._#%@I#6.6.5.5.5.C f.J>/*N '+5.5.>+>+0'o n.A 5.v 4') ) ) ) ) ) ) ) ) ) ) ) ) ) ) ) ) ) ) ) ) ) ) ) ) ) ) ) ) ) ) ) ) ) ) ) ) ) ) ) ) ) ) ) ) ) ) ) ) ) ) ) ) ) ) ) ) ) ) a'[$'+r +.G.5.>+q.I#5.y N.2#j.>#C+C+I#K#I#6.N#_#_#2.r.6.5.6.L#L#>+5.x&r.",
">+r.*$>+5.6.I#6.L#5.5.6._#C+2.6.Q+5.G.q.z g.3'h@m )+5.1.A >+>+o m.B *$q b') ) ) ) ) ) ) ) ) ) ) ) ) ) ) ) ) ) ) ) ) ) ) ) ) ) ) ) ) ) ) ) ) ) ) ) ) ) ) ) ) ) ) ) ) ) ) ) ) ) ) ) ) ) ) ) ) ) ) a'5.'+q A>A >+0'G.5.G.y c'l.q&t 6.K#K#x>K#4#%@s$6.r.G.6.L#6.L#L#>+1.x&r.",
"L#6.>+>+'+2.s$s$L#'+5.5.K#K#6.2.2.6.r.G.a#g.J>o.o B G.A I.B R.o (&B *$q b') ) ) ) ) ) ) ) ) ) ) ) ) ) ) ) ) ) ) ) ) ) ) ) ) ) ) ) ) ) ) ) ) ) ) ) ) ) ) ) ) ) ) ) ) ) ) ) ) ) ) ) ) ) ) ) ) ) ) a'5.>+o J>A G.>+1.A I.!+N.2#q&o '+5.5.6.Q+x>I#<$L#5.r.6.5.6.L#L#2.5.I#L#",
"2.r.D&5.5.5.d'K#L#'+5.5.r.2.2.6.5.'+5.'+z (&N.t o C *$A C A C p.l.C B q b') ) ) ) ) ) ) ) ) ) ) ) ) ) ) ) ) ) ) ) ) ) ) ) ) ) ) ) ) ) ) ) ) ) ) ) ) ) ) ) ) ) ) ) ) ) ) ) ) ) ) ) ) ) ) ) ) ) ) e')+A o %.E.>+B Y.I.I.>#l.m #$t >+>+5.5.Q+6.s$I#2.5.5.6.5.5.5.5.Q+L#K#6.",
"5.r.G.5.5.L#L#Q+5.5.5.2.5.'+L#6.'+*$G.'+z N.o s.q C f'B I.B {+p.m.z C q b') ) ) ) ) ) ) ) ) ) ) ) ) ) ) ) ) ) ) ) ) ) ) ) ) ) ) ) ) ) ) ) ) ) ) ) ) ) ) ) ) ) ) ) ) ) ) ) ) ) ) ) ) ) ) ) ) ) ) g'C C o +.I.E.I.Y.I.z >#o }$o.t >+B A >+G.r.6.L#I#h''+5.G.'+0'1.'+5.Q+5.",
"G.5.*$G.5.5.9''+'+'+5.5.5.5.L#G.>+B ,+*@z 2#i'H o z B 7+b#B 7+o.l.}$C q b') ) ) ) ) ) ) ) ) ) ) ) ) ) ) ) ) ) ) ) ) ) ) ) ) ) ) ) ) ) ) ) ) ) ) ) ) ) ) ) ) ) ) ) ) ) ) ) ) ) ) ) ) ) ) ) ) ) ) j'C C o +.I.A B I.B I.I q x.n.&$g$A A B A G.G.5.r.*$>+*$>+f'f'0'1.>+>+'+",
"C C z C B B B B C C C C B B B B C z }$M#q L.#$z&a#a#C b#y a#B p K.z C m b') ) ) ) ) ) ) ) ) ) ) ) ) ) ) ) ) ) ) ) ) ) ) ) ) ) ) ) ) ) ) ) ) ) ) ) ) ) ) ) ) ) ) ) ) ) ) ) ) ) ) ) ) ) ) ) ) ) ) k'}$C o. ,A B I.B B {+a#p (&N.p.[$z {+a#C E.B b#I.z z I.z b#z B C z z z ",
"M,S>S> ,A>S>S> , , , ,A>S>J>Q*t&L.k.r;h.L.p.P.C {+I w s.>#P H K.l'z C m b') ) ) ) ) ) ) ) ) ) ) ) ) ) ) ) ) ) ) ) ) ) ) ) ) ) ) ) ) ) ) ) ) ) ) ) ) ) ) ) ) ) ) ) ) ) ) ) ) ) ) ) ) ) ) ) ) ) ) k'C m'm J>>+t o ~+F.s.F.z |.P.l.k.g.g.h.O.&.+. ,M,n'S>S>o'D,M,M,o'n'M,S>",
"b.p'q'p'r's'r's'r'q'!.!.!.r'r's'r'r'p'r's'r'p'r'!.d.c.b.!.!.t'u'l.{+y k b') ) ) ) ) ) ) ) ) ) ) ) ) ) ) ) ) ) ) ) ) ) ) ) ) ) ) ) ) ) ) ) ) ) ) ) ) ) ) ) ) ) ) ) ) ) ) ) ) ) ) ) ) ) ) ) ) ) ) v'y y J.w'x'y'!.d.z'd.!.y'r'A'A'A's'r'r'p'!.d.y'r'q'q'r'r'r'r'p'd.b.!.y'",
"}>+.+.+.&.f.~,+.*.J>*.*.*.B'B'+.+.+.+.~,~,+.+.g.i.t>C'~,~,|'D'E'F'$&p r;b') ) ) ) ) ) ) ) ) ) ) ) ) ) ) ) ) ) ) ) ) ) ) ) ) ) ) ) ) ) ) ) ) ) ) ) ) ) ) ) ) ) ) ) ) ) ) ) ) ) ) ) ) ) ) ) ) ) ) G'd%k i=H'I'J't>g.C'..B'~,C'g.f.M.f.g.*.B'~,+.+.~,B'~,K'f.f.g.~,+.*.*.+.",
"g$g g i d r-| i A.%@l@%$%$!*!*2@B.i B.i B.2 B.2 B.B.v.!*g$%$R@!@A.v.B.A&z*) ) ) ) ) ) ) ) ) ) ) ) ) ) ) ) ) ) ) ) ) ) ) ) ) ) ) ) ) ) ) ) ) ) ) ) ) ) ) ) ) ) ) ) ) ) ) ) ) ) ) ) ) ) ) ) ) ) ) L'J&v.Q@m*;+A.U.B.e i O&Q@Q@y@Q@M'e i !*N'_ l@%$D@%$Q@i i | O'v.B.A&A&Q@",
".=P'Q'R'S'T'U'V'R'P'.=.=.=P'.=P'V'W'X'W'Y'Y'Y'Z'Q'Q'P'.=`' ).=.=.=.)X'+)g=) ) ) ) ) ) ) ) ) ) ) ) ) ) ) ) ) ) ) ) ) ) ) ) ) ) ) ) ) ) ) ) ) ) ) ) ) ) ) ) ) ) ) ) ) ) ) ) ) ) ) ) ) ) ) ) ) ) ) @)P'.).)#)#)$)Q'V'%)&)Q'W'*)#)Q'Y'=)V'Z'-)Q'P'.=.=.=Z'Y'V'V'Q'#)Q'#)X'=)"};
