/* XPM */
static char * so_door13_tex_xpm[] = {
"132 132 1458 2",
"  	c #2C3640",
". 	c #2D3741",
"+ 	c #2E3841",
"@ 	c #2D3640",
"# 	c #2D3641",
"$ 	c #2D3842",
"% 	c #2E3944",
"& 	c #2E3943",
"* 	c #2F3A45",
"= 	c #2E3842",
"- 	c #2F3B46",
"; 	c #2F3944",
"> 	c #2F3A46",
", 	c #303C46",
"' 	c #303B46",
") 	c #303C47",
"! 	c #303A45",
"~ 	c #313D4A",
"{ 	c #313E4A",
"] 	c #323E4A",
"^ 	c #323F4A",
"/ 	c #313D48",
"( 	c #35393C",
"_ 	c #393939",
": 	c #303B45",
"< 	c #323F4B",
"[ 	c #313D49",
"} 	c #303C48",
"| 	c #2E3843",
"1 	c #2E3A44",
"2 	c #2E3942",
"3 	c #2C363F",
"4 	c #233240",
"5 	c #243543",
"6 	c #243443",
"7 	c #243342",
"8 	c #253544",
"9 	c #253646",
"0 	c #253645",
"a 	c #243544",
"b 	c #253545",
"c 	c #263746",
"d 	c #273847",
"e 	c #263645",
"f 	c #273645",
"g 	c #283847",
"h 	c #283948",
"i 	c #293A49",
"j 	c #283949",
"k 	c #273848",
"l 	c #293B4A",
"m 	c #293949",
"n 	c #293B4B",
"o 	c #293A4A",
"p 	c #2A3B4B",
"q 	c #2A3B4A",
"r 	c #2B3D4C",
"s 	c #2C3F4F",
"t 	c #2D3F4F",
"u 	c #2C3F50",
"v 	c #2D4151",
"w 	c #2C3D4C",
"x 	c #33393E",
"y 	c #2B3C4B",
"z 	c #2A3C4B",
"A 	c #293C4B",
"B 	c #2D4050",
"C 	c #283848",
"D 	c #283A49",
"E 	c #273948",
"F 	c #273947",
"G 	c #263846",
"H 	c #253746",
"I 	c #243341",
"J 	c #17222C",
"K 	c #17232D",
"L 	c #17222D",
"M 	c #18222D",
"N 	c #18242D",
"O 	c #18242E",
"P 	c #17242D",
"Q 	c #192530",
"R 	c #19242F",
"S 	c #1A2630",
"T 	c #1A2732",
"U 	c #1A2631",
"V 	c #1A2833",
"W 	c #18252F",
"X 	c #1B2833",
"Y 	c #1B2834",
"Z 	c #1A2733",
"` 	c #1B2934",
" .	c #1C2934",
"..	c #1C2A35",
"+.	c #1C2A36",
"@.	c #1D2A36",
"#.	c #1D2B38",
"$.	c #1E2D39",
"%.	c #1F2F3C",
"&.	c #1F2E3B",
"*.	c #1F2E3A",
"=.	c #1F2C39",
"-.	c #313437",
";.	c #303337",
">.	c #1F2C38",
",.	c #1E2C38",
"'.	c #1C2B37",
").	c #1D2D3A",
"!.	c #1D2B37",
"~.	c #1C2935",
"{.	c #1B2733",
"].	c #1B2933",
"^.	c #1A2632",
"/.	c #1A2731",
"(.	c #192631",
"_.	c #192630",
":.	c #19252F",
"<.	c #18232D",
"[.	c #070C10",
"}.	c #070C11",
"|.	c #070B10",
"1.	c #070D11",
"2.	c #070D12",
"3.	c #080D12",
"4.	c #070D13",
"5.	c #080E12",
"6.	c #080E13",
"7.	c #080F14",
"8.	c #080D13",
"9.	c #080E14",
"0.	c #090E14",
"a.	c #091015",
"b.	c #09131B",
"c.	c #091C2B",
"d.	c #0F1E29",
"e.	c #131F27",
"f.	c #131E27",
"g.	c #131C24",
"h.	c #2F3031",
"i.	c #2E2F31",
"j.	c #131E26",
"k.	c #141F28",
"l.	c #121E27",
"m.	c #091C29",
"n.	c #08151F",
"o.	c #081015",
"p.	c #090F14",
"q.	c #090F15",
"r.	c #0C131A",
"s.	c #0C141A",
"t.	c #0B1218",
"u.	c #0B1319",
"v.	c #0D151B",
"w.	c #0C141B",
"x.	c #0B131A",
"y.	c #0D151C",
"z.	c #0E171E",
"A.	c #0C151B",
"B.	c #0A1117",
"C.	c #0A1116",
"D.	c #0C1319",
"E.	c #0E1821",
"F.	c #0F1E2A",
"G.	c #192733",
"H.	c #20303E",
"I.	c #223341",
"J.	c #303336",
"K.	c #2F3236",
"L.	c #21313F",
"M.	c #223340",
"N.	c #101E28",
"O.	c #0E1A23",
"P.	c #0B151B",
"Q.	c #0A1218",
"R.	c #0F161E",
"S.	c #0E161D",
"T.	c #0D161C",
"U.	c #0E171D",
"V.	c #0F181F",
"W.	c #0B141A",
"X.	c #0B1219",
"Y.	c #111B23",
"Z.	c #121D25",
"`.	c #121C25",
" +	c #131D26",
".+	c #121D26",
"++	c #131D27",
"@+	c #142028",
"#+	c #14202A",
"$+	c #142029",
"%+	c #16212B",
"&+	c #15222C",
"*+	c #15212B",
"=+	c #16222B",
"-+	c #182530",
";+	c #192732",
">+	c #21313E",
",+	c #21323F",
"'+	c #1C2B36",
")+	c #233644",
"!+	c #1E303F",
"~+	c #293C4C",
"{+	c #233340",
"]+	c #313438",
"^+	c #2F3337",
"/+	c #263947",
"(+	c #283B4A",
"_+	c #192834",
":+	c #263B4B",
"<+	c #1F2F3B",
"[+	c #1D2C38",
"}+	c #20313E",
"|+	c #22333F",
"1+	c #1E2E3A",
"2+	c #192731",
"3+	c #16222C",
"4+	c #15212C",
"5+	c #16232D",
"6+	c #15202A",
"7+	c #131F28",
"8+	c #1B2A35",
"9+	c #1B2A36",
"0+	c #1A2934",
"a+	c #182631",
"b+	c #1B2935",
"c+	c #1F303C",
"d+	c #243644",
"e+	c #273949",
"f+	c #283B4B",
"g+	c #2A3E4E",
"h+	c #2C4253",
"i+	c #243847",
"j+	c #1E2E3B",
"k+	c #283C4C",
"l+	c #2A3F4F",
"m+	c #243442",
"n+	c #313538",
"o+	c #303438",
"p+	c #283A4B",
"q+	c #293D4D",
"r+	c #273B4C",
"s+	c #2D4253",
"t+	c #2B4050",
"u+	c #2B3F4F",
"v+	c #2B4051",
"w+	c #2A3E4D",
"x+	c #263948",
"y+	c #20303D",
"z+	c #202F3B",
"A+	c #21303E",
"B+	c #20303C",
"C+	c #1C2B38",
"D+	c #1D2C39",
"E+	c #192632",
"F+	c #263744",
"G+	c #2C4151",
"H+	c #2C4152",
"I+	c #2A3F4E",
"J+	c #2E4354",
"K+	c #2E4455",
"L+	c #2D4353",
"M+	c #2F4456",
"N+	c #2D4354",
"O+	c #2D4454",
"P+	c #32485A",
"Q+	c #324A5C",
"R+	c #32495B",
"S+	c #32495C",
"T+	c #31485B",
"U+	c #31485A",
"V+	c #2C4354",
"W+	c #1E303E",
"X+	c #1E2D3A",
"Y+	c #293E4E",
"Z+	c #2A3E4F",
"`+	c #2E4557",
" @	c #263C4C",
".@	c #2A3F50",
"+@	c #323639",
"@@	c #303539",
"#@	c #2B4153",
"$@	c #203240",
"%@	c #2D4355",
"&@	c #293D4E",
"*@	c #2B3F51",
"=@	c #1F2F3D",
"-@	c #293D4B",
";@	c #344B5E",
">@	c #314658",
",@	c #314859",
"'@	c #2F4557",
")@	c #304658",
"!@	c #2D4252",
"~@	c #2B4151",
"{@	c #2B3F50",
"]@	c #2C4051",
"^@	c #233544",
"/@	c #233342",
"(@	c #243746",
"_@	c #223442",
":@	c #233543",
"<@	c #1E2C39",
"[@	c #2E4355",
"}@	c #2E4353",
"|@	c #2B4152",
"1@	c #304759",
"2@	c #344C5F",
"3@	c #2D4457",
"4@	c #1E313F",
"5@	c #243745",
"6@	c #233443",
"7@	c #2A3D4E",
"8@	c #2E4558",
"9@	c #2E4659",
"0@	c #294052",
"a@	c #293E4F",
"b@	c #2B4052",
"c@	c #273745",
"d@	c #32363A",
"e@	c #30353A",
"f@	c #293D4C",
"g@	c #2C4355",
"h@	c #213443",
"i@	c #2F4558",
"j@	c #223240",
"k@	c #374F62",
"l@	c #2E4456",
"m@	c #2F4457",
"n@	c #2D4455",
"o@	c #2B3E4F",
"p@	c #253846",
"q@	c #223441",
"r@	c #233444",
"s@	c #243645",
"t@	c #273A49",
"u@	c #253847",
"v@	c #304558",
"w@	c #2E4457",
"x@	c #2D4152",
"y@	c #30485B",
"z@	c #31495D",
"A@	c #2D4659",
"B@	c #1F3342",
"C@	c #223543",
"D@	c #223542",
"E@	c #2D4557",
"F@	c #30475A",
"G@	c #2B4254",
"H@	c #2C4254",
"I@	c #273846",
"J@	c #33373B",
"K@	c #30363B",
"L@	c #213343",
"M@	c #2F4659",
"N@	c #2A4052",
"O@	c #2C4153",
"P@	c #213240",
"Q@	c #223645",
"R@	c #31485C",
"S@	c #30485A",
"T@	c #31495C",
"U@	c #31475A",
"V@	c #2E4658",
"W@	c #273A4A",
"X@	c #233645",
"Y@	c #334A5C",
"Z@	c #304557",
"`@	c #2D4254",
" #	c #304659",
".#	c #32495D",
"+#	c #324A5E",
"@#	c #1B2F3D",
"##	c #2A3F51",
"$#	c #293E50",
"%#	c #30373C",
"&#	c #203341",
"*#	c #32495E",
"=#	c #1A2B38",
"-#	c #30495C",
";#	c #324A5D",
">#	c #334B5E",
",#	c #2F4658",
"'#	c #374E62",
")#	c #253848",
"!#	c #233646",
"~#	c #243646",
"{#	c #273A4B",
"]#	c #344A5D",
"^#	c #304657",
"/#	c #314759",
"(#	c #334A5E",
"_#	c #344C60",
":#	c #324B5F",
"<#	c #334C61",
"[#	c #2E485B",
"}#	c #1D3140",
"|#	c #263A49",
"1#	c #253949",
"2#	c #2D4356",
"3#	c #33373C",
"4#	c #30373D",
"5#	c #1F303F",
"6#	c #1D2E3B",
"7#	c #334A5D",
"8#	c #344D61",
"9#	c #375063",
"0#	c #273B4B",
"a#	c #263A4A",
"b#	c #283B4C",
"c#	c #293C4D",
"d#	c #314758",
"e#	c #334B5F",
"f#	c #334C60",
"g#	c #344D62",
"h#	c #314A5F",
"i#	c #1F3241",
"j#	c #2D4357",
"k#	c #34383D",
"l#	c #31383F",
"m#	c #1F303E",
"n#	c #1E2F3D",
"o#	c #324A5F",
"p#	c #30475B",
"q#	c #344D60",
"r#	c #354E61",
"s#	c #354D61",
"t#	c #344E62",
"u#	c #354D62",
"v#	c #385164",
"w#	c #233442",
"x#	c #283D4C",
"y#	c #283A4A",
"z#	c #344C5E",
"A#	c #324C5F",
"B#	c #2F485C",
"C#	c #1F3140",
"D#	c #1A2834",
"E#	c #2E4458",
"F#	c #34393D",
"G#	c #31393F",
"H#	c #1E303D",
"I#	c #2D4558",
"J#	c #2C4052",
"K#	c #314A5E",
"L#	c #344C61",
"M#	c #354E62",
"N#	c #354E63",
"O#	c #385165",
"P#	c #253948",
"Q#	c #263848",
"R#	c #273B4A",
"S#	c #293B4C",
"T#	c #334B5D",
"U#	c #334D61",
"V#	c #2F495D",
"W#	c #203140",
"X#	c #35393D",
"Y#	c #313940",
"Z#	c #2A4051",
"`#	c #233746",
" $	c #3A5368",
".$	c #2A3D4D",
"+$	c #233341",
"@$	c #2C4252",
"#$	c #334B60",
"$$	c #2F475B",
"%$	c #253947",
"&$	c #233545",
"*$	c #1C2B39",
"=$	c #2B4154",
"-$	c #2D4456",
";$	c #243846",
">$	c #395367",
",$	c #344B60",
"'$	c #1E3140",
")$	c #253747",
"!$	c #283E4F",
"~$	c #35393E",
"{$	c #313A41",
"]$	c #293D4F",
"^$	c #1B2C39",
"/$	c #30465A",
"($	c #375064",
"_$	c #33495B",
":$	c #17242E",
"<$	c #203444",
"[$	c #2F475A",
"}$	c #353A3E",
"|$	c #313A42",
"1$	c #182734",
"2$	c #223544",
"3$	c #18242F",
"4$	c #283C4B",
"5$	c #1D2D39",
"6$	c #1C2C39",
"7$	c #314C60",
"8$	c #2B475C",
"9$	c #213D51",
"0$	c #243E50",
"a$	c #17242F",
"b$	c #1D2E3C",
"c$	c #253B4D",
"d$	c #253E52",
"e$	c #2A465A",
"f$	c #1E2F3B",
"g$	c #1D2E39",
"h$	c #1F303D",
"i$	c #1C2C38",
"j$	c #2E4352",
"k$	c #2B3E4E",
"l$	c #30485C",
"m$	c #37546B",
"n$	c #1F4965",
"o$	c #1A74A2",
"p$	c #2A495E",
"q$	c #2A4153",
"r$	c #1A2935",
"s$	c #323B43",
"t$	c #1A2A36",
"u$	c #1C2D3A",
"v$	c #2C4659",
"w$	c #2A5B7B",
"x$	c #265F82",
"y$	c #305069",
"z$	c #365064",
"A$	c #233542",
"B$	c #22323F",
"C$	c #1F2E39",
"D$	c #1E2D38",
"E$	c #20313D",
"F$	c #20303B",
"G$	c #1D2C37",
"H$	c #355065",
"I$	c #1D4864",
"J$	c #127BB7",
"K$	c #2A4A61",
"L$	c #2C4356",
"M$	c #283E4E",
"N$	c #1B2B38",
"O$	c #2E4A5E",
"P$	c #286388",
"Q$	c #246287",
"R$	c #2F4E66",
"S$	c #202F3A",
"T$	c #253745",
"U$	c #1B2A34",
"V$	c #202F3C",
"W$	c #233440",
"X$	c #1D2C36",
"Y$	c #21303B",
"Z$	c #21313D",
"`$	c #21333F",
" %	c #385268",
".%	c #1E4864",
"+%	c #137BB9",
"@%	c #2B4B61",
"#%	c #273C4C",
"$%	c #303941",
"%%	c #2F4A5E",
"&%	c #296489",
"*%	c #236389",
"=%	c #2F4F66",
"-%	c #30485D",
";%	c #233441",
">%	c #21303D",
",%	c #1F2D39",
"'%	c #243542",
")%	c #21303C",
"!%	c #1E4966",
"~%	c #0F7CC1",
"{%	c #2B4A61",
"]%	c #283D4D",
"^%	c #2B404F",
"/%	c #363A3D",
"(%	c #313B43",
"_%	c #28658A",
":%	c #23668D",
"<%	c #2F5067",
"[%	c #2E475A",
"}%	c #334C5F",
"|%	c #233643",
"1%	c #223440",
"2%	c #263745",
"3%	c #2E4253",
"4%	c #385368",
"5%	c #1F4966",
"6%	c #0E7DC4",
"7%	c #2C4B62",
"8%	c #36393D",
"9%	c #313A43",
"0%	c #2A6488",
"a%	c #22668F",
"b%	c #2F5069",
"c%	c #2A3E50",
"d%	c #365267",
"e%	c #1E4765",
"f%	c #1279C2",
"g%	c #2D4A61",
"h%	c #303A44",
"i%	c #2A668B",
"j%	c #216690",
"k%	c #2F526B",
"l%	c #2C4456",
"m%	c #32485B",
"n%	c #365167",
"o%	c #1277C2",
"p%	c #2F485D",
"q%	c #2B658A",
"r%	c #206692",
"s%	c #30526B",
"t%	c #31495E",
"u%	c #293F4F",
"v%	c #293F50",
"w%	c #233745",
"x%	c #354F65",
"y%	c #1E4967",
"z%	c #107AC4",
"A%	c #2E4C63",
"B%	c #363A3E",
"C%	c #313B45",
"D%	c #293E4D",
"E%	c #1B2B36",
"F%	c #2F495E",
"G%	c #2B658C",
"H%	c #1F6693",
"I%	c #30536D",
"J%	c #2C4457",
"K%	c #344F64",
"L%	c #0F7BC7",
"M%	c #2D4C63",
"N%	c #2F3A43",
"O%	c #2C658B",
"P%	c #1F6692",
"Q%	c #30526C",
"R%	c #2D4458",
"S%	c #283C4D",
"T%	c #26394A",
"U%	c #1E4763",
"V%	c #0F7AC6",
"W%	c #2C4C63",
"X%	c #2F4A5F",
"Y%	c #21668F",
"Z%	c #2F5169",
"`%	c #2C4255",
" &	c #2A4050",
".&	c #283D4E",
"+&	c #204763",
"@&	c #0F7CC6",
"#&	c #303B44",
"$&	c #216790",
"%&	c #2A4152",
"&&	c #1F4763",
"*&	c #0E7DC5",
"=&	c #2C4D64",
"-&	c #2F3B45",
";&	c #2B4253",
">&	c #304A5F",
",&	c #22658F",
"'&	c #2F4759",
")&	c #1F4864",
"!&	c #0D7EC7",
"~&	c #2D4E65",
"{&	c #2B6386",
"]&	c #23648C",
"^&	c #1D445F",
"/&	c #127CBC",
"(&	c #2B4B62",
"_&	c #18252E",
":&	c #36393C",
"<&	c #2F3A44",
"[&	c #2E4559",
"}&	c #2D475B",
"|&	c #2B6081",
"1&	c #266083",
"2&	c #2B4A60",
"3&	c #253A4A",
"4&	c #2A3F52",
"5&	c #1F3A4E",
"6&	c #2A5875",
"7&	c #253F53",
"8&	c #254A62",
"9&	c #224862",
"0&	c #1C3040",
"a&	c #263949",
"b&	c #253A49",
"c&	c #2C4759",
"d&	c #244055",
"e&	c #254F69",
"f&	c #243C4E",
"g&	c #2E3A43",
"h&	c #273E50",
"i&	c #25485E",
"j&	c #254962",
"k&	c #294458",
"l&	c #304758",
"m&	c #1D4561",
"n&	c #1B73A7",
"o&	c #28485F",
"p&	c #37393C",
"q&	c #293F51",
"r&	c #294356",
"s&	c #2A5F80",
"t&	c #255F83",
"u&	c #2C4960",
"v&	c #1D4764",
"w&	c #127BBD",
"x&	c #2A4B62",
"y&	c #2E3A45",
"z&	c #2C475B",
"A&	c #236289",
"B&	c #2E4D65",
"C&	c #1E4A67",
"D&	c #107CC4",
"E&	c #2A4A62",
"F&	c #293E4C",
"G&	c #2E3A46",
"H&	c #2C485D",
"I&	c #29668C",
"J&	c #216590",
"K&	c #1E4866",
"L&	c #107BC4",
"M&	c #2D3A44",
"N&	c #29668A",
"O&	c #206792",
"P&	c #2D4F68",
"Q&	c #304859",
"R&	c #1E4A68",
"S&	c #107BC3",
"T&	c #2A4961",
"U&	c #37393B",
"V&	c #2D3943",
"W&	c #2B475B",
"X&	c #1D4966",
"Y&	c #1279BD",
"Z&	c #2A485F",
"`&	c #2D3A45",
" *	c #2B4559",
".*	c #296386",
"+*	c #236489",
"@*	c #2D4F67",
"#*	c #2B4252",
"$*	c #1579B5",
"%*	c #29485E",
"&*	c #2B4558",
"**	c #296082",
"=*	c #256083",
"-*	c #2A3D4C",
";*	c #263B4C",
">*	c #1D2F3B",
",*	c #1A384C",
"'*	c #21526E",
")*	c #253E51",
"!*	c #2C3842",
"~*	c #214962",
"{*	c #204962",
"]*	c #2B4457",
"^*	c #1A2A37",
"/*	c #1A3040",
"(*	c #2C3742",
"_*	c #1D303F",
":*	c #1C2E3D",
"<*	c #263845",
"[*	c #17232E",
"}*	c #2C3944",
"|*	c #253A48",
"1*	c #38393B",
"2*	c #2D3B45",
"3*	c #15212A",
"4*	c #37393A",
"5*	c #2B3944",
"6*	c #152029",
"7*	c #1F303B",
"8*	c #213442",
"9*	c #213340",
"0*	c #273C4A",
"a*	c #273A48",
"b*	c #38393A",
"c*	c #2C3945",
"d*	c #20313F",
"e*	c #172B39",
"f*	c #182833",
"g*	c #2B3844",
"h*	c #172936",
"i*	c #213647",
"j*	c #253845",
"k*	c #284155",
"l*	c #1B3F56",
"m*	c #255A77",
"n*	c #1F394B",
"o*	c #273B49",
"p*	c #293F4E",
"q*	c #2A3843",
"r*	c #223746",
"s*	c #285773",
"t*	c #1B445D",
"u*	c #223E53",
"v*	c #294357",
"w*	c #1D4159",
"x*	c #1973A8",
"y*	c #24648A",
"z*	c #2B495F",
"A*	c #293642",
"B*	c #275471",
"C*	c #0F7DC0",
"D*	c #1E4964",
"E*	c #264257",
"F*	c #294153",
"G*	c #1D3F56",
"H*	c #1C6F9F",
"I*	c #1E6D9C",
"J*	c #2D536D",
"K*	c #293743",
"L*	c #304D64",
"M*	c #285E81",
"N*	c #0980C9",
"O*	c #1E4863",
"P*	c #264055",
"Q*	c #273C4D",
"R*	c #1B3648",
"S*	c #1A72A5",
"T*	c #2D5570",
"U*	c #192833",
"V*	c #2A3844",
"W*	c #24638A",
"X*	c #147AB2",
"Y*	c #1C3E54",
"Z*	c #273C4B",
"`*	c #1A3141",
" =	c #1D3B4F",
".=	c #285D7C",
"+=	c #2B536D",
"@=	c #293844",
"#=	c #2F4D65",
"$=	c #285A78",
"%=	c #1F425A",
"&=	c #1A3346",
"*=	c #253C4E",
"==	c #1B394F",
"-=	c #275876",
";=	c #285A77",
">=	c #2A4C62",
",=	c #293845",
"'=	c #2D4A60",
")=	c #224D68",
"!=	c #206A96",
"~=	c #1C4057",
"{=	c #253F52",
"]=	c #253946",
"^=	c #263B4A",
"/=	c #1D3C53",
"(=	c #275777",
"_=	c #127DBD",
":=	c #2C4E65",
"<=	c #1971A8",
"[=	c #216692",
"}=	c #1B3E56",
"|=	c #263E51",
"1=	c #283E51",
"2=	c #1E3D54",
"3=	c #265474",
"4=	c #2D5774",
"5=	c #2B465B",
"6=	c #182630",
"7=	c #21323E",
"8=	c #383939",
"9=	c #263641",
"0=	c #2C4559",
"a=	c #2E526D",
"b=	c #1474B3",
"c=	c #236189",
"d=	c #1B3D56",
"e=	c #263C4F",
"f=	c #283F50",
"g=	c #1D3C54",
"h=	c #234E6C",
"i=	c #0782D3",
"j=	c #2B5B7B",
"k=	c #2C485E",
"l=	c #15222A",
"m=	c #263440",
"n=	c #141F27",
"o=	c #2C4458",
"p=	c #2D5470",
"q=	c #0E7ABF",
"r=	c #265B7D",
"s=	c #1A3A4F",
"t=	c #243A4B",
"u=	c #243948",
"v=	c #1E3B50",
"w=	c #1F4C6A",
"x=	c #0382DA",
"y=	c #2A5C7E",
"z=	c #2C4A60",
"A=	c #24323F",
"B=	c #233642",
"C=	c #141E26",
"D=	c #0E7CC3",
"E=	c #275676",
"F=	c #193549",
"G=	c #25394B",
"H=	c #1E3241",
"I=	c #193950",
"J=	c #295F82",
"K=	c #2C4A62",
"L=	c #1E2E39",
"M=	c #1C2933",
"N=	c #151F27",
"O=	c #2B5471",
"P=	c #1A2C3A",
"Q=	c #213341",
"R=	c #253A4B",
"S=	c #162936",
"T=	c #1A3447",
"U=	c #2B516C",
"V=	c #2D4B61",
"W=	c #1C2C37",
"X=	c #333537",
"Y=	c #282D32",
"Z=	c #284F69",
"`=	c #1E4256",
" -	c #162733",
".-	c #162835",
"+-	c #283C4A",
"@-	c #101C25",
"#-	c #141D26",
"$-	c #353738",
"%-	c #252E35",
"&-	c #24394A",
"*-	c #1A2D3A",
"=-	c #172430",
"--	c #213342",
";-	c #223443",
">-	c #203340",
",-	c #16242E",
"'-	c #182732",
")-	c #152531",
"!-	c #122C3E",
"~-	c #103C55",
"{-	c #383839",
"]-	c #212F3A",
"^-	c #2B4354",
"/-	c #17252F",
"(-	c #273D4C",
"_-	c #1C303D",
":-	c #162C3B",
"<-	c #124361",
"[-	c #11688D",
"}-	c #103447",
"|-	c #35383A",
"1-	c #29343E",
"2-	c #1A2933",
"3-	c #1B3140",
"4-	c #153143",
"5-	c #134B6C",
"6-	c #0B729B",
"7-	c #10394F",
"8-	c #35383B",
"9-	c #293640",
"0-	c #2C4558",
"a-	c #273D4E",
"b-	c #213645",
"c-	c #245570",
"d-	c #27455C",
"e-	c #263C4D",
"f-	c #163449",
"g-	c #144D6E",
"h-	c #0A749E",
"i-	c #103B52",
"j-	c #283641",
"k-	c #284255",
"l-	c #263F52",
"m-	c #205371",
"n-	c #233B4D",
"o-	c #233B4C",
"p-	c #127CA8",
"q-	c #274F6C",
"r-	c #263D4F",
"s-	c #153449",
"t-	c #154D6F",
"u-	c #0774A3",
"v-	c #103B53",
"w-	c #29495F",
"x-	c #0E7BAD",
"y-	c #234358",
"z-	c #1B2B37",
"A-	c #243E4F",
"B-	c #0A84B7",
"C-	c #28516F",
"D-	c #273E51",
"E-	c #294051",
"F-	c #1B303F",
"G-	c #153247",
"H-	c #144C6E",
"I-	c #0675A5",
"J-	c #0F3A52",
"K-	c #284256",
"L-	c #283E4D",
"M-	c #2A4B61",
"N-	c #0783B8",
"O-	c #24455B",
"P-	c #0E81B0",
"Q-	c #28506C",
"R-	c #153347",
"S-	c #144C6D",
"T-	c #0973A0",
"U-	c #28343F",
"V-	c #274053",
"W-	c #2A495F",
"X-	c #0C7EAC",
"Y-	c #283A48",
"Z-	c #233848",
"`-	c #275E7C",
" ;	c #29475D",
".;	c #1C3141",
"+;	c #153043",
"@;	c #144A6B",
"#;	c #0975A1",
"$;	c #103B51",
"%;	c #284154",
"&;	c #275B77",
"*;	c #243C4F",
"=;	c #263F51",
"-;	c #1D3241",
";;	c #152D3D",
">;	c #144764",
",;	c #0D7299",
"';	c #11384D",
");	c #35373A",
"!;	c #28323C",
"~;	c #283F51",
"{;	c #273F51",
"];	c #16222D",
"^;	c #15364A",
"/;	c #124D69",
"(;	c #212F3B",
"_;	c #1B2D3A",
":;	c #172A3A",
"<;	c #2D373F",
"[;	c #1E2C37",
"};	c #1C2D39",
"|;	c #2F3439",
"1;	c #333639",
"2;	c #1E3749",
"3;	c #27526E",
"4;	c #27455B",
"5;	c #2F363C",
"6;	c #204A63",
"7;	c #214A60",
"8;	c #1B2E3C",
"9;	c #263847",
"0;	c #2E4759",
"a;	c #224259",
"b;	c #0880D0",
"c;	c #285C7E",
"d;	c #254259",
"e;	c #33363A",
"f;	c #2E343A",
"g;	c #24526F",
"h;	c #088ACD",
"i;	c #254E68",
"j;	c #2A4254",
"k;	c #2F4C62",
"l;	c #285372",
"m;	c #008AE3",
"n;	c #275675",
"o;	c #254156",
"p;	c #2E3439",
"q;	c #283F53",
"r;	c #244E69",
"s;	c #0683D2",
"t;	c #276083",
"u;	c #2F5168",
"v;	c #295979",
"w;	c #0087E2",
"x;	c #265270",
"y;	c #253F54",
"z;	c #17252E",
"A;	c #33373A",
"B;	c #2E353B",
"C;	c #273D4F",
"D;	c #254A63",
"E;	c #0A7ECC",
"F;	c #216997",
"G;	c #294E68",
"H;	c #2B4356",
"I;	c #2B4E66",
"J;	c #266088",
"K;	c #0188DB",
"L;	c #25516E",
"M;	c #263F53",
"N;	c #34373B",
"O;	c #2F353C",
"P;	c #1479B7",
"Q;	c #1B71A7",
"R;	c #284E68",
"S;	c #2D475C",
"T;	c #2B4F67",
"U;	c #236692",
"V;	c #117EBB",
"W;	c #234C66",
"X;	c #274052",
"Y;	c #34373A",
"Z;	c #2E353C",
"`;	c #26475D",
" >	c #1D6F9E",
".>	c #1577B4",
"+>	c #28506B",
"@>	c #2D485D",
"#>	c #213441",
"$>	c #2D485B",
"%>	c #2B4F68",
"&>	c #226994",
"*>	c #256487",
"=>	c #213E51",
"->	c #2B3F4E",
";>	c #213A4C",
">>	c #205571",
",>	c #137AB1",
"'>	c #274F69",
")>	c #304D63",
"!>	c #2E495D",
"~>	c #27465C",
"{>	c #224358",
"]>	c #224A66",
"^>	c #234258",
"/>	c #1B2B35",
"(>	c #264256",
"_>	c #1E4B64",
":>	c #204157",
"<>	c #24465C",
"[>	c #2E4C61",
"}>	c #244155",
"|>	c #0C7EC5",
"1>	c #23648E",
"2>	c #24435A",
"3>	c #16212A",
"4>	c #34383B",
"5>	c #2E363C",
"6>	c #274357",
"7>	c #235572",
"8>	c #0886C7",
"9>	c #23475E",
"0>	c #2F4B60",
"a>	c #26516F",
"b>	c #0083DD",
"c>	c #265C82",
"d>	c #234157",
"e>	c #152129",
"f>	c #2D353C",
"g>	c #264054",
"h>	c #224F6C",
"i>	c #0588D4",
"j>	c #265471",
"k>	c #2F4D63",
"l>	c #0181DA",
"m>	c #255372",
"n>	c #0882CF",
"o>	c #27597A",
"p>	c #2C4C64",
"q>	c #2E516A",
"r>	c #245170",
"s>	c #1774AD",
"t>	c #1E3C51",
"u>	c #2D343B",
"v>	c #1E3546",
"w>	c #206A99",
"x>	c #294D66",
"y>	c #1D2D38",
"z>	c #2A485C",
"A>	c #203E52",
"B>	c #192A38",
"C>	c #172733",
"D>	c #1F3C4F",
"E>	c #28455A",
"F>	c #1F313E",
"G>	c #2C353B",
"H>	c #2C333B",
"I>	c #213241",
"J>	c #343739",
"K>	c #2C333A",
"L>	c #15222D",
"M>	c #1D2E3A",
"N>	c #182834",
"O>	c #1E2F3C",
"P>	c #353739",
"Q>	c #182632",
"R>	c #162D3D",
"S>	c #17455B",
"T>	c #1D3342",
"U>	c #18384B",
"V>	c #16394E",
"W>	c #23394A",
"X>	c #163E57",
"Y>	c #1A7198",
"Z>	c #204054",
"`>	c #2B3239",
" ,	c #253D4F",
".,	c #255673",
"+,	c #1F5978",
"@,	c #244257",
"#,	c #223342",
"$,	c #17425D",
"%,	c #147AAD",
"&,	c #204359",
"*,	c #295D7D",
"=,	c #235E7F",
"-,	c #25455B",
";,	c #184461",
">,	c #107CB7",
",,	c #22445B",
"',	c #2A3239",
"),	c #2A5E7F",
"!,	c #225F82",
"~,	c #18435F",
"{,	c #107CB8",
"],	c #21445B",
"^,	c #2A323A",
"/,	c #2A5F7F",
"(,	c #235F83",
"_,	c #24445B",
":,	c #18425E",
"<,	c #0F7DBB",
"[,	c #21445C",
"},	c #14212B",
"|,	c #243F53",
"1,	c #295F7F",
"2,	c #236084",
"3,	c #20323F",
"4,	c #17415D",
"5,	c #117CB9",
"6,	c #243E52",
"7,	c #2A5F7E",
"8,	c #226084",
"9,	c #25394A",
"0,	c #17405B",
"a,	c #147AB1",
"b,	c #204257",
"c,	c #293138",
"d,	c #223C4E",
"e,	c #2A5E7C",
"f,	c #234359",
"g,	c #173D57",
"h,	c #1677AA",
"i,	c #204155",
"j,	c #2A3139",
"k,	c #2A5C79",
"l,	c #255D7D",
"m,	c #214055",
"n,	c #1D2F3D",
"o,	c #17354A",
"p,	c #21607E",
"q,	c #1D394C",
"r,	c #293139",
"s,	c #203646",
"t,	c #204F6A",
"u,	c #1E506B",
"v,	c #1A3345",
"w,	c #182D3B",
"x,	c #1F3E52",
"y,	c #1C2F3D",
"z,	c #1F3340",
"A,	c #1E384B",
"B,	c #1F394D",
"C,	c #1A2B39",
"D,	c #1A3F57",
"E,	c #1C6A8D",
"F,	c #1D3C4F",
"G,	c #293038",
"H,	c #21394A",
"I,	c #23536F",
"J,	c #1F5471",
"K,	c #27455A",
"L,	c #153F59",
"M,	c #1578A7",
"N,	c #1F4055",
"O,	c #283038",
"P,	c #2A5C7A",
"Q,	c #225978",
"R,	c #224258",
"S,	c #263A4B",
"T,	c #16415C",
"U,	c #137AB0",
"V,	c #363739",
"W,	c #233C4E",
"X,	c #2A5E7E",
"Y,	c #235A7A",
"Z,	c #253849",
"`,	c #127BB1",
" '	c #223B4D",
".'	c #225B7C",
"+'	c #234257",
"@'	c #17425E",
"#'	c #117CB4",
"$'	c #20445A",
"%'	c #273037",
"&'	c #2B5F7F",
"*'	c #235D7E",
"='	c #107DB7",
"-'	c #272F37",
";'	c #223A4C",
">'	c #245C7E",
",'	c #244359",
"''	c #107DB9",
")'	c #20435A",
"!'	c #223C4D",
"~'	c #24445A",
"{'	c #192730",
"]'	c #17405C",
"^'	c #363738",
"/'	c #272F36",
"('	c #111C23",
"_'	c #233C4D",
":'	c #2B607F",
"<'	c #235C7F",
"['	c #163F5B",
"}'	c #127AB7",
"|'	c #204258",
"1'	c #262E35",
"2'	c #235B7E",
"3'	c #224157",
"4'	c #152028",
"5'	c #1B2832",
"6'	c #18232C",
"7'	c #153E59",
"8'	c #1379AF",
"9'	c #1E4156",
"0'	c #121C24",
"a'	c #225C7E",
"b'	c #17222B",
"c'	c #17232C",
"d'	c #19252E",
"e'	c #142129",
"f'	c #143D57",
"g'	c #1279A9",
"h'	c #1D4056",
"i'	c #242C33",
"j'	c #223A4B",
"k'	c #2B5E7B",
"l'	c #225B7D",
"m'	c #223F54",
"n'	c #162129",
"o'	c #19262F",
"p'	c #273946",
"q'	c #133A51",
"r'	c #167198",
"s'	c #1C3D51",
"t'	c #232B32",
"u'	c #21384A",
"v'	c #205978",
"w'	c #213C4F",
"x'	c #293B49",
"y'	c #202F3D",
"z'	c #142B3C",
"A'	c #184057",
"B'	c #1B2E3D",
"C'	c #17384E",
"D'	c #294050",
"E'	c #1F2E3C",
"F'	c #243848",
"G'	c #253C4C",
"H'	c #142430",
"I'	c #232C33",
"J'	c #172835",
"K'	c #1F3749",
"L'	c #182F3E",
"M'	c #263D4E",
"N'	c #263D4D",
"O'	c #233846",
"P'	c #111F2A",
"Q'	c #0F1A23",
"R'	c #242C34",
"S'	c #1B2A37",
"T'	c #131F29",
"U'	c #15232D",
"V'	c #12202A",
"W'	c #111C25",
"X'	c #373738",
"Y'	c #232B34",
"Z'	c #14212A",
"`'	c #111D25",
" )	c #232B33",
".)	c #22313F",
"+)	c #222B33",
"@)	c #373838",
"#)	c #16232E",
"$)	c #222A32",
"%)	c #202A32",
"&)	c #21303F",
"*)	c #23333F",
"=)	c #202931",
"-)	c #1F272E",
";)	c #111B24",
">)	c #202E3B",
",)	c #111C24",
"')	c #0F1820",
"))	c #0F1920",
"!)	c #101920",
"~)	c #101A20",
"{)	c #0E181F",
"])	c #0E161C",
"^)	c #0F171F",
"/)	c #0F1921",
"()	c #111E28",
"_)	c #1E262D",
":)	c #121F28",
"<)	c #111C26",
"[)	c #0D161E",
"})	c #101A21",
"|)	c #101B23",
"1)	c #101B22",
"2)	c #141F29",
"3)	c #131E28",
"4)	c #132029",
"5)	c #13222D",
"6)	c #132939",
"7)	c #162530",
"8)	c #1B2229",
"9)	c #142938",
"0)	c #132431",
"a)	c #14222C",
"b)	c #13212A",
"c)	c #132028",
"d)	c #121D27",
"e)	c #25323D",
"f)	c #2B3E4D",
"g)	c #273746",
"h)	c #24333F",
"i)	c #24343F",
"j)	c #24313E",
"k)	c #253440",
"l)	c #23313D",
"m)	c #23313C",
"n)	c #22303C",
"o)	c #23303C",
"p)	c #23313E",
"q)	c #243440",
"r)	c #283845",
"s)	c #253441",
"t)	c #24313F",
"u)	c #263442",
"v)	c #283744",
"w)	c #273643",
"x)	c #263542",
"y)	c #253542",
"z)	c #263643",
"A)	c #263543",
"B)	c #23323E",
"C)	c #25343F",
"D)	c #242F38",
"E)	c #273543",
"F)	c #253541",
"G)	c #243441",
"H)	c #253442",
"I)	c #25333F",
"J)	c #23323F",
"K)	c #222F3B",
"L)	c #212C39",
"M)	c #232F3B",
"  . + @ @ . # . + . $ % & % * = + & * * * - * ; ; ; > > , * ' ) , - - * * > - * - ' ) ! ) ) ) ~ { ] ] ^ / ( _ _ _ _ _ _ _ _ _ _ _ _ _ _ _ _ _ _ _ _ _ _ _ _ _ ( : ) ) ] ] ] < ] { [ ' ) ) } ) ' * * | * ) * * * * > * * * * - * * * * * 1 & & $ 2 & 1 = = & + = @ @ 3 @ ",
"4 5 6 7 6 8 8 9 0 8 a b 0 c d c e f g h h i j h g g j j j c k l l j j h j m n o i o p q p q r s t s u v w x _ _ _ _ _ _ _ _ _ _ _ _ _ _ _ _ _ _ _ _ _ _ _ _ _ x y z A u v B t r r l i q z q j h h k d j z o m j h i C C j m l j C D D E F G H 0 0 0 H e c c 0 8 b 6 I 7 ",
"J K L M L N N O O P L L K Q Q R R R Q Q S T T U U U T V T W Q X Y T T Z V X Y X `  ...+.@.+.#.$.%.&.*.*.=.-._ _ _ _ _ _ _ _ _ _ _ _ _ _ _ _ _ _ _ _ _ _ _ _ _ ;.>.,.'.).$.,.,.!.+.~.X ..@...{.{.X X X ].` X T T U ^.U {.T X X {./.V V (._.Q Q R W O W :.Q :.O N O O L <.",
"[.}.|.}.}.1.1.2.1.}.|.[.}.3.3.2.3.3.3.4.5.6.6.3.6.6.6.6.7.4.8.9.7.9.9.9.7.7.9.6.6.6.9.9.0.7.a.b.c.d.e.f.g.h._ _ _ _ _ _ _ _ _ _ _ _ _ _ _ _ _ _ _ _ _ _ _ _ _ i.j.k.l.m.n.o.p.p.p.0.9.0.p.p.9.7.7.7.7.p.q.9.6.9.3.8.6.9.9.0.0.9.6.9.9.6.6.6.6.6.8.2.2.6.6.8.2.1.2.2.}.}.",
"r.s.t.u.s.s.s.s.s.s.s.v.w.x.s.w.s.s.y.z.w.t.t.u.x.s.u.s.v.s.u.s.y.v.A.s.w.s.u.B.C.p.q.C.D.s.s.E.F.G.H.I.=.J._ _ _ _ _ _ _ _ _ _ _ _ _ _ _ _ _ _ _ _ _ _ _ _ _ K.L.M.$.N.O.P.Q.u.u.t.C.C.Q.s.y.z.R.S.A.y.S.z.w.s.w.s.w.T.S.y.w.w.w.v.U.V.V.z.S.v.A.s.w.w.s.x.W.s.x.x.u.X.",
"Y.Z.`.`.`. + +.+ +j.j.j.f.++++++k.k.@+#+$+$+$+%+&+&+&+*+*+$+$+=+K K O -+(.;+-+Q ..!.*.>+,+*.'+)+!+'.E ~+{+]+_ _ _ _ _ _ _ _ _ _ _ _ _ _ _ _ _ _ _ _ _ _ _ _ _ ^+/+(+)+_+:+<+[+}+|+1+$.*.;+V ` ` X Y V 2+V L %+3+%+*+4+&+K 5+=+6+$+@+$+$+$+e.7+k.7+k.@+++.+Z.l.++++.+.+Z.",
"V 8+9+8+0+` ` V Z X ` X (.W W W a+(.V 0+b++.+.'.+.'++.b+b+V V +.$.$.$.*.c+<+1+*.d+E e+f+~+g+~+h+i+j+k+l+m+n+_ _ _ _ _ _ _ _ _ _ _ _ _ _ _ _ _ _ _ _ _ _ _ _ _ o+p+q+r+).s+t+u+v+w+f+x+(+y+z+y+,+A+B+*.$.*.'+9+'.'.C+[+[+D+C+'+b+Y V G.E+G.a+(.E+'.C+'.0+V 0+b+b+b+0+Y V ",
"#.#.'.#.[+[++.Y V Y 8+F+f+w+G+w+H+I+g+t+J+K+L+M+N+O+N+H+L+H+L+P+Q+R+S+T+U+V+W+X+..e+Y+Z+q+H+K+`+ @M.Y+.@F++@_ _ _ _ _ _ _ _ _ _ _ _ _ _ _ _ _ _ _ _ _ _ _ _ _ @@f+Z+#@$@N+L+J+%@&@*@q+*.&.=@-@U+;@R+>@,@'@K+L+M+)@M+'@J+K+!@~@t+v+H+{@u+!@!@]@g+w+<++.'.b+b+0+0+9++.'.b+",
"^@/@a 0 0 (@d+_@/@:@_@<@i w+w+f+g+q+l+H+N+N+H+[@N+}@h+H+|@H+H+%@1@1@1@T+2@3@4@5@6@~+l+7@~+l+8@9@0@d+a@b@c@d@_ _ _ _ _ _ _ _ _ _ _ _ _ _ _ _ _ _ _ _ _ _ _ _ _ e@f@b@g@h@9@`+i@h+g+h+H+j@/+$@~+k@T+)@i@l@m@K+n@'@1@)@`+l@N+H+t+{@{@*@l+o@H+!@v+A B+:@p@5@q@H.$@L.r@s@a d+",
"p@p@x+e+e+e+t@u@x+E u@H...]@{@l+v+v+v+H+v@i@M+'@1@'@i@w@%@N+x@'@U+S+y@y@z@A@B@C@D@k+Z+Z+Y+a@E@F@G@s@.@H@I@J@_ _ _ _ _ _ _ _ _ _ _ _ _ _ _ _ _ _ _ _ _ _ _ _ _ K@7@h+H@L@M@F@9@N@~+O@b@P@u@Q@k+R@M@S@T@)@)@'@l@1@U@1@T+1@V@l@h+H@h+H+|@b@N+N+)@B+}+e+~+W@(@I._@X@(@E x+u@",
"t@t@W@f+f+W@f+W@e+f+W@d+%.Y@Z@l+H+H+v+`@)@U@T+ #.#F@T+F@V@V@i@F@S++#z@R@+#A@@#$+D@r+|@b@##$#%@R@g@s@b@l@F J@_ _ _ _ _ _ _ _ _ _ _ _ _ _ _ _ _ _ _ _ _ _ _ _ _ %#*@`@b@&#F@*# ###Y+`+*@L.D+=#r+-#8@T++#T+;#T+)@S+T+U@>#+#z@T+)@,#'@m@h+b@%@M+'#y+s@k+l+~+)#(@!#~#H {#e+e+",
"~+~+(+(+f+W@k+~+k+k+W@H L.]#^#H+K+`@H+n@'@/#(#_#(#.#+#z@T+T+T+T+;#(#(#:#<#[#}#a+|#1#b@H@b@b@2#F@G@p@h+%@F 3#_ _ _ _ _ _ _ _ _ _ _ _ _ _ _ _ _ _ _ _ _ _ _ _ _ 4#b@%@b@5#F@R@'@h+h+ #.@X@$@6#a@+#1@z@*#+#>#>#7#(#T+T+8#8#_#(#+#;#T+U@'@h+K+'@9#,+(@~+g+0#{#a#|#W@x+b#f+f+",
"k+~+f+W@(+f+f+k+~+c#f+u@j@;@d#N+%@'@'@)@T+T+>#8#(#.#+#e#+#+#.#z@*#(#e#f#g#h#i#_+W@e+b@8@i@H@%@y@g@x+j#%@D k#_ _ _ _ _ _ _ _ _ _ _ _ _ _ _ _ _ _ _ _ _ _ _ _ _ l#b@w@h+m#9@8@`+H@%@U@H+(@P@n#l+e#o#p#z@e#q#8#r#s#z@T+(#t#u#s#_#_#>#S+i@`@%@)@v#w#H x#x#W@f+W@W@f+e+b#~+f+",
"W@~+~+f+f+y#W@W@k+g+Z+b#/@z#U+N+'@U@T+(#2@>#>#(#+#i@T++#8#:#.#+#:#e#f#e#A#B#C#D#t@H *@8@M@8@V@F@#@H E#w@A F#_ _ _ _ _ _ _ _ _ _ _ _ _ _ _ _ _ _ _ _ _ _ _ _ _ G#h+w@b@H#I#3@g@3@M@F@J#i+_@W+Y+:#(#y@K#t#L#_#M#N#f#z@:#e#t#u#u#8#8#(#'@`@K+)@O#^@E ~+k+k+P#u@P#x+Q#W@k+f+",
"R#f@g+w+~+~+S#e+p+{@v+q+:@T#,@`@N+,#1@;#(#;@(#(#S@w@3@M@(#+#R@(#e#.#o#f#U#V#W#D#P#(@&@2# #w@8@8@N@s@3@8@A X#_ _ _ _ _ _ _ _ _ _ _ _ _ _ _ _ _ _ _ _ _ _ _ _ _ Y#N+V@Z#).g@g@#@8@R@1@v+`#_@W+l+8#L#z@z@f#_#M#_#u#2@R@R@T+>#e#e#f#t#>#8@H@`@1@ $0 f+g+l+g+q+W@W@W@P#|#k+~+",
"x+~+g+q+{@l+.$~+~+l+l+k++$R+/#@$b@h+H@8@S+;#;#>#1@l@8@F@+#S+.#:#e#+#:##$g#$$C#8+%$&$&@O@i@y@8@3@a@s@`+2#n F#_ _ _ _ _ _ _ _ _ _ _ _ _ _ _ _ _ _ _ _ _ _ _ _ _ l#l@'@.@*$=$g@-$F@F@w@.@;$C@$@Z+t#t#<#f#e#f#_#T+>#(#F@S+F@T+;#+#.#z@.#M@`@H@1@>$(@~+H+s+{@l+g+x#t@0#k+g+~+",
"e+~+g+q+{@{@l+l+q+0#f+e+/@,@i@H+.@|@|@.@-$T+R+S+T+i@8@1@S+1@R@.#+#,$L#<#f#p#'$9+)$H N@O@F@z@T+V@!$:@H@%@z ~$_ _ _ _ _ _ _ _ _ _ _ _ _ _ _ _ _ _ _ _ _ _ _ _ _ {$%@-$]$^$I#3@8@F@V@,#b@!#6@m#&@e#u#8#_#:#:#+#T+_#2@U@F@S@M@T@T+F@/$T+R@2#`@8@($s@~+v+J#H+.@{@~+0#q+g+l+l+",
"g+l+q+q+g+{@l+{@q+0#R#/+w#_$,@.@&@q+D+3+:$(.(.Q W K K O W W (.` p@R@f#+#e#V#<$^@k+u@b@3@[$S@+#y@Z#:$H |@z }$_ _ _ _ _ _ _ _ _ _ _ _ _ _ _ _ _ _ _ _ _ _ _ _ _ |$O@.@V 1$F@M@M@w@%@`+b@P#W@2${@#$8#8#:#v+D+V G.V V W :$:$3$(.(.a+-+8+%@%@q+`@_#^@4$.@@$b@l+g+f@q+v+{@v+l+",
"v+{@{@q+*@{@o@{@Z+~+R#e+s@G y+9+9+9+9+1+*.5$'.5$<@5$6$D+*.j+&.d+&.)@>#:#:#7$8$9$0$r+8@M@F@F@R@y@N@a$W |@.$}$_ _ _ _ _ _ _ _ _ _ _ _ _ _ _ _ _ _ _ _ _ _ _ _ _ {$h+s@:$b$-#F@M@2#J#%@H@c$d$e$+#(#(#e#f#y+M.L.6$f$<+5$5$g$).6$1+}+h$).L.&.i$B+x+(@g+b@h+H+.@v+{@{@]@v+H+{@",
"q+k+g+Z+{@t+w+w+l+~+k+e+u@d#f@W@5@,+h$z+j$s@L.B+L.L.1+I.A+H.p@k$n '@T++#l$e#m$n$o$p$3@M@ #y@ #8@q$r$8+|@w+}$_ _ _ _ _ _ _ _ _ _ _ _ _ _ _ _ _ _ _ _ _ _ _ _ _ s$v+k+t$u$y@V@3@2#h+2#v$w$x$y$z$_#z@R@>#A$J+/+&.}+L.A+w#&.%.,+s@]@|+}+(@H f+u+,@~+Y+|@H@@$v+H+v+H+{@o@o@l+",
"k+e+f+.$v+{@{@l+.@~+k+a#_@^#~+{#u@+$M.B$C$_@0 D$E$].F$G$T B$$.q+W@'@p#p#[$:#H$I$J$K$L$3@8@2#2#g@M$t$8+.@k$X#_ _ _ _ _ _ _ _ _ _ _ _ _ _ _ _ _ _ _ _ _ _ _ _ _ |$.@Y+i$N$,#3@g@H@g@8@O$P$Q$R$:#F@V@l$>#(@@$<+B$_.z+C$].S$T _@(@A$,+w#T$e+S#u+'@t@g+*@H@H+H+H+H+v+g+g+f@~+",
"k+R#f+g+v+b@*@{@v+&@k+|#_@,@l+4$s@U$A$M.V$*.T$$.D$W$X$Y$Z$ .`$.@u@l@F@p#9@-# %.%+%@%2#l@H@b@%@b@#%r$V v+t+X#_ _ _ _ _ _ _ _ _ _ _ _ _ _ _ _ _ _ _ _ _ _ _ _ _ $%b@g+i$0+V@I#2#H@L$V@%%&%*%=%-%9@9@y@f#s@H+)+U$z+$.S$|+].B$M.w#B$p@p@z+5 ~+g+)@E q+Z#h+|@H+h+H+b@l+]@g+k+",
"~+q+~+Z+q+.@.@b@v+H+.@k+)+;@H+k+{#T$z+A$;%>%}+w#A+,%'%z+)%'%[+x#W@n@y@l$9@y@ %!%~%{%g@%@O@O@H@H@]%r$;+~@^%/%_ _ _ _ _ _ _ _ _ _ _ _ _ _ _ _ _ _ _ _ _ _ _ _ _ (%b@g+6$` 8@V@8@I#8@8@V#_%:%<%h#[%9@-#}%(@h+1+|%5$y+F+C$1%>+(@L.E f+1%A$q+~+@$,@e+Y+v+b@b@b@H+@$N+h+s+{@f@",
"g+g+f+q+~+q+q+l+b@b@|@q+(@T#H+k+k+x#T$*.s@2%B$s@b#H+3%J+)@L+q+|@k+n@y@l$[$l$4%5%6%7%2#3@g@#@H@`@k+r$_.t+k$8%_ _ _ _ _ _ _ _ _ _ _ _ _ _ _ _ _ _ _ _ _ _ _ _ _ 9%v+q+C+V E@V@8@-$V@M@%%0%a%b%h#[$[$y@+#H n@l+|@Z#H+s+u+l+b#+$f+k+5 d+l+q+q+N+U+e+k+.@b@b@b@b@b@@$v+K+@$l+",
"H+l+f+q+*@v+Z+g+c%a@*@Y+(@Q+s+&@q+q+.@p@W@y#Q#~#c%H@H@H@`+3@#@#@|#K+z@z@p#B#d%e%f%g%8@M@2#g@g@|@k+r$W {@u+8%_ _ _ _ _ _ _ _ _ _ _ _ _ _ _ _ _ _ _ _ _ _ _ _ _ h%b@q+'.V E@9@9@3@8@F@V#i%j%k%h#y@[$B#;#_@|@%@l%g@N+-$`@b@.@(@q+*@f+b@##.@*@g@m%u@W@&@Z+.@Z#v+v+l+k+H+*@g+",
"|@|@q+Y+*@Z#Z+q+q+a@a@q+u@U+N+l+.@.@H+|@x#k+W@)$.@H@%@`@O@L$#@|@)#l@F@R@/$l$n%!%o%g% #1@V@-$|@|@k+0+:$g+o@8%_ _ _ _ _ _ _ _ _ _ _ _ _ _ _ _ _ _ _ _ _ _ _ _ _ h%H+q+'.V E@3@3@g@3@-#p%q%r%s%:#t%[$M@T@(@g@2#3@g@-$-$w@|@.@H l+Z#b@h+b@]$|@w@U@e+]%a@.@.@u%Z#.@&@q+l+.@q+",
"|@@$b@Z+Z#Z#]$]%Y+Y+]%]%0#f+H+b@#@H@%@3@|@*@Y+W@b@%@I#,#3@g@v%v%w%H+w@i@,#y@x%y%z%A%S@T+i@8@2#l%x#b+-+g+g+B%_ _ _ _ _ _ _ _ _ _ _ _ _ _ _ _ _ _ _ _ _ _ _ _ _ C%V+D%E%X E@2#3@3@F@p#F%G%H%I%:#K#[$[$z@(@g@V@V@8@8@2#2#|@b@u@b@b@b@h+H@Z#b@%@l+|#&@.@.@a@a@a@Z#.@l+.@g+Y+",
"Y+*@|@&@]%]%a@.@|@Z##%r+{#q@|@.@b@H@g@g@2#`+.@)#|@H@l%I#J%L$N@##!#H+2#j# #y@K%y%L%M%M@R@T+M@V@2#&@9+W g+w+8%_ _ _ _ _ _ _ _ _ _ _ _ _ _ _ _ _ _ _ _ _ _ _ _ _ N%|@x#9+].E@8@8@M@[$[$%%O%P%Q%:#-%R%[$;#X@g@V@9@V@E@2#H@h+b@x+|@H+H@%@%@b@h+K+:@:+a@S%Z+&@a@.@.@Z#Y+Y+f+k+",
"r+]%a@&@k+q+]$##Z+|@]%a#r+u@h+.@c%|@H@H@3@8@##T%b@H@H@L$g@L$N@N@^@.@%@j#E#F@t#U%V%W%9@F@F@1@E@H@q+b+O l+g+8%_ _ _ _ _ _ _ _ _ _ _ _ _ _ _ _ _ _ _ _ _ _ _ _ _ N%b@f+b+V G@l%l%V@[$B#X%O%Y%Z%K#9@3@9@;#&$`%[$[$8@g@g@h+b@.@e+h+H@g@%@h+Z#b@l@P#S%&@]%]$&@a@Z+a@v%&@k+P#x+",
":+x#Z+]$S%a@c%]$$# &]%a#.&r+h+.@.@|@H@8@i@1@Z#a###H@g@L$#@#@v%N@!#g+O@%@%@M@8#+&@&W%V@1@U@i@-$g@q+b+:$l+l+/%_ _ _ _ _ _ _ _ _ _ _ _ _ _ _ _ _ _ _ _ _ _ _ _ _ #&Z#0#0+2+h+#@#@8@F@l$F%O%$&Z%K#R%9@M@;#(@2#p#[$V@g@G@|@N@$#y#*@b@g@%@|@.@.@l@a#]%]%&@.&.&a@####a@a@0#u@%$",
"r+q+*@&@]%&@&@&@c%a@x#1#.&r+H+v+Z#H@H@-$V@M@|@a#Z#H@G@G@G@%&v%v%(@*@H@#@#@M@8#&&*&=&/$U@1@`+3@g@f@b+W l+l+/%_ _ _ _ _ _ _ _ _ _ _ _ _ _ _ _ _ _ _ _ _ _ _ _ _ -&b@(+0+_.;&|@b@3@9@y@>&q%,&<%z@3@V@[$+#p@-$M@'&[$R%G@#@N@##)$a@#@h+2#|@##|@%@)#k+&@Z#$#Y+a@Y+&@a@Z#k+e+f+",
"W@x#.@.@]$a@&@&@a@Y+Y+r+a@]%L+v+Z#h+g@%@`+8@|@1#v%Z#v%#@H@#@N@N@!#b@H@##|@i@f#)&!&~&M@)@i@-$g@;&x#b+W {@l+8%_ _ _ _ _ _ _ _ _ _ _ _ _ _ _ _ _ _ _ _ _ _ _ _ _ * v+f+0+(.|@|@N@2#V@F@O${&]&=%l$I#V@F@>#(@-$F@S@V@3@#@N@Z###P#.@#@#@3@|@$#N@O+|#]%x#.@a@##Z#]%]%.@h+q+0#R#",
"k+k+x#r+a@&@a@a@a@a@$#&@]%r+H+.@Z#b@h+-$8@8@|@1#&@N@;&V+H@#@%&a@X@.@h+|@E@ #9@^&/&(&R%8@w@%@%@#@0#b+_&.@w+:&_ _ _ _ _ _ _ _ _ _ _ _ _ _ _ _ _ _ _ _ _ _ _ _ _ <&.@e+8+V g@N@##%@8@[&}&|&1&2&F@M@8@y@>#s@2#i@M@M@-$G@%&.@$#H c%N@|@%@N@a@$#N+0#]%]%a@#%a@.@a@Y+v+|@Y+k+f+",
"x#r+W@3&k+a@$#a@.@&@a@r+k+k+~@.&Y+b@g@8@`+`+b@1#.@b@V+H@=$N@4&a@^@Y+H@#@-$9@4@5&6&7&G@-$w@%@V+N@k+b+O l+w+:&_ _ _ _ _ _ _ _ _ _ _ _ _ _ _ _ _ _ _ _ _ _ _ _ _ & l+e+9+2+V+|@|@g@g@V+q$8&9&0&Z#M@E@M@S+5@-$8@8@V@3@;&;&N@Z#s@&@.@b@g@b@]%.@@$W@a@k+a#a#:+&@.@.@.@Z#x#k+b#",
"|#|#a&:+r+k+&@.@Z#&@a@r+&@q+L+Z#a@Z#8@`+E@E@N@b&;&h+H@3@g@N@##a@2$Y+H@|@g@y@c&d&e&f&b@h+N+h+H@|@t@V K l+D%:&_ _ _ _ _ _ _ _ _ _ _ _ _ _ _ _ _ _ _ _ _ _ _ _ _ g& &x+b+W V+V+H@N+h+N@h&i&j&k&9@V@g@9@T+(@-$8@H@3@G@V+V+V+.@d+Y+c%##h+*@&@Z#~@:+&@k+:+a#0#q+Y+Y+l+.@e+x+|#",
"|#0#k+k+k+&@.@Z#.@Y+Z#a@]%q+!@.@k+.@%@-$-$3@.@1#g@g@G@E@G@N@$#a@^@Z+;&N@H@l&K#m&n&o&%@K+H@|@|@|@p@V O Y+f@p&_ _ _ _ _ _ _ _ _ _ _ _ _ _ _ _ _ _ _ _ _ _ _ _ _ 1 l+/+0+Q `+3@-$-$g@q&r&s&t&u&S@8@g@8@S+6@g@3@Z#%&l%H@N@;&.@s@b@|@.@|@.@##Z+t+a#]%#%S%]%]%x#]%x#b#q+W@H (@",
"W@k+k+x#.@Z#Z#.@u%Y+Z#v%]%k+t+a@k+ &V+2#3@g@u%b&#@3@3@I#g@|@N@v%`#Y+|@|@h+8@f#v&w&x&I#8@%@v+b@*@H V K g+~+p&_ _ _ _ _ _ _ _ _ _ _ _ _ _ _ _ _ _ _ _ _ _ _ _ _ y&.@/+0+Q K+-$|@g@-$;&z&&%A&B&M@V@-$`+T+^@H@g@v%v%|@G@N@N@Z#(@v+H@Z#N@.@|@Z#H+:+M$#%q+.@a@]%k+k+k+k+|#u@H ",
"k+]%0#a#k+a@&@:+]%&@l+v%]%r+u+l+r+N@g@g@n@g@q+P#Z#V+V+l%R%g@|@a@^@Y+b@|@h+`+t#C&D&E&J%'@l@H+|@Z+(@G.L g+F&p&_ _ _ _ _ _ _ _ _ _ _ _ _ _ _ _ _ _ _ _ _ _ _ _ _ G&Y+/+V W N+|@Z#h+n@g@H&I&J&Z%[%M@8@8@'&w#|@;&N@v%#@H@#@#@a@^@.@b@b@N@a@##|@|@W@]%#%x#l+l+Z+&@q+k+k+0#{#(@",
"a@a@0#b&r+r+]%1#a#x#x#]%]%W@w+D%k+Z#g@%@-$h+k+;$]%.@Z#N@|@N@##&@2$l+|@N@#@E@z@K&L&K$g@3@H@H@b@.@(@E+3+D%f@p&_ _ _ _ _ _ _ _ _ _ _ _ _ _ _ _ _ _ _ _ _ _ _ _ _ M&q+x+V W h+Z#v%|@V+g@8$N&O&P&[%,#%@`+Q&:@N@h+;&|@#@|@N@Z#]%6@v+@$Z#a@a@a@|@~@P#k+x#k+f@Y+q+l+g+x#W@0#4$e+",
"&@]%0##%&@]$a@a#:+k+r+x#k+W@w+l+Y+Y+|@b@;&Z#:+`#]%&@$#v%v%q&&@M$!#k+a@.@|@g@l$R&S&T&|@H@b@Z#b@Z#u@G.3+Y+f+U&_ _ _ _ _ _ _ _ _ _ _ _ _ _ _ _ _ _ _ _ _ _ _ _ _ V&q+x+V W h+.@a@b@H@H@W&N&Y%P&$$S@V+3@1@X@v%b@N@%&h+##a@v%]%6@|@|@*@Z#&@]%H+]@a&r+x#]%&@k+k+q+f@4$0#x#k+b#",
"k+#%#%]%.@b@N@&@&@&@#%k+0#W@g+{@.@&@Y+&@Z#l+P#&$]%]%k+M$.&$#|@q&!#%$#%Z#Z#|@B#X&Y&Z&Z#|@b@b@N@|@x+V 5+D%W@U&_ _ _ _ _ _ _ _ _ _ _ _ _ _ _ _ _ _ _ _ _ _ _ _ _ `&l+E V P n@N@a@Z#|@H@ *.*+*@*[%V@g@H@i@X@Z#|@N@Z##*.@v%a@ @_@*@|@.@a@q+&@v+I+p@r+.&.@Y+W@k+x#k+0#x#x#b#k+",
"{#k+R#]%Z#b@*@Z#a@l+x#k+r+a#g+l+Y+Y+Y+.@h+t+P#X@#%:+a#:+r+.@;&M$&#t@a@N@Z#|@T+I$$*%*v%N@|@|@|@|@P#V L f@E U&_ _ _ _ _ _ _ _ _ _ _ _ _ _ _ _ _ _ _ _ _ _ _ _ _ M&l+E 0+:$g@|@&@a@Z#|@&***=*=&9@-$l%`+l&D@ &H@b@]%Z#a@l+a@#%w#v+b@Y+Y+]%q+q+t+|#q+Z+v+l+b#{#f+k+x#q+k+f+x#",
"P#x+P#k+&@a@Z#.@&@q+]%r+#%|#-*D%x#x#Y+Z+|@v+|#C@#%]%k+r+r+b@|@;*>*k+*@|@$#h+)@,*'*)*l+v+.@Z#N@N@)#G.L f@(+U&_ _ _ _ _ _ _ _ _ _ _ _ _ _ _ _ _ _ _ _ _ _ _ _ _ !*Y+e+V P V+N@&@Z+b@#*0@~*{*]*8@H@H@`+,#L.l+h+b@#%a@.@u%q+:+:@{@.@k+&@]%k+q+~@x+b#k+.@q+0#W@:+k+q+q+k+k+~+",
"u@(@(@a#k+r+Y+Y+q+&@q+0##%P#f@f@k+]%q+l+ &a@P#X@x#&@&@:+S%Z#a@C@%$v+H+b@b@@$@$^*/*u@a@.@N@Z#|@.@u@Z K D%n U&_ _ _ _ _ _ _ _ _ _ _ _ _ _ _ _ _ _ _ _ _ _ _ _ _ (*l+t@G.P g@V+N@*@|@h+q+_*:*l+8@E@N@|@N+t+q@g+Z#r+;*a@a@a@a@s@l+.@&@q+&@k+q+w+(@W@k+g+k+0#x#e+W@k+k+f+0#0#",
"(@u@P#P#W@:+k+.@a@a@]%r+r+)#F&g+k+k+Y+Y+a@a@|#X@a@a@ &;$(@&@X@:@g+s+H+v+Z#t+y+K 0+<* &b@|@#@;&b@e+Z [*{@n U&_ _ _ _ _ _ _ _ _ _ _ _ _ _ _ _ _ _ _ _ _ _ _ _ _ }*{@p@V W g@;&#@h+%@%@l+'+;+'+@$%@###@%@K+~+w#q+P#q@k+&@.@a@d+Y+Y+Y+Y+x#r+q+q+u@{#k+x#W@r+r+W@P#|#W@W@|#|#",
"X@i+|#W@:+r+0#&@ & &]%]%k+P#f@k+R#k+x#&@l+a@a#X@M$.@k+g$%$:@A$0#|@h+N+@$]%q@$+(.$.~@;&b@#@V+V+|@|*V P l+f+1*_ _ _ _ _ _ _ _ _ _ _ _ _ _ _ _ _ _ _ _ _ _ _ _ _ 2*l+H V _&h+;&h+g@3@`+l@d+U$$+$.|@|@;&h+n@N+t@`$k+B+5@Y+q+k+5 f@]%]%q+]%r+]%l+u@W@&@x#)#a#1#i+;$i+|#W@W@W@",
";$b&#%k+:+:+:+Y+u%.@&@k+0#(@0#|#P#b&a#]%q+&@P#C@]%0#<+p@w%_@x#a@Z#N+@$l+:@3*E+D$x#.@Z#|@Z#|@b@Z#(@V O k+(+4*_ _ _ _ _ _ _ _ _ _ _ _ _ _ _ _ _ _ _ _ _ _ _ _ _ 5*Z+s@;+_&|@N@g@2#g@H@`+N+I.U$6*,%.@v+|@H+N+Z#/+I.t@7*)+W@:+w#q+Y+.&k+#%x#k+q+(@W@x#q+|#P#)#`#(@(@e+4$k+{#",
"P#W@0#k+r+W@:+&@l+q+k+:+W@u@t@P#(@;${#]%]%q+|#8*P#1+a#u@9*.@Z#a@Z#h+|@T$*+W $.0*&@k+&@b@M$v%.@q+(@V N k+a*b*_ _ _ _ _ _ _ _ _ _ _ _ _ _ _ _ _ _ _ _ _ _ _ _ _ c*g+6@E+_&~@v%#@#@H@g@|@v+~@,+V $+<+g+N+@$V+|@Y+5@M.t@$.q@1#_@q+x#r+:+;*:+W@q+(@|#W@x#k+a#P#`#(@X@W@k+k+|#",
"P#a#W@W@r+0#k+a@Y+x#r+:+a#u@t@P#|#a#k+k+k+a@|*_@5$(@;$d*r+|@Z#.@Z#h+h&e*f*5$D%]%&@a@a@v+l+ &]%x+V (._.w+/+b*_ _ _ _ _ _ _ _ _ _ _ _ _ _ _ _ _ _ _ _ _ _ _ _ _ g*g+A$;+:$M.0#%&N@N@V+b@Z#l+|@>+b+h*i*H@|@h+u%*@Y+_@,+j*U$P#w#W@:+#%:+0#|#|#x#X@)#x+#%r+#%:+)#u@w%W@:+0#(@",
"x+W@:+:+b#k+k+q+q+]%r+0#W@i+t@|#k+k+W@:+#%]%x+q@%$(@}+|#x#Z#&@H+`@k*l*m*n*g+t+k+]%N@N@|@|@v+W@_.:$` o*p*/+b*_ _ _ _ _ _ _ _ _ _ _ _ _ _ _ _ _ _ _ _ _ _ _ _ _ q*D%H+5$-+k.q@u%#@#@l%H@|@x#~@N+r*s*t*u*2#N+Y+Z#v+a@D@q@j*W@;%P#:+#%k+k+{#x+k+C@(@(@a#a#k+r+P#i+`#a#a#a&5@",
"P#b&W@#%0#0#0#r+k+:+|#a#|#(@R#a#;*k+|#W@W@#%|#/+j*g$0#&@]%q+&@|@v*w*x*y*z*v+{@Y+v%Z#%&b@b@f@V 3+8+/+l+q+/+b*_ _ _ _ _ _ _ _ _ _ _ _ _ _ _ _ _ _ _ _ _ _ _ _ _ A*D%|@.@6$:$3*s@|@###@-$V+Z#{@}@V#B*C*D*E*H@l+u%a@v% &}+M.~+q@|#r+:+;*:+:+W@4$_@(@!#1#1#;*a#P#i+(@|#b&P#i+",
"p@a&:+k+k+r+W@|#:+1#i+i+P#!#x+|#0#|#u@W@0#|#L.,+<+P#]$k+r+]%.@F*G*H*I*J*J%H+|@.@&@u%.@Z#D%].#+V p@v+v+q+/+b*_ _ _ _ _ _ _ _ _ _ _ _ _ _ _ _ _ _ _ _ _ _ _ _ _ K*&@v+N@#*D+5+=+%$.@|@;&N@V+b@|@8@L*M*N*O*P*Z+l+&@k+ &x#H#1%}+(@:+a#k+k+)#a#W@_@X@X@;$u@a#1#(@(@;$a#|#|#a&",
"P#:+a#{#:+W@a#W@a#a#i+(@P#&$f+t@0#|#a#R#t@q@G Z#M$q+r+k+k+.&Q*R*$&S*T*A@h+b@%&N@.@v%a@]%8+@+U*:@{@Z#Z#]%/+b*_ _ _ _ _ _ _ _ _ _ _ _ _ _ _ _ _ _ _ _ _ _ _ _ _ V*Z+b@a@b@l+6$5+3+(@Z#|@Z#%&;&;&h+8@R$W*X*Y*1#&@x#k+&@]%x#%&0*,+u@a#b#r+P#a#Z*^@H u@i+)#)#1#(@(@%$a#P#P#)#",
"a#a#P#a#b&P#%$|#:+r+1#(@u@^@R#Z*k+:+#%|#_@T$j*x#Y+k+|#]%]% @`* =.=+=v$n@@$|@N@N@M$M$q+'.@+(.:@.@a@&@.@q+/+b*_ _ _ _ _ _ _ _ _ _ _ _ _ _ _ _ _ _ _ _ _ _ _ _ _ @=.@|@Z#N@Z#D%'.3+K f+l+v%q&V+g@V+h+I##=$=%=&=*=a@q+q+k+]%q+;$`$d*(@0#W@P#%$k+X@P#W@a#u@u@i+u@(@u@W@1#|#|#",
"|#|#u@)#)#P#;$i+)#a#1#i+u@:@E 4$W@0#a#:@P#%$0#k+k+r+r+]%h&==-=;=>=v$Z#b@b@N@N@.@Y+Y+5$$+a+M. &Y+u%.@v%q+/+b*_ _ _ _ _ _ _ _ _ _ _ _ _ _ _ _ _ _ _ _ _ _ _ _ _ ,=b@h+|@N@.@v+f@'+%+W R#Y+Y+Z#2#g@|@##g@'=)=!=~={=.@l+r+k+k+k+5@(@&.u@W@W@a#f+^@P#W@W@P#)#(@!#(@i+P#)#W@x+",
"x+u@i+i+)#)#P#1#u@P#:+P#P#&$R#W@a#W@_@]=(@^=#%r+k+]%r+h&/=(=_=+=&*N@v%b@%&Z#|@.@l+B+3*;+,+.@##Y+ &N@Z#&@p@b*_ _ _ _ _ _ _ _ _ _ _ _ _ _ _ _ _ _ _ _ _ _ _ _ _ @=v+@$;&#@Z#.@~@t@0+=+_.4$Y+]%Z#;&N@v%N@g@:=<=[=}=|=a@x##%t@|#W@:@d+>+|#a#a#f@6@a&P#W@|#u@^@^@(@!#X@H P#u@",
"a#P#u@P#u@b&a#a#P#a#0#b&|#^@k+b&a#b&^@]%`#a##%0#q+.@1=2=3=!&4=5=Z#]%v%##N@Z#|@p*`$*+6=7=v+q+a@.@v%Z#Z#a@T$8=_ _ _ _ _ _ _ _ _ _ _ _ _ _ _ _ _ _ _ _ _ _ _ _ _ 9=b@h+|@g@b@a@a@#*E V $+V x#u%M$N@N@.@a@$#0=a=b=c=d=e=b#]%W@W@W@5@q+_@e+i+a#D%:@(@u@P#W@u@X@`#`#;$(@P#a#|#",
"a#)#u@u@P#P#a#)#P#W@{#a&u@l+Y+0#:+|#3&#%_@a#0#k+]%f=g=h=i=j=k=$#Y+x#v%##a@Z#N@M.l=W <+~@Y+#%a@Z#N@b@b@a@:@8=_ _ _ _ _ _ _ _ _ _ _ _ _ _ _ _ _ _ _ _ _ _ _ _ _ m=l+#*|@H@N@Z#M$q+@$%$(.n=` x#M$M$.@b@v%.@a@o=p=q=r=s=t=r+a#W@W@^@q+5@P#(@P#x#w+2$(@(@P#i+)$(@i+(@(@u=|#u@",
"|#u@u@u@u@u@)#i+P#P#a&|#(@x#Z*|#P#P#X@1#y+;$0#{#.&v=w=x=y=z=N@a@]%#%$#Z#.@Y+s@3*P *.l+a@#%r+]%Y+b@|@Z#k+|+_ _ _ _ _ _ _ _ _ _ _ _ _ _ _ _ _ _ _ _ _ _ _ _ _ _ A=k+|@;&b@##.@a@#%.@@$B=-+C=!.x#$##@.@Z#Z#]%Z#0=p=D=E=F=G=P#:+|#_@(@^@)#i+i+f+k+%$(@X@(@(@u@H u@i+)$(@H s@",
"e+P#(@s@(@u@;$)#i+P#P#u=_@)#|#(@1+5@(@X@f$u@|#b&H=I=L&J=K=%&Y+]%x#M$u%a@M$5@5+K L=G+ &]%a#:+&@u%v+ &p*x+..8=_ _ _ _ _ _ _ _ _ _ _ _ _ _ _ _ _ _ _ _ _ _ _ _ _ M=6@l+|@N@N@.@a@a@.@D%~@M.P N=*.&@;&b@v%N@.@&@&@ *O=_=~*P=;$x#e+q@9*P@0#'.2$u@W@:@^@(@X@^@H H (@p@p@(@)+s@",
"H )#(@`#(@i+b&i+`#;$1#1#:@P#P#Q=E%x+(@`#1+u@x+R=S=T=U=V=q$&@.&k+M$v%v%]%%$P 3+[+H+l+]%&@:+#%Z# & &x#4$W=2+X=_ _ _ _ _ _ _ _ _ _ _ _ _ _ _ _ _ _ _ _ _ _ _ _ _ Y=` R#Y+Z##*v%]%&@a@x#Y+|@}+O 6*|+b@%&a@Z#.@a@k+]% *Z=`= -R#f+W@q@I.I.P#D+g$;$P#d+s@s@(@)+(@(@u@u@|#P#(@5@",
"(@(@)$(@(@u@i+&$2$i+P#)#5@|*a#9*%$R#u@8*E$u@W@1#.-^*u=q+k+0#;*#%a@##v%r+C@Q ` +-q+k+x#]%#%r+v%p*]%Y+1+0+@-#-$-_ _ _ _ _ _ _ _ _ _ _ _ _ _ _ _ _ _ _ _ _ _ _ _ _ %-[+x#l+v+a@]%]%a@]%W@x#t+b+-+$.q+!$&@Z#v%]%:+4$x#&-*-=-W@(+%$Q=P@_@W@P#%.|#W@5@C@`#;$^@X@^@(@i+)$(@(@5@",
"9*Q=--Q=C@;-Q=Q=>-C@C@Q=u@:+x+k+W@i+^@X@,+|#:+u@,-'-;%f+:+3&a#:+]%]%M$k+_@8+;+F t@:+#%]%M$S%l+D%]%b@6#)-!-~-V {-_ _ _ _ _ _ _ _ _ _ _ _ _ _ _ _ _ _ _ _ _ _ _ _ 8=]-|@N@v%u%]%M$x#x#a#|#|@(.E+` Y+.@&@]%.&r+a#t@W@s@G.5+5 t@|#C@M.q@|#b&x#0#R#d+d*_@^@--$@Q=_@Q=_@P@I.P@",
"v+.@Z#H@n@`+n@^-;&Z# &Y+#*R#p@b&W@P#:@X@,+|#g+f+/-;+;%~+k+r+:+r+]%]%a@&@q@8+W p@4$k+W@;*]%(-x#Y+x#N@_-:-<-[-}-|-_ _ _ _ _ _ _ _ _ _ _ _ _ _ _ _ _ _ _ _ _ _ _ _ _ 1-9@#* &Y+#%]%#%#%:+P#l+3$;+U$g+Y+Y+r+]%x#:+t@f+d+;+&+;%t@W@^@M.d*|#0#k+k+0#k+|@N+h+V+H@L+H+v+H+s+!@!@",
"f+0#0#k+q+p*Y+x#W@:+0#e+p*#%a#b&W@W@d+V *.4$.@4$:$2-M.a@a@]%k+r+.&#%]%.@I.b+-+<*Z*R#:+a##%x#q+4$#%q&3-4-5-6-7-8-_ _ _ _ _ _ _ _ _ _ _ _ _ _ _ _ _ _ _ _ _ _ _ _ _ 9-0-v%r+q+x#x#x#a#1#|#q+3$0+ .w+x#x#k+x#]%:+a#a-&$E+&+y+x+b#_@W &.W@0#k+0#f+E q+g+g+g+w+~+f+k+k+~+~+~+",
"0#4$0#|#0#k+#%r+x#x#0#|#q+k+W@0#W@R#)+-+1+k+~+/+5+U*b-c-d-e-;*M$a@#%:+Y+,+0+-+s@W@#%#%a#:+:+W@1+&$0@`*f-g-h-i-8-_ _ _ _ _ _ _ _ _ _ _ _ _ _ _ _ _ _ _ _ _ _ _ _ _ j-k-#%W x##%r+;*P#i+1#x#:$2- .4$]%]%a@Y+]%;*l-m-n-V 5+V$t@W@P@5+y+W@k+0#k+k+e+x#~+~+q+k+W@k+D%W@x+x+x+",
"{#k+R#x+W@0#k+k+q+l+k+0#k+k+k+:+R#a#_@a+[+x+a#/+:$r$o-p-q-r-;*r+&@#%3&q+L.2--+s@|#r+:+a#k+x#t@i$C@G@`*s-t-u-v-8-_ _ _ _ _ _ _ _ _ _ _ _ _ _ _ _ _ _ _ _ _ _ _ _ _ j-k*]%a$a@x#a#b&1#u@|#x#K V V R#0#a@a@]%#%Q*w-x-y-9+3$L.x+x+d*(.z+W@k+W@0#W@x+0#q+k+x#k+e+W@k+t@e+)#|#",
"f+0#0#P#0#0#0#~@]%0#k+k+R#W@W@|#|#P#q@a+'.H x+E :$z-A-B-C-D-:+:+&@x#:+D%,+b+W A$|#k+k+x#]%&@4$1+:@E-F-G-H-I-J-8-_ _ _ _ _ _ _ _ _ _ _ _ _ _ _ _ _ _ _ _ _ _ _ _ _ j-K-Y+a+ &q+:+a#b&a#:+D%5+V  .k+D%]%a@Y+k+L-M-N-O-9+O L.x+x+,+(.<+t@W@0#W@t@s@e+~+x#0#W@P#|#W@/+p@H H ",
"(+(+u@P#0#F&f+4$|#|#W@e+x+R#k+|#x+x+_@a+D+x+0#/+-+'.A-P-Q-a-|#S%a@&@#%l+M.'+-+A$|#k+k+q+q+Y+~+}+X@v%@#R-S-T-i-8-_ _ _ _ _ _ _ _ _ _ _ _ _ _ _ _ _ _ _ _ _ _ _ _ _ U-V-L-2- &x#x##% @;*:+Y+K V '+g+Y+&@q+.@k+#%W-X-O-9+:$M.e+f+,+-+B$(+W@f+0#e+s@H e+W@a#u@|#k+E /+(@p@u@",
"-*k$)+T$Y-<*a*_@_@s@q@9*d+R#k+|#x+x+9*a+$.E {#H K 9+Z-`- ; @a#k+a@k+]%Y+M.0+K A$|#k+x#D%Y+x#~+~@]%%&.;+;@;#;$;8-_ _ _ _ _ _ _ _ _ _ _ _ _ _ _ _ _ _ _ _ _ _ _ _ _ U-|=(-k+u%W@x#]%:+a#a#D%K V U$g+Y+k+&@Y+]%;*%;&;*;b+W w#k+f+,+W ,+(+0#W@W@e+d+5 ,+,+w#w#d+2%d+M.B$w#d+",
"+.'+'+'.[+1+'.8+9+8+V G.B+x+4$|#W@t@:@(@<+x+{#0 5+b+I.=;.&:+:+:+&@q+$#.@A$` K |%|#r+x#x#Y+x#x# &u%G@-;;;>;,;';);_ _ _ _ _ _ _ _ _ _ _ _ _ _ _ _ _ _ _ _ _ _ _ _ _ !;~;M$]%]%f+k+q+0#|#|#l+:$V ..g+]%]%Y+M$#%:+:+{;(@` 3$A$f+e+P@L.:@W@W@0#0#x+}+'.0+0+V V 9+'+'.8+'.'+b+",
"6@^@H s@:@H s@:@d+:@I.M.;%e+k+W@W@W@^@s@y+x+:+p@];0+,+W@0#:+:+P#x#q+l+Y+A$0+W 5 W@r+x#q+l+Y+q+]%q+l+6#P=^;/;@#{-_ _ _ _ _ _ _ _ _ _ _ _ _ _ _ _ _ _ _ _ _ _ _ _ _ (;|#]%;*]%f@k+Y+k+e+W@u+W Y ..g+.@Y+v+&@#%i+|#~+s@V _&;%f+x+I.L.,+x+W@t@{#t@,+_@(@(@)+_@_@:@:@d+H (@w#",
"W@|#P#x+u@t@e+/+p@x+/+d+5 E 0#:@u@|#:@_@y+t@W@s@&+b+M.(+k+1#1#a##%u%q+k+:@0+-+d+x+k+0#x#Y+k+q+x#l+]%a#)+_;:;8-_ _ _ _ _ _ _ _ _ _ _ _ _ _ _ _ _ _ _ _ _ _ _ _ _ <;T$D%Y+x#Y+k+k+l+q+R#k+4$W ` [;g+.@g+.@Y+k+P#W@~+T$V 5+;%R#f+M.B+}+t@P#L.H x+9*5@|#|#u@u@u@x+u@(@x+P#H ",
"W@|#u@u@u@x+%$H P#|#p@(@w#W@x+`$1+~#M.w#%.e+e+T$a$};2$q+k+W@P#:+#%r+k+k+x+9+E+U$u@k+x##%r+W@x#g+q+r+R#4$d*|;_ _ _ _ _ _ _ _ _ _ _ _ _ _ _ _ _ _ _ _ _ _ _ _ _ 1;<*-*0#x#l+q+|#W@Y+x#W@R#%.:$b+,+g+l+q+a@k+k+W@~+w+)#u$a$5 W@t@>+B+y+u@y+*.H u@,+)+u@|#u@P#i+x+H 5@u@H %$",
"u@x+(@^@X@u@%$H u@i+(@^@M.k+H p@,+u@M.Q=&.E t@~+^$2;3;4;;*P#P#r+|#a#a#r+@$]='.6+` x+k+0#0#:+k+f@Y+x#q+k+)+J@_ _ _ _ _ _ _ _ _ _ _ _ _ _ _ _ _ _ _ _ _ _ _ _ _ 5;A 4${#l+Y+q+W@W@x#q+e+}+3*G.}+H+g+Y+#%x#0#f+f+&@k-6;7;8;f+E u@y+1+%.e+h$u@(@P#,+q@(@u@u@u@P#u@(@^@d+p@p@",
"s@H (@^@H u@p@x+9;P#H 6@,+t@W@(@P#%$q@^@%.u@D D 0;a;b;c;d;;*0#:+|#:+:+:+x#h+)+V k.#.W@x#0#k+x#Y+Y+Y+x#x+y+e;_ _ _ _ _ _ _ _ _ _ _ _ _ _ _ _ _ _ _ _ _ _ _ _ _ f;%$0#q+Y+]%q+W@R#4$f@q@3*/-g$t+D%x#&@k+0#:+b#k+K-g;h;i;j;~+T$p@}+}+%.%$(@(@(@|#d*Q=X@H s@(@(@(@)+^@^@p@H ",
")+s@(@(@H p@x+W@x+e+p@:@,+u@k+u@x+p@_@k+P@E E p@Z+k;l;m;n;o; @a#;*;*r+a#a#k+|@d*_.k.1+W@k+x#f@l+q+x#q+W@}+1;_ _ _ _ _ _ _ _ _ _ _ _ _ _ _ _ _ _ _ _ _ _ _ _ _ p;x+D%Y+u%]%&@f+k+~+:@=+5+8+w+g+q+k+q+q+q+k+r+q;r;s;t;T&N@e+d+H d*p@}+(@(@(@(@P#,+_@^@(@X@X@&$~#(@(@(@H s@",
"C@^@(@u@u@u@x+b&u@(@^@8*h$<+W@f+x+s@I.0#I.E E u@E N@u;v;w;x;y;:+:+#%;*#%:+W@0# &h$z;@+y+0#4$f@g+x#x#k+W@M.A;_ _ _ _ _ _ _ _ _ _ _ _ _ _ _ _ _ _ _ _ _ _ _ _ _ B;e+k+k+Y+Y+Y+4$k+d+L K ` (+0#0#]%k+q+k+~+0#C;D;E;F;G;v$4$E u@(@d*u@P@(@p@(@u@M.f$Q=X@X@C@C@C@X@(@(@s@(@&$",
":@X@(@u@(@(@u@P#(@(@(@^@P@C+6@e+x+%$A$E d+p@e+e+/+x+H;I;J;K;L;M;!$a@]%]%#%k+W@R#t+5$K k.y+/+k+q+k+q+x#%$I.N;_ _ _ _ _ _ _ _ _ _ _ _ _ _ _ _ _ _ _ _ _ _ _ _ _ O;(+k+k+k+~+~+4$:@3+=+0+F x+a#x#Y+q+k+|#q+q&j&P;Q;R;S;r+P#t@P#6@,+%$_@P#(@X@5@z-$@^@(@;$P@Q=;-^@(@X@;-C@C@",
"^@s@(@(@(@^@s@(@X@X@(@^@2$9*^@e+x+x+R#5@%$q@p@e+x+u@|#J%T;U;V;W;X;M$]%]%]%k+k+t@k+D%E%5+j.%.x+f+~+x#k+(@I.Y;_ _ _ _ _ _ _ _ _ _ _ _ _ _ _ _ _ _ _ _ _ _ _ _ _ Z;t@4$f+k+x#W@(@P =+]./+4$H P#k+g+x#x#0#x#`; >.>+>@>k+)$1#W@;$Q=%$(@0#|#u@(@X@H#8*X@`#)+#>Q=&$(@H X@L.L.$@",
"^@&$C@6@s@_@(@w%(@)#u@(@(@2$d+u@s@u@t@0#(@T$M.(@|#W@W@0#$>%>&>*>=>.&&@k+:+0#:+W@e+(+->8+3*j.,+t@R#W@W@(@M.Y;_ _ _ _ _ _ _ _ _ _ _ _ _ _ _ _ _ _ _ _ _ _ _ _ _ Z;a*0#k+q+x#(@W %+V T$f+0#u@e+k+]%:+]%]%;>>>,>'>)>]%|#s@u@P#_@)+(@P#b&u@(@(@:@d*C@s@^@X@C@^@X@X@&$2$P@9*Q=",
"I._@C@_@_@C@!#2$X@P#)#(@(@2$)+(@X@H /+x+e+5@A$M.u@W@0#W@k+!>~>{>]>^>h&k+W@0#0#k+W@e+4$4$/>=+@+I.e+W@R#H _@Y;_ _ _ _ _ _ _ _ _ _ _ _ _ _ _ _ _ _ _ _ _ _ _ _ _ Z;t@W@k+k+x+(.6+;+w#f+(+|#x+W@0#x#Y+$#(>_>:><>[>a@u@u@u@(@)+A$q@;$u@(@(@(@X@w#P@^@^@^@&$X@)+(@^@_@_@C@C@C@",
"Q=_@_@_@9*6@C@_@&$u@u@X@2$_@:@(@X@(@u@s@(@W@<*`$M.%$R#:+P#R#l%}>|>1>2> @R#x+R#k+W@R#f+(+(+'.3*3>A$t@R#p@w#4>_ _ _ _ _ _ _ _ _ _ _ _ _ _ _ _ _ _ _ _ _ _ _ _ _ 5>E W@W@x+V #+U*A$~+4$W@W@W@e+k+Y+M$6>7>8>9>[%]%u@(@(@(@q@q@c+p@]=)+X@(@`#X@(@,+)+(@(@`#(@^@X@_@Q=^@(@X@_@",
"I.P@Q=9*_@C@_@C@^@s@X@&$^@_@:@(@X@(@s@:@6@x+4$d+L=y+5@P#u@H e+0>a>b>c>d>M$W@4$4$k+k+f+a*-@F ].e>=+w#W@(@q@Y;_ _ _ _ _ _ _ _ _ _ _ _ _ _ _ _ _ _ _ _ _ _ _ _ _ f>/+x+x+8+$+;+M.f@W@R#e+f+W@4$x#u%g>h>i>j>k>x#5@(@u@(@q@C+p@5@p@)+^@5@(@^@^@)+d*:@(@(@i+(@C@_@q@9*)+&$_@Q=",
"_@Q=_@Q=2$X@^@C@Q@X@^@^@^@Q=:@(@H (@~#s@:@T$w#d*|%'+y+&$(@)#H Q*@*3=l>m>y;:+4$(+W@W@t@x+t@~+s@V k.3+d+s@I.Y;_ _ _ _ _ _ _ _ _ _ _ _ _ _ _ _ _ _ _ _ _ _ _ _ _ f>T$/+'+n=(.M.g+t@u@x+W@k+x#k+]%C;+&n>o>p>v%(@;$(@s@I.8+_@^@%.w#C@^@u@!#&$s@^@d*_@^@`#(@^@_@_@_@Q=^@2$P@P@",
"^@_@--C@2$!#^@^@C@^@^@C@C@d*:@p@H H X@5@d+s@L.f$,+9*8+L.H e+/+%$v%q>r>s>t>^@E f+W@f+W@%$/+/+~+d+;+N=O d+I.Y;_ _ _ _ _ _ _ _ _ _ _ _ _ _ _ _ _ _ _ _ _ _ _ _ _ u>E <+e./-E$t+x+H u@t@t@f+0#W@E v>w>o>x>;&x+(@(@H M.b+#>M.Q=5$_@^@s@u@(@^@X@w#=@P@^@2$(@C@Q=C@_@_@^@_@P@q@",
"^@_@Q=C@&$(@^@^@C@C@C@_@8*d*I.(@s@T$^@X@(@H I.&.y>M._@` |+H E E |#q&z>A>B>:$w#e+|#t@(+t@e+(@p@k+,+_&k.)+q@Y;_ _ _ _ _ _ _ _ _ _ _ _ _ _ _ _ _ _ _ _ _ _ _ _ _ u>/+$.&+V t+E H %$f+k+0#t@t@x+'+C>D>E>G@t@x+u@s@d+'+M.)+'+9*$._@)+s@X@X@:@s@w#n#Q=C@C@w%^@_@C@_@_@^@C@D@Q=",
"Q=C@--D@C@_@P@C@_@C@C@Q=$@h$,+(@(@u@(@(@s@T$_@F>o*B+_@q@` ,+u@x+u@t@q+4$'.&+_&d+p@t@t@t@/+T$T$p@1+K $+q@,+Y;_ _ _ _ _ _ _ _ _ _ _ _ _ _ _ _ _ _ _ _ _ _ _ _ _ G>H C+K 3+p@x+%$P#0#x#W@o*%$D+5+b+P#b@x#W@x+s@I.'.d*d+g$%$_@5$:@^@^@^@X@^@X@w#n#P@Q=D@)+X@^@C@C@,+C@Q=8*Q=",
"Q=_@Q=C@_@Q=I.C@Q=Q=Q=P@}+%.L.6@^@u@u@(@p@/+:@m#(@E y+:@w#8+L.s@H (@e+k$/+8+3+_.d+x+t@e+u@H (@T$$.5+$+I.M.Y;_ _ _ _ _ _ _ _ _ _ _ _ _ _ _ _ _ _ _ _ _ _ _ _ _ H>p@'.&+k.s@(@(@u@W@k+e+E $.5+V `$.@f+0#W@H I.'+9*)+*.5@s@_@5$w#^@C@^@^@^@6@_@n#P@9*^@X@(@2$^@;-P@--P@8*P@",
"I>--C@6@X@^@^@^@--P@_@Q=>-m#}+9*q@^@X@s@(@t@:@%.^@%$f@L=_@$@V L.s@p@H e+D%p@V $+T H W@R#u@(@%$p@D+5+k.+$B$J>_ _ _ _ _ _ _ _ _ _ _ _ _ _ _ _ _ _ _ _ _ _ _ _ _ K>2%'+&+k.s@u@s@X@x+S#t@}+3*U*M.H+k+|#i+)#s@'.y+s@'.T$s@)+q@D+_@C@6@s@(@&$^@_@n#$@Q=`#X@~#&$X@^@8*;-_@Q=L.",
"d*Q=:@X@(@(@)+X@^@C@_@_@;-P@,+^@^@s@s@H %$/+M.f$C@(@|#t@(@(@}+'+:@/+)+s@(+u+5@a+$+B+%$E u@p@%$x+%.L>e.M.,+J>_ _ _ _ _ _ _ _ _ _ _ _ _ _ _ _ _ _ _ _ _ _ _ _ _ K>H 8+&+k.(@(@^@^@(@e+s@L W f$l+~+t@u@p@(@y+1+(@/+:@T$:@C@Q=#._@C@:@^@)+(@_@w#}+P@Q=(@X@)+C@X@X@_@_@6@_@M.",
"d*9*6@^@^@X@X@^@:@^@2$C@C@$@$@6@6@5@(@p@H p@M.M>9*C@(@(@^@(@C@h$'.p@u@(@x+(+g+U*N>*./+%$w%s@H H O>&+f.I.d*P>_ _ _ _ _ _ _ _ _ _ _ _ _ _ _ _ _ _ _ _ _ _ _ _ _ K>s@V *+e.5@X@X@d+d+x+d+Q>_+0#q+k+P#u@x+y+1+C@(@u@C@s@X@_@Q=D+_@_@Q=P@_@C@$@q@,+_@Q=^@^@^@8*C@^@^@C@_@I.M.",
"Q=Q=C@_@6@:@C@C@^@:@^@--P@m#,+6@^@^@d+5@H 5@L.D+9*_@(@(@6@(@)+#>};w#T$H T$e+b#R>S>T>p@p@s@d+H (@5$&+j.M.,+P>_ _ _ _ _ _ _ _ _ _ _ _ _ _ _ _ _ _ _ _ _ _ _ _ _ K>s@V %+f.d+5@X@(@u@t@i+U>V>W>W@{#|#x+u@` P@^@(@u@6@6@^@_@_@D+I.6@_@Q=_@_@P@I.d*C@^@;-_@_@P@Q=_@^@C@Q=9*L.",
"Q=C@_@_@^@^@6@^@(@^@C@P@d*m#,+:@^@s@(@5@s@(@P@6$I.C@s@(@^@^@D@_@M>h$6@(@5@e+a@X>Y>Z>0 p@p@(@u@(@).5+f.I.L.J>_ _ _ _ _ _ _ _ _ _ _ _ _ _ _ _ _ _ _ _ _ _ _ _ _ `>a V 6+++:@(@X@(@P#W@ ,.,+,@,k+a&;$u@(@9+9*C@u@%$:@#,C@D@q@5$_@6@C@_@Q=P@P@M.,+:@^@_@_@C@Q=Q=C@_@C@I.I.M.",
"C@_@Q=h@C@C@:@C@s@:@Q=d*$@H.L.:@^@s@s@5@(@(@,+5$_@)+~#(@X@C@--8*g$&.6@)+:@p@&@$,%,&,(@/+E /+p@p@*.5+++M.>+P>_ _ _ _ _ _ _ _ _ _ _ _ _ _ _ _ _ _ _ _ _ _ _ _ _ `>s@` %+f.:@(@s@`#(@x+{=*,=,-,r+P#w%X@X@i$q@6@u@%$C@Q=_@_@I.5$M.)+5@5@_@9*P@q@,+^@C@_@_@^@^@^@:@6@w#9*L.,+",
"I.q@9*Q=_@I._@I.C@^@9*d*$@h$>+:@^@_@I.I.^@d+}+M>2$^@^@(@X@C@C@_@5$L.5@:@_@u@Z+;,>,,,X@0 E /+e+/+5$5+e.M.B+P>_ _ _ _ _ _ _ _ _ _ _ _ _ _ _ _ _ _ _ _ _ _ _ _ _ ',d+V L>f.:@(@)+X@s@H {=),!,-,:+(@X@s@(@'.:@(@P#u@6@_@_@_@I.1+M.^@(@H ^@_@Q=I.,+_@Q=Q=q@C@^@)+:@6@^@6@M.,+",
"P@P@_@I.6@M.P@I.I.w#9*d*L.=@>+A$I._@I._@:@s@L.5$Q=6@^@X@X@^@C@_@D+y+:@6@^@p@&@~,{,],&$T$E 9;x+E '.3+e.B$A+P>_ _ _ _ _ _ _ _ _ _ _ _ _ _ _ _ _ _ _ _ _ _ _ _ _ ^,d+V &+f.:@)+6@:@:@(@{=/,(,_,a#(@X@^@5@0+^@s@(@H :@_@I.:@w#5$_@^@(@H s@P@6@I.d*,+$@P@P@_@I.I.I.:@w#w#w#I.",
"d*I.6@_@^@q@P@P@_@q@I.P@L.=@y+w#M.Q=w#q@^@(@P@j+P@_@!#(@(@w%C@_@6$%._@)+5@:@b#:,<,[,&$T$/+x+P#x+C+&+j.A+y+P>_ _ _ _ _ _ _ _ _ _ _ _ _ _ _ _ _ _ _ _ _ _ _ _ _ ^,(@V },++w#6@_@:@6@!#|,1,2,_,3&(@X@^@s@` d+)+X@s@_@:@^@:@I.$.M.^@:@5@C@Q=)+6@h$F>$@$@#>6@_@I.w#w#I.I.I.M.",
"d*I.^@^@)+q@,+q@_@M.$@3,L.=@B+M.M._@I.M.:@s@,+&.I._@X@;$(@X@6@Q=D+V$/@^@)+^@r+4,5,,,!#s@(@e+P#(@D+&+ +>+<+P>_ _ _ _ _ _ _ _ _ _ _ _ _ _ _ _ _ _ _ _ _ _ _ _ _ ',s@V #+f._@6@)+^@6@!#6,7,8,_,9,(@C@2$s@` ^@s@:@_@q@/@:@_@9*$.I._@6@_@_@9*_@w#H.d*m#,+:@)+q@M.M.L.M.M.M.q@",
"L.I.6@6@_@L.P@_@w#I.L.P@I.y+y+M.w#6@q@w#I._@d*1+9*:@s@5@&$C@_@q@6$A+d+^@C@s@W@0,a,b,C@5@p@x+u@s@D+4+ +L.y+P>_ _ _ _ _ _ _ _ _ _ _ _ _ _ _ _ _ _ _ _ _ _ _ _ _ c,s@` *+.+w#^@X@(@(@!#d,e,(,f,u@^@;-X@H Y ^@0 ^@_@M.I.w#9*L.C+,+w#_@q@q@$@_@w#}+M.P@_@)+^@w#P@L.L.M.,+L.d*",
"L.L.P@P@$@d*d*L._@q@L.P@$@y+>+I.q@:@_@^@_@,+%.1+_@)+:@X@^@_@_@I.5$>+s@:@_@H W@g,h,i,;-)+T$%$(@s@f$4+ +B$y+P>_ _ _ _ _ _ _ _ _ _ _ _ _ _ _ _ _ _ _ _ _ _ _ _ _ j,a 8+*+`.w#w%s@(@s@2$n-k,l,m,(@s@C@s@s@V w#0 d+I.I._@M.9*L.'.q@q@^@:@P@F>M.I.}+I.w#_@_@^@w#P@L.I.I.9*,+%.",
",+d*d*d*,+M.,+L.I.P@L.d*d*=@y+M.I.:@^@s@_@,+h$D+_@s@:@^@:@6@_@_@C+L.0 d+s@u@n,o,p,q,q@:@s@T$H s@f$&+ +B$V$P>_ _ _ _ _ _ _ _ _ _ _ _ _ _ _ _ _ _ _ _ _ _ _ _ _ r,d+8+$+Z.:@(@)+~#^@:@s,t,u,v,C@s@_@6@^@V M.s@d+M.I._@I.9*L.#.,+_@)+^@P@d*M.I.y+M.I.w#q@6@I.I.,+P@L.d*,+}+",
"L.P@P@L.9*:@q@_@6@M.L.,+L.=@B+M.M.M._@d+w#_@%.C+,+&$)+s@C@6@C@9*i$V$d+0 s@s@=#w,x,y,I.:@w#^@X@5@&.];`.,+z+P>_ _ _ _ _ _ _ _ _ _ _ _ _ _ _ _ _ _ _ _ _ _ _ _ _ c,d+8+k.`.s@(@^@s@6@_@z,A,B,C,I.d+_@I.:@V M.s@:@M.I.6@^@_@}+#.P@P@_@q@I>H.L.+$%.L.L.I.M.M.I.,+,+d*L.,+9*,+",
"L.I.P@}+P@6@I.w#:@6@M.L.d*}+<+,+,+I._@d+:@:@y+'.d*6@C@)+_@_@I.P@z-,%w#s@(@P# *D,E,F,I>:@w#:@C@:@5$&+ +|+y+P>_ _ _ _ _ _ _ _ _ _ _ _ _ _ _ _ _ _ _ _ _ _ _ _ _ G,6@` 7+Z.d+(@5@^@:@5@H,I,J,K,Q*)+q@6@:@V I.5@:@I.,+_@^@_@L.D+L.,+L.L.d*h$d*M.%.L.P@_@P@q@,+9*M.,+d*,+P@L.",
"}+P@P@L.P@_@M.M.6@:@:@I.L.}+y+,+L.q@w#:@6@I.&.9+d*q@_@C@Q=9*Q=P@9+*.:@w#_@)+ @L,M,N,I.:@a )+)+M.'.*+ +M.>%P>_ _ _ _ _ _ _ _ _ _ _ _ _ _ _ _ _ _ _ _ _ _ _ _ _ O,;%X n=Z.d+u@(@s@(@(@f&P,Q,R,i+_@Q=9*w#V w#)+q@P@d*M.6@I.>+!.L.L.,+d*d*h$d*M.&.,+I.6@6@_@,+I.M.P@L.M.L.L.",
"h$d*$@9*P@_@I.q@_@w#6@q@,+y+y+,+L.q@_@6@q@,+&.9+}+L._@6@P@P@_@P@9+*.:@_@q@:@S,T,U,b,_@/@/@w#d+q@8+6+Z.,+y+V,_ _ _ _ _ _ _ _ _ _ _ _ _ _ _ _ _ _ _ _ _ _ _ _ _ O,;%V $+.+d+u@X@s@5@(@W,X,Y,^>(@I._@9*:@V ,+I.#>_@$@L.I.`$&.` y+d*L.d*}+H.}+|+&.L.M.I.w#M.,+M.I.L.I.M.M.,+",
"%.h$L.9*q@I.M.j@I.M.M.I.M.=@y+,+L.I.P@L.d*d*1+b+%.H.L.9*,+Q=_@P@8+<+I.q@q@:@Z,T,`,&,C@5 a w#w#M.r$#+`.V$z+V,_ _ _ _ _ _ _ _ _ _ _ _ _ _ _ _ _ _ _ _ _ _ _ _ _ O,w#E+$+.+A$X@C@:@6@X@ '7,.'+'&$I.6@q@P@E+}+P@9*,+$@,+,+L.).V y+}+d*d*}+=@y+,+<+A+L.L.L.L.L.,+I.j@I.L.}+,+",
"=@H.$@d*M.I.M.M.+$9*M.q@,+%.B+,+L.L.d*h$=@y+5$b+%.d*H.d*$@Q=P@d*r$B+,+I.6@6@S,@'#'$'(@p@s@d+w#,+0+*+`.>%z+V,_ _ _ _ _ _ _ _ _ _ _ _ _ _ _ _ _ _ _ _ _ _ _ _ _ %'I.a+k.`.I.w#q@_@I._@;>&'*'f,(@C@)+^@I.a+h$L.,+}+,+,+L.%.D+Z %.y+d*d*}+y+}+M.*.%.y+}+h$%.%.L.j@M.M.,+H.P@",
"%.=@d*H.d*M.,+M.I.,+M.M.L.<+5 q@L.H.h$%.}+d*1+b+%.h$=@L.9*P@$@d*b+V$j@I.6@6@;*4,='$'(@T$a d+^@I.` 6+`.>+>+V,_ _ _ _ _ _ _ _ _ _ _ _ _ _ _ _ _ _ _ _ _ _ _ _ _ -'I.-+e.`.M.w#_@P@$@_@;'&'>','u=^@X@6@w#(.L.L.9*}+I.L.d*%.5$V h$d*}+}+H.y+,+A$E$y+L.L.d*O>f$}+,+L.M.L.L.,+",
"H.L.L.H.L.9*L.M.I.9*I.,+y+;%M.L.y+%.1+8+%.A+#.9+y+d*%.}+,+9*$@,+'+B+M.I.I.6@;*4,'')'&$0 5 w#:@I.'+3> +,+Z$V,_ _ _ _ _ _ _ _ _ _ _ _ _ _ _ _ _ _ _ _ _ _ _ _ _ -'A$Q k.`.M.q@9*M.I.#>!'&'>'~'u=)+:@^@^@E+,+L.M.y+,+L.L.H.D+V c+y+` %.H.}+}+I.d+&.L.L.P@h$f$}+,+>+,+L.,+}+",
"A+L.L.}+}+,+9*q@I._@I.,+D+>+,+}+&.1+{'U$1+<@W b+` '+b+G.'.9+b+&.'.%.M._@I.^@;*]'5,&,C@s@s@5 ;%M.C+6*`.7=V$^'_ _ _ _ _ _ _ _ _ _ _ _ _ _ _ _ _ _ _ _ _ _ _ _ _ /'I.W f.('M.P@,+q@I.C@_':'<'f,`#:@d+s@^@;+}+V D+!.V '+'+V 9+N [+5$V W &.H.}+M.A$'+}+,+,+1+&.y+d*}+y+L.L.y+",
"y+L.L.y+y+L.P@,+,+I.P@=@9+y+L.y+1+_.].<+C+W V :$].$+K /.3+{'&+y+9+1+,+Q=M.d+:+['}'|'_@a s@:@w#I.'.6+`.>+z+^'_ _ _ _ _ _ _ _ _ _ _ _ _ _ _ _ _ _ _ _ _ _ _ _ _ 1';%Q j.Y.M.Q=,+I.q@q@!'7,2'3'!#:@6@w#:@;+y+2+O 4'5'6'N S =+V K '.,.V W *.H.M.w#` %.L.L.%.y+L.L.h$y+L.}+&.",
"H.}+}+L.L.,+,+P@d*`$`$1+9+y+}+%.'.W $.8+N ;+9+V @+_.N 3>{'@+N i$0+1+M.P@,+_@a&7'8'9'_@a d+w#_@q@'+6+`.y+B+^'_ _ _ _ _ _ _ _ _ _ _ _ _ _ _ _ _ _ _ _ _ _ _ _ _ %-M.-+f.0'I.q@q@:@:@6@n-7,a'3'X@w#I.I.w#;+*.K b'S N=5'_&c'd'(.;+K 8+[+W '.L.,++$V %.L.L.L.}+,+L.c+}+y+y+}+",
"y+y+A+y+y+}+L.d*y+,+,+&.9+B+}+1+<+1+'+W _.'+8+e'N P =+{'C=_&3+5$0+<+:@q@9*:@)#f'g'h'_@d+s@I.I.d*E%#+`.>%C$^'_ _ _ _ _ _ _ _ _ _ _ _ _ _ _ _ _ _ _ _ _ _ _ _ _ i'B$O n=Z.M.I.:@d+d+^@j'k'l'm's@_@P@M.w#T &.-+P n'{'3>o'P C=-+8+'._&V '.H.%.L.+$V 1+}+L.d*L.,+,+y+L.}+,+,+",
"%.d*,+L.y+%.%.y+%.A+L.&.C+B$,+1+C+'+-+T p'*.'.E%[+i$C+8+'+'+b+E$$.L.d+_@:@s@(@q'r's'I.:@d+M.I.L.0+6+j.>+$.^'_ _ _ _ _ _ _ _ _ _ _ _ _ _ _ _ _ _ _ _ _ _ _ _ _ t'L.W $+++|+M.q@w#d+C@u';=v'w'T$w#P@w#:@(.A$'+/>9+D+W='+b+` b+#.x'U$K 9+5$h$}+:@0+5$y+d*}+y+L.M.L.|+`$M.,+",
"%.y'L.L.y+%.%.y+y+y+y+1+D+|#a@:+|#x#%.9+'+G.G.V ;+;+G.6=a+-+2+V ` A$:@I.d+0 I.z'A'B'I.w#I.,+M.L.0+&+$.;%,%^'_ _ _ _ _ _ _ _ _ _ _ _ _ _ _ _ _ _ _ _ _ _ _ _ _ t'A+%.K ++A+I.M.6@:@I.'$I=C'H=5 +$M.6@5 />8+V 5+6=(.;+T ;+(.E+;+V E+'.0#;*]%D'%&'.D+y+L.L.y+y+B$M.|+}+L.y+",
"E'y+%.%.}+}+}+}+L.y+%.5$V z+|+M.M.:@|* @M$x##%|#P#u=1#u=a#b&F'G'p@;%w#M.s@L.H'/*y,2-L.I.,+L.,+d*b+X u@I.$.^'_ _ _ _ _ _ _ _ _ _ _ _ _ _ _ _ _ _ _ _ _ _ _ _ _ I'y+w#$.$+d*M._@^@_@d*};J'K'L'$.w#6@d+:@_@M'N'O'X@b&|#|*x#p*D%:+3&;*:+F A$M.6@:@;+D+y+y+=@h$c+>+|+>+y+L.>+",
"&.%.1+1+%.}+L.y+L.}+%.g$X z+L.,+P@,+w#)+I.:@s@d+I.M.M.H.,+d*d*I.M.I.w#I.s@}+P'Q'6=V L.I.L.d*d*}+0+Q ,+M.$.^'_ _ _ _ _ _ _ _ _ _ _ _ _ _ _ _ _ _ _ _ _ _ _ _ _ R',+B$'+k.L.,+9*:@:@d*S'T'U'V''+5 d+d+a P@I.I._@6@_@,+6@s@:@w#,+,+,+q@M.L.L.,+I.-+5$h$%.&.&.%.>+L.y+%.}+V$",
"%.&.1+5$%.}+y+%.y+h$h$f$V V$;%M.,+,+M.w#L.w#s@6@w#I.I.L.,+L.L.w#d+,+M.I.w#%.},W'a+` L.M.L.d*}+}+0+W d*,+,.X'_ _ _ _ _ _ _ _ _ _ _ _ _ _ _ _ _ _ _ _ _ _ _ _ _ Y'L.,+8+f.L.L.,+_@:@d*z-},K },X I.:@:@6@d+w#I.I.:@w#L.M.I.w#M.j@,+y+}+,+}+}+M.M.-+#.1+f$&.M>%.>+}+%.*.B+%.",
"1+%.1+1+1+y+%.y+}+%.&.5$V B+M.,+L.,+L.B$L.I.I.I.B$L.M.L.L.I.:@d+I.,+L.j@M.*.Z'`';+` L.I.L.y+A+y+V W }+L.!.X'_ _ _ _ _ _ _ _ _ _ _ _ _ _ _ _ _ _ _ _ _ _ _ _ _  )L.L.X f.}+,+}+M.w#L.D+L>:$#+` B$w#I.:@a 5 6@:@a w#L.M.j@+$L.L.y+%.d*,+M.L.q@+$(.C+1+5$D+D+&.>+L.H.1+$.*.",
"5$%.1+5$1+%.%.%.%.y+f$5$Z >%M.`$}+}+L.y+}+B$.)M.,+B$B$j@M.:@s@w#M.M.L.L.L.*.#+.+U*].A+L.L.y+y+y'V -+%.L...X'_ _ _ _ _ _ _ _ _ _ _ _ _ _ _ _ _ _ _ _ _ _ _ _ _ +)>%A+Y f.}+L.y+>+w#L.#.5+:$*+8+6@6@w#+$w#M.0 :@:@I.,+M.L.M.B$B$y+L.9*,+_@,+M.w#-+C+1+5$D+'.$.y+>+}+&.1+5$",
"5$f$X+5$5$&.&.1+M>&.f$g$V >%M.L.y+y+,+V$y+L.M.w#M.B$L.L.M.:@6@I.M.j@L.}+>+$.$+W'a+T B+L.H.%.y+y+V O &.V$X @)_ _ _ _ _ _ _ _ _ _ _ _ _ _ _ _ _ _ _ _ _ _ _ _ _ +)L.A+X  +%.y+y'}+L.}+#.#)K 3*` M.+$+$/@+$^@s@5 M.,+}+M.B$M.B$B$y+H.9*,+L.I.M.w#-+'.M>).D+9+$.y+}+=@5$[+[+",
"6$).D+5$X+&.*.M>5$5$&.D+V z+M.L.}+B$M.y+y+A+I.5 5 B$A+L.L.+$+$M.I.I.M.,+}+5$$+.+(.V &.}+%.1+&.c+V P &.V$X @)_ _ _ _ _ _ _ _ _ _ _ _ _ _ _ _ _ _ _ _ _ _ _ _ _ +)L.y+V .+%.}+y+H.%.1+9+5+:$3*V A+L.L.M.j@/@w#;%B$L.,+M.L.M.B$B$I.L.w#B$,+I.M.5 -+'.5$5$C+9+$.<+*.<+$.#.[+",
"#.5$D+D+D+&.5$6$6$$.5$D+;+)%L.y+,+I.,+d*L.L.L.4 +$B$A+L.L.,+I.I.M.L.A+L.A+$.P 5+` V *.V$%.*.%.*.;+K *.&.X @)_ _ _ _ _ _ _ _ _ _ _ _ _ _ _ _ _ _ _ _ _ _ _ _ _ $)B+%.V j.<+y+&.j+1+1+8+K T _.` y+y+L.L.j@M.5 w#I.L.L.M.L.L.L.L.j@B$+$M.M.M.M.0 -+9+5$D+D+C+5$&.5$$.D+#.D+",
"#.C+C+'.C+5$C+D+$.D+D+'.V |+>+>+L.L.,+}+L.L.B$B$j@L.L.L.I.L.A+B$M.A+V$}+A+$.5+V '+X *.E'&.1+&.D+;+O $.*.X @)_ _ _ _ _ _ _ _ _ _ _ _ _ _ _ _ _ _ _ _ _ _ _ _ _ %)*.*.V f.1+<+1+j+1+$.8+V ,%(.` y+&.%.y+}+,+M.B$w#&)A+L.}+A+y'H.A+L.j@L.A+L.}+I.` ` D+5$C+C+5$$.#.#.'.+.'+",
"b+9+9+8+8+'.'.'.C+C+'.V |+L.L.y+L.}+L.V$}+L.L..)A+A+A+L.L.L.L.B$}+y+&.z+I@$.:$*),.V $.&.X+<@&.X+(.K ,%*.X @)_ _ _ _ _ _ _ _ _ _ _ _ _ _ _ _ _ _ _ _ _ _ _ _ _ =)*.*.V f.1+%.&.1+&.1+'.X {+-+U$2%%.%.&.%.}+}+L.,+V$y+V$y+E'E'y'H.y+y+A+V$L.%.y+,+2-'+'.9+b++.'.'.8+b+0+0+",
"K :$:$W -+W W W -+(.-+*.<+*.*.$.&.*.*.$.*.&.&.&.&.*.*.*.*.&.&.&.&.*.$.,%C$X 3+_.N 5$5$*.<@#.5$&.W L $.*.T @)_ _ _ _ _ _ _ _ _ _ _ _ _ _ _ _ _ _ _ _ _ _ _ _ _ -),%*.(.Z.%.&.1+&.&.D+5$W P 5+;+>%$.D+5$*.<+&.<@1+$.$.1+$.<@$.&.*.$.$.$.$.$.#.!.#.%.-+6=-+/-W -+-+:$:$:$K ",
"i$'.8+0+9+E%'.'.'.g$$.V $+ +0'Y.;)0'`.`.Z. +`.`.Z.Z.Z.Z. +`..+n=6*3+=+3>%+3+;+0+*.D+'.+.'+8+/.,.L J $.*.T @)_ _ _ _ _ _ _ _ _ _ _ _ _ _ _ _ _ _ _ _ _ _ _ _ _ -)*.>)T .+y+` V C+[+'+[+$.G.0+K =+$+$+%+6+k.f.Z.0',)`.`.;)Y.0'0';),)0'`..+`.`.Z.f.-+};1+f$6$g$g$5$6$5$D+'.",
"')))')')')))!)))')))~))){)z.{)U.])S.^)V.^)')))')))')V.z.z.z.')')))')')^)')))')^)')z.U.T.S.z.z./)()K D+#.Q @)_ _ _ _ _ _ _ _ _ _ _ _ _ _ _ _ _ _ _ _ _ _ _ _ _ _)#.#.2+:)<){)z.U.[)U.z.{)')})})})))')')^)z.U.{)')V.V.')')')')^)U.S.z.{)z.{)z.^)')})|)1)})')')z.{)')')')')",
"l.7+7+f.f.#+#+2)7+7+7+l.7+$+f.l..+++f.f.f.k.#+7+f.l..+l.l.l.3)3)f.f.f.f.7+7+f.f.$+&+},4)7+7+T'5)6)7)E+W 3>@)_ _ _ _ _ _ _ _ _ _ _ _ _ _ _ _ _ _ _ _ _ _ _ _ _ 8)_&Q /-9)0)a)},$+4)e.3)7+4)$+#+4+#+$+l.3)7+f.f.7+3)7+2)#+#+$+7+f.l.l.f.l.e.f.l.l.4)#+b)c)l.d)l.l.l.n=7+7+",
"T$G G 2%T$-*(+H s@0 0 0 2%l Y-0 0 2%d d D z -*l D /+s@p@T$T$G G F (+D (+D (+n (+n (+(+E G 2%T$H u@/+E (+a*8=_ _ _ _ _ _ _ _ _ _ _ _ _ _ _ _ _ _ _ _ _ _ _ _ _ e)j*E t@4$x+/+f+(+A D o*t@t@W@t@f)A D G g)h p@T$(@T$t@D D l Y-E (+a*a*t@D 4$a*p@s@s@T$/+<*5 w#a 5 +$2%T$T$",
"h)h)i)j)j)k)h)l)m)n)o)p)q)r)s)h)t)A=h)s)u)r)v)w)x)u)h)A=A=A=h)A=h)x)y)z)y)A)A)A)k)s)s)h)A=j)B)A=A=A=i)z)C){-_ _ _ _ _ _ _ _ _ _ _ _ _ _ _ _ _ _ _ _ _ _ _ _ _ D)h)i)i)q)q)q)s)x)E)F)s)y)G)q)s)A)H)x)k)I)s)h)A=A=A=k)A)x)x)s)q)s)q)z)H)y)A)s)k)J)A=A=A=l)K)K)l)K)L)M)o)o)"};
