/* XPM */
static char * so_door0_tex_xpm[] = {
"132 132 1406 2",
"  	c None",
". 	c #202E3A",
"+ 	c #1F2E39",
"@ 	c #22323F",
"# 	c #233441",
"$ 	c #243442",
"% 	c #233442",
"& 	c #243543",
"* 	c #243544",
"= 	c #233341",
"- 	c #223341",
"; 	c #233443",
"> 	c #253645",
", 	c #263745",
"' 	c #253545",
") 	c #243645",
"! 	c #253847",
"~ 	c #273949",
"{ 	c #263948",
"] 	c #283A4A",
"^ 	c #273847",
"/ 	c #273948",
"( 	c #293B4B",
"_ 	c #293C4C",
": 	c #283B4B",
"< 	c #283949",
"[ 	c #293B4C",
"} 	c #2A3D4C",
"| 	c #2A3C4C",
"1 	c #2A3D4D",
"2 	c #283A4B",
"3 	c #2A3B4B",
"4 	c #2B3D4D",
"5 	c #2C3F51",
"6 	c #2C4051",
"7 	c #2D4152",
"8 	c #2D4052",
"9 	c #2E4252",
"0 	c #2C3F4F",
"a 	c #273745",
"b 	c #2A3C4B",
"c 	c #2B3E4E",
"d 	c #2A3E4E",
"e 	c #2E4152",
"f 	c #2E4253",
"g 	c #2C4152",
"h 	c #2C3F50",
"i 	c #2B3E4F",
"j 	c #273848",
"k 	c #283B4A",
"l 	c #273A49",
"m 	c #253746",
"n 	c #263947",
"o 	c #263847",
"p 	c #263746",
"q 	c #263645",
"r 	c #253543",
"s 	c #233342",
"t 	c #21313F",
"u 	c #21303E",
"v 	c #202F3C",
"w 	c #1F2D38",
"x 	c #21303C",
"y 	c #21303D",
"z 	c #202E3B",
"A 	c #1F2D3A",
"B 	c #1F2D39",
"C 	c #22313F",
"D 	c #223240",
"E 	c #233543",
"F 	c #243646",
"G 	c #233544",
"H 	c #243545",
"I 	c #263848",
"J 	c #28394A",
"K 	c #283B4C",
"L 	c #2B3F50",
"M 	c #2B3F51",
"N 	c #273846",
"O 	c #283C4C",
"P 	c #273A4A",
"Q 	c #253846",
"R 	c #243746",
"S 	c #223340",
"T 	c #1F2C39",
"U 	c #233340",
"V 	c #1E2B37",
"W 	c #111B23",
"X 	c #16222D",
"Y 	c #16202A",
"Z 	c #151F29",
"` 	c #162029",
" .	c #16212A",
"..	c #17222C",
"+.	c #17222D",
"@.	c #17232D",
"#.	c #18222D",
"$.	c #18242D",
"%.	c #18242E",
"&.	c #17242D",
"*.	c #192530",
"=.	c #19242F",
"-.	c #1A2630",
";.	c #1A2732",
">.	c #1A2631",
",.	c #1A2833",
"'.	c #18252F",
").	c #1B2833",
"!.	c #1B2834",
"~.	c #1A2733",
"{.	c #1B2934",
"].	c #1C2934",
"^.	c #1C2A35",
"/.	c #1C2A36",
"(.	c #1D2A36",
"_.	c #1D2B38",
":.	c #1E2D39",
"<.	c #1F2F3C",
"[.	c #1F2E3B",
"}.	c #1F2E3A",
"|.	c #1D2933",
"1.	c #1F2C38",
"2.	c #1E2C38",
"3.	c #1C2B37",
"4.	c #1D2D3A",
"5.	c #1D2B37",
"6.	c #1C2935",
"7.	c #1B2733",
"8.	c #1B2933",
"9.	c #1A2632",
"0.	c #1A2731",
"a.	c #192631",
"b.	c #192630",
"c.	c #19252F",
"d.	c #18232D",
"e.	c #17232C",
"f.	c #16212C",
"g.	c #121D26",
"h.	c #1B2630",
"i.	c #22313E",
"j.	c #0E171E",
"k.	c #060B10",
"l.	c #060A0F",
"m.	c #060B0E",
"n.	c #060B0F",
"o.	c #060C10",
"p.	c #070C11",
"q.	c #070B10",
"r.	c #070C10",
"s.	c #070D11",
"t.	c #070D12",
"u.	c #080D12",
"v.	c #070D13",
"w.	c #080E12",
"x.	c #080E13",
"y.	c #080F14",
"z.	c #080D13",
"A.	c #080E14",
"B.	c #090E14",
"C.	c #091015",
"D.	c #09131B",
"E.	c #091C2B",
"F.	c #0F1E29",
"G.	c #131F27",
"H.	c #131E27",
"I.	c #131C24",
"J.	c #121A20",
"K.	c #131E26",
"L.	c #141F28",
"M.	c #121E27",
"N.	c #091C29",
"O.	c #08151F",
"P.	c #081015",
"Q.	c #090F14",
"R.	c #090F15",
"S.	c #0A1117",
"T.	c #24323E",
"U.	c #212F3C",
"V.	c #20303D",
"W.	c #121C24",
"X.	c #04080C",
"Y.	c #0B1219",
"Z.	c #0B141A",
"`.	c #0C1319",
" +	c #0C141A",
".+	c #0B1218",
"++	c #0C131A",
"@+	c #0B1319",
"#+	c #0D151B",
"$+	c #0C141B",
"%+	c #0B131A",
"&+	c #0D151C",
"*+	c #0C151B",
"=+	c #0A1116",
"-+	c #0E1821",
";+	c #0F1E2A",
">+	c #192733",
",+	c #20303E",
"'+	c #101E28",
")+	c #0E1A23",
"!+	c #0B151B",
"~+	c #0A1218",
"{+	c #0F161E",
"]+	c #0E161D",
"^+	c #0D161C",
"/+	c #0E171D",
"(+	c #0F181F",
"_+	c #0A1217",
":+	c #050C11",
"<+	c #273642",
"[+	c #263744",
"}+	c #16222C",
"|+	c #0C151C",
"1+	c #111A23",
"2+	c #131D26",
"3+	c #121D25",
"4+	c #121C25",
"5+	c #131D27",
"6+	c #142028",
"7+	c #14202A",
"8+	c #142029",
"9+	c #16212B",
"0+	c #15222C",
"a+	c #15212B",
"b+	c #16222B",
"c+	c #182530",
"d+	c #192732",
"e+	c #21313E",
"f+	c #21323F",
"g+	c #1C2B36",
"h+	c #233644",
"i+	c #1E303F",
"j+	c #192834",
"k+	c #263B4B",
"l+	c #1F2F3B",
"m+	c #1D2C38",
"n+	c #20313E",
"o+	c #22333F",
"p+	c #1E2E3A",
"q+	c #192731",
"r+	c #15212C",
"s+	c #16232D",
"t+	c #15202A",
"u+	c #131F28",
"v+	c #111B24",
"w+	c #111C24",
"x+	c #0F1920",
"y+	c #111A21",
"z+	c #1B2A35",
"A+	c #1B2A36",
"B+	c #1A2934",
"C+	c #182631",
"D+	c #1B2935",
"E+	c #1F303C",
"F+	c #243644",
"G+	c #2C4253",
"H+	c #243847",
"I+	c #1E2E3B",
"J+	c #2A3F4F",
"K+	c #293D4D",
"L+	c #273B4C",
"M+	c #2D4253",
"N+	c #2B4050",
"O+	c #2B3F4F",
"P+	c #2B4051",
"Q+	c #2A3E4D",
"R+	c #202F3B",
"S+	c #20303C",
"T+	c #1C2B38",
"U+	c #1D2C39",
"V+	c #192632",
"W+	c #131E25",
"X+	c #273743",
"Y+	c #18242F",
"Z+	c #14212A",
"`+	c #1E2C39",
" @	c #2C4151",
".@	c #2A3F4E",
"+@	c #2E4354",
"@@	c #2E4455",
"#@	c #2D4353",
"$@	c #2F4456",
"%@	c #2D4354",
"&@	c #2D4454",
"*@	c #32485A",
"=@	c #324A5C",
"-@	c #32495B",
";@	c #32495C",
">@	c #31485B",
",@	c #31485A",
"'@	c #2C4354",
")@	c #1E303E",
"!@	c #1E2D3A",
"~@	c #293E4E",
"{@	c #2A3E4F",
"]@	c #2E4557",
"^@	c #263C4C",
"/@	c #2A3F50",
"(@	c #202E39",
"_@	c #2B4153",
":@	c #203240",
"<@	c #2D4355",
"[@	c #293D4E",
"}@	c #1F2F3D",
"|@	c #293D4B",
"1@	c #344B5E",
"2@	c #314658",
"3@	c #314859",
"4@	c #2F4557",
"5@	c #304658",
"6@	c #2D4252",
"7@	c #2B4151",
"8@	c #101920",
"9@	c #162129",
"0@	c #293845",
"a@	c #253745",
"b@	c #223442",
"c@	c #293A49",
"d@	c #2E4355",
"e@	c #2E4353",
"f@	c #2B4152",
"g@	c #304759",
"h@	c #344C5F",
"i@	c #2D4457",
"j@	c #1E313F",
"k@	c #243745",
"l@	c #2A3D4E",
"m@	c #2E4558",
"n@	c #2E4659",
"o@	c #294052",
"p@	c #293E4F",
"q@	c #2B4052",
"r@	c #21303B",
"s@	c #293D4C",
"t@	c #2C4355",
"u@	c #213443",
"v@	c #2F4558",
"w@	c #374F62",
"x@	c #2E4456",
"y@	c #2F4457",
"z@	c #2D4455",
"A@	c #293C4B",
"B@	c #223441",
"C@	c #233444",
"D@	c #17222B",
"E@	c #283945",
"F@	c #304558",
"G@	c #2E4457",
"H@	c #30485B",
"I@	c #31495D",
"J@	c #2D4659",
"K@	c #1F3342",
"L@	c #223543",
"M@	c #223542",
"N@	c #2D4557",
"O@	c #30475A",
"P@	c #2B4254",
"Q@	c #2C4254",
"R@	c #213343",
"S@	c #2F4659",
"T@	c #2A4052",
"U@	c #2C4153",
"V@	c #213240",
"W@	c #223645",
"X@	c #31485C",
"Y@	c #30485A",
"Z@	c #31495C",
"`@	c #31475A",
" #	c #2E4658",
".#	c #233645",
"+#	c #0F1820",
"@#	c #293945",
"##	c #334A5C",
"$#	c #304557",
"%#	c #2D4254",
"&#	c #304659",
"*#	c #32495D",
"=#	c #324A5E",
"-#	c #1B2F3D",
";#	c #2A3F51",
">#	c #293E50",
",#	c #273947",
"'#	c #233440",
")#	c #203341",
"!#	c #32495E",
"~#	c #1A2B38",
"{#	c #30495C",
"]#	c #324A5D",
"^#	c #334B5E",
"/#	c #2F4658",
"(#	c #374E62",
"_#	c #253848",
":#	c #233646",
"<#	c #273A4B",
"[#	c #111A22",
"}#	c #273744",
"|#	c #0E1820",
"1#	c #344A5D",
"2#	c #304657",
"3#	c #314759",
"4#	c #334A5E",
"5#	c #344C60",
"6#	c #324B5F",
"7#	c #334C61",
"8#	c #2E485B",
"9#	c #1D3140",
"0#	c #263A49",
"a#	c #253949",
"b#	c #2D4356",
"c#	c #1F303F",
"d#	c #1D2E3B",
"e#	c #334A5D",
"f#	c #344D61",
"g#	c #375063",
"h#	c #273B4B",
"i#	c #263A4A",
"j#	c #1D2D39",
"k#	c #293C4D",
"l#	c #314758",
"m#	c #334B5F",
"n#	c #334C60",
"o#	c #344D62",
"p#	c #314A5F",
"q#	c #1F3241",
"r#	c #2D4357",
"s#	c #283A49",
"t#	c #1F303E",
"u#	c #1E2F3D",
"v#	c #324A5F",
"w#	c #30475B",
"x#	c #344D60",
"y#	c #354E61",
"z#	c #354D61",
"A#	c #344E62",
"B#	c #354D62",
"C#	c #385164",
"D#	c #283D4C",
"E#	c #131F26",
"F#	c #263541",
"G#	c #344C5E",
"H#	c #324C5F",
"I#	c #2F485C",
"J#	c #1F3140",
"K#	c #1A2834",
"L#	c #2E4458",
"M#	c #273845",
"N#	c #1E303D",
"O#	c #2D4558",
"P#	c #2C4052",
"Q#	c #314A5E",
"R#	c #344C61",
"S#	c #354E62",
"T#	c #354E63",
"U#	c #385165",
"V#	c #253948",
"W#	c #101921",
"X#	c #273B4A",
"Y#	c #334B5D",
"Z#	c #334D61",
"`#	c #2F495D",
" $	c #203140",
".$	c #283946",
"+$	c #2A4051",
"@$	c #233746",
"#$	c #3A5368",
"$$	c #263846",
"%$	c #253947",
"&$	c #2C4252",
"*$	c #334B60",
"=$	c #2F475B",
"-$	c #233545",
";$	c #1C2B39",
">$	c #2B4154",
",$	c #2D4456",
"'$	c #243846",
")$	c #395367",
"!$	c #283745",
"~$	c #344B60",
"{$	c #1E3140",
"]$	c #253747",
"^$	c #283E4F",
"/$	c #283A48",
"($	c #293D4F",
"_$	c #1B2C39",
":$	c #30465A",
"<$	c #375064",
"[$	c #1C2C39",
"}$	c #263643",
"|$	c #33495B",
"1$	c #17242E",
"2$	c #203444",
"3$	c #2F475A",
"4$	c #293B49",
"5$	c #182734",
"6$	c #223544",
"7$	c #283C4B",
"8$	c #1E2C37",
"9$	c #283845",
"0$	c #273A48",
"a$	c #314C60",
"b$	c #2B475C",
"c$	c #213D51",
"d$	c #243E50",
"e$	c #17242F",
"f$	c #293B48",
"g$	c #1D2E3C",
"h$	c #253B4D",
"i$	c #253E52",
"j$	c #2A465A",
"k$	c #1E2F3B",
"l$	c #1D2E39",
"m$	c #1F303D",
"n$	c #1C2C38",
"o$	c #293946",
"p$	c #2E4352",
"q$	c #30485C",
"r$	c #37546B",
"s$	c #1F4965",
"t$	c #1A74A2",
"u$	c #2A495E",
"v$	c #2A4153",
"w$	c #1A2935",
"x$	c #2A3C4A",
"y$	c #1A2A36",
"z$	c #1C2D3A",
"A$	c #2C4659",
"B$	c #2A5B7B",
"C$	c #265F82",
"D$	c #305069",
"E$	c #365064",
"F$	c #233542",
"G$	c #2B3C4A",
"H$	c #20313F",
"I$	c #1E2D38",
"J$	c #20313D",
"K$	c #20303B",
"L$	c #1D2C37",
"M$	c #355065",
"N$	c #1D4864",
"O$	c #127BB7",
"P$	c #2A4A61",
"Q$	c #2C4356",
"R$	c #283E4E",
"S$	c #293A48",
"T$	c #1B2B38",
"U$	c #2E4A5E",
"V$	c #286388",
"W$	c #246287",
"X$	c #2F4E66",
"Y$	c #202F3A",
"Z$	c #2C3D4B",
"`$	c #1B2A34",
" %	c #1D2C36",
".%	c #21313D",
"+%	c #21333F",
"@%	c #385268",
"#%	c #1E4864",
"$%	c #137BB9",
"%%	c #2B4B61",
"&%	c #273C4C",
"*%	c #283947",
"=%	c #2F4A5E",
"-%	c #296489",
";%	c #236389",
">%	c #2F4F66",
",%	c #30485D",
"'%	c #2B3C49",
")%	c #111B22",
"!%	c #243542",
"~%	c #1E4966",
"{%	c #0F7CC1",
"]%	c #2B4A61",
"^%	c #283D4D",
"/%	c #2B404F",
"(%	c #293C49",
"_%	c #28658A",
":%	c #23668D",
"<%	c #2F5067",
"[%	c #2E475A",
"}%	c #334C5F",
"|%	c #233643",
"1%	c #223440",
"2%	c #0F161D",
"3%	c #162028",
"4%	c #192730",
"5%	c #2A3A47",
"6%	c #15232D",
"7%	c #385368",
"8%	c #1F4966",
"9%	c #0E7DC4",
"0%	c #2C4B62",
"a%	c #2A6488",
"b%	c #22668F",
"c%	c #2F5069",
"d%	c #192833",
"e%	c #2A3E50",
"f%	c #365267",
"g%	c #1E4765",
"h%	c #1279C2",
"i%	c #2D4A61",
"j%	c #293B4A",
"k%	c #2A668B",
"l%	c #216690",
"m%	c #2F526B",
"n%	c #2C4456",
"o%	c #32485B",
"p%	c #1D2E3A",
"q%	c #26333F",
"r%	c #365167",
"s%	c #1277C2",
"t%	c #2F485D",
"u%	c #2B658A",
"v%	c #206692",
"w%	c #30526B",
"x%	c #31495E",
"y%	c #293F4F",
"z%	c #273542",
"A%	c #15212A",
"B%	c #293F50",
"C%	c #233745",
"D%	c #354F65",
"E%	c #1E4967",
"F%	c #107AC4",
"G%	c #2E4C63",
"H%	c #293E4D",
"I%	c #1B2B36",
"J%	c #2F495E",
"K%	c #2B658C",
"L%	c #1F6693",
"M%	c #30536D",
"N%	c #19252E",
"O%	c #283744",
"P%	c #2C4457",
"Q%	c #344F64",
"R%	c #0F7BC7",
"S%	c #2D4C63",
"T%	c #283B49",
"U%	c #2C658B",
"V%	c #1F6692",
"W%	c #30526C",
"X%	c #2D4458",
"Y%	c #283C4D",
"Z%	c #253845",
"`%	c #26394A",
" &	c #1E4763",
".&	c #0F7AC6",
"+&	c #2C4C63",
"@&	c #2F4A5F",
"#&	c #21668F",
"$&	c #2F5169",
"%&	c #2C4255",
"&&	c #2A4050",
"*&	c #283D4E",
"=&	c #204763",
"-&	c #0F7CC6",
";&	c #293C4A",
">&	c #216790",
",&	c #263845",
"'&	c #2A4152",
")&	c #1F4763",
"!&	c #0E7DC5",
"~&	c #2C4D64",
"{&	c #2B4253",
"]&	c #304A5F",
"^&	c #22658F",
"/&	c #2F4759",
"(&	c #1D2A34",
"_&	c #152029",
":&	c #1F4864",
"<&	c #0D7EC7",
"[&	c #2D4E65",
"}&	c #2B6386",
"|&	c #23648C",
"1&	c #1C2B35",
"2&	c #293A47",
"3&	c #1D445F",
"4&	c #127CBC",
"5&	c #2B4B62",
"6&	c #18252E",
"7&	c #2E4559",
"8&	c #2D475B",
"9&	c #2B6081",
"0&	c #266083",
"a&	c #2B4A60",
"b&	c #1C2933",
"c&	c #283846",
"d&	c #101A22",
"e&	c #253A4A",
"f&	c #2A3F52",
"g&	c #1F3A4E",
"h&	c #2A5875",
"i&	c #253F53",
"j&	c #283948",
"k&	c #254A62",
"l&	c #224862",
"m&	c #1C3040",
"n&	c #1C2832",
"o&	c #2A3B49",
"p&	c #263949",
"q&	c #253A49",
"r&	c #2C4759",
"s&	c #244055",
"t&	c #254F69",
"u&	c #243C4E",
"v&	c #273A47",
"w&	c #273E50",
"x&	c #25485E",
"y&	c #254962",
"z&	c #294458",
"A&	c #141F27",
"B&	c #293A46",
"C&	c #101A21",
"D&	c #304758",
"E&	c #1D4561",
"F&	c #1B73A7",
"G&	c #28485F",
"H&	c #293F51",
"I&	c #294356",
"J&	c #2A5F80",
"K&	c #255F83",
"L&	c #2C4960",
"M&	c #1D4764",
"N&	c #127BBD",
"O&	c #2A4B62",
"P&	c #293A4A",
"Q&	c #2C475B",
"R&	c #236289",
"S&	c #2E4D65",
"T&	c #1C2A34",
"U&	c #1E4A67",
"V&	c #107CC4",
"W&	c #2A4A62",
"X&	c #293E4C",
"Y&	c #2C485D",
"Z&	c #29668C",
"`&	c #216590",
" *	c #223443",
".*	c #1E4866",
"+*	c #107BC4",
"@*	c #29668A",
"#*	c #206792",
"$*	c #2D4F68",
"%*	c #304859",
"&*	c #1B2832",
"**	c #1E4A68",
"=*	c #107BC3",
"-*	c #2A4961",
";*	c #273946",
">*	c #2B475B",
",*	c #1D4966",
"'*	c #1279BD",
")*	c #2A485F",
"!*	c #2B4559",
"~*	c #296386",
"{*	c #236489",
"]*	c #2D4F67",
"^*	c #2B4252",
"/*	c #1579B5",
"(*	c #29485E",
"_*	c #283A47",
":*	c #2B4558",
"<*	c #296082",
"[*	c #256083",
"}*	c #263B4C",
"|*	c #1D2F3B",
"1*	c #1A384C",
"2*	c #21526E",
"3*	c #253E51",
"4*	c #214962",
"5*	c #204962",
"6*	c #2B4457",
"7*	c #1A2A37",
"8*	c #1A3040",
"9*	c #1D303F",
"0*	c #1C2E3D",
"a*	c #17232E",
"b*	c #253A48",
"c*	c #1F303B",
"d*	c #213341",
"e*	c #213442",
"f*	c #213340",
"g*	c #273C4A",
"h*	c #263542",
"i*	c #172B39",
"j*	c #182833",
"k*	c #172936",
"l*	c #213647",
"m*	c #17212B",
"n*	c #253541",
"o*	c #284155",
"p*	c #1B3F56",
"q*	c #255A77",
"r*	c #1F394B",
"s*	c #273B49",
"t*	c #293F4E",
"u*	c #223746",
"v*	c #285773",
"w*	c #1B445D",
"x*	c #223E53",
"y*	c #294357",
"z*	c #1D4159",
"A*	c #1973A8",
"B*	c #24648A",
"C*	c #2B495F",
"D*	c #253643",
"E*	c #275471",
"F*	c #0F7DC0",
"G*	c #1E4964",
"H*	c #264257",
"I*	c #294153",
"J*	c #1D3F56",
"K*	c #1C6F9F",
"L*	c #1E6D9C",
"M*	c #2D536D",
"N*	c #304D64",
"O*	c #285E81",
"P*	c #0980C9",
"Q*	c #1E4863",
"R*	c #264055",
"S*	c #253642",
"T*	c #273C4D",
"U*	c #1B3648",
"V*	c #1A72A5",
"W*	c #2D5570",
"X*	c #24638A",
"Y*	c #147AB2",
"Z*	c #1C3E54",
"`*	c #273C4B",
" =	c #1A3141",
".=	c #1D3B4F",
"+=	c #285D7C",
"@=	c #2B536D",
"#=	c #2F4D65",
"$=	c #285A78",
"%=	c #1F425A",
"&=	c #1A3346",
"*=	c #253C4E",
"==	c #1B394F",
"-=	c #275876",
";=	c #285A77",
">=	c #2A4C62",
",=	c #2D4A60",
"'=	c #224D68",
")=	c #206A96",
"!=	c #1C4057",
"~=	c #253F52",
"{=	c #253341",
"]=	c #253946",
"^=	c #263B4A",
"/=	c #1D3C53",
"(=	c #275777",
"_=	c #127DBD",
":=	c #2C4E65",
"<=	c #1971A8",
"[=	c #216692",
"}=	c #1B3E56",
"|=	c #263E51",
"1=	c #243340",
"2=	c #111C25",
"3=	c #283E51",
"4=	c #1E3D54",
"5=	c #265474",
"6=	c #2D5774",
"7=	c #2B465B",
"8=	c #182630",
"9=	c #21323E",
"0=	c #243642",
"a=	c #2C4559",
"b=	c #2E526D",
"c=	c #1474B3",
"d=	c #236189",
"e=	c #1B3D56",
"f=	c #263C4F",
"g=	c #24333F",
"h=	c #283F50",
"i=	c #1D3C54",
"j=	c #234E6C",
"k=	c #0782D3",
"l=	c #2B5B7B",
"m=	c #2C485E",
"n=	c #15222A",
"o=	c #243441",
"p=	c #2C4458",
"q=	c #2D5470",
"r=	c #0E7ABF",
"s=	c #265B7D",
"t=	c #1A3A4F",
"u=	c #243A4B",
"v=	c #243948",
"w=	c #22303C",
"x=	c #1E3B50",
"y=	c #1F4C6A",
"z=	c #0382DA",
"A=	c #2A5C7E",
"B=	c #2C4A60",
"C=	c #233642",
"D=	c #141E26",
"E=	c #0E7CC3",
"F=	c #275676",
"G=	c #193549",
"H=	c #25394B",
"I=	c #212E3A",
"J=	c #101B23",
"K=	c #1E3241",
"L=	c #193950",
"M=	c #295F82",
"N=	c #2C4A62",
"O=	c #1E2E39",
"P=	c #151F27",
"Q=	c #2B5471",
"R=	c #1A2C3A",
"S=	c #18232C",
"T=	c #253A4B",
"U=	c #162936",
"V=	c #1A3447",
"W=	c #2B516C",
"X=	c #2D4B61",
"Y=	c #1C2C37",
"Z=	c #284F69",
"`=	c #1E4256",
" -	c #162733",
".-	c #162835",
"+-	c #283C4A",
"@-	c #101C25",
"#-	c #0D1A24",
"$-	c #24394A",
"%-	c #1A2D3A",
"&-	c #172430",
"*-	c #213342",
"=-	c #203340",
"--	c #16242E",
";-	c #182732",
">-	c #152531",
",-	c #122C3E",
"'-	c #103C55",
")-	c #102432",
"!-	c #202D39",
"~-	c #2E4556",
"{-	c #2B4354",
"]-	c #17252F",
"^-	c #273D4C",
"/-	c #1C303D",
"(-	c #162C3B",
"_-	c #124361",
":-	c #11688D",
"<-	c #103447",
"[-	c #324859",
"}-	c #212F3A",
"|-	c #1A2933",
"1-	c #1B3140",
"2-	c #153143",
"3-	c #134B6C",
"4-	c #0B729B",
"5-	c #10394F",
"6-	c #1E3443",
"7-	c #2C4558",
"8-	c #273D4E",
"9-	c #212F3B",
"0-	c #213645",
"a-	c #245570",
"b-	c #27455C",
"c-	c #263C4D",
"d-	c #163449",
"e-	c #144D6E",
"f-	c #0A749E",
"g-	c #103B52",
"h-	c #1D3444",
"i-	c #284255",
"j-	c #263F52",
"k-	c #205371",
"l-	c #233B4D",
"m-	c #233B4C",
"n-	c #127CA8",
"o-	c #274F6C",
"p-	c #263D4F",
"q-	c #153449",
"r-	c #154D6F",
"s-	c #0774A3",
"t-	c #103B53",
"u-	c #1C3445",
"v-	c #29495F",
"w-	c #0E7BAD",
"x-	c #234358",
"y-	c #22313D",
"z-	c #111C23",
"A-	c #1B2B37",
"B-	c #243E4F",
"C-	c #0A84B7",
"D-	c #28516F",
"E-	c #273E51",
"F-	c #294051",
"G-	c #1B303F",
"H-	c #153247",
"I-	c #144C6E",
"J-	c #0675A5",
"K-	c #0F3A52",
"L-	c #284256",
"M-	c #283E4D",
"N-	c #2A4B61",
"O-	c #0783B8",
"P-	c #24455B",
"Q-	c #222F3B",
"R-	c #0E81B0",
"S-	c #28506C",
"T-	c #153347",
"U-	c #144C6D",
"V-	c #0973A0",
"W-	c #1C3242",
"X-	c #274053",
"Y-	c #2A495F",
"Z-	c #0C7EAC",
"`-	c #19262F",
" ;	c #233848",
".;	c #275E7C",
"+;	c #29475D",
"@;	c #1C3141",
"#;	c #153043",
"$;	c #144A6B",
"%;	c #0975A1",
"&;	c #103B51",
"*;	c #284154",
"=;	c #275B77",
"-;	c #243C4F",
";;	c #2A3D4B",
">;	c #263F51",
",;	c #1D3241",
"';	c #152D3D",
");	c #144764",
"!;	c #0D7299",
"~;	c #11384D",
"{;	c #1C2F3E",
"];	c #283F51",
"^;	c #273F51",
"/;	c #23323E",
"(;	c #0E171F",
"_;	c #15364A",
":;	c #124D69",
"<;	c #142E3E",
"[;	c #1B2D3A",
"};	c #162A3A",
"|;	c #0E181F",
"1;	c #1C2D39",
"2;	c #1E3749",
"3;	c #27526E",
"4;	c #27455B",
"5;	c #204A63",
"6;	c #214A60",
"7;	c #1B2E3C",
"8;	c #2E4759",
"9;	c #224259",
"0;	c #0880D0",
"a;	c #285C7E",
"b;	c #254259",
"c;	c #24526F",
"d;	c #088ACD",
"e;	c #254E68",
"f;	c #2A4254",
"g;	c #2F4C62",
"h;	c #285372",
"i;	c #008AE3",
"j;	c #275675",
"k;	c #254156",
"l;	c #283F53",
"m;	c #244E69",
"n;	c #0683D2",
"o;	c #276083",
"p;	c #22313C",
"q;	c #2F5168",
"r;	c #295979",
"s;	c #0087E2",
"t;	c #265270",
"u;	c #253F54",
"v;	c #17252E",
"w;	c #273D4F",
"x;	c #254A63",
"y;	c #0A7ECC",
"z;	c #216997",
"A;	c #294E68",
"B;	c #2B4356",
"C;	c #2B4E66",
"D;	c #266088",
"E;	c #0188DB",
"F;	c #25516E",
"G;	c #263F53",
"H;	c #1479B7",
"I;	c #1B71A7",
"J;	c #284E68",
"K;	c #2D475C",
"L;	c #21313C",
"M;	c #2B4F67",
"N;	c #236692",
"O;	c #117EBB",
"P;	c #234C66",
"Q;	c #274052",
"R;	c #26475D",
"S;	c #1D6F9E",
"T;	c #1577B4",
"U;	c #28506B",
"V;	c #2D485D",
"W;	c #213441",
"X;	c #223342",
"Y;	c #2D485B",
"Z;	c #2B4F68",
"`;	c #226994",
" >	c #256487",
".>	c #213E51",
"+>	c #2B3F4E",
"@>	c #213A4C",
"#>	c #205571",
"$>	c #137AB1",
"%>	c #274F69",
"&>	c #304D63",
"*>	c #2E495D",
"=>	c #27465C",
"->	c #224358",
";>	c #224A66",
">>	c #234258",
",>	c #1B2B35",
"'>	c #264256",
")>	c #1E4B64",
"!>	c #204157",
"~>	c #24465C",
"{>	c #2E4C61",
"]>	c #244155",
"^>	c #0C7EC5",
"/>	c #23648E",
"(>	c #24435A",
"_>	c #23343F",
":>	c #274357",
"<>	c #235572",
"[>	c #0886C7",
"}>	c #23475E",
"|>	c #2F4B60",
"1>	c #26516F",
"2>	c #0083DD",
"3>	c #265C82",
"4>	c #234157",
"5>	c #152129",
"6>	c #264054",
"7>	c #224F6C",
"8>	c #0588D4",
"9>	c #265471",
"0>	c #2F4D63",
"a>	c #0181DA",
"b>	c #255372",
"c>	c #0882CF",
"d>	c #27597A",
"e>	c #2C4C64",
"f>	c #2E516A",
"g>	c #245170",
"h>	c #1774AD",
"i>	c #1E3C51",
"j>	c #1E3546",
"k>	c #206A99",
"l>	c #294D66",
"m>	c #15232C",
"n>	c #1D2D38",
"o>	c #2A485C",
"p>	c #203E52",
"q>	c #192A38",
"r>	c #172733",
"s>	c #1F3C4F",
"t>	c #28455A",
"u>	c #152027",
"v>	c #1F313E",
"w>	c #1F2B37",
"x>	c #213241",
"y>	c #1E2B35",
"z>	c #0E161E",
"A>	c #15222D",
"B>	c #1E2C36",
"C>	c #182834",
"D>	c #1E2F3C",
"E>	c #182632",
"F>	c #1E2B36",
"G>	c #0D161D",
"H>	c #162D3D",
"I>	c #17455B",
"J>	c #1D3342",
"K>	c #18384B",
"L>	c #16394E",
"M>	c #23394A",
"N>	c #1F2E3C",
"O>	c #163E57",
"P>	c #1A7198",
"Q>	c #204054",
"R>	c #253D4F",
"S>	c #255673",
"T>	c #1F5978",
"U>	c #244257",
"V>	c #17425D",
"W>	c #147AAD",
"X>	c #204359",
"Y>	c #295D7D",
"Z>	c #235E7F",
"`>	c #25455B",
" ,	c #151F26",
".,	c #1D2934",
"+,	c #184461",
"@,	c #107CB7",
"#,	c #22445B",
"$,	c #2A5E7F",
"%,	c #225F82",
"&,	c #0D161E",
"*,	c #18435F",
"=,	c #107CB8",
"-,	c #21445B",
";,	c #2A5F7F",
">,	c #235F83",
",,	c #24445B",
"',	c #101A20",
"),	c #18425E",
"!,	c #0F7DBB",
"~,	c #21445C",
"{,	c #14212B",
"],	c #243F53",
"^,	c #295F7F",
"/,	c #236084",
"(,	c #1D2A35",
"_,	c #20323F",
":,	c #17415D",
"<,	c #117CB9",
"[,	c #243E52",
"},	c #2A5F7E",
"|,	c #226084",
"1,	c #25394A",
"2,	c #17405B",
"3,	c #147AB1",
"4,	c #204257",
"5,	c #223C4E",
"6,	c #2A5E7C",
"7,	c #234359",
"8,	c #202D38",
"9,	c #0C161D",
"0,	c #173D57",
"a,	c #1677AA",
"b,	c #204155",
"c,	c #2A5C79",
"d,	c #255D7D",
"e,	c #214055",
"f,	c #1F2D37",
"g,	c #1D2F3D",
"h,	c #17354A",
"i,	c #21607E",
"j,	c #1D394C",
"k,	c #203646",
"l,	c #204F6A",
"m,	c #1E506B",
"n,	c #1A3345",
"o,	c #182D3B",
"p,	c #1F3E52",
"q,	c #1C2F3D",
"r,	c #1F3340",
"s,	c #1E384B",
"t,	c #1F394D",
"u,	c #1A2B39",
"v,	c #202F3D",
"w,	c #1A3F57",
"x,	c #1C6A8D",
"y,	c #1D3C4F",
"z,	c #21394A",
"A,	c #23536F",
"B,	c #1F5471",
"C,	c #27455A",
"D,	c #153F59",
"E,	c #1578A7",
"F,	c #1F4055",
"G,	c #2A5C7A",
"H,	c #225978",
"I,	c #224258",
"J,	c #151E26",
"K,	c #1F2C36",
"L,	c #263A4B",
"M,	c #16415C",
"N,	c #137AB0",
"O,	c #233C4E",
"P,	c #2A5E7E",
"Q,	c #235A7A",
"R,	c #1E2933",
"S,	c #253849",
"T,	c #127BB1",
"U,	c #223B4D",
"V,	c #225B7C",
"W,	c #234257",
"X,	c #131D25",
"Y,	c #152028",
"Z,	c #17425E",
"`,	c #117CB4",
" '	c #20445A",
".'	c #1D2B36",
"+'	c #2B5F7F",
"@'	c #235D7E",
"#'	c #1B2731",
"$'	c #202E3C",
"%'	c #107DB7",
"&'	c #223A4C",
"*'	c #245C7E",
"='	c #244359",
"-'	c #121C23",
";'	c #107DB9",
">'	c #20435A",
",'	c #223C4D",
"''	c #24445A",
")'	c #17405C",
"!'	c #1D2B35",
"~'	c #233C4D",
"{'	c #2B607F",
"]'	c #235C7F",
"^'	c #163F5B",
"/'	c #127AB7",
"('	c #204258",
"_'	c #235B7E",
":'	c #224157",
"<'	c #121B23",
"['	c #153E59",
"}'	c #1379AF",
"|'	c #1E4156",
"1'	c #225C7E",
"2'	c #142129",
"3'	c #143D57",
"4'	c #1279A9",
"5'	c #1D4056",
"6'	c #223A4B",
"7'	c #2B5E7B",
"8'	c #225B7D",
"9'	c #223F54",
"0'	c #133A51",
"a'	c #167198",
"b'	c #1C3D51",
"c'	c #21384A",
"d'	c #205978",
"e'	c #213C4F",
"f'	c #142B3C",
"g'	c #184057",
"h'	c #1B2E3D",
"i'	c #17384E",
"j'	c #294050",
"k'	c #19232D",
"l'	c #243848",
"m'	c #253C4C",
"n'	c #142430",
"o'	c #172835",
"p'	c #1F3749",
"q'	c #182F3E",
"r'	c #263D4E",
"s'	c #263D4D",
"t'	c #233846",
"u'	c #19242C",
"v'	c #111F2A",
"w'	c #0F1A23",
"x'	c #1B2A37",
"y'	c #131F29",
"z'	c #12202A",
"A'	c #19232C",
"B'	c #18222B",
"C'	c #1B2732",
"D'	c #111D25",
"E'	c #0F171F",
"F'	c #10181F",
"G'	c #18222A",
"H'	c #1E2B38",
"I'	c #0F171E",
"J'	c #18222C",
"K'	c #16232E",
"L'	c #091115",
"M'	c #0E161C",
"N'	c #101820",
"O'	c #19242D",
"P'	c #233240",
"Q'	c #1A252E",
"R'	c #1A252F",
"S'	c #21303F",
"T'	c #0B1419",
"U'	c #23333F",
"V'	c #0F171D",
"W'	c #19242E",
"X'	c #0E151B",
"Y'	c #192832",
"Z'	c #0F1921",
"`'	c #111E28",
" )	c #121F28",
".)	c #111C26",
"+)	c #101B22",
"@)	c #0D181F",
"#)	c #0C161C",
"$)	c #091117",
"%)	c #141F29",
"&)	c #131E28",
"*)	c #132029",
"=)	c #13222D",
"-)	c #132939",
";)	c #162530",
">)	c #142938",
",)	c #132431",
"')	c #14222C",
"))	c #13212A",
"!)	c #132028",
"~)	c #121D27",
"{)	c #182129",
"])	c #22323E",
"^)	c #253644",
"/)	c #253544",
"()	c #2B3E4D",
"_)	c #273746",
":)	c #243443",
"<)	c #1E2B39",
"  . + @ # $ $ % & * & = - ; > , * * > ' > , ) ! ~ { ~ ] ^ , / ( ( ( _ : < < < [ [ } ( | 1 } _ _ 2 ] [ _ ( _ | 1 3 1 1 4 5 6 7 8 9 0 a b c d 7 8 e f 8 g h | 4 1 i 1 | ] ] j ( 1 ( ( ] : [ ( ( ( : _ ] ] ] ( k l / / m n / l ^ o / , p * & % * q , r # s = @ t @ u v w x ",
"y z A B @ t u t C - = - s D E ; s ; * * F ) * G H ) m o m > q ^ / / ] ~ / ^ ^ ~ ~ ~ m I : : ~ ~ / ~ J K 2 ] 2 [ ( [ ( 1 L h L M g 4 N | _ O M 7 6 h 1 1 : ] ( _ ( ~ / / I o ~ _ 2 < ~ / ] j j ~ < : ~ j P P { n Q R ) ) ) R > m m ) * H ; = s ; & & & = S t u u B T v v ",
"U u V W X Y Z `  .....+.+...@.+.#.+.$.$.%.%.&.+.+.@.*.*.=.=.=.*.*.-.;.;.>.>.>.;.,.;.'.*.).!.;.;.~.,.).!.).{.].^./.(./._.:.<.[.}.}.T |.1.2.3.4.:.2.2.5./.6.).^.(.^.7.7.).).).8.{.).;.;.>.9.>.7.;.).).7.0.,.,.a.b.*.*.=.'.%.'.c.*.c.%.$.%.%.+.d.+.$.$.$...e. . .f.g.h.i.C ",
"@ }.y j.k.k.l.m.m.n.o.p.q.r.p.q.p.p.s.s.t.s.p.q.r.p.u.u.t.u.u.u.v.w.x.x.u.x.x.x.x.y.v.z.A.y.A.A.A.y.y.A.x.x.x.A.A.B.y.C.D.E.F.G.H.I.J.K.L.M.N.O.P.Q.Q.Q.B.A.B.Q.Q.A.y.y.y.y.Q.R.A.x.A.u.z.x.A.A.B.B.A.x.A.A.x.x.x.x.x.z.t.t.x.x.z.t.s.t.t.p.p.o.r.p.p.o.n.n.k.k.S.T.U.A ",
"S V.$ W.X.y.Y.Z.`. + +Y..+++ +.+@+ + + + + + + +#+$+%+ +$+ + +&+j.$+.+.+@+%+ +@+ +#+ +@+ +&+#+*+ +$+ +@+S.=+Q.R.=+`. + +-+;+>+,+- T >.t S :.'+)+!+~+@+@+.+=+=+~+ +&+j.{+]+*+&+]+j.$+ +$+ +$+^+]+&+$+$+$+#+/+(+(+j.]+#+*+ +$+$+ +%+Z. +%+%+@+Y.Y.S._+_+S.S.~+~+:+ +<+@ [.",
"& t [+}+A.|+1+2+2+g.g.W.W W 3+4+4+4+2+2+g.2+K.K.K.H.5+5+5+L.L.6+7+8+8+8+9+0+0+0+a+a+8+8+b+@.@.%.c+a.d+c+*.^.5.}.e+f+}.g+h+i+3./ _ U ^.n k h+j+k+l+m+n+o+p+:.}.d+,.{.{.).!.,.q+,.+.9+}+9+a+r+0+@.s+b+t+8+6+8+8+8+G.u+L.u+L.6+5+g.3+M.5+5+g.g.3+4+v+4+w+3+g.w+x+=+y+<+= V.",
"R f+U s+Y.1+@.,.^./.3.^.,.,.z+A+z+B+{.{.,.~.).{.).a.'.'.'.C+a.,.B+D+/./.3./.g+/.D+D+,.,./.:.:.:.}.E+l+p+}.F+/ ~ : _ d _ G+H+I+O J+$ V 2 K+L+4.M+N+O+P+Q+: { k V.R+V.f+u S+}.:.}.g+A+3.3.T+m+m+U+T+g+D+!.,.>+V+>+C+a.V+3.T+3.B+,.B+D+D+D+B+!.,.,.,.,.,.,.,.'.8+j.W+X+- t ",
") S @ Y+ +Z+@.Y+{.B }.:.`+_._.3._.m+m+/.!.,.!.z+[+: Q+ @Q+g .@d N++@@@#@$@%@&@%@g #@g #@*@=@-@;@>@,@'@)@!@^.~ ~@{@K+g @@]@^@S ~@/@[+(@: {@_@:@%@#@+@<@[@M K+}.[.}@|@,@1@-@2@3@4@@@#@$@5@$@4@+@@@6@7@N+P+g L O+6@6@6 d Q+l+/.3.D+D+B+B+A+/.3.D+D+{.{.z+,.&.G.'.8@9@0@= f+",
"F+S e+c+~+a+a.g+t a@Q R m G s * > > R F+b@s E b@`+c@Q+Q+: d K+J+g %@%@g d@%@e@G+g f@g g <@g@g@g@>@h@i@j@k@; _ J+l@_ J+m@n@o@F+p@q@a r@s@q@t@u@n@]@v@G+d G+g D n :@_ w@>@5@v@x@y@@@z@4@g@5@]@x@%@g N+L L M J+i g 6@P+A@S+E Q k@B@,+:@t C@) * F+> E E % - :.+.,.j.D@E@= D ",
"* - U ,.@+a+,.[.- { { a@! Q Q { ~ ~ ~ l ! { / ! ,+^.6 L J+P+P+P+g F@v@$@4@g@4@v@G@<@%@7 4@,@;@H@H@I@J@K@L@M@O {@{@~@p@N@O@P@) /@Q@N i.l@G+Q@R@S@O@n@T@_ U@q@V@! W@O X@S@Y@Z@5@5@4@x@g@`@g@>@g@ #x@G+Q@G+g f@q@%@%@5@S+n+~ _ P R - b@.#R / { ! { { ! R R % d+{.+#c.@#& = ",
") E & !. +@.D+V.E P : / / l l P : : P : P ~ : P F+<.##$#J+g g P+%#5@`@>@&#*#O@>@O@ # #v@O@;@=#I@X@=#J@-#8+M@L+f@q@;#>#<@X@t@) q@x@,#'#M %#q@)#O@!#&#;#~@]@M t U+~#L+{#m@>@=#>@]#>@5@;@>@`@^#=#I@>@5@/#4@y@G+q@<@$@(#V.) O J+_ _#R :#F m <#~ ~ ~ { { P m F+,.3.[#;.}#% s ",
"Q a@& d+|#*.:.@ m _ s@: O _ _ k k : P O _ O O P m t 1#2#g @@%#g z@4@3#4#5#4#*#=#I@>@>@>@>@]#4#4#6#7#8#9#C+0#a#q@Q@q@q@b#O@P@Q G+<@,## q@<@q@c#O@X@4@G+G+&#/@.#:@d#p@=#g@I@!#=#^#^#e#4#>@>@f#f#5#4#=#]#>@`@4@G+@@4@g#f+R _ d h#<#i#0#P { K : : O : P k n ) /.j#K.$.<+- @ ",
"{ > % c++#a.[.% / k _ P P O _ : P k : : O _ k#: ! D 1@l#%@<@4@4@5@>@>@^#f#4#*#=#m#=#=#*#I@!#4#m#n#o#p#q#j+P ~ q@m@v@Q@<@H@t@{ r#<@s#, q@G@G+t#n@m@]@Q@<@`@g R V@u#J+m#v#w#I@m#x#f#y#z#I@>@4#A#B#z#5#5#^#;@v@%#<@5@C#% m D#D#P : P P : ~ K _ : : [ O : n > 5.l+E#..F#= = ",
"Q a@# a.x+a.v ) / k O l l P _ _ : : ] P P O d {@K s G#,@%@4@`@>@4#h@^#^#4#=#v@>@=#f#6#*#=#6#m#n#m#H#I#J#K#l m M m@S@m@ #O@_@m L#G@A@M#G+G@q@N#O#i@t@i@S@O@P#H+b@)@~@6#4#H@Q#A#R#5#S#T#n#I@6#m#A#B#B#f#f#4#4@%#@@5@U#G / _ O O V#! V#{ I P O : s@O : s#/ > m+l+G...<+% % ",
"k Q & ,.W#B+t m a@l _ ~ l X#s@d Q+_ _ [ ~ 2 L P+K+E Y#3@%#%@/#g@]#4#1@4#4#Y@G@i@S@4#=#X@4#m#*#v#n#Z#`# $K#V#R [@b#&#G@m@m@T@) i@m@A@.$%@ #+$4.t@t@_@m@X@g@P+@$b@)@J+f#R#I@I@n#5#S#5#B#h@X@X@>@^#m#m#n#A#^#m@Q@%#g@#$> : d J+d K+P P P V#0#O _ _ _ [ s#o & m+V.u+%.}#s & ",
"k $$> 3.W ,.t %$Q / n ! ! { _ d K+L J+1 _ _ J+J+O = -@3#&$q@G+Q@m@;@]#]#^#g@x@m@O@=#;@*#6#m#=#6#*$o#=$J#z+%$-$[@U@v@H@m@i@p@) ]@b#( M#x@4@/@;$>$t@,$O@O@G@/@'$L@:@{@A#A#7#n#m#n#5#>@^#4#O@;@O@>@]#=#*#I@*#S@%#Q@g@)$R _ g M+L J+d D#l h#O d _ _ O O ~ { E U+,+8+b.!$E & ",
"l Q ^ [.g.d+V.Q { ! m { ! ~ _ d K+L L J+J+K+h#: ~ s 3@v@g /@f@f@/@,$>@-@;@>@v@m@g@;@g@X@*#=#~$R#7#n#w#{$A+]$m T@U@O@I@>@ #^$E Q@<@b /$<@,$($_$O#i@m@O@ #/#q@:#; t#[@m#B#f#5#6#6#=#>@5#h@`@O@Y@S@Z@>@O@:$>@X@b#%#m@<$) _ P+P#g /@L _ h#K+d J+J+K+K+O / m ; [$V.8+).}$- - ",
"/ Q l }@g.,.f+Q { k@! O : d J+K+K+d L J+L K+h#X#n % |$3@/@[@K+U+}+1$a.a.*.'.@.@.%.'.'.a.{.Q X@n#=#m#`#2$G O ! q@i@3$Y@=#H@+$1$m f@b 4$U@/@,.5$O@S@S@G@<@]@q@V#P 6$L *$f#f#6#P+U+,.>+,.,.'.1$1$Y+a.a.C+c+z+<@<@K+%#5#G 7$/@&$q@J+d s@K+P+L P+J+d d _ ~ m ; T+<.8+8$9$U % ",
"k n 0$n+g.d+p+- a@Q P d K+P+L L K+M L i L {@_ X#~ ) $$V.A+A+A+A+p+}.j#3.j#`+j#[$U+}.I+[.F+[.5@^#6#6#a$b$c$d$L+m@S@O@O@X@H@T@e$'.f@1 f$G+) 1$g${#O@S@b#P#<@Q@h$i$j$=#4#4#m#n#V.S t [$k$l+j#j#l$4.[$p+n+m$4.t [.n$S+{ R d q@G+g /@P+L L 6 P+g L d _ O { ) - 3.l+6+B o$s * ",
": / / n+M.a.m+n+) n : d d K+O d {@L N+Q+Q+J+_ O ~ ! l#s@P k@f+m$R+p$) t S+t t p+- u ,+Q c ( 4@>@=#q$m#r$s$t$u$i@S@&#H@&#m@v$w$z+f@Q+x$P+O y$z$H@ #i@b#G+b#A$B$C$D$E$5#I@X@^#F$+@n [.n+t u % [.<.f+) 6 o+n+R m : O+3@_ ~@f@Q@&$P+g P+g L i i J+K+_ O ! ; S ^.[.L.+ G$* > ",
"s@/ s#H$M.d+U+V.f+Q : Q+O O ~ : 1 P+L L J+/@_ O i#b@2#_ <#! = S @ + b@> I$J$8.K$L$;.@ :.K+P 4@w#w#3$6#M$N$O$P$Q$i@m@b#b#t@R$y$z+/@c S$/@~@n$T$/#i@t@Q@t@m@U$V$W$X$6#O@ #q$^#R &$l+@ b.R++ 8.Y$;.b@R F$f+% a@~ [ O+4@l d M Q@g g g g P+d d s@_ O : K { - l+D+m+u+I$Z$a@R ",
"d k |@l+4+0+b.t o+0#D#D#: O X#: d P+q@M L P+[@O 0#b@3@J+7$) `$F$S v }.a@:.I$'# %r@.%].+%/@! x@O@w#n@{#@%#%$%%%b#x@Q@q@<@q@&%w$,.P+N+*%q@d n$B+ #O#b#Q@Q$ #=%-%;%>%,%n@n@H@n#) g h+`$R+:.Y$o+8.@ S % @ Q Q R+& _ d 5@/ K++$G+f@g G+g q@J+6 d O P : _ ~ S S a.b+g.`$'%l ! ",
"6 k / g+2+W )%3.}.~ _ K+K+_ K+_ {@K+/@/@q@P+g /@O h+1@g O <#a@R+F$# y n+% u B !%R+x !%m+D#P z@H@q$n@H@@%~%{%]%t@<@U@U@Q@Q@^%w$d+7@/%(%q@d [${.m@ #m@O#m@m@`#_%:%<%p#[%n@{#}%R G+p+|%j#V.[++ 1%e+R t / : 1%F$K+_ &$3@~ ~@P+q@q@q@g &$%@G+M+L s@P : J+O f+[.E#2%3%4%5%l : ",
"6 ( ^ :.4+'.6%[.:./ _ _ _ d d : K+_ K+K+J+q@q@f@K+R Y#g O O D#a@}.) , @ ) K g f +@5@#@K+f@O z@H@q$3$q$7%8%9%0%b#i@t@_@Q@%#O w$b.N+c 4$P+K+T+,.N@ #m@,$ #S@=%a%b%c%p#3$3$H@=#m z@J+f@+$g M+O+J+K = : O & F+J+K+K+%@,@~ O /@q@q@q@q@q@&$P+@@&$J+K+d d _ f+t @. .&.c.!$n O ",
"Q+/ / p+M.d%4.S p+n 1 d {@g J+: K+M P+{@d e%p@M ~@R =@M+[@K+K+/@Q P ] I F e%Q@Q@Q@]@i@_@_@0#@@I@I@w#I#f%g%h%i%m@S@b#t@t@f@O w$'.L O+j%q@K+3.,.N@n@n@i@m@O@`#k%l%m%p#H@3$I#]#b@f@<@n%t@%@,$%#q@/@R K+M : q@;#/@M t@o%! P [@{@/@+$P+P+J+O g M d d J+O+_ - ) p%A+u+%.q%, l ",
"_ ) a@n$4+@.4+}+j#{ O _ L f@f@K+~@M +${@K+K+p@p@K+! ,@%@J+/@/@g f@D#O P ]$/@Q@<@%#U@Q$_@f@_#x@O@X@:$q$r%~%s%i%&#g@ #,$f@f@O B+1$d i j%g K+3.,.N@i@i@t@i@{#t%u%v%w%6#x%3$S@Z@R t@b#i@t@,$,$G@f@/@m J++$q@G+q@($f@G@`@~ ^%p@/@/@y%+$/@[@K+J+/@K+_ J+Q+O S ,.w+&.H.e.z%> Q ",
"L R a@T+g.'.A%c+t k@X#7$L f@&$q@{@+$+$($^%~@~@^%^%h#: g q@_@Q@<@i@f@M ~@P q@<@O#/#i@t@B%B%C%g G@v@/#H@D%E%F%G%Y@>@v@m@b#n%D#D+c+d d b '@H%I%).N@b#i@i@O@w#J%K%L%M%6#Q#3$3$I@R t@ # #m@m@b#b#f@q@! q@q@q@G+Q@+$q@<@J+0#[@/@/@p@p@p@+$/@J+/@d ~@d d s@h#E 3.}+N%H.@.O%& Q ",
"P+! a@U+g.C+V+D+S k@l P K+~@M f@[@^%^%p@/@f@+$&%L+<#B@f@/@q@Q@t@t@b#]@/@_#f@Q@n%O#P%Q$T@;#:#g b#r#&#H@Q%E%R%S%S@X@>@S@ #b#[@A+'.d Q+T%f@D#A+8.N@m@m@S@3$3$=%U%V%W%6#,%X%3$]#.#t@ #n@ #N@b#Q@G+q@{ f@g Q@<@<@q@G+@@E k+p@Y%{@[@p@/@/@+$~@~@: O O O : l ) U+`$-.H.$.9$& Q ",
"P+{ $$_.g.c+B+T+Z%Q m _#P L+^%p@[@O K+($;#{@f@^%i#L+! G+/@e%f@Q@Q@i@m@;#`%q@Q@Q@Q$t@Q$T@T@G /@<@r#L#O@A# &.&+&n@O@O@g@N@Q@K+D+%.J+d /$q@: D+,.P@n%n% #3$I#@&U%#&$&Q#n@i@n@]#-$%&3$3$m@t@t@G+q@/@~ G+Q@t@<@G++$q@x@V#Y%[@^%($[@p@{@p@B%[@O V#{ ~ l ~ { m j#z+0.u+'.!$F+$$",
"P+~ $$T+3+a.K#T+/ { ! ! 0#k+D#{@($Y%p@e%($>#&&^%i#*&L+G+/@/@f@Q@m@v@g@+$i#;#Q@t@Q$_@_@B%T@:#d U@<@<@S@f#=&-&+& #g@`@v@,$t@K+D+1$J+J+;&+$h#B+q+G+_@_@m@O@q$J%U%>&$&Q#X%n@S@]#R b#w#3$ #t@P@f@T@>#] M q@t@<@f@/@/@x@i#^%^%[@*&*&p@;#;#p@p@h#! %$P P / %$a@j#3.].7+;.9$, ^ ",
"7 _ / m+3+a.,.m+,&! ! P P L+K+M [@^%[@[@[@e%p@D#a#*&L+g P++$Q@Q@,$ #S@f@i#+$Q@P@P@P@'&B%B%R M Q@_@_@S@f#)&!&~&:$`@g@]@i@t@s@D+'.J+J+A@q@k B+b.{&f@q@i@n@H@]&u%^&<%I@i@ #3$=#Q ,$S@/&3$X%P@_@T@;#]$p@_@G+b#f@;#f@<@_#O [@+$>#~@p@~@[@p@+$O ~ : O : { { ,&[.U+(&_&).9$$$s#",
"4@d / _.4+q+d+n$> ! Q ~ 0#P D#/@/@($p@[@[@p@~@~@L+p@^%#@P++$G+t@<@]@m@f@a#B%+$B%_@Q@_@T@T@:#q@Q@;#f@v@n#:&<&[&S@5@v@,$t@{&D#D+'.L J+j%P+: B+a.f@f@T@b# #O@U$}&|&>%q$O# #O@^#R ,$O@Y@ #i@_@T@+$;#V#/@_@_@i@f@>#T@&@0#^%D#/@p@;#+$^%^%/@G+K+h#X#: ~ n ! a@[.:.1&_&].2&/ : ",
"%@s@^ /.w+a.d+I%F+Q m V#K O O D#L+p@[@p@p@p@p@>#[@^%L+g /@+$q@G+,$m@m@f@a#[@T@{&'@Q@_@'&p@.#/@G+f@N@&#n@3&4&5&X%m@G@<@<@_@h#D+6&/@Q+4$/@~ z+,.t@T@;#<@m@7&8&9&0&a&O@S@m@H@^#) b#v@S@S@,$P@'&/@>#m e%T@f@<@T@p@>#%@h#^%^%p@&%p@/@p@~@P+f@~@O : ~ ~ { { & :.3.b&8+).c&,#: ",
"g : /$,.d&1$,.g+& a@m %$O D#L+P e&O p@>#p@/@[@p@L+O O 7@*&~@q@t@m@]@]@q@a#/@q@'@Q@>$T@f&p@G ~@Q@_@,$n@j@g&h&i&P@,$G@<@'@T@O D+%.J+Q+j&J+~ A+q+'@f@f@t@t@'@v$k&l&m&+$S@N@S@;@k@,$m@m@ #i@{&{&T@+$) [@/@q@t@q@^%/@&$P p@O i#i#k+[@/@/@/@+$D#O K P ~ %$Q % j#z+n&8+c.o&n l ",
"P+: / ~.d&'.>+z+t ) ! %$V#0#0#p&k+L+O [@/@+$[@p@L+[@K+#@+$p@+$m@]@N@N@T@q&{&G+Q@i@t@T@;#p@6$~@Q@f@t@H@r&s&t&u&q@G+%@G+Q@f@l ,.@.J+H%v&&&{ D+'.'@'@Q@%@G+T@w&x&y&z&n@ #t@n@>@R ,$m@Q@i@P@'@'@'@/@F+~@e%;#G+M [@+$7@k+[@O k+i#h#K+~@~@J+/@~ { 0#V#0#%$Q % T+).8.A&@.B&/ / ",
"N+l $$a.C&c.a.,.n+k@k@G m 0#h#O O O [@/@+$/@~@+$p@^%K+6@/@O /@<@,$,$i@/@a#t@t@P@N@P@T@>#p@G {@{&T@Q@D&Q#E&F&G&<@@@Q@f@f@f@Q ,.%.~@s@/$J+n B+*.]@i@,$,$t@H&I&J&K&L&Y@m@t@m@;@; t@i@+$'&n%Q@T@{&/@) q@f@/@f@/@;#{@N+i#^%&%Y%^%^%D#^%D#K K+P m R ! %$~ { E 3.8.8.A&b+!$/ / ",
"O+n > '.C&*.c+,.V.G ) ) ! P O O D#/@+$+$/@y%~@+$B%^%O N+p@O &&'@b#i@t@y%q&_@i@i@O#t@f@T@B%@$~@f@f@G+m@n#M&N&O&O#m@<@P+q@M m ,.@.d _ P&/@n B+*.@@,$f@t@,${&Q&-%R&S&S@ #,$]@>@G Q@t@B%B%f@P@T@T@+$R P+Q@+$T@/@f@+$g k+R$&%K+/@p@^%O O O O 0#! m m P P { - :.z+T&6+ .}#Q { ",
"d Q F+1$x+6&%.,.l+; G R p&O ^%h#i#O p@[@k+^%[@J+B%^%L+O+J+L+T@t@t@z@t@K+V#+$'@'@n%X%t@f@p@G ~@q@f@G+]@A#U&V&W&P%4@x@g f@{@R >++.d X&j%~@n ,.'.%@f@+$G+z@t@Y&Z&`&$&[%S@m@m@/&% f@{&T@B%_@Q@_@_@p@G /@q@q@T@p@;#f@f@P ^%&%D#J+J+{@[@K+O O h#<#R ! ~ P { % `+g+8.L...!$$${ ",
"d Q * @.x+'.c+D+<. *L@h+P p@p@h#q&L+L+^%a#i#D#D#^%^%P Q+H%O +$t@<@,$G+O '$^%/@+$T@f@T@;#[@6$J+f@T@_@N@I@.*+*P$t@i@Q@Q@q@/@R V+}+H%s@/$K+{ ,.'.G++$B%f@'@t@b$@*#*$*[%/#<@]@%*E T@G+{&f@_@f@T@+$^%; P+&$+$p@p@p@f@7@V#O D#O s@~@K+J+d D#P h#7$~ 0#0#! ! % m+z+&*H.@.2&N ! ",
"P+{ * Y+d&'.'.B+k$L@G R P [@^%h#&%[@($p@i#k+O L+D#O P Q+J+~@~@f@q@{&+$k+@$^%[@>#B%B%H&[@R$:#O p@/@f@t@q$**=*-*f@Q@q@+$q@+$! >+}+~@: ;*K+{ ,.'.G+/@p@q@Q@Q@>*@*#&$*=$Y@'@i@g@.#B%q@T@'&G+;#p@B%^%; f@f@M +$[@^%g 6 p&L+D#^%[@O O K+s@7$h#D#O K P i#m a@- `+A+8.H.c.o$N { ",
"J+n > a.d&c.c+z+V.E .#! P O &%&%^%/@q@T@[@[@[@&%O h#P d L /@[@~@[@+$J+V#-$^%^%O R$*&>#f@H&:#%$&%+$+$f@I#,*'*)*+$f@q@q@T@f@{ ,.s+H%P /$J+/ ,.&.z@T@p@+$f@Q@!*~*{*]*[% #t@Q@v@.#+$f@T@+$^*/@B%p@^@b@M f@/@p@K+[@P+.@Q L+*&/@~@P O D#O h#D#D#K O : V#! h+S m+3.&*H.*.!$, n ",
"Q+/ a@a.W b.a.z+e+R R R { <#O X#^%+$q@M +$p@J+D#O L+i#d J+~@~@~@/@G+N+V#.#&%k+i#k+L+/@{&R$)#l p@T@+$f@>@N$/*(*B%T@f@f@f@f@V#,.+.s@/ _*J+/ B+1$t@f@[@p@+$f@:*<*[*~&n@,$n%]@D&M@&&Q@q@^%+$p@J+p@&%% P+q@~@~@^%K+K+N+0#K+{@P+J+K <#: O D#K+O : D#P ! R ) B@m+U+8.K.c.9$$$l ",
"N+k ) c+C&%.*.z+f+R R '$! V#{ V#O [@p@+$/@[@K+^%L+&%0#} H%D#D#~@{@f@P+0#L@&%^%O L+L+q@f@}*|*O M f@>#G+5@1*2*3*J+P+/@+$T@T@_#>++.s@k M#~@~ ,.&.'@T@[@{@q@^*o@4*5*6*m@Q@Q@]@/#t J+G+q@&%p@/@y%K+k+E L /@O [@^%O K+7@{ K O /@K+h#P k+O K+K+O O _ P { ) G f+3.{.;.K.%.2&* m ",
"N+/ F+1$+#+.a.{.e+F+R R .#! R R i#O L+~@~@K+[@K+h#&%V#s@s@O ^%K+J+&&p@V#.#D#[@[@k+Y%+$p@L@%$P+g q@q@&$&$7*8*! p@/@T@+$f@/@! ~.@.H%( a J+l >+&.t@'@T@M f@G+K+9*0*J+m@N@T@f@%@N+B@d +$L+}*p@p@p@p@) J+/@[@K+[@O K+Q+R P O d O h#D#~ P O O : h#h#P 0#.#G n+z+z+].A&%.2&- % ",
"P+l % @.+#+.V+D+e+) k@G b@R ! V#V#P k+O /@p@p@^%L+L+_#X&d O O ~@~@p@p@0#.#p@p@&&'$R [@.#E d M+g P++$N+V.@.B+,&&&q@f@_@{&q@~ ~.a*L ( *%L Q ,.'.t@{&_@G+<@<@J+g+d+g+&$<@;#_@<@@@_ % K+V#B@O [@/@p@F+~@~@~@~@D#L+K+K+! <#O D#P L+L+P V#0#P P 0#0#V#! G E n+D+,.^.u+..9$n+@ ",
"N+/ F+@.+#@.c+{.V..#R G b@.#H+0#P k+L+h#[@&&&&^%^%O V#s@O X#O D#[@J+p@i#.#R$/@O l$%$E F$h#f@G+%@&$^%B@8+a.:.7@{&q@_@'@'@f@b*,.&.J+: f$J+m ,.6&G+{&G+t@i@]@x@F+`$8+:.f@f@{&G+z@%@l +%O S+k@~@K+O & s@^%^%K+^%L+^%J+! P [@D#_#i#a#H+'$H+0#P P P ! R E % <.D+a.T&H.b+E@n+@ ",
"i o & s++#6&V+D+V.G ) F :#'$q&&%O k+k+k+~@y%/@[@O h#R h#0#V#q&i#^%K+[@V#L@^%h#l+Q C%b@D#p@+$%@&$J+E A%V+I$D#/@+$f@+$f@q@+$R ,.%.O k ;*{@) d+6&f@T@t@b#t@Q@]@%@- `$_&B /@P+f@g %@+$n - l c*h+P k+% K+~@*&O &%D#O K+R P D#K+0#V#_#@$R R ~ 7$O <#{ m L@d*m$B+V+^.5+..M#V.f+",
"_ ) % X C&c+z+3.l+G R R R V#P h#O L+P k+[@J+K+O k+P ! l V#R '$<#^%^%K+0#e*V#p+i#! f*/@+$p@+$G+f@a@a+'.:.g*[@O [@q@R$B%/@K+R ,.$.O 0$*%d ; V+6&7@B%_@_@Q@t@f@P+7@f+,.8+l+d %@&$'@f@~@k@S l :.B@a#b@K+D#L+k+}*k+P K+R 0#P D#O i#V#@$R .#P O O 0#0#m E B@<.{.{.8.H.b+h*f+t ",
"k E # @.1+z+p+n+f+E R R ! V#i#P P L+h#O p@~@D#L+k+i#! l V#0#i#O O O p@b*b@j#R '$H$L+f@+$/@+$G+w&i*j*j#H%^%[@p@p@P+J+&&^%{ ,.a.b.Q+n N d F$d+1$S h#'&T@T@'@q@+$J+f@e+D+k*l*Q@f@G+y%M ~@b@f+Z%`$V#% P k+&%k+h#0#0#D#.#_#{ &%L+&%k+_#! C%P k+h#R ! R R - n+p+[$m+6+m*n*f*B@",
": E U '.v+D+n+F+S C%R m R { P k+k+K O O K+K+^%L+h#P H+l 0#O O P k+&%^%{ B@%$R n+0#D#+$[@g %#o*p*q*r*d N+O ^%T@T@f@f@P+P b.1${.s*t*n ,&H%g j#c+L.B@y%_@_@n%Q@f@D#7@%@u*v*w*x*b#%@~@+$P+p@M@B@Z%P # V#k+&%O O <#{ O L@R R i#i#O L+V#H+@$i#i#p&k@.#L@R b@n+n+n+j#A%$.n*L@G ",
"O F+# c+W B+f+R f*k@! ! R V#q&P &%h#h#h#L+O k+0#i#0#R X#i#}*O 0#P P &%0#n Z%l$h#[@^%K+[@f@y*z*A*B*C*P+L ~@B%+$'&q@q@s@,.}+z+n J+K+n D*H%f@/@[$1$A%) f@;#_@,$'@+$L e@`#E*F*G*H*Q@J+y%p@B%&&n+S _ B@0#L+k+}*k+k+P 7$b@R :#a#a#}*i#V#H+R 0#q&V#H+R R .#b@H$:@H$U+u+$.n*% G ",
"O h+F$a.v+D+V@G t R V#0#R Q p&k+O O L+P 0#k+a#H+H+V#:#{ 0#h#0#! P h#0#t f+l+V#($O L+^%/@I*J*K*L*M*P%g f@/@[@y%/@+$H%8.7+,.Q P+P+K+n [+[@P+T@^*U+s+b+%$/@f@{&T@'@q@f@m@N*O*P*Q*R*{@J+[@O &&D#N#1%n+R k+i#O O _#i#P b@.#.#'$! i#a#R R '$i#0#0#p&_#.#L@b@t b@f+3.H.%.S*; G ",
"d ! E a.v+D+S k@n+R { P 0#V#k+i#<#k+P i#P i#i#H+R V#-$: l h#0#i#X#l B@$$+$R$K+L+O O *&T*U*>&V*W*J@G+q@'&T@/@B%p@^%z+6+d%E L +$+$^%n M#{@q@p@q@J+[$s+}+R +$f@+$'&{&{&G+m@X$X*Y*Z*a#[@D#O [@^%D#'&g*f+! i#K L+V#i#`*G m ! H+_#_#a#R R %$i#V#V#_#! Q k@E t E E j#H.c.h*& k@",
"g ~ % c+g.A+b@) t R P h#h#i#i#V#i#q&V#%$0#k+L+a#R ! G X#`*O k+&%0#b@a@Z%D#~@O 0#^%^%^@ =.=+=@=A$z@&$f@T@T@R$R$K+3.6+a.E /@p@[@/@K+n M#/@f@+$T@+$H%3.}+@.: J+B%H&'@t@'@G+O##=$=%=&=*=p@K+K+O ^%K+'$+%H$R h#P V#%$O .#V#P i#! ! H+! R ! P a#0#0#0#! Q k@+%R F+p+G.%.S*) k@",
"g l E ;.H.A+- G t R P l l 0#0#! _#_#V#'$H+_#i#a#H+! E / 7$P h#i#E V#%$h#O O L+L+^%w&==-=;=>=A$+$q@q@T@T@/@~@~@j#8+C+S &&~@y%/@B%K+n N q@G+f@T@/@P+s@g+9+'.X#~@~@+$b#t@f@;#t@,='=)=!=~=/@J+L+O O O k@R [.! P P i#: G V#P P V#_#R :#R H+V#_#P { V#R k@) S R - U+u+*.{=s k@",
"g 7$a@,.g.D+D E V..#0#p&0#{ ! H+H+_#_#V#a#! V#k+V#V#-$X#P i#P b@]=R ^=&%L+O ^%L+w&/=(=_=@=:*T@B%q@'&+$f@/@J+S+A%d+f+/@;#~@&&T@+$[@Q M#P+&${&_@+$/@7@l B+b+b.7$~@^%+${&T@B%T@t@:=<=[=}=|=p@D#&%l 0#P E F+e+0#i#i#s@; p&V#P 0#! G G R :#.#m V#! V#! R G t E % U+u+c.1=E .#",
"M+7$!%a.2=,.p+f+n+E ! Q { i#V#! V#! q&i#i#V#i#h#q&0#G O q&i#q&G ^%@$i#&%h#K+/@3=4=5=<&6=7=+$^%B%;#T@+$f@t*+%a+8=9=P+K+p@/@B%+$+$p@a@0=q@G+f@t@q@p@p@^*/ ,.8+,.D#y%R$T@T@/@p@>#a=b=c=d=e=f=K ^%P P P k@K+b@~ H+i#H%E R ! V#P ! .#@$@$'$R V#i#0#! R .#L@n+f+<.B+H.=.g=b@G ",
"f : F$'.W $.2+b+S+F$R ! V#i#_#! ! V#V#i#_#V#P <#p&! J+~@h#k+0#e&&%b@i#h#O ^%h=i=j=k=l=m=>#~@D#B%;#p@+$T@S n='.l+7@~@&%p@+$T@q@q@p@E o=J+^*f@Q@T@+$R$K+&$%$a.A&{.D#R$R$/@q@B%/@p@p=q=r=s=t=u=L+i#P P G K+k@V#R V#D#Q+6$R R V#H+]$R H+R R v=0#! R k@.#G }.0+g.D@g.b+w=- F+",
"i k E d+[#b+t+`$o+% R ~ P 0#! ! ! ! ! _#H+V#V#p&0#R D#`*0#V#V#.#a#V.'$h#<#*&x=y=z=A=B=T@p@^%&%>#+$/@~@) A%&.}.J+p@&%L+^%~@q@f@+$O o+@ O f@{&q@;#/@p@&%/@&$C=c+D=5.D#>#_@/@+$+$^%+$a=q=E=F=G=H=V#k+0#b@R G _#H+H+: O %$R .#R R ! m ! H+]$R m ) h+.#R .#[.a.8+e.g.8+I=% * ",
"Q+Q # ,.J=}+@.m+n+# a@~ 0#~ V#R ) R ! '$_#H+V#V#v=b@_#0#R p+k@R .#k$! 0#q&K=L=+*M=N='&~@^%D#R$y%p@R$k@s+@.O= @&&^%i#k+[@y%P+&&t*{ ^.,.; J+f@T@T@/@p@p@/@H%7@S &.P=}.[@{&q@B%T@/@[@[@!*Q=_=4*R='$D#~ B@f*V@h#3.6$! P E G R .#G m m R Q Q R h+) R R k@k@p%B+@.S=g.9+x E a@",
"d n S ,.d&b+b+^.e+F$m ! V#m _#R @$R H+q&H+@$'$a#a#E V#V#d*I%{ R @$p+! { T=U=V=W=X=v$[@*&O R$B%B%^%%$&.}+m+g J+^%[@k+&%+$&&&&D#7$Y=q+s+{.X#~@+$^*B%^%[@p@D#~@f@n+%._&o+q@'&p@+$/@p@O ^%!*Z=`= -X#: P B@- - V#U+l$'$V#F+) ) R h+R R ! ! 0#V#R k@R ) R F+[.,.+.m*4+b+r@= a@",
"O+n @ V+d&b+8+a.U S G R R R R ]$R R ! H+-$6$H+V#_#k@b*i#f*%$X#! e*J$! P a#.-7*v=K+O h#}*&%p@;#B%L+L@*.{.+-K+O D#^%&%L+B%t*^%~@p+B+@-#-d%m+D#J+P+p@^%^%p@^%P D#N+D+c+:.K+^$[@+$B%^%k+7$D#$-%-&-P k %$d*V@b@P V#<.0#P k@L@@$'$G .#G R H+]$R R k@.#h+R -$e+a.7+..4+b+. s ) ",
"N+/ S d%W }+&.;.# n+H$f*f+f*d**-d*L@ *d*d*=-L@L@d*! k+{ O P H+G .#f+0#k+! --;-# : k+e&i#k+^%^%R$O b@z+d+,#l k+&%^%R$Y%J+H%^%q@d#>-,-'-)-4.f@T@B%y%^%R$D#D#i#0#f@a.V+{.~@/@[@^%*&L+i#l P ) >+s+& l 0#L@S B@0#q&D#h#X#F+H$b@G *-:@d*b@d*b@V@- V@:@d*t t S+a.t+S=4+_&!-E ) ",
"J+l # ,.W }+,.z+@ 7@5@~-^*P+/@+$Q@z@]@z@{-{&+$&&~@^*X#Q q&P V#E .#f+0#d : ]-d+# _ O L+k+L+^%^%p@[@B@z+'.Q 7$O P }*^%^-D#~@D#T@/-(-_-:-<-J#n@^*&&~@&%^%&%&%k+V#J+Y+d+`$d ~@~@L+^%D#k+l : F+d+0+# l P G S H$0#h#O O h#O f@%@G+'@Q@#@g P+g M+6@6@6 e@D&[-R+).}+$.g.b+}-E F+",
"O+l F$D+W b+q+,.:.n H%_ : : h#h#O K+t*~@D#P k+h#~ t*&%i#q&P P F+,.}.7$/@7$1$|-S p@p@^%O L+*&&%^%/@- D+c+,&`*X#k+i#&%D#K+7$&%H&1-2-3-4-5-6-7-B%L+K+D#D#D#i#a#0#K+Y+B+].Q+D#D#O D#^%k+i#8--$V+0+V.{ K b@'.[.P h#O h#: / K+d d d Q+_ : O O _ _ _ O s@J+/%I$q+..e.H.$.9-b@h+",
"O+/ F${.v+b+%.;.3.& l h#L+h#7$h#0#h#O &%L+D#D#h#0#K+O P h#P X#h+c+p+O _ n s+d%0-a-b-c-}*R$p@&%k+~@f+B+c+) P &%&%i#k+k+P p+-$o@ =d-e-f-g-h-i-&%'.D#&%L+}*V#H+a#D#1$|-].7$^%^%p@~@^%}*j-k-l-,.s+v l P V@s+V.P O h#O O ~ D#_ _ K+O P O H%P { { { l l _ } /.q+ .m*g.$.w=S E ",
"_ / # {.3+b+%.a.:.a@: D#O <#O X#{ P h#O O K+J+O h#O O O k+X#i#b@C+m+{ i#n 1$w$m-n-o-p-}*L+[@&%e&K+t |-c+) 0#L+k+i#O D#l n$L@P@ =q-r-s-t-u-o*^%e$p@D#i#q&a#! 0#D#@.,.,.X#h#p@p@^%&%T*v-w-x-A+Y+t { { H$a.R+P O P h#P { h#K+O D#O ~ P O l ~ _#0#{ { : _ _.*._& .4+%.y-S & ",
"s@/ # ,.z- .@.0.5.|%l 7$X#: h#h#V#h#h#h#7@^%h#O O X#P P 0#0#V#B@C+3.m { / 1$A-B-C-D-E-k+k+[@D#k+H%f+D+'.F$0#O O D#^%[@7$p+E F-G-H-I-J-K-u-L-~@C+&&K+k+i#q&i#k+H%s+,.].O H%^%p@~@O M-N-O-P-A+%.t { { f+a.l+l P h#P l ) ~ _ D#h#P V#0#P n Q m m ! %$~ O g+1$L. .2+%.Q-% > ",
"s@/ = >+v+_&@.0.:.F$0$l l k k ! V#h#X&: 7$0#0#P ~ { X#O 0#{ { b@C+U+{ h#n c+3.B-R-S-8-0#Y%p@[@&%J+S g+c+F$0#O O K+K+~@_ n+.#B%-#T-U-V-g-W-X-M-|-&&D#D#&%^@}*k+~@@.,.g+d ~@[@K+/@O &%Y-Z-P-A+1$S ~ : f+c+@ k P : h#~ ) m ~ P i#! 0#O / n R Q ! m R a@7$z+@._&..G.b.}-!%Q ",
"_ n S a.d&6+..`-3.F$s#% % } c h+a@/$,&0$b@b@) B@f*F+X#O 0#{ { f*C+:./ <#m @.A+ ;.;+;^@i#O p@O ^%~@S B+@.F$0#O D#H%~@D#_ 7@^%'&@;#;$;%;&;@;|=^-O y%P D#^%k+i#i#H%@.,.`$d ~@O [@~@^%}**;=;-;D+'.% O : f+'.f+k h#P P ~ F+& f+f+% % F+, F+S @ % F+S & , ;;g+'.A%b+H.b.x E Q ",
"7$m S 1$+#6+}+%.8$:.:.z+A+/.g+g+3.m+p+3.z+A+z+,.>+S+{ 7$0#P l E R l+{ <#> s+D+- >;*&k+k+k+[@K+>#/@F${.@.|%0#L+D#D#~@D#D#&&y%P@,;';);!;~;{;];R$^%^%: O K+h#0#0#J+1$,.^.d ^%^%~@R$&%k+k+^;R {.Y+F$: ~ V@t E P P h#h#{ n+3.B+B+,.,.A+g+3.z+3.g+D+,.A+g+:.Y='.A%3%g.=./;= ) ",
"_ ) S 6%(;A%@.$.R+e+- b@F+; G m ) E m ) E F+E - S # ~ O P P P G ) V.{ k+Q X B+f+P h#k+k+V#D#K+J+~@F$B+'.& P L+D#K+J+~@K+^%K+J+d#R=_;:;<;d#0#^%}*^%s@O ~@O ~ P O+'.!.^.d /@~@P+[@&%H+0#_ ) ,.6&# : { - t f+{ P l <#l f+b@R R h+b@b@E E F+m R % b@% S f*J$%.8+9@g.$.y-; R ",
"O E <.8+j...s+...%+%h+%${ P 0#V#{ ! l ~ n Q { n F+& / h#E ! 0#E b@V.l P ) 0+D+S k O a#a#i#&%y%K+O E B+c+F+{ O h#D#~@O K+D#J+^%i#h+[;};M@a@H%~@D#~@O O J+K+X#O 7$'.{.8$d /@d /@~@O V#P _ a@,.s+# X#: S S+n+l V#t m { f*k@0#0#! ! ! { ! R { V#m a@) G G S+q+A%..4+9@(@% F+",
"O .#k$8+|;b+s+$.S++%a@V#! P 0#! ! ! { %$m V#0#Q R % P { +%p+F S % <.~ ~ a@e$1;6$K+O P V#k+&%L+O O { A+V+`$! O D#&%L+P D#d K+L+X#7$H$p+,&} h#D#J+K+0#P ~@D#P X#<.1$D+f+d J+K+p@O O P _ Q+_#z$e$& P l e+S+V.! V.}.m ! f+h+! 0#! V#H+{ m k@! m %$Q ) h+% :.,.@.e.3+ .. F$) ",
"_ R n+s+x+9+a+q++ f+R ! %$! { R G .#! %$m ! H+R G S O m Q f+! S d*[./ l _ _$2;3;4;}*V#V#L+0#i#i#L+&$]=3.t+{.{ O h#h#k+O s@~@D#K+O h+f+A@7$<#J+~@K+P P D#K+~ n+A%>+n+g d ~@&%D#h#: : [@i-5;6;7;: / ! V.p+<.~ m$! R V#f+B@R ! ! ! V#! R G F+Q Q ! ) G % }.*.+. .4+b+x E ) ",
"~ R S 1$C&}+s+,.[.H$E k@R ) m R G m ! Q { o V#m ; f+l P R V#%$B@G <.! s#s#8;9;0;a;b;}*h#k+0#k+k+k+D#G+h+,.L._.P D#h#O D#~@~@~@D#{ V.l+%$h#K+~@^%K+P X#7$s@B@A%]-l$N+H%D#[@O h#k+K O L-c;d;e;f;_ a@Q n+n+<.%$R R R 0#H$d*.#m ) R R R h+G G Q m Q Q R E v '.}+9@3+ .w=E R ",
"{ R F+C+d&%.}+b.l+S ; b@b@h+) R R m Q { P { ~ Q E f+! O ! { Q b@O V@/ / Q {@g;h;i;j;k;^@i#}*}*L+i#i#O f@H$b.L.p+P O D#s@J+K+D#K+P n++ { H%~@y%^%[@: O _ E b+s+z+Q+d K+O K+K+K+O L+l;m;n;o;-*T@~ F+m H$Q n+R R R R V#f+b@G R .#.#-$F R R R m ) .#R G % <.'.}+@.4+ .p;- ; ",
"{ h+F$,.W z+j#m$F+h+b@e*d*L@G R ! ! ! { q&! R G e*m$l+P : { ) - h#- / / ! / T@q;r;s;t;u;k+k+&%}*&%k+P h#&&m$v;6+V.h#7$s@d D#D#O P S S+~ O O ~@~@~@7$O F++.@.{.k h#h#^%O K+O _ h#w;x;y;z;A;A$7$/ ! R H$! V@R Q R ! S k$d*.#.#L@L@L@.#R R ) R -$b@E b@- % H$p+3.M.9+x e+t ",
"X#G % ,.v+,.<.+%n+f*- V@b@E .#R ! R R ! V#R R R G V@T+; ~ { %$F$/ F+Q ~ ~ n { B;C;D;E;F;G;^$p@^%^%&%O P X#N+j#@.L.V.n O K+O K+D#%$- @ k O O O _ _ 7$E }+b+B+,#{ i#D#~@K+O 0#K+H&y&H;I;J;K;L+V#l V#; f+%$b@V#R .#k@A-:@G R '$V@d* *G R .# *L@L@f*b@; - [.f+<.A+g.+.L;n+u ",
": G @ ,.v+d+k$t V.f+V@b@G G ) R R R G ) R .#.#R G 6$f*G ~ { { X#k@%$B@Q ~ { ! 0#P%M;N;O;P;Q;R$^%^%^%O O l O H%I%s+K.<.{ : _ D#O R - e+l 7$: O D#P R &.b+8.n 7$m V#O d D#D#h#D#R;S;T;U;V;O ]$a#P '$d*%$R h#0#! R .#N#e*.#@$h+W;d*-$R m .#t t :@V@- - - [.t <.A+M.%.. H$S ",
"P G t d+J=C+k$V@V.f*b@X;G G -$L@; ) b@R C%R _#! R R 6$F+! ) ! l h#R a@S R 0#P P h#Y;Z;`; >.>*&[@O k+h#k+P ~ k +>z+A%K.f+l X#P P R S e+0$h#O K+D#R '.9+,.a@: h#! ~ O ^%k+^%^%@>#>$>%>&>^%0#) ! V#b@h+R V#q&! R R E H$L@) G .#L@G .#.#-$6$V@f*d*d*- L@d*I+V@,+A+M.6&(@t - ",
"k ) t a.d&C+<.B@H$f+f*f*b@- b@L@b@b@L@:#6$.#V#_#R R 6$h+R .#m n { ~ k@F$S ! P h#P O *>=>->;>>>w&O P h#h#O P ~ 7$7$,>b+6+- ~ P X#m b@9=l P O O { a.t+d+% : k 0#{ P h#D#~@>#'>)>!>~>{>p@! ! ! R h+F$B@'$! R R R .#% V@G G G -$.#h+R G b@b@L@L@L@L@L@; - p+t H$D+g.@.9-f+- ",
"l F+t c+W C+<.S n+,+V@f+f+d*b@b@b@f*; L@b@-$! ! .#6$b@E R .#R ! ) R P ,&+%S %$X#k+V#X#n%]>^>/>(>^@X#{ X#O P X#: k k 3.A% .F$l X#Q % _>/ P P { ,.7+d%F$_ 7$P P P ~ O ~@R$:><>[>}>[%^%! R R R B@B@E+Q ]=h+.#R @$.#R f+h+R R @$R G .#b@d*G R .#b@V@f*b@- p%t n+,.g.@.r@n+f+",
"R % v '.d&C+[.t V.,+f+f+d*- V@d*f*b@L@b@L@G ) .#-$G b@E R .#R ) E ; { 7$F+O=V.k@V#! m ~ |>1>2>3>4>R$P 7$7$O O : 0$|@,#8.5>b+% P R B@e+n { { z+8+d+S s@P X#~ : P 7$D#y%6>7>8>9>0>D#k@R ! R B@T+Q k@Q h+G k@R G G h+H$E R R H+R L@b@B@f*h+-$b@d*t#H$- V@U+H$l+d+4+..Q-n+o+",
"a@% V.1$C&c+j#n+<.n+V@d*L@b@d*b@d*6$.#G L@W@.#G G G d*E R m R F ) E a@% H$|%g+V.-$R _#m T*]*5=a>b>u;k+7$k P P l { l _ ) ,.L.}+F+) - e+a@n g+A&a.S d l ! { P O D#O ^%w;=&c>d>e>B%R '$R ) - z+b@G <.% L@G ! :#-$) G H$b@G @$R G b@b@b@d*G 6$V@V@t :@V@t U+<.U+V+4+b+}-t D ",
"Q E S+s+x+s+8+C+p+H$- d*L@G b@*-L@6$:#G G L@G G L@L@H$E Q m m .#k@F+) t k$f+f*z+t m ~ n %$B%f>g>h>i>G / : P : P %$n n _ F+d+P=%.F+- S+/ l+G.]-J$N+{ m ! l l : h#P / j>k>d>l>{&{ R R m S D+W;S d*j#b@G ) ! R G .#% }@V@G 6$R L@d*L@b@b@G b@V@B@- V@d*V@l$,.L.9+w+8+!-f+S ",
"m ; V.0++#A%z-m>n$n+- L@L@G b@d*L@-$R G G L@L@L@b@e*H$- R ) a@G .#R m - [.n>S b@{.o+m / / 0#H&o>p>q>1$% ~ 0#l k l ~ R Q O f+6&L.h+B@S+n :.0+,.N+/ m %$: O h#l l { g+r>s>t>P@l { ! ) F+g+S h+g+f*:.b@h+) .#.#E ) % u#d*L@L@C%G b@L@b@b@G L@M@d*V@V@f*V@n$6&z-u>v+A&(@e+S ",
"a@E f+b++#_&W.v;j#n+f+b@f*d*L@*-M@L@b@V@L@b@L@L@d*:@m$f+R R ! R R ) a@b@v>s*S+b@B@{.f+! { ! l K+7$3.0+6&F+Q l l l n a@a@Q p+@.8+B@f+J$m T+@.}+Q { %$V#h#D#P s*%$U+s+D+V#q@D#P { ) - 3.H$F+l$%$b@j#E G G G .#G .#% u#V@d*M@h+.#G L@L@f+L@d*e*d*V@f+H$t m+1$3+9@v+K.+ t # ",
") S y t+|;t+4+%.m+n+V@- f+d*b@d*L@b@d*- L@d*d*d*V@n+<.t ; G ! ! R Q n E t#R / V.E % z+t ) m R ~ c n z+}+b.F+{ l ~ ! m R a@:.s+8+- S v Q 3.0+L.) R R ! P O ~ / :.s+,.+%/@: h#P m - g+f*h+}.k@) b@j#% G L@G G G ; b@u#V@f*G .#R 6$G  *V@*-V@e*V@H$,+t#,+/.'.M.D@v+2+w>n+- ",
"* S y 8+j.H.4+&.3.n+- B@:@x>*-L@; .#G G G *-V@b@d*=-t#n+f*B@G .#) R l E <.G %$s@O=b@:@,.t ) Q m ~ H%Q ,.8+;.m P X#! R %$Q U+s+L.= @ }., g+0+L.) ! ) .#{ [ l n+A%d%S g O 0#H+_#) 3.V.) 3.a@) h+B@U+b@L@; ) R -$G b@u#:@d*@$.#F -$.#G e* *b@d*t V@H$H$m$3.@.H._&W 2+y><.@ ",
"% o+y 8+z>8+4+&.m+V.f*V@H$H$d*E .#R R h+.#G L@b@b@ *V@f+G G ) ) m %$n S k$L@R 0#l R R n+g+E n h+) k O+k@C+8+S+%$/ ! Q %${ <.A>G.S f+R+m z+0+L.R R G G R ~ ) +.'.k$J+_ l ! Q R V.p+R n E a@E L@d*_.b@L@E G h+R b@% n+V@d*R .#h+L@.#.#b@b@; b@S d*t H$H$3.'.H.9@W A&B>V.@ ",
") S V.7+j.8+W.&.Y=<.t f+H$H$f*; G G .#.#G E G 6$L@L@:@:@; ; k@R Q m Q S p%f*L@R R G R L@m$3.Q ! R { k d d%C>}.n %$C%) m m D>0+H.- H$R+) ,.a+G.k@.#.#F+F+{ F+E>j+h#K+O V#! { V.p+L@R ! L@) .#b@d*U+b@b@d*V@b@L@:@B@f+b@d*G G G e*L@G G L@b@- S f*f*t ,+z+'.M.9@d&L.F>e+S ",
") f+v 8+G>G.w+@.3.l+t t :@d*d*L@b@; E L@L@G E G *-V@t#f+; G G F+k@m k@t U+f*b@R R ; R h+W;1;% a@m a@~ K H>I>J>Q Q ) F+m R j#0+K.S f+R+) ,.9+H.F+k@.#R ! l H+K>L>M>P <#0#{ ! {.V@G R ! ; ; G b@b@U+- ; b@d*b@b@V@- H$L@G  *b@b@V@d*b@G L@d*f*t t f+t m${.@.5+P=d&L.(&u S ",
"a@S R+t+j.A&W.s+p+N>H$:@:@d*L@b@b@G G ; G R G L@V@H$t#f+E G ) R k@) R V@[$- L@) R G G M@b@p%m$; R k@~ p@O>P>Q>> Q Q R ! R 4.s+H.- t :.* ,.t+5+E R .#R V#P R>S>T>U>O p&'$! R A+f*L@! %$E X;L@M@B@j#b@; L@b@d*V@V@S f+E G b@b@L@d*d*L@b@L@- - S S S t }@/.@.g.K.d&2+|.V.t ",
"a@f+e+8+G>A&z-0+m+p+t H$f*L@b@d*u@L@L@E L@) E d*H$:@,+t E G ) ) k@R R f+j#b@h+F R .#L@*-e*l$[.; h+E Q [@V>W>X>R n / n Q Q }.s+5+S e+B ) {.9+H.E R ) @$R { ~=Y>Z>`>L+V#C%.#.#n$B@; ! %$L@d*b@b@- j#S h+k@k@b@f*V@B@f+G L@b@b@G G G E ; % f*t f+f*- f+<.g+@.H. ,C&W..,n+e+",
"* @ R+L.G>G.W }+:.[.H$t#d*- B@f*d*b@- b@- L@G f*H$:@m$e+E G b@- - G F+n+p%6$G G R .#L@L@b@j#t k@E b@! {@+,@,#,.#> / n ~ n j#s+G.S S+:.F+,.A>H.E R h+.#) m ~=$,%,`>k+R .#) R 3.E R V#! ; b@b@b@- p+S G R m G b@d*- f+b@d*d*B@L@G h+E ; G ; S f+V@f*n+p%g++.g.K.C&3+(&V.f+",
"& f+}.8+&,K.W b+n$<.,+d#H$V@V@b@- ; S V@- - % f*H$t }@e+F$- b@- b@E ) t j#d*; G .#.#G L@b@U+V.E ; G Q [@*,=,-,-$a@/ o { / 3.}+G.@ u }.F+,.0+H.E h+; E E R ~=;,>,,,i#R .#G k@B+G ) R m E b@- E % j#b@G R m ) V@; - H$f+:@V@V@b@- - - E % % % - B@B@n+p+g+s+H.D=',2+(&V.t ",
"* n+B 6+G>4+W a+3.[.,+D><.H$- ; b@G B@V@V@b@B@- V@t }@V.% S d*% B@G R V@I+V@b@:#R R C%L@b@[$<.b@h+k@E K ),!,~,-$a@n { V#{ T+0+K.u V.}.R ,.{,5+% ; b@E ; :#],^,/,,,e&R .#G ) {.F+h+.#) b@E G E - :.S G E k@L@d*h+; m$v>:@:@W;; b@- % % - - - S b@S <.3.3.+.H.P=C&K.(,V.f+",
") t R+A&|+2+w+A%m+[.V.<.n+H$- G G h+B@f+B@b@S :@_,t }@S+S S b@- S E ) f+[.- b@.#'$R .#; d*U+v s G h+G L+:,<,#,:#) R ~ V#R U+0+2+e+l+:.) ,.7+H.b@; h+G ; :#[,},|,,,1,R L@6$) {.G ) E b@B@s E b@f*:.- b@; b@b@f*b@% ,+H$t#f+E h+B@S S t S S S B@f*S <.T+z+b+H.P=C&K.w>e+o+",
") S i.A&*+H.3+}+5.p+V.f+V@t - ; ; b@t V@b@% - t V@- V.V.S % ; B@% - b@H$p+f*E ) k@-$L@b@B@[$u F+G L@) P 2,3,4,L@k@Q { ! ) U+r+2+t V.2.) {.a+g.% G .#R R :#5,6,>,7,! G  *.#m !.G > G b@S - % f*t T+f+% b@B@B@:@b@% n+S V@b@h+G % V@t t S f+t H$f+S V.U+z+}+4+ ,[#K.8,V.@ ",
"% S }.g.9,K.W.}+:.[.t S f+t t V@V@:@H$H$t b@B@t V@:@V.e+- B@E b@G b@f+<.p+b@h+E .#G b@b@- j#e+) E b@m P 0,a,b, *h+a@%$R ) k$r+2+@ V.B * z+a+4+% C%) R ) 6$l-c,d,e,R ) L@) ) ,.% > F+- - b@S f*t 3.B@B@G E V@v>S - n+- % b@b@G % V@t - - f*f+<.V.<.[.U+z+s+5+9@[#4+f,R+t ",
"- @ B 4+G>A&W.@.2.p+n+f+f+f+H$H$H$f+S f+t - V@t H$H$}@V.S - E G ) b@f+m$U+b@) E G E ; b@b@T+t > F+) ! g,h,i,j,B@E ) a@m ) k$0+2+@ v :.F+z+8+3+E R h+F G E k,l,m,n,L@) b@; G ,.S ) F+S - b@- f*t _.f+b@h+G V@H$S - V.S - % B@; - - f+V@t H$f+n+<.p%j#m+3.@.5+9@C&)%8$v e+",
"# f+2.2=G>6+W.s+3.I+V.n+n+t V@V@t f*E B@b@; S t f+t }@S+S S S b@F+% b@<.T+f+-$h+) L@; L@f*n$v F+> ) ) ~#o,p,q,- E % G .#k@[.X 4+f+R+2.F+z+L.4+) R G ) ; b@r,s,t,u,- F+b@- E ,.S ) E S - ; G b@n+_.V@V@b@B@x>,+t = <.t t - S S - f+f+H$t f+f*f+n+p+p%p+3.%.K.` C&[#V [.V.",
"% f+I$M.]+L.W.a+3.p+v,n+n+t - V@n+V@; - % E ; S t H$n+l+f+f+- b@F+E E V.3.H$; L@h+b@b@- V@A-B % ) R V#!*w,x,y,x>E % E L@E j#0+2+o+V.2.; {.u+3+F+R k@G E k@z,A,B,C,T*h+B@; E ,.- k@E - f+b@G b@t U+t f+t t H$m$H$S <.t V@b@V@B@f+f*S f+H$f+V@t }@k$<.[.z+@.2+ ,x+[#8,V.n+",
"S f+2.8+j.A&4+A%L$:.<.n+t n+V@V@t V@b@S S ; E E - t n+V.f+t B@% E ; - [.A+H$B@b@L@d*f*d*V@A+}.E % b@h+^@D,E,F,- E * h+h+S 3.a+2+S y 8$# ).A&3+F+! R ) R R u&G,H,I,H+b@d*f*% ,.% h+B@V@H$S ; - e+5.t t f+H$H$m$H$S [.f+- ; ; b@f+- S V@t S t t n+<.<.}@^.@.H.J,+#y+K,V.f+",
"% t 8$8+(;H.W.A%/.j#<.<.,+m$H$:@f*V@b@- B@b@% ; B@f+V.V.f+t B@b@; B@f+[.A+n+t b@; V@V@b@V@A+}.E b@B@E L,M,N,4,b@s s % F+B@z+t+3+f+V.2.# ,.8+g.F+! .#) k@R O,P,Q,>>R - b@f*E ,.f+- W;b@:@t - +%[.{.V.H$t H$n+,+n+o+[.t S - % S f+S - t - S S f+n+V.V.<./.b+g.P=8@C&R,S+f+",
"E f+g+A&j.E#W 8+).`+<.V.<.<.m$t f*B@- S D - S S - S }@V.f+t - V@t H$H$p+D+<.,+t f*f+d*b@V@z+l+- B@B@E S,M,T,X>L@& * % % S w$7+4+v R+2.% V+8+g.F$.#L@E ; .#U,},V,W,-$- ; B@V@V+n+V@f*f+:@f+f+t 4.,.V.n+H$H$n+}@V.f+l+u t t t t t f+- D - t n+f+n+t ,+[.!...X,Y,C&y+n&v y ",
"E - 2.G.(;H.W.6+,.3.[.V.,+}@,+:@H$S - S S = f*S B@f+<.S+f+t t H$m$}@V.j#D+<.H$,+H$:@d*V@H$w$S+f+- ; ; L,Z,`, 'R Q ) F+% f+B+a+4+y R+.'- C+L.4+- % B@b@- b@@>+'@'7,R L@h+G - C+m$t f+n+f+f+t <.U+~.<.V.H$H$n+V.n+S }.<.V.n+m$<.<.t D S S f+,+V@f+t u }.,.@.3+Y,d&)%#'$'[.",
"E S :.6+z>2+C&6+,.T+[.n+V.<.}@H$,+H$S f+S - f+S S t l+& B@t ,+m$<.n+H$p+D+<.m$}@t f*V@:@H$D+v D - ; ; }*:,%' 'R a@* F+G - {.t+4+e+e+g+- c+G.4+S % b@V@:@b@&'+'*'='v=G .#; % a.t t f*n+- t H$<.j#,.m$H$n+n+,+V.f+F$J$V.t t H$D>k$n+f+t S t t f+f+t t v D+}+W P=8@-'h.B [.",
"E n+L$_&z>0+I%:.{.T+[.S+V.,+t t ,+t f*t S - f*- f+V.# S t V.<.p+z+<.u _.A+V.H$<.n+f+f*:@f+g+S+S - - ; }*:,;'>'-$> & % E - g+ .2+f+.%.'F$*.L.4+S B@f*S - W;,'+'*'''v=h+E G G V+f+t S V.f+t t ,+U+,.E+V.{.<.,+n+n+- F+[.t t V@m$k$n+f+e+f+t f+n+V.n+V.<.z+p%[$d+C&D=n&:.l+",
"E V.g+2+#+d&4+,.a.A+p%[.v u t t n+n+f+f*B@- b@- f+U+e+f+n+[.p+4%`$p+`+'.D+{.g+D+>+3.A+D+[.3.<.S b@- G }*)'<,X>L@) ) & # S T+_&4+9=v !'- '.H.z-S V@f+B@- L@~'{']'7,@$E F+) G d+n+,.U+5.,.g+g+,.A+$.m+j#,.'.[.,+n+S F$g+n+f+f+p+[.V.H$n+V.t t V.n+n+[.p+,.z+8+W.8@K.&*:.l+",
"- }.`$W #+]+)%6+&.A+p+<.V.V.t t V.V.t V@f+f+- V@}@A+V.t V.p+b.8.l+T+'.,.1$8.8+@.0.}+4%0+V.A+p+f+d*S F+k+^'/'('b@* ) E % - 3.t+4+e+R+].# *.K.W S d*f+- B@B@,'},_':':#E ; % E d+V.q+%.Y,&*S=$.-.b+,.@.3.2.,.'.}.,+S % {.<.t t <.V.t t m$V.t n+[.n+v [.j#~.@.W [#8@<').T+:.",
",+:.{.4+^+n$v;d+0.3.4.<.<.,+n+n+t t f+f+V@H$+%+%p+A+V.n+<.3.'.:.z+$.d+A+,.6+b.$. .4%6+$.n$B+p+S V@f+b@p&['}'|'b@* F+% b@B@g+t+4+V.S+8.S c+H.W.- B@B@E E ; l-},1':'.#% - - % d+}.@.D@-.P=&*6&e.N%a.d+@.z+m+'.3.t f+= ,.<.t t t n+f+t E+n+V.V.n+,+V.<.U+;.,.@.V.8+2+8.g+T+",
"t }.].G.*+9+@.'.'.3.U+[.[.V.V.u V.V.n+t H$V.f+f+[.A+S+n+p+l+p+g+'.b.g+z+2'$.&.b+4%D=6&}+j#B+l+E B@f*E _#3'4'5'b@F+) - - H$I%7+4+y + 0.@ %.A&3+S - E F+F+G 6'7'8'9') b@V@S % ;.[.c+&.9@4% .`-&.D=c+z+3.6&,.3.,+<.t = ,.p+n+t H$t f+f+V.t n+f+f+V.v p+T+,.6&0+'.C&K.&*L$:.",
"t }.5._&&+8+c+g+{.T+j#j#j#<.H$f+t V.<.<.V.<.u t [.T+@ f+p+T+g+c+;.;*}.3.I%m+n$T+z+g+g+D+J$:.t F+b@E ) R 0'a'b'- E F+S - t B+t+K.e+:.*.t '.8+5+o+S B@% F+L@c';=d'e'a@% V@% E a.F$g+,>A+U+Y=g+D+{.D+_.4$`$@.A+j#m$n+E B+j#V.H$n+V.t S t o++%S f+n+p+U+3.z+A+&.6&',W.h.8$B ",
"u }.].L.&+8+&.D+A+U+U+T+j#<.v,t t V.<.<.V.V.V.V.p+U+0#p@k+0#D#<.A+g+>+>+,.d+d+>+8=C+c+q+,.{.F$E - F+> - f'g'h'- % - f+S t B+0+:.# B b.u <.@.5+u - S ; E - {$L=i'K=& = S ; & ,>z+,.s+8=a.d+;.d+a.V+d+,.V+3.h#}*^%j''&3.U+V.t t V.V.@ S o+n+t V.<.p+p+U+A+D++.a.C&)%k'/.:.",
"v A ].L.G>A%'.D+3.T+3.3.U+N>V.<.<.n+n+n+n+t V.<.j#,.R+o+S S E b*^@R$D#&%0#V#v=a#v=i#q&l'm'Q # % S ) t n'8*q,|-t - f+t f+H$D+).! - :.q+V.% :.8+H$S b@G b@H$1;o'p'q':.% ; F+E b@r's't'.#q&0#b*D#t*H%k+e&}*k+,#F$S ; E d+U+V.V.}@m$E+e+o+e+V.t e+<.l+p+_.3.z++.a.8@)%u'^.:.",
"v }.b&P=^+_&$.B+D+z+T+T+U+[.<.p+p+<.n+t V.t n+<.l$).R+t f+V@f+% h+- E ) F+- S S ,+f+H$H$- S - % - ) n+v'w'8=,.t - t H$H$n+B+*.f+S :.).f+@ g+L.t f+f*E E H$x'y'6%z'g+& F+F+* V@- - b@; b@f+; ) E % f+f+f+B@S t t f+- c+j#m$<.[.[.<.e+t V.<.n+v <.<.p+m+3.,.}+*.+#)%A'/.:.",
"}.`+).D=$+K.@.B+3.g+T+3.U+<.[.p+j#<.n+V.<.V.m$m$k$,.v # S f+f+S % t % ) ; % - - t f+t t % F+f+S - % <.{,2=C+{.t S t H$n+n+B+'.H$f+2.;.t f+z+H.t t f+b@E H$A-{,@.{,).- E E ; F+% - - E % t S - % S D f+V.n+f+n+n+S S c+_.p+k$[.p%<.e+n+<.}.S+<.[.:.j#U+3.,.}+%.+#8@B'{.3.",
"R+:.C'2+ +H.@.{.3.g+m+_.}.p+<.p+p+p+V.<.V.n+<.[.j#,.S+S f+t f+t @ t - - - @ t S t t - E F+- f+t D S }.Z+D'd+{.t - t V.u V.,.'.n+t 5.>.t t ).H.n+f+n+S % t U+A>1$7+{.@ % - E * & ; E * % t S D = t t V.<.H$f+S t B@= a.T+p+j#U+U+[.e+t ,+p+:.}.v,:.j#_.3.,.r++.E'F'G',.g+",
"}.H').4+@+H.@.,.g+m+:.:.j#j#<.p+j#p+<.<.<.<.V.k$j#~.y S +%n+n+t V.n+@ C S f+@ @ D S E ) % S S t t t }.7+g.d%8.u t t V.V.v,,.c+<.t ^.0.y u !.H.n+t V.e+% t _.s+1$a+z+; ; % = % S > E E - f+S t S @ @ V.t f*f+b@f+S % c+T+p+j#U+3.:.V.e+n+[.p+j#p+U+`+`+/.,.9+@.I'F'J',.!.",
"+ /.;.-'@+K.s+|-3.m+j#j#U+j#k$!@j#j#[.[.p+p%[.k$l$,.y S t V.V.f+v V.t S % S @ t t S E ; - S D t n+e+:.8+2=C+;.S+t ,+<.V.V.,.%.[.v ).0.t u ).2+<.V.v,n+t n+_.K'@.A%{.S = = s = G ) & S f+n+S @ S @ @ V.,+f*f+t - S % c+3.p%4.U+A+:.V.n+}@j#m+m+U+3.g+m+g+,.9+@.]+(+B'{./.",
"2.].-.[#L'H.+.,.3.U+j#n$T+[$4.U+j#!@[.}.p%j#j#[.U+,.R+S t n+@ S V.V.u - & & @ u t t = = S - - S f+n+j#8+g.a.,.[.n+<.p+[.E+,.&.[.v ).0.t V.,.g.<.n+V.,+<.p+A+s+1$A%,.u t t S D s % # @ t f+S t S @ @ - t % @ f+- S & c+3.j#j#T+A+:.l+}.l+:._.m+3.3.3._.3.,.t+}+M'N'O'/./.",
"2.!.`-y+A.g.9+d+{.3.U+U+m+_.j#U+U+U+[.j#[$[$:.j#U+d+x t V.f+- f+H$t t t P'= @ u t t f+- - S t u t u :.&.s+{.,.}.v <.}.<.}.d+@.}.[.).-.S+<.,.K.l+V.[.I+p+p+z+@.;.b.{.V.V.t t D S & % - t t S t t t t D @ = S S S S > c+A+j#U+U+T+j#[.j#:.U+_.U+_.T+T+3.D+d+8+A% +8@Q'^.^.",
"/.!.R'8@w.W.8+c+,.z+3.T+T+_.T+T+3.T+j#T+U+:.U+U+3.,.o+e+e+t t f+n+t t @ @ D t t t - t u @ S u v n+u :.s+,.g+).}.N>[.p+[.U+d+%.:.}.).b.}.}.,.H.p+l+p+I+p+:.z+,.B a.{.V.[.<.V.n+f+S @ % S'u t n+u v,,+u t D t u t n+- {.{.U+j#T+T+j#:._._.3./.g+T+T+z+{.{.q+L.A%T'F'u').).",
"/.!.=.+#p.W 6+$.;.,.,.B+D+D+A+A+z+z+3.3.3.T+T+3.,.o+t t V.t n+t v n+t t C u u u t t t t @ n+V.[.R+N :.1$U'2.,.:.[.!@`+[.!@a.@.B }.).c.}.}.,.H.p+<.[.p+[.p+3.).U c+`$, <.<.[.<.n+n+t f+v V.v V.N>N>v,,+V.V.u v t <.V.f+|-g+3.A+D+/.3.3.z+D+B+B+,.{.,.~.~.c+4+A&.+V'u').).",
"!').W'I'Q.1+A&}+0+s+@.@.1$@.1$1$'.c+'.'.'.c+a.c+}.l+}.}.:.[.}.}.:.}.[.[.[.[.}.}.}.}.[.[.[.[.}.:.B + ).}+b.$.j#j#}.`+_.j#[.'.+.:.}.;.S=B }.a.3+<.[.p+[.[.U+j#'.&.s+d+y :.U+j#}.l+[.`+p+:.:.p+:.`+:.[.}.:.:.:.:.:._.5._.<.c+8=c+]-'.c+c+1$1$1$@.@.@.s+}+9+5>g.L.#+X'u';.b.",
"].).0.2%A.E'+.Y'|-|-A+A-j#n$3.z+B+A+I%3.3.3.l$:.,.8+2+W.W v+W.4+4+3+2+4+4+3+3+3+3+2+4+g.A&_&}+b+ .9+}+d+B+}.U+3./.g+z+0.2.+...:.}.;.S=}.z ;.g.V.{.,.T+m+g+m+:.>+B+@.b+8+8+9+t+L.H.3+W.w+4+4+v+W W.W.v+w+W.4+g.4+4+3+H.c+1;p+k$[$l$l$j#[$j#U+3.I%B+z+|-,.a.1$C&Y.`.u';.c.",
";.&*0.#+n.y.@+|+j.j.j.|;+#+#x++#+#+#x+8@x++#x+',x+|;j.|;/+M']+E'(+E'+#x++#x++#(+j.j.j.+#+#x++#+#E'+#x++#E'+#j./+^+]+j.j.Z'`'@.U+_.*.D@_._.q+ ).)|;j./+&,/+j.|;+#C&C&C&x++#+#E'j./+|;+#(+(++#+#+#+#E'/+]+j.|;j.|;j.E'+#C&J=+)C&+#+#j.|;+#+#+#+#@)^+^+#)*+ +%+$)y.S.Q'a.c.",
"-.>.O'C&j.|#x+d&v+4+4+g.M.M.u+u+H.H.7+7+%)u+u+u+M.u+8+H.M.g.5+H.H.H.L.7+u+H.M.g.M.M.M.&)&)H.H.H.H.u+u+H.H.8+0+{,*)u+u+y'=)-);)V+'. .K.6&*.]->),)'){,8+*)G.&)u+*)8+7+r+7+8+M.&)u+H.H.u+&)u+%)7+7+8+u+H.M.M.H.M.G.H.M.M.*)7+))!)M.~)M.M.M.A&u+u+H.g.4+g.4+1++#j.j.',{)b.$.",
"])x L;B }.o+= & * ^)/)$$F+a@$$$$, a@} k m ) > > > , j%/$> > , ^ ^ s#b } j%s#n ) Q a@a@$$$$,#k s#k s#k ( k ( k k / $$, a@m ! n / k 0$e+Z%/ l 7${ n : k A@s#s*l l P l ()A@s#$$_)j&Q a@R a@l s#s#j%/$/ k 0$0$l s#7$0$Q ) ) a@n ,&& % * & = , a@a@^)a@[+}$r !%o+@ B ^.}-. R+",
",.7.{.5.2.}.[.v,V.V.t S S f+@ S u u = @ V.S+<.v ,+- $$% @ S't @ s :)$$, ^)& :)D t t t D t @ & E F+E * * * = s % @ t u n+t t t S F+U 2.@ S S - - - % & /)F$% E b@- s * ; & = P's f+t t t = * & & % - % - F+; E * % = t t t t V.[.[.V.[.<)z v v v t u + R+R+:.2..';.C';.)."};
