/* XPM */
static char * so_door18_tex_xpm[] = {
"132 132 1444 2",
"  	c #2D3741",
". 	c #2D3641",
"+ 	c #2E3841",
"@ 	c #2D3842",
"# 	c #2E3944",
"$ 	c #2E3943",
"% 	c #2F3A45",
"& 	c #2E3842",
"* 	c #2F3B46",
"= 	c #2F3944",
"- 	c #2F3A46",
"; 	c #303C46",
"> 	c #303B46",
", 	c #303C47",
"' 	c #303A45",
") 	c #313D4A",
"! 	c #313E4A",
"~ 	c #323E4A",
"{ 	c #323F4A",
"] 	c #313D48",
"^ 	c #35393C",
"/ 	c #393939",
"( 	c #303B45",
"_ 	c #323F4B",
": 	c #313D49",
"< 	c #303C48",
"[ 	c #2E3843",
"} 	c #2E3A45",
"| 	c #2E3A44",
"1 	c #2E3942",
"2 	c #253544",
"3 	c #253646",
"4 	c #253645",
"5 	c #243544",
"6 	c #253545",
"7 	c #263746",
"8 	c #273847",
"9 	c #263645",
"0 	c #273645",
"a 	c #283847",
"b 	c #283948",
"c 	c #293A49",
"d 	c #283949",
"e 	c #273848",
"f 	c #293B4A",
"g 	c #293949",
"h 	c #293B4B",
"i 	c #293A4A",
"j 	c #2A3B4B",
"k 	c #2A3B4A",
"l 	c #2B3D4C",
"m 	c #2C3F4F",
"n 	c #2D3F4F",
"o 	c #2C3F50",
"p 	c #2D4151",
"q 	c #2C3D4C",
"r 	c #33393E",
"s 	c #2B3C4B",
"t 	c #2A3C4B",
"u 	c #293C4B",
"v 	c #2D4050",
"w 	c #283848",
"x 	c #283A49",
"y 	c #273948",
"z 	c #273947",
"A 	c #263846",
"B 	c #253746",
"C 	c #18242D",
"D 	c #18242E",
"E 	c #17242D",
"F 	c #17222D",
"G 	c #17232D",
"H 	c #192530",
"I 	c #19242F",
"J 	c #1A2630",
"K 	c #1A2732",
"L 	c #1A2631",
"M 	c #1A2833",
"N 	c #18252F",
"O 	c #1B2833",
"P 	c #1B2834",
"Q 	c #1A2733",
"R 	c #1B2934",
"S 	c #1C2934",
"T 	c #1C2A35",
"U 	c #1C2A36",
"V 	c #1D2A36",
"W 	c #1D2B38",
"X 	c #1E2D39",
"Y 	c #1F2F3C",
"Z 	c #1F2E3B",
"` 	c #1F2E3A",
" .	c #1F2C39",
"..	c #313437",
"+.	c #303337",
"@.	c #1F2C38",
"#.	c #1E2C38",
"$.	c #1C2B37",
"%.	c #1D2D3A",
"&.	c #1D2B37",
"*.	c #1C2935",
"=.	c #1B2733",
"-.	c #1B2933",
";.	c #1A2632",
">.	c #1A2731",
",.	c #192631",
"'.	c #192630",
").	c #19252F",
"!.	c #070D11",
"~.	c #070D12",
"{.	c #070C11",
"].	c #070B10",
"^.	c #070C10",
"/.	c #080D12",
"(.	c #070D13",
"_.	c #080E12",
":.	c #080E13",
"<.	c #080F14",
"[.	c #080D13",
"}.	c #080E14",
"|.	c #090E14",
"1.	c #091015",
"2.	c #09131B",
"3.	c #091C2B",
"4.	c #0F1E29",
"5.	c #131F27",
"6.	c #131E27",
"7.	c #131C24",
"8.	c #2F3031",
"9.	c #2E2F31",
"0.	c #131E26",
"a.	c #141F28",
"b.	c #121E27",
"c.	c #091C29",
"d.	c #08151F",
"e.	c #081015",
"f.	c #090F14",
"g.	c #090F15",
"h.	c #0C141A",
"i.	c #0D151B",
"j.	c #0C141B",
"k.	c #0B131A",
"l.	c #0D151C",
"m.	c #0E171E",
"n.	c #0B1218",
"o.	c #0B1319",
"p.	c #0C151B",
"q.	c #0A1117",
"r.	c #0A1116",
"s.	c #0C1319",
"t.	c #0E1821",
"u.	c #0F1E2A",
"v.	c #192733",
"w.	c #20303E",
"x.	c #223341",
"y.	c #303336",
"z.	c #2F3236",
"A.	c #21313F",
"B.	c #223340",
"C.	c #101E28",
"D.	c #0E1A23",
"E.	c #0B151B",
"F.	c #0A1218",
"G.	c #0F161E",
"H.	c #0E161D",
"I.	c #0D161C",
"J.	c #0E171D",
"K.	c #0F181F",
"L.	c #0B141A",
"M.	c #131D26",
"N.	c #121D26",
"O.	c #131D27",
"P.	c #142028",
"Q.	c #14202A",
"R.	c #142029",
"S.	c #16212B",
"T.	c #15222C",
"U.	c #15212B",
"V.	c #16222B",
"W.	c #182530",
"X.	c #192732",
"Y.	c #21313E",
"Z.	c #21323F",
"`.	c #1C2B36",
" +	c #233644",
".+	c #1E303F",
"++	c #293C4C",
"@+	c #233340",
"#+	c #313438",
"$+	c #2F3337",
"%+	c #263947",
"&+	c #283B4A",
"*+	c #192834",
"=+	c #263B4B",
"-+	c #1F2F3B",
";+	c #1D2C38",
">+	c #20313E",
",+	c #22333F",
"'+	c #1E2E3A",
")+	c #192731",
"!+	c #16222C",
"~+	c #15212C",
"{+	c #16232D",
"]+	c #15202A",
"^+	c #131F28",
"/+	c #121D25",
"(+	c #182631",
"_+	c #1A2934",
":+	c #1B2935",
"<+	c #1F303C",
"[+	c #243644",
"}+	c #273949",
"|+	c #283B4B",
"1+	c #2A3E4E",
"2+	c #2C4253",
"3+	c #243847",
"4+	c #1E2E3B",
"5+	c #283C4C",
"6+	c #2A3F4F",
"7+	c #243442",
"8+	c #313538",
"9+	c #303438",
"0+	c #283A4B",
"a+	c #293D4D",
"b+	c #273B4C",
"c+	c #2D4253",
"d+	c #2B4050",
"e+	c #2B3F4F",
"f+	c #2B4051",
"g+	c #2A3E4D",
"h+	c #263948",
"i+	c #20303D",
"j+	c #202F3B",
"k+	c #21303E",
"l+	c #20303C",
"m+	c #1B2A36",
"n+	c #1C2B38",
"o+	c #1D2C39",
"p+	c #192632",
"q+	c #1B2A35",
"r+	c #263744",
"s+	c #2C4151",
"t+	c #2C4152",
"u+	c #2A3F4E",
"v+	c #2E4354",
"w+	c #2E4455",
"x+	c #2D4353",
"y+	c #2F4456",
"z+	c #2D4354",
"A+	c #2D4454",
"B+	c #32485A",
"C+	c #324A5C",
"D+	c #32495B",
"E+	c #32495C",
"F+	c #31485B",
"G+	c #31485A",
"H+	c #2C4354",
"I+	c #1E303E",
"J+	c #1E2D3A",
"K+	c #293E4E",
"L+	c #2A3E4F",
"M+	c #2E4557",
"N+	c #263C4C",
"O+	c #2A3F50",
"P+	c #323639",
"Q+	c #303539",
"R+	c #2B4153",
"S+	c #203240",
"T+	c #2D4355",
"U+	c #293D4E",
"V+	c #2B3F51",
"W+	c #1F2F3D",
"X+	c #293D4B",
"Y+	c #344B5E",
"Z+	c #314658",
"`+	c #314859",
" @	c #2F4557",
".@	c #304658",
"+@	c #2D4252",
"@@	c #2B4151",
"#@	c #2B3F50",
"$@	c #2C4051",
"%@	c #243746",
"&@	c #223442",
"*@	c #233342",
"=@	c #233543",
"-@	c #1E2C39",
";@	c #2E4355",
">@	c #2E4353",
",@	c #2B4152",
"'@	c #304759",
")@	c #344C5F",
"!@	c #2D4457",
"~@	c #1E313F",
"{@	c #243745",
"]@	c #233443",
"^@	c #2A3D4E",
"/@	c #2E4558",
"(@	c #2E4659",
"_@	c #294052",
":@	c #293E4F",
"<@	c #2B4052",
"[@	c #273745",
"}@	c #32363A",
"|@	c #30353A",
"1@	c #293D4C",
"2@	c #2C4355",
"3@	c #213443",
"4@	c #2F4558",
"5@	c #223240",
"6@	c #374F62",
"7@	c #2E4456",
"8@	c #2F4457",
"9@	c #2D4455",
"0@	c #2B3E4F",
"a@	c #253846",
"b@	c #223441",
"c@	c #273A49",
"d@	c #253847",
"e@	c #304558",
"f@	c #2E4457",
"g@	c #2D4152",
"h@	c #30485B",
"i@	c #31495D",
"j@	c #2D4659",
"k@	c #1F3342",
"l@	c #223543",
"m@	c #223542",
"n@	c #2D4557",
"o@	c #30475A",
"p@	c #2B4254",
"q@	c #243645",
"r@	c #2C4254",
"s@	c #273846",
"t@	c #33373B",
"u@	c #30363B",
"v@	c #213343",
"w@	c #2F4659",
"x@	c #2A4052",
"y@	c #2C4153",
"z@	c #213240",
"A@	c #223645",
"B@	c #31485C",
"C@	c #30485A",
"D@	c #31495C",
"E@	c #31475A",
"F@	c #2E4658",
"G@	c #273A4A",
"H@	c #334A5C",
"I@	c #304557",
"J@	c #2D4254",
"K@	c #304659",
"L@	c #32495D",
"M@	c #324A5E",
"N@	c #1B2F3D",
"O@	c #2A3F51",
"P@	c #293E50",
"Q@	c #30373C",
"R@	c #203341",
"S@	c #32495E",
"T@	c #1A2B38",
"U@	c #30495C",
"V@	c #324A5D",
"W@	c #334B5E",
"X@	c #2F4658",
"Y@	c #374E62",
"Z@	c #253848",
"`@	c #233646",
" #	c #344A5D",
".#	c #304657",
"+#	c #314759",
"@#	c #334A5E",
"##	c #344C60",
"$#	c #324B5F",
"%#	c #334C61",
"&#	c #2E485B",
"*#	c #1D3140",
"=#	c #263A49",
"-#	c #253949",
";#	c #2D4356",
">#	c #33373C",
",#	c #30373D",
"'#	c #1F303F",
")#	c #233645",
"!#	c #1D2E3B",
"~#	c #334A5D",
"{#	c #344D61",
"]#	c #375063",
"^#	c #273B4B",
"/#	c #273A4B",
"(#	c #263A4A",
"_#	c #293C4D",
":#	c #314758",
"<#	c #334B5F",
"[#	c #334C60",
"}#	c #344D62",
"|#	c #314A5F",
"1#	c #1F3241",
"2#	c #2D4357",
"3#	c #34383D",
"4#	c #31383F",
"5#	c #1F303E",
"6#	c #1E2F3D",
"7#	c #324A5F",
"8#	c #30475B",
"9#	c #344D60",
"0#	c #354E61",
"a#	c #354D61",
"b#	c #344E62",
"c#	c #354D62",
"d#	c #385164",
"e#	c #233442",
"f#	c #283D4C",
"g#	c #283A4A",
"h#	c #283B4C",
"i#	c #344C5E",
"j#	c #324C5F",
"k#	c #2F485C",
"l#	c #1F3140",
"m#	c #1A2834",
"n#	c #2E4458",
"o#	c #34393D",
"p#	c #31393F",
"q#	c #1E303D",
"r#	c #2D4558",
"s#	c #2C4052",
"t#	c #314A5E",
"u#	c #344C61",
"v#	c #354E62",
"w#	c #354E63",
"x#	c #385165",
"y#	c #233544",
"z#	c #253948",
"A#	c #293B4C",
"B#	c #334B5D",
"C#	c #334D61",
"D#	c #2F495D",
"E#	c #203140",
"F#	c #35393D",
"G#	c #313940",
"H#	c #2A4051",
"I#	c #233746",
"J#	c #3A5368",
"K#	c #2A3D4D",
"L#	c #233341",
"M#	c #2C4252",
"N#	c #334B60",
"O#	c #2F475B",
"P#	c #253947",
"Q#	c #233545",
"R#	c #1C2B39",
"S#	c #2B4154",
"T#	c #2D4456",
"U#	c #243846",
"V#	c #395367",
"W#	c #344B60",
"X#	c #1E3140",
"Y#	c #253747",
"Z#	c #283E4F",
"`#	c #35393E",
" $	c #313A41",
".$	c #293D4F",
"+$	c #1B2C39",
"@$	c #30465A",
"#$	c #375064",
"$$	c #273B4A",
"%$	c #33495B",
"&$	c #17242E",
"*$	c #203444",
"=$	c #2F475A",
"-$	c #353A3E",
";$	c #313A42",
">$	c #182734",
",$	c #223544",
"'$	c #18242F",
")$	c #283C4B",
"!$	c #1D2D39",
"~$	c #1C2C39",
"{$	c #314C60",
"]$	c #2B475C",
"^$	c #213D51",
"/$	c #243E50",
"($	c #17242F",
"_$	c #1D2E3C",
":$	c #253B4D",
"<$	c #253E52",
"[$	c #2A465A",
"}$	c #1E2F3B",
"|$	c #1D2E39",
"1$	c #1F303D",
"2$	c #1C2C38",
"3$	c #2E4352",
"4$	c #2B3E4E",
"5$	c #30485C",
"6$	c #37546B",
"7$	c #1F4965",
"8$	c #1A74A2",
"9$	c #2A495E",
"0$	c #2A4153",
"a$	c #1A2935",
"b$	c #323B43",
"c$	c #1A2A36",
"d$	c #1C2D3A",
"e$	c #2C4659",
"f$	c #2A5B7B",
"g$	c #265F82",
"h$	c #305069",
"i$	c #365064",
"j$	c #233542",
"k$	c #22323F",
"l$	c #1F2E39",
"m$	c #1E2D38",
"n$	c #20313D",
"o$	c #20303B",
"p$	c #1D2C37",
"q$	c #355065",
"r$	c #1D4864",
"s$	c #127BB7",
"t$	c #2A4A61",
"u$	c #2C4356",
"v$	c #283E4E",
"w$	c #1B2B38",
"x$	c #2E4A5E",
"y$	c #286388",
"z$	c #246287",
"A$	c #2F4E66",
"B$	c #202F3A",
"C$	c #253745",
"D$	c #1B2A34",
"E$	c #202F3C",
"F$	c #233440",
"G$	c #1D2C36",
"H$	c #21303B",
"I$	c #21313D",
"J$	c #21333F",
"K$	c #385268",
"L$	c #1E4864",
"M$	c #137BB9",
"N$	c #2B4B61",
"O$	c #273C4C",
"P$	c #303941",
"Q$	c #2F4A5E",
"R$	c #296489",
"S$	c #236389",
"T$	c #2F4F66",
"U$	c #30485D",
"V$	c #243543",
"W$	c #233441",
"X$	c #21303D",
"Y$	c #1F2D39",
"Z$	c #243542",
"`$	c #21303C",
" %	c #1E4966",
".%	c #0F7CC1",
"+%	c #2B4A61",
"@%	c #283D4D",
"#%	c #2B404F",
"$%	c #363A3D",
"%%	c #313B43",
"&%	c #28658A",
"*%	c #23668D",
"=%	c #2F5067",
"-%	c #2E475A",
";%	c #334C5F",
">%	c #233643",
",%	c #223440",
"'%	c #263745",
")%	c #2E4253",
"!%	c #385368",
"~%	c #1F4966",
"{%	c #0E7DC4",
"]%	c #2C4B62",
"^%	c #36393D",
"/%	c #313A43",
"(%	c #2A6488",
"_%	c #22668F",
":%	c #2F5069",
"<%	c #2A3E50",
"[%	c #263848",
"}%	c #243646",
"|%	c #365267",
"1%	c #1E4765",
"2%	c #1279C2",
"3%	c #2D4A61",
"4%	c #303A44",
"5%	c #2A668B",
"6%	c #216690",
"7%	c #2F526B",
"8%	c #2C4456",
"9%	c #32485B",
"0%	c #365167",
"a%	c #1277C2",
"b%	c #2F485D",
"c%	c #2B658A",
"d%	c #206692",
"e%	c #30526B",
"f%	c #31495E",
"g%	c #293F4F",
"h%	c #293F50",
"i%	c #233745",
"j%	c #354F65",
"k%	c #1E4967",
"l%	c #107AC4",
"m%	c #2E4C63",
"n%	c #363A3E",
"o%	c #313B45",
"p%	c #293E4D",
"q%	c #1B2B36",
"r%	c #2F495E",
"s%	c #2B658C",
"t%	c #1F6693",
"u%	c #30536D",
"v%	c #2C4457",
"w%	c #344F64",
"x%	c #0F7BC7",
"y%	c #2D4C63",
"z%	c #2F3A43",
"A%	c #2C658B",
"B%	c #1F6692",
"C%	c #30526C",
"D%	c #2D4458",
"E%	c #283C4D",
"F%	c #26394A",
"G%	c #1E4763",
"H%	c #0F7AC6",
"I%	c #2C4C63",
"J%	c #2F4A5F",
"K%	c #21668F",
"L%	c #2F5169",
"M%	c #2C4255",
"N%	c #2A4050",
"O%	c #283D4E",
"P%	c #204763",
"Q%	c #0F7CC6",
"R%	c #303B44",
"S%	c #216790",
"T%	c #2A4152",
"U%	c #1F4763",
"V%	c #0E7DC5",
"W%	c #2C4D64",
"X%	c #2F3B45",
"Y%	c #2B4253",
"Z%	c #304A5F",
"`%	c #22658F",
" &	c #2F4759",
".&	c #1F4864",
"+&	c #0D7EC7",
"@&	c #2D4E65",
"#&	c #2B6386",
"$&	c #23648C",
"%&	c #1D445F",
"&&	c #127CBC",
"*&	c #2B4B62",
"=&	c #18252E",
"-&	c #36393C",
";&	c #2F3A44",
">&	c #2E4559",
",&	c #2D475B",
"'&	c #2B6081",
")&	c #266083",
"!&	c #2B4A60",
"~&	c #2A3F52",
"{&	c #1F3A4E",
"]&	c #2A5875",
"^&	c #253F53",
"/&	c #254A62",
"(&	c #224862",
"_&	c #1C3040",
":&	c #253A49",
"<&	c #2C4759",
"[&	c #244055",
"}&	c #254F69",
"|&	c #243C4E",
"1&	c #2E3A43",
"2&	c #273E50",
"3&	c #25485E",
"4&	c #254962",
"5&	c #294458",
"6&	c #304758",
"7&	c #1D4561",
"8&	c #1B73A7",
"9&	c #28485F",
"0&	c #37393C",
"a&	c #293F51",
"b&	c #294356",
"c&	c #2A5F80",
"d&	c #255F83",
"e&	c #2C4960",
"f&	c #1D4764",
"g&	c #127BBD",
"h&	c #2A4B62",
"i&	c #2C475B",
"j&	c #236289",
"k&	c #2E4D65",
"l&	c #1E4A67",
"m&	c #107CC4",
"n&	c #2A4A62",
"o&	c #293E4C",
"p&	c #2E3A46",
"q&	c #2C485D",
"r&	c #29668C",
"s&	c #216590",
"t&	c #1E4866",
"u&	c #107BC4",
"v&	c #2D3A44",
"w&	c #29668A",
"x&	c #206792",
"y&	c #2D4F68",
"z&	c #304859",
"A&	c #1E4A68",
"B&	c #107BC3",
"C&	c #2A4961",
"D&	c #37393B",
"E&	c #2D3943",
"F&	c #2B475B",
"G&	c #263949",
"H&	c #1D4966",
"I&	c #1279BD",
"J&	c #2A485F",
"K&	c #2D3A45",
"L&	c #2B4559",
"M&	c #296386",
"N&	c #236489",
"O&	c #2D4F67",
"P&	c #2B4252",
"Q&	c #1579B5",
"R&	c #29485E",
"S&	c #2B4558",
"T&	c #296082",
"U&	c #256083",
"V&	c #2A3D4C",
"W&	c #263B4C",
"X&	c #1D2F3B",
"Y&	c #1A384C",
"Z&	c #21526E",
"`&	c #253E51",
" *	c #2C3842",
".*	c #214962",
"+*	c #204962",
"@*	c #2B4457",
"#*	c #1A2A37",
"$*	c #1A3040",
"%*	c #2C3742",
"&*	c #1D303F",
"**	c #1C2E3D",
"=*	c #263845",
"-*	c #17232E",
";*	c #2C3944",
">*	c #253A48",
",*	c #38393B",
"'*	c #2D3B45",
")*	c #15212A",
"!*	c #37393A",
"~*	c #2B3944",
"{*	c #152029",
"]*	c #1F303B",
"^*	c #213442",
"/*	c #213340",
"(*	c #273C4A",
"_*	c #273A48",
":*	c #38393A",
"<*	c #2C3945",
"[*	c #20313F",
"}*	c #172B39",
"|*	c #182833",
"1*	c #2B3844",
"2*	c #172936",
"3*	c #213647",
"4*	c #253845",
"5*	c #284155",
"6*	c #1B3F56",
"7*	c #255A77",
"8*	c #1F394B",
"9*	c #273B49",
"0*	c #293F4E",
"a*	c #2A3843",
"b*	c #223746",
"c*	c #285773",
"d*	c #1B445D",
"e*	c #223E53",
"f*	c #294357",
"g*	c #1D4159",
"h*	c #1973A8",
"i*	c #24648A",
"j*	c #2B495F",
"k*	c #293642",
"l*	c #275471",
"m*	c #0F7DC0",
"n*	c #1E4964",
"o*	c #264257",
"p*	c #294153",
"q*	c #1D3F56",
"r*	c #1C6F9F",
"s*	c #1E6D9C",
"t*	c #2D536D",
"u*	c #293743",
"v*	c #304D64",
"w*	c #285E81",
"x*	c #0980C9",
"y*	c #1E4863",
"z*	c #264055",
"A*	c #273C4D",
"B*	c #1B3648",
"C*	c #1A72A5",
"D*	c #2D5570",
"E*	c #192833",
"F*	c #2A3844",
"G*	c #24638A",
"H*	c #147AB2",
"I*	c #1C3E54",
"J*	c #273C4B",
"K*	c #1A3141",
"L*	c #1D3B4F",
"M*	c #285D7C",
"N*	c #2B536D",
"O*	c #293844",
"P*	c #2F4D65",
"Q*	c #285A78",
"R*	c #1F425A",
"S*	c #1A3346",
"T*	c #253C4E",
"U*	c #1B394F",
"V*	c #275876",
"W*	c #285A77",
"X*	c #2A4C62",
"Y*	c #293845",
"Z*	c #2D4A60",
"`*	c #224D68",
" =	c #206A96",
".=	c #1C4057",
"+=	c #253F52",
"@=	c #253946",
"#=	c #263B4A",
"$=	c #1D3C53",
"%=	c #275777",
"&=	c #127DBD",
"*=	c #2C4E65",
"==	c #1971A8",
"-=	c #216692",
";=	c #1B3E56",
">=	c #263E51",
",=	c #283E51",
"'=	c #1E3D54",
")=	c #265474",
"!=	c #2D5774",
"~=	c #2B465B",
"{=	c #182630",
"]=	c #21323E",
"^=	c #383939",
"/=	c #263641",
"(=	c #2C4559",
"_=	c #2E526D",
":=	c #1474B3",
"<=	c #236189",
"[=	c #1B3D56",
"}=	c #263C4F",
"|=	c #253A4A",
"1=	c #283F50",
"2=	c #1D3C54",
"3=	c #234E6C",
"4=	c #0782D3",
"5=	c #2B5B7B",
"6=	c #2C485E",
"7=	c #15222A",
"8=	c #263440",
"9=	c #141F27",
"0=	c #2C4458",
"a=	c #2D5470",
"b=	c #0E7ABF",
"c=	c #265B7D",
"d=	c #1A3A4F",
"e=	c #243A4B",
"f=	c #1E3B50",
"g=	c #1F4C6A",
"h=	c #0382DA",
"i=	c #2A5C7E",
"j=	c #2C4A60",
"k=	c #24323F",
"l=	c #233642",
"m=	c #141E26",
"n=	c #0E7CC3",
"o=	c #275676",
"p=	c #193549",
"q=	c #25394B",
"r=	c #243948",
"s=	c #1E3241",
"t=	c #193950",
"u=	c #295F82",
"v=	c #2C4A62",
"w=	c #1E2E39",
"x=	c #1C2933",
"y=	c #151F27",
"z=	c #2B5471",
"A=	c #1A2C3A",
"B=	c #213341",
"C=	c #253A4B",
"D=	c #162936",
"E=	c #1A3447",
"F=	c #2B516C",
"G=	c #2D4B61",
"H=	c #1C2C37",
"I=	c #333537",
"J=	c #282D32",
"K=	c #284F69",
"L=	c #1E4256",
"M=	c #162733",
"N=	c #162835",
"O=	c #283C4A",
"P=	c #101C25",
"Q=	c #141D26",
"R=	c #353738",
"S=	c #252E35",
"T=	c #24394A",
"U=	c #1A2D3A",
"V=	c #172430",
"W=	c #223443",
"X=	c #203340",
"Y=	c #16242E",
"Z=	c #182732",
"`=	c #152531",
" -	c #122C3E",
".-	c #103C55",
"+-	c #383839",
"@-	c #212F3A",
"#-	c #213342",
"$-	c #2B4354",
"%-	c #17252F",
"&-	c #273D4C",
"*-	c #1C303D",
"=-	c #162C3B",
"--	c #124361",
";-	c #11688D",
">-	c #103447",
",-	c #35383A",
"'-	c #29343E",
")-	c #1A2933",
"!-	c #1B3140",
"~-	c #153143",
"{-	c #134B6C",
"]-	c #0B729B",
"^-	c #10394F",
"/-	c #35383B",
"(-	c #293640",
"_-	c #2C4558",
":-	c #273D4E",
"<-	c #213645",
"[-	c #245570",
"}-	c #27455C",
"|-	c #263C4D",
"1-	c #163449",
"2-	c #144D6E",
"3-	c #0A749E",
"4-	c #103B52",
"5-	c #283641",
"6-	c #284255",
"7-	c #263F52",
"8-	c #205371",
"9-	c #233B4D",
"0-	c #233B4C",
"a-	c #127CA8",
"b-	c #274F6C",
"c-	c #263D4F",
"d-	c #153449",
"e-	c #154D6F",
"f-	c #0774A3",
"g-	c #103B53",
"h-	c #29495F",
"i-	c #0E7BAD",
"j-	c #234358",
"k-	c #1B2B37",
"l-	c #243E4F",
"m-	c #0A84B7",
"n-	c #28516F",
"o-	c #273E51",
"p-	c #294051",
"q-	c #1B303F",
"r-	c #153247",
"s-	c #144C6E",
"t-	c #0675A5",
"u-	c #0F3A52",
"v-	c #284256",
"w-	c #283E4D",
"x-	c #2A4B61",
"y-	c #0783B8",
"z-	c #24455B",
"A-	c #0E81B0",
"B-	c #28506C",
"C-	c #153347",
"D-	c #144C6D",
"E-	c #0973A0",
"F-	c #28343F",
"G-	c #274053",
"H-	c #2A495F",
"I-	c #0C7EAC",
"J-	c #233848",
"K-	c #275E7C",
"L-	c #29475D",
"M-	c #1C3141",
"N-	c #153043",
"O-	c #144A6B",
"P-	c #0975A1",
"Q-	c #103B51",
"R-	c #284154",
"S-	c #275B77",
"T-	c #243C4F",
"U-	c #263F51",
"V-	c #1D3241",
"W-	c #152D3D",
"X-	c #144764",
"Y-	c #0D7299",
"Z-	c #11384D",
"`-	c #35373A",
" ;	c #28323C",
".;	c #283F51",
"+;	c #273F51",
"@;	c #16222D",
"#;	c #15364A",
"$;	c #124D69",
"%;	c #212F3B",
"&;	c #1B2D3A",
"*;	c #172A3A",
"=;	c #2D373F",
"-;	c #1E2C37",
";;	c #1C2D39",
">;	c #2F3439",
",;	c #333639",
"';	c #1E3749",
");	c #27526E",
"!;	c #27455B",
"~;	c #2F363C",
"{;	c #204A63",
"];	c #214A60",
"^;	c #1B2E3C",
"/;	c #263847",
"(;	c #2E4759",
"_;	c #224259",
":;	c #0880D0",
"<;	c #285C7E",
"[;	c #254259",
"};	c #33363A",
"|;	c #2E343A",
"1;	c #24526F",
"2;	c #088ACD",
"3;	c #254E68",
"4;	c #2A4254",
"5;	c #2F4C62",
"6;	c #285372",
"7;	c #008AE3",
"8;	c #275675",
"9;	c #254156",
"0;	c #2E3439",
"a;	c #283F53",
"b;	c #244E69",
"c;	c #0683D2",
"d;	c #276083",
"e;	c #2F5168",
"f;	c #295979",
"g;	c #0087E2",
"h;	c #265270",
"i;	c #253F54",
"j;	c #17252E",
"k;	c #33373A",
"l;	c #2E353B",
"m;	c #273D4F",
"n;	c #254A63",
"o;	c #0A7ECC",
"p;	c #216997",
"q;	c #294E68",
"r;	c #2B4356",
"s;	c #2B4E66",
"t;	c #266088",
"u;	c #0188DB",
"v;	c #25516E",
"w;	c #263F53",
"x;	c #34373B",
"y;	c #2F353C",
"z;	c #1479B7",
"A;	c #1B71A7",
"B;	c #284E68",
"C;	c #2D475C",
"D;	c #2B4F67",
"E;	c #236692",
"F;	c #117EBB",
"G;	c #234C66",
"H;	c #274052",
"I;	c #34373A",
"J;	c #2E353C",
"K;	c #26475D",
"L;	c #1D6F9E",
"M;	c #1577B4",
"N;	c #28506B",
"O;	c #2D485D",
"P;	c #213441",
"Q;	c #2D485B",
"R;	c #2B4F68",
"S;	c #226994",
"T;	c #256487",
"U;	c #213E51",
"V;	c #2B3F4E",
"W;	c #213A4C",
"X;	c #205571",
"Y;	c #137AB1",
"Z;	c #274F69",
"`;	c #304D63",
" >	c #2E495D",
".>	c #27465C",
"+>	c #224358",
"@>	c #224A66",
"#>	c #234258",
"$>	c #1B2B35",
"%>	c #264256",
"&>	c #1E4B64",
"*>	c #204157",
"=>	c #24465C",
"->	c #2E4C61",
";>	c #244155",
">>	c #0C7EC5",
",>	c #23648E",
"'>	c #24435A",
")>	c #16212A",
"!>	c #34383B",
"~>	c #2E363C",
"{>	c #274357",
"]>	c #235572",
"^>	c #0886C7",
"/>	c #23475E",
"(>	c #2F4B60",
"_>	c #26516F",
":>	c #0083DD",
"<>	c #265C82",
"[>	c #234157",
"}>	c #152129",
"|>	c #2D353C",
"1>	c #264054",
"2>	c #224F6C",
"3>	c #0588D4",
"4>	c #265471",
"5>	c #2F4D63",
"6>	c #0181DA",
"7>	c #255372",
"8>	c #0882CF",
"9>	c #27597A",
"0>	c #2C4C64",
"a>	c #2E516A",
"b>	c #245170",
"c>	c #1774AD",
"d>	c #1E3C51",
"e>	c #2D343B",
"f>	c #1E3546",
"g>	c #206A99",
"h>	c #294D66",
"i>	c #1D2D38",
"j>	c #2A485C",
"k>	c #203E52",
"l>	c #192A38",
"m>	c #172733",
"n>	c #1F3C4F",
"o>	c #28455A",
"p>	c #1F313E",
"q>	c #2C353B",
"r>	c #2C333B",
"s>	c #343739",
"t>	c #2C333A",
"u>	c #15222D",
"v>	c #1D2E3A",
"w>	c #182834",
"x>	c #1E2F3C",
"y>	c #353739",
"z>	c #182632",
"A>	c #162D3D",
"B>	c #17455B",
"C>	c #1D3342",
"D>	c #18384B",
"E>	c #16394E",
"F>	c #23394A",
"G>	c #163E57",
"H>	c #1A7198",
"I>	c #204054",
"J>	c #2B3239",
"K>	c #253D4F",
"L>	c #255673",
"M>	c #1F5978",
"N>	c #244257",
"O>	c #223342",
"P>	c #17425D",
"Q>	c #147AAD",
"R>	c #204359",
"S>	c #295D7D",
"T>	c #235E7F",
"U>	c #25455B",
"V>	c #184461",
"W>	c #107CB7",
"X>	c #22445B",
"Y>	c #2A3239",
"Z>	c #2A5E7F",
"`>	c #225F82",
" ,	c #18435F",
".,	c #107CB8",
"+,	c #21445B",
"@,	c #2A323A",
"#,	c #2A5F7F",
"$,	c #235F83",
"%,	c #24445B",
"&,	c #18425E",
"*,	c #0F7DBB",
"=,	c #21445C",
"-,	c #14212B",
";,	c #243F53",
">,	c #295F7F",
",,	c #236084",
"',	c #20323F",
"),	c #17415D",
"!,	c #117CB9",
"~,	c #243E52",
"{,	c #2A5F7E",
"],	c #226084",
"^,	c #25394A",
"/,	c #17405B",
"(,	c #147AB1",
"_,	c #204257",
":,	c #293138",
"<,	c #223C4E",
"[,	c #2A5E7C",
"},	c #234359",
"|,	c #173D57",
"1,	c #1677AA",
"2,	c #204155",
"3,	c #2A3139",
"4,	c #121C25",
"5,	c #2A5C79",
"6,	c #255D7D",
"7,	c #214055",
"8,	c #1D2F3D",
"9,	c #17354A",
"0,	c #21607E",
"a,	c #1D394C",
"b,	c #293139",
"c,	c #203646",
"d,	c #204F6A",
"e,	c #1E506B",
"f,	c #1A3345",
"g,	c #182D3B",
"h,	c #1F3E52",
"i,	c #1C2F3D",
"j,	c #1F3340",
"k,	c #1E384B",
"l,	c #1F394D",
"m,	c #1A2B39",
"n,	c #213241",
"o,	c #1A3F57",
"p,	c #1C6A8D",
"q,	c #1D3C4F",
"r,	c #293038",
"s,	c #21394A",
"t,	c #23536F",
"u,	c #1F5471",
"v,	c #27455A",
"w,	c #153F59",
"x,	c #1578A7",
"y,	c #1F4055",
"z,	c #283038",
"A,	c #2A5C7A",
"B,	c #225978",
"C,	c #224258",
"D,	c #263A4B",
"E,	c #16415C",
"F,	c #137AB0",
"G,	c #363739",
"H,	c #233C4E",
"I,	c #2A5E7E",
"J,	c #235A7A",
"K,	c #253849",
"L,	c #127BB1",
"M,	c #223B4D",
"N,	c #225B7C",
"O,	c #234257",
"P,	c #17425E",
"Q,	c #117CB4",
"R,	c #20445A",
"S,	c #273037",
"T,	c #2B5F7F",
"U,	c #235D7E",
"V,	c #107DB7",
"W,	c #272F37",
"X,	c #223A4C",
"Y,	c #245C7E",
"Z,	c #244359",
"`,	c #107DB9",
" '	c #20435A",
".'	c #223C4D",
"+'	c #24445A",
"@'	c #192730",
"#'	c #17405C",
"$'	c #363738",
"%'	c #272F36",
"&'	c #111C23",
"*'	c #233C4D",
"='	c #2B607F",
"-'	c #235C7F",
";'	c #163F5B",
">'	c #127AB7",
",'	c #204258",
"''	c #262E35",
")'	c #111B23",
"!'	c #235B7E",
"~'	c #224157",
"{'	c #152028",
"]'	c #1B2832",
"^'	c #18232C",
"/'	c #153E59",
"('	c #1379AF",
"_'	c #1E4156",
":'	c #121C24",
"<'	c #225C7E",
"['	c #17222B",
"}'	c #17232C",
"|'	c #19252E",
"1'	c #142129",
"2'	c #143D57",
"3'	c #1279A9",
"4'	c #1D4056",
"5'	c #242C33",
"6'	c #223A4B",
"7'	c #2B5E7B",
"8'	c #225B7D",
"9'	c #223F54",
"0'	c #162129",
"a'	c #19262F",
"b'	c #273946",
"c'	c #133A51",
"d'	c #167198",
"e'	c #1C3D51",
"f'	c #232B32",
"g'	c #21384A",
"h'	c #205978",
"i'	c #213C4F",
"j'	c #293B49",
"k'	c #142B3C",
"l'	c #184057",
"m'	c #1B2E3D",
"n'	c #17384E",
"o'	c #294050",
"p'	c #243848",
"q'	c #253C4C",
"r'	c #142430",
"s'	c #232C33",
"t'	c #172835",
"u'	c #1F3749",
"v'	c #182F3E",
"w'	c #263D4E",
"x'	c #263D4D",
"y'	c #233846",
"z'	c #111F2A",
"A'	c #0F1A23",
"B'	c #242C34",
"C'	c #1B2A37",
"D'	c #131F29",
"E'	c #15232D",
"F'	c #12202A",
"G'	c #111C25",
"H'	c #373738",
"I'	c #232B34",
"J'	c #14212A",
"K'	c #111D25",
"L'	c #232B33",
"M'	c #22313F",
"N'	c #202F3D",
"O'	c #222B33",
"P'	c #373838",
"Q'	c #16232E",
"R'	c #233240",
"S'	c #222A32",
"T'	c #1F2E3C",
"U'	c #202A32",
"V'	c #21303F",
"W'	c #23333F",
"X'	c #202931",
"Y'	c #1F272E",
"Z'	c #111B24",
"`'	c #17222C",
" )	c #202E3B",
".)	c #111C24",
"+)	c #0F1920",
"@)	c #101920",
"#)	c #0F1820",
"$)	c #101A20",
"%)	c #0E181F",
"&)	c #0E161C",
"*)	c #0F171F",
"=)	c #0F1921",
"-)	c #111E28",
";)	c #1E262D",
">)	c #121F28",
",)	c #111C26",
"')	c #0D161E",
"))	c #101A21",
"!)	c #101B23",
"~)	c #101B22",
"{)	c #141F29",
"])	c #131E28",
"^)	c #132029",
"/)	c #13222D",
"()	c #132939",
"_)	c #162530",
":)	c #1B2229",
"<)	c #142938",
"[)	c #132431",
"})	c #14222C",
"|)	c #13212A",
"1)	c #132028",
"2)	c #121D27",
"3)	c #283A48",
"4)	c #25323D",
"5)	c #2B3E4D",
"6)	c #273746",
"7)	c #253440",
"8)	c #24333F",
"9)	c #23313D",
"0)	c #23313C",
"a)	c #22303C",
"b)	c #23303C",
"c)	c #23313E",
"d)	c #243440",
"e)	c #283845",
"f)	c #253441",
"g)	c #24313F",
"h)	c #263442",
"i)	c #283744",
"j)	c #273643",
"k)	c #263542",
"l)	c #253542",
"m)	c #263643",
"n)	c #263543",
"o)	c #24313E",
"p)	c #23323E",
"q)	c #24343F",
"r)	c #25343F",
"s)	c #242F38",
"t)	c #273543",
"u)	c #253541",
"v)	c #243441",
"w)	c #253442",
"x)	c #25333F",
"y)	c #222F3B",
"  .   +   @ # $ # % & + $ % % % * % = = = - - ; % > , ; * * % % - * % * > , ' , , , ) ! ~ ~ { ] ^ / / / / / / / / / / / / / / / / / / / / / / / / / / / / / / / / / / / ^ ( , , ~ ~ ~ _ ~ ! : > , , < , > % % [ % , % % % % - % % % } * % % % % % | $ $ @ 1 $ | & & $ + ",
"2 2 3 4 2 5 6 4 7 8 7 9 0 a b b c d b a a d d d 7 e f f d d b d g h i c i j k j k l m n m o p q r / / / / / / / / / / / / / / / / / / / / / / / / / / / / / / / / / / / r s t u o p v n l l f c k t k d b b e 8 d t i g d b c w w d g f d w x x y z A B 4 4 4 B 9 7 7 4 ",
"C C D D E F F G H H I I I H H J K K L L L K M K N H O P K K Q M O P O R S T U V U W X Y Z ` `  .../ / / / / / / / / / / / / / / / / / / / / / / / / / / / / / / / / / / +.@.#.$.%.X #.#.&.U *.O T V T =.=.O O O -.R O K K L ;.L =.K O O =.>.M M ,.'.H H I N D N ).H ).D ",
"!.!.~.!.{.].^.{././.~./././.(._.:.:./.:.:.:.:.<.(.[.}.<.}.}.}.<.<.}.:.:.:.}.}.|.<.1.2.3.4.5.6.7.8./ / / / / / / / / / / / / / / / / / / / / / / / / / / / / / / / / / / 9.0.a.b.c.d.e.f.f.f.|.}.|.f.f.}.<.<.<.<.f.g.}.:.}./.[.:.}.}.|.|.}.:.}.}.:.:.:.:.:.[.~.~.:.:.[.~.",
"h.h.h.h.h.h.i.j.k.h.j.h.h.l.m.j.n.n.o.k.h.o.h.i.h.o.h.l.i.p.h.j.h.o.q.r.f.g.r.s.h.h.t.u.v.w.x. .y./ / / / / / / / / / / / / / / / / / / / / / / / / / / / / / / / / / / z.A.B.X C.D.E.F.o.o.n.r.r.F.h.l.m.G.H.p.l.H.m.j.h.j.h.j.I.H.l.j.j.j.i.J.K.K.m.H.i.p.h.j.j.h.k.L.",
"M.M.N.M.0.0.0.6.O.O.O.a.a.P.Q.R.R.R.S.T.T.T.U.U.R.R.V.G G D W.,.X.W.H T &.` Y.Z.` `. +.+$.y ++@+#+/ / / / / / / / / / / / / / / / / / / / / / / / / / / / / / / / / / / $+%+&+ +*+=+-+;+>+,+'+X ` X.M R R O P M )+M F S.!+S.U.~+T.G {+V.]+R.P.R.R.R.5.^+a.^+a.P.O.N./+b.",
"R R M Q O R O ,.N N N (+,.M _+:+U U $.U `.U :+:+M M U X X X ` <+-+'+` [+y }+|+++1+++2+3+4+5+6+7+8+/ / / / / / / / / / / / / / / / / / / / / / / / / / / / / / / / / / / 9+0+a+b+%.c+d+e+f+g+|+h+&+i+j+i+Z.k+l+` X ` `.m+$.$.n+;+;+o+n+`.:+P M v.p+v.(+,.p+$.n+$._+M _+:+",
";+U P M P q+r+|+g+s+g+t+u+1+d+v+w+x+y+z+A+z+t+x+t+x+B+C+D+E+F+G+H+I+J+T }+K+L+a+t+w+M+N+B.K+O+r+P+/ / / / / / / / / / / / / / / / / / / / / / / / / / / / / / / / / / / Q+|+L+R+S+z+x+v+T+U+V+a+` Z W+X+G+Y+D+Z+`+ @w+x+y+.@y+ @v+w++@@@d+f+t+#@e++@+@$@1+g+-+U $.:+:+_+",
"%@[+&@*@=@&@-@c g+g+|+1+a+6+t+z+z+t+;@z+>@2+t+,@t+t+T+'@'@'@F+)@!@~@{@]@++6+^@++6+/@(@_@[+:@<@[@}@/ / / / / / / / / / / / / / / / / / / / / / / / / / / / / / / / / / / |@1@<@2@3@(@M+4@2+1+2+t+5@%+S+++6@F+.@4@7@8@w+9@ @'@.@M+7@z+t+d+#@#@V+6+0@t++@f+u l+=@a@{@b@w.S+",
"}+c@d@h+y d@w.T $@#@6+f+f+f+t+e@4@y+ @'@ @4@f@T+z+g@ @G+E+h@h@i@j@k@l@m@5+L+L+K+:@n@o@p@q@O+r@s@t@/ / / / / / / / / / / / / / / / / / / / / / / / / / / / / / / / / / / u@^@2+r@v@w@o@(@x@++y@<@z@d@A@5+B@w@C@D@.@.@ @7@'@E@'@F+'@F@7@2+r@2+t+,@<@z+z+.@l+>+}+++G@%@x.&@",
"G@|+G@}+|+G@[+Y H@I@6+t+t+f+J@.@E@F+K@L@o@F+o@F@F@4@o@E+M@i@B@M@j@N@R.m@b+,@<@O@P@T+B@2@q@<@7@z t@/ / / / / / / / / / / / / / / / / / / / / / / / / / / / / / / / / / / Q@V+J@<@R@o@S@K@O@K+M+V+A.o+T@b+U@/@F+M@F+V@F+.@E+F+E@W@M@i@F+.@X@ @8@2+<@T+y+Y@i+q@5+6+++Z@%@`@",
"G@5+++5+5+G@B A. #.#t+w+J@t+9@ @+#@###@#L@M@i@F+F+F+F+V@@#@#$#%#&#*#(+=#-#<@r@<@<@;#o@p@a@2+T+z >#/ / / / / / / / / / / / / / / / / / / / / / / / / / / / / / / / / / / ,#<@T+<@'#o@B@ @2+2+K@O+)#S+!#:@M@'@i@S@M@W@W@~#@#F+F+{#{###@#M@V@F+E@ @2+w+ @]#Z.%@++1+^#/#(#=#",
"|+|+5+++_#|+d@5@Y+:#z+T+ @ @.@F+F+W@{#@#L@M@<#M@M@L@i@S@@#<#[#}#|#1#*+G@}+<@/@4@r@T+h@2@h+2#T+x 3#/ / / / / / / / / / / / / / / / / / / / / / / / / / / / / / / / / / / 4#<@f@2+5#(@/@M+r@T+E@t+%@z@6#6+<#7#8#i@<#9#{#0#a#i@F+@#b#c#a#####W@E+4@J@T+.@d#e#B f#f#G@|+G@G@",
"g#G@G@5+1+L+h#*@i#G+z+ @E@F+@#)@W@W@@#M@4@F+M@{#$#L@M@$#<#[#<#j#k#l#m#c@B V+/@w@/@F@o@R+B n#f@u o#/ / / / / / / / / / / / / / / / / / / / / / / / / / / / / / / / / / / p#2+f@<@q#r#!@2@!@w@o@s#3+&@I+K+$#@#h@t#b#u###v#w#[#i@$#<#b#c#c#{#{#@# @J@w+.@x#y#y ++5+5+z#d@z#",
"++A#}+0+#@f+a+=@B#`+J@z+X@'@V@@#Y+@#@#C@f@!@w@@#M@B@@#<#L@7#[#C#D#E#m#z#%@U+;#K@f@/@/@x@q@!@/@u F#/ / / / / / / / / / / / / / / / / / / / / / / / / / / / / / / / / / / G#z+F@H#%.2@2@R+/@B@'@f+I#&@I+6+{#u#i@i@[###v###c#)@B@B@F+W@<#<#[#b#W@/@r@J@'@J#4 |+1+6+1+a+G@G@",
"6+K#++++6+6+5+L#D++#M#<@2+r@/@E+V@V@W@'@7@/@o@M@E+L@$#<#M@$#N#}#O#l#q+P#Q#U+y@4@h@/@!@:@q@M+;#h o#/ / / / / / / / / / / / / / / / / / / / / / / / / / / / / / / / / / / 4#7@ @O+R#S#2@T#o@o@f@O+U#l@S+L+b#b#%#[#<#[###F+W@@#o@E+o@F+V@M@L@i@L@w@J@r@'@V#%@++t+c+#@6+1+f#",
"#@6+6+a+^#|+}+*@`+4@t+O+,@,@O+T#F+D+E+F+4@/@'@E+'@B@L@M@W#u#%#[#8#X#m+Y#B x@y@o@i@F+F@Z#=@r@T+t `#/ / / / / / / / / / / / / / / / / / / / / / / / / / / / / / / / / / /  $T+T#.$+$r#!@/@o@F@X@<@`@]@5#U+<#c#{###$#$#M@F+##)@E@o@C@w@D@F+o@@$F+B@;#J@/@#$q@++f+s#t+O+#@++",
"#@6+#@a+^#$$%+e#%$`+O+U+a+o+!+&$,.,.H N G G D N N ,.R a@B@[#M@<#D#*$y#5+d@<@!@=$C@M@h@H#&$B ,@t -$/ / / / / / / / / / / / / / / / / / / / / / / / / / / / / / / / / / / ;$y@O+M >$o@w@w@f@T+M+<@z#G@,$#@N#{#{#$#f+o+M v.M M N &$&$'$,.,.(+W.q+T+T+a+J@##y#)$O+M#<@6+1+1@",
"#@0@#@L+++$$}+q@A i+m+m+m+m+'+` !$$.!$-@!$~$o+` 4+Z [+Z .@W@$#$#{$]$^$/$b+/@w@o@o@B@h@x@($N ,@K#-$/ / / / / / / / / / / / / / / / / / / / / / / / / / / / / / / / / / /  $2+q@&$_$U@o@w@;#s#T+r@:$<$[$M@@#@#<#[#i+B.A.~$}$-+!$!$|$%.~$'+>+1$%.A.Z 2$l+h+%@1+<@2+t+O+f+#@",
"d+g+g+6+++5+}+d@:#1@G@{@Z.1$j+3$q@A.l+A.A.'+x.k+w.a@4$h  @F+M@5$<#6$7$8$9$!@w@K@h@K@/@0$a$q+,@g+-$/ / / / / / / / / / / / / / / / / / / / / / / / / / / / / / / / / / / b$f+5+c$d$h@F@!@;#2+;#e$f$g$h$i$##i@B@W@j$v+%+Z >+A.k+e#Z Y Z.q@$@,+>+%@B |+e+`+++K+,@r@M#f+t+f+",
"#@#@6+O+++5+(#&@.#++/#d@L#B.k$l$&@4 m$n$-.o$p$K k$X a+G@ @8#8#=$$#q$r$s$t$u$!@/@;#;#2@v$c$q+O+4$F#/ / / / / / / / / / / / / / / / / / / / / / / / / / / / / / / / / / / ;$O+K+2$w$X@!@2@r@2@/@x$y$z$A$$#o@F@5$W@%@M#-+k$'.j+l$-.B$K &@%@j$Z.e#C$}+A#e+ @c@1+V+r@t+t+t+t+",
"<@V+#@f+U+5+=#&@`+6+)$q@D$j$B.E$` C$X m$F$G$H$I$S J$O+d@7@o@8#(@U@K$L$M$N$;#7@r@<@T+<@O$a$M f+d+F#/ / / / / / / / / / / / / / / / / / / / / / / / / / / / / / / / / / / P$<@1+2$_+F@r#;#r@u$F@Q$R$S$T$U$(@(@h@[#q@t+ +D$j+X B$,+-.k$B.e#k$a@a@j+V$++1+.@y a+H#2+,@t+2+t+",
"O+O+<@f+t+O+5+ +Y+t+5+/#C$j+j$W$X$>+e#k+Y$Z$j+`$Z$;+f#G@9@h@5$(@h@K$ %.%+%2@T+y@y@r@r@@%a$X.@@#%$%/ / / / / / / / / / / / / / / / / / / / / / / / / / / / / / / / / / / %%<@1+~$R /@F@/@r#/@/@D#&%*%=%|#-%(@U@;%%@2+'+>%!$i+r+l$,%Y.%@A.y |+,%j$a+++M#`+}+K+f+<@<@<@t+M#",
"a+a+6+<@<@,@a+%@B#t+5+5+f#C$` q@'%k$q@h#t+)%v+.@x+a+,@5+9@h@5$=$5$!%~%{%]%;#!@2@R+r@J@5+a$'.d+4$^%/ / / / / / / / / / / / / / / / / / / / / / / / / / / / / / / / / / / /%f+a+n+M n@F@/@T#F@w@Q$(%_%:%|#=$=$h@M@B 9@6+,@H#t+c+e+6+h#L#|+5+V$[+6+a+a+z+G+}+5+O+<@<@<@<@<@",
"f+L+1+<%:@V+K+%@C+c+U+a+a+O+a@G@g#[%}%<%r@r@r@M+!@R+R+=#w+i@i@8#k#|%1%2%3%/@w@;#2@2@,@5+a$N #@e+^%/ / / / / / / / / / / / / / / / / / / / / / / / / / / / / / / / / / / 4%<@a+$.M n@(@(@!@/@o@D#5%6%7%|#h@=$k#V@&@,@T+8%2@z+T#J@<@O+%@a+V+|+<@O@O+V+2@9%d@G@U+L+O+H#f+f+",
"H#L+a+a+:@:@a+d@G+z+6+O+O+t+,@f#5+G@Y#O+r@T+J@y@u$R+,@Z@7@o@B@@$5$0% %a%3%K@'@F@T#,@,@5+_+&$1+0@^%/ / / / / / / / / / / / / / / / / / / / / / / / / / / / / / / / / / / 4%t+a+$.M n@!@!@2@!@U@b%c%d%e%$#f%=$w@D@%@2@;#!@2@T#T#f@,@O+B 6+H#<@2+<@.$,@f@E@}+@%:@O+O+g%H#O+",
"H#.$@%K+K+@%@%^#|+t+<@R+r@T+!@,@V+K+G@<@T+r#X@!@2@h%h%i%t+f@4@X@h@j%k%l%m%C@F+4@/@;#8%f#:+W.1+1+n%/ / / / / / / / / / / / / / / / / / / / / / / / / / / / / / / / / / / o%H+p%q%O n@;#!@!@o@8#r%s%t%u%$#t#=$=$i@%@2@F@F@/@/@;#;#,@<@d@<@<@<@2+r@H#<@T+6+=#U+O+O+:@:@:@H#",
"@%:@O+,@H#O$b+/#b@,@O+<@r@2@2@;#M+O+Z@,@r@8%r#v%u$x@O@`@t+;#2#K@h@w%k%x%y%w@B@F+w@F@;#U+m+N 1+g+^%/ / / / / / / / / / / / / / / / / / / / / / / / / / / / / / / / / / / z%,@f#m+-.n@/@/@w@=$=$Q$A%B%C%$#U$D%=$V@)#2@F@(@F@n@;#r@2+<@h+,@t+r@T+T+<@2+w+=@=+:@E%L+U+:@O+O+",
"a+.$O@L+,@@%(#b+d@2+O+<%,@r@r@!@/@O@F%<@r@r@u$2@u$x@x@y#O+T+2#n#o@b#G%H%I%(@o@o@'@n@r@a+:+D 6+1+^%/ / / / / / / / / / / / / / / / / / / / / / / / / / / / / / / / / / / z%<@|+:+M p@8%8%F@=$k#J%A%K%L%t#(@!@(@V@Q#M%=$=$/@2@2@2+<@O+}+2+r@2@T+2+H#<@7@z#E%U+@%.$U+:@L+:@",
":@<%.$P@N%@%(#O%b+2+O+O+,@r@/@4@'@H#(#O@r@2@u$R+R+h%x@`@1+y@T+T+w@{#P%Q%I%F@'@E@4@T#2@a+:+&$6+6+$%/ / / / / / / / / / / / / / / / / / / / / / / / / / / / / / / / / / / R%H#^#_+)+2+R+R+/@o@5$r%A%S%L%t#D%(@w@V@%@;#8#=$F@2@p@,@x@P@g#V+<@2@T+,@O+O+7@(#@%@%U+O%O%:@O@O@",
"U+U+U+<%:@f#-#O%b+t+f+H#r@r@T#F@w@,@(#H#r@p@p@p@T%h%h%%@V+r@R+R+w@{#U%V%W%@$E@'@M+!@2@1@:+N 6+6+$%/ / / / / / / / / / / / / / / / / / / / / / / / / / / / / / / / / / / X%<@&+_+'.Y%,@<@!@(@h@Z%c%`%=%i@!@F@=$M@a@T#w@ &=$D%p@R+x@O@Y#:@R+2+;#,@O@,@T+Z@5+U+H#P@K+:@K+U+",
":@U+U+:@K+K+b+:@@%x+f+H#2+2@T+M+/@,@-#h%H#h%R+r@R+x@x@`@<@r@O@,@4@[#.&+&@&w@.@4@T#2@Y%f#:+N #@6+^%/ / / / / / / / / / / / / / / / / / / / / / / / / / / / / / / / / / / % f+|+_+,.,@,@x@;#F@o@x$#&$&T$5$r#F@o@W@%@T#o@C@F@!@R+x@H#O@z#O+R+R+!@,@P@x@A+=#@%f#O+:@O@H#@%@%",
"U+:@:@:@:@P@U+@%b+t+O+H#<@2+T#/@/@,@-#U+x@Y%H+r@R+T%:@)#O+2+,@n@K@(@%&&&*&D%/@f@T+T+R+^#:+=&O+g+-&/ / / / / / / / / / / / / / / / / / / / / / / / / / / / / / / / / / / ;&O+}+q+M 2@x@O@T+/@>&,&'&)&!&o@w@/@h@W@q@;#4@w@w@T#p@T%O+P@B <%x@,@T+x@:@P@z+^#@%@%:@O$:@O+:@K+",
":@P@:@O+U+:@b+5+5+@@O%K+<@2@/@M+M+<@-#O+<@H+r@S#x@~&:@y#K+r@R+T#(@~@{&]&^&p@T#f@T+H+x@5+:+D 6+g+-&/ / / / / / / / / / / / / / / / / / / / / / / / / / / / / / / / / / / $ 6+}+m+)+H+,@,@2@2@H+0$/&(&_&H#w@n@w@E+{@T#/@/@F@!@Y%Y%x@H#q@U+O+<@2@<@@%O+M#G@:@5+(#(#=+U+O+O+",
"5+U+O+H#U+:@b+U+a+x+H#:@H#/@M+n@n@x@:&Y%2+r@!@2@x@O@:@,$K+r@,@2@h@<&[&}&|&<@2+z+2+r@,@c@M G 6+p%-&/ / / / / / / / / / / / / / / / / / / / / / / / / / / / / / / / / / / 1&N%h+:+N H+H+r@z+2+x@2&3&4&5&(@F@2@(@F+%@T#/@r@!@p@H+H+H+O+[+K+<%O@2+V+U+H#@@=+U+5+=+(#^#a+K+K+",
"U+O+H#O+K+H#:@@%a++@O+5+O+T+T#T#!@O+-#2@2@p@n@p@x@P@:@y#L+Y%x@r@6&t#7&8&9&T+w+r@,@,@,@a@M D K+1@0&/ / / / / / / / / / / / / / / / / / / / / / / / / / / / / / / / / / / | 6+%+_+H M+!@T#T#2@a&b&c&d&e&C@/@2@/@E+]@2@!@H#T%8%r@x@Y%O+q@<@,@O+,@O+O@L+d+(#@%O$E%@%@%f#@%f#",
"H#H#O+g%K+H#h%@%5+d+:@5+N%H+;#!@2@g%:&R+!@!@r#2@,@x@h%I#K+,@,@2+/@[#f&g&h&r#/@T+f+<@V+B M G 1+++0&/ / / / / / / / / / / / / / / / / / / / / / / / / / / / / / / / / / / } O+%+_+H w+T#,@2@T#Y%i&R$j&k&w@F@T#M+F+y#r@2@h%h%,@p@x@x@H#%@f+r@H#x@O+,@H#t+=+v$O$a+O+:@@%5+5+",
":@U+=+@%U+6+h%@%b+e+6+b+x@2@2@9@2@a+z#H#H+H+8%D%2@,@:@y#K+<@,@2+M+b#l&m&n&v% @7@t+,@L+%@v.F 1+o&0&/ / / / / / / / / / / / / / / / / / / / / / / / / / / / / / / / / / / p&K+%+M N z+,@H#2+9@2@q&r&s&L%-%w@/@/@ &e#,@Y%x@h%R+r@R+R+:@y#O+<@<@x@:@O@,@,@G@@%O$f#6+6+L+U+a+",
"b+@%-#(#f#f#@%@%G@g+p%5+H#2@T+T#2+5+U#@%O+H#x@,@x@O@U+,$6+,@x@R+n@i@t&u&t$2@!@r@r@<@O+%@p+!+p%1@0&/ / / / / / / / / / / / / / / / / / / / / / / / / / / / / / / / / / / v&a+h+M N 2+H#h%,@H+2@]$w&x&y&-%X@T+M+z&=@x@2+Y%,@R+,@x@H#@%]@f+M#H#:@:@:@,@@@z#5+f#5+1@K+a+6+1+",
".$:@(#=+5+b+f#5+G@g+6+K+K+,@<@Y%H#=+I#@%U+P@h%h%a&U+v$`@5+:@O+,@2@5$A&B&C&,@r@<@H#<@H#d@v.!+K+|+D&/ / / / / / / / / / / / / / / / / / / / / / / / / / / / / / / / / / / E&a+h+M N 2+O+:@<@r@r@F&w&K%y&O#C@H+!@'@)#h%<@x@T%2+O@:@h%@%]@,@,@V+H#U+@%t+$@G&b+f#@%U+5+5+a+1@",
"<@x@U+U+U+O$5+^#G@1+#@O+U+K+U+H#6+z#Q#@%@%5+v$O%P@,@a&`@P#O$H#H#,@k#H&I&J&H#,@<@<@x@,@h+M {+p%G@D&/ / / / / / / / / / / / / / / / / / / / / / / / / / / / / / / / / / / K&6+y M E 9@x@:@H#,@r@L&M&N&O&-%F@2@r@4@)#H#,@x@H#P&O+h%:@N+&@V+,@O+:@a+U+f+u+a@b+O%O+K+G@5+f#5+",
"<@V+H#:@6+f#5+b+(#1+6+K+K+K+O+2+d+z#)#O$=+(#=+b+O+Y%v$R@c@:@x@H#,@F+r$Q&R&h%x@,@,@,@,@z#M F 1@y D&/ / / / / / / / / / / / / / / / / / / / / / / / / / / / / / / / / / / v&6+y _+&$2@,@U+:@H#,@S&T&U&W%(@T#8%M+6&m@N%r@<@@%H#:@6+:@O$e#f+<@K+K+@%a+a+d+=#a+L+f+6+h#/#|+5+",
":@H#O+U+a+@%b+O$=#V&p%f#f#K+L+,@f+=#l@O$@%5+b+b+<@,@W&X&5+V+,@P@2+.@Y&Z&`&6+f+O+H#x@x@Z@v.F 1@&+D&/ / / / / / / / / / / / / / / / / / / / / / / / / / / / / / / / / / /  *K+}+M E H+x@U+L+<@P&_@.*+*@*/@r@r@M+X@A.6+2+<@O$:@O+g%a+=+=@#@O+5+U+@%5+a+@@h+h#5+O+a+^#G@=+5+",
"b+K+K+a+U+a+^#O$z#1@1@5+@%a+6+N%:@z#)#f#U+U+=+E%H#:@l@P#f+t+<@<@M#M##*$*d@:@O+x@H#,@O+d@Q G p%h D&/ / / / / / / / / / / / / / / / / / / / / / / / / / / / / / / / / / / %*6+c@v.E 2@H+x@V+,@2+a+&***6+/@n@x@,@z+d+b@1+H#b+W&:@:@:@:@q@6+O+U+a+U+5+a+g+%@G@5+1+5+^#f#}+G@",
"=+5+O+:@:@@%b+b+Z@o&1+5+5+K+K+:@:@=#)#:@:@N%U#%@U+)#=@1+c+t+f+H#d+i+G _+=*N%<@,@R+Y%<@}+Q -*#@h D&/ / / / / / / / / / / / / / / / / / / / / / / / / / / / / / / / / / / ;*#@a@M N 2@Y%R+2+T+T+6+`.X.`.M#T+O@R+T+w+++e#a+z#b@5+U+O+:@[+K+K+K+K+f#b+a+a+d@/#5+f#G@b+b+G@z#",
"b+^#U+N%N%@%@%5+z#1@5+$$5+f#U+6+:@(#)#v$O+5+|$P#=@j$^#,@2+z+M#@%b@R.,.X @@Y%<@R+H+H+,@>*M E 6+|+,*/ / / / / / / / / / / / / / / / / / / / / / / / / / / / / / / / / / / '*6+B M =&2+Y%2+2@!@M+7@[+D$R.X ,@,@Y%2+9@z+c@J$5+l+{@K+a+5+V$1@@%@%a+@%b+@%6+d@G@U+f#Z@(#-#3+U#",
"=+=+K+g%O+U+5+^#%@^#=#z#:&(#@%a+U+z#l@@%^#-+a@i%&@f#:@H#z+M#6+=@)*p+m$f#O+H#,@H#,@<@H#%@M D 5+&+!*/ / / / / / / / / / / / / / / / / / / / / / / / / / / / / / / / / / / ~*L+q@X.=&,@x@2@;#2@r@M+z+x.D${*Y$O+f+,@t+z+H#%+x.c@]* +G@=+e#a+K+O%5+O$f#5+a+%@G@f#a+=#z#Z@I#%@",
"G@=+U+6+a+5+=+G@d@c@z#%@U#/#@%@%a+=#^*z#'+(#d@/*O+H#:@H#2+,@C$U.N X (*U+5+U+<@v$h%O+a+%@M C 5+_*:*/ / / / / / / / / / / / / / / / / / / / / / / / / / / / / / / / / / / <*1+]@p+=&@@h%R+R+r@2@,@f+@@Z.M R.-+1+z+M#H+,@K+{@B.c@X b@-#&@a+f#b+=+W&=+G@a+%@=#G@f#5+(#z#I#%@",
"^#5+:@K+f#b+=+(#d@c@z#=#(#5+5+5+:@>*&@!$%@U#[*b+,@H#O+H#2+2&}*|*!$p%@%U+:@:@f+6+N%@%h+M ,.'.g+%+:*/ / / / / / / / / / / / / / / / / / / / / / / / / / / / / / / / / / / 1*1+j$X.&$B.^#T%x@x@H+<@H#6+,@Y.:+2*3*r@,@2+g%V+K+&@Z.4*D$z#e#G@=+O$=+^#=#=#f#)#Z@h+O$b+O$=+Z@d@",
"5+5+a+a+@%b+^#G@3+c@=#5+5+G@=+O$@%h+b@P#%@>+=#f#H#U+t+J@5*6*7*8*1+d+5+@%x@x@,@,@f+G@'.&$R 9*0*%+:*/ / / / / / / / / / / / / / / / / / / / / / / / / / / / / / / / / / / a*p%t+!$W.a.b@g%R+R+8%r@,@f#@@z+b*c*d*e*;#z+K+H#f+:@m@b@4*G@W$z#=+O$5+5+/#h+5+l@%@%@(#(#5+b+z#3+",
"^#^#b+5+=+=#(#=#%@$$(#W&5+=#G@G@O$=#%+4*|$^#U+@%a+U+,@f*g*h*i*j*f+#@K+h%H#T%<@<@1@M !+q+%+6+a+%+:*/ / / / / / / / / / / / / / / / / / / / / / / / / / / / / / / / / / / k*p%,@O+~$&$)*q@,@O@R+T#H+H##@>@D#l*m*n*o*r@6+g%:@h%N%>+B.++b@=#b+=+W&=+=+G@)$&@%@`@-#-#W&(#z#3+",
"b+G@=#=+-#3+3+z#`@h+=#^#=#d@G@^#=#A.Z.-+z#.$5+b+@%O+p*q*r*s*t*v%t+,@O+U+g%O+H#p%-.Q.M a@f+f+a+%+:*/ / / / / / / / / / / / / / / / / / / / / / / / / / / / / / / / / / / u*U+f+x@P&o+{+V.P#O+,@Y%x@H+<@,@/@v*w*x*y*z*L+6+U+5+N%f#q#,%>+%@=+(#5+5+Z@(#G@&@)#)#U#d@(#-#%@%@",
"G@(#G@(#(#3+%@z#Q#|+c@^#=#(#$$c@b@A H#v$a+b+5+5+O%A*B*S%C*D*j@2+<@T%x@O+h%:@@%q+P.E*=@#@H#H#@%%+:*/ / / / / / / / / / / / / / / / / / / / / / / / / / / / / / / / / / / F*L+<@:@<@6+~${+!+%@H#,@H#T%Y%Y%2+/@A$G*H*I*-#U+f#5+U+@%f#T%(*Z.d@(#h#b+z#(#J*y#B d@3+Z@Z@-#%@%@",
"z#P#=#=+b+-#%@d@y#$$J*5+=+O$=#&@C$4*f#K+5+=#@%@%N+K*L*M*N*e$9@M#,@x@x@v$v$a+$.P.,.=@O+:@U+O+a+%+:*/ / / / / / / / / / / / / / / / / / / / / / / / / / / / / / / / / / / O*O+,@H#x@H#p%$.!+G |+6+h%a&H+2@H+2+r#P*Q*R*S*T*:@a+a+5+@%a+U#J$[*%@^#G@z#P#5+)#z#G@(#d@d@3+d@%@",
"z#U#3+Z@(#-#3+d@=@y )$G@^#(#=@z#P#^#5+5+b+b+@%2&U*V*W*X*e$H#<@<@x@x@O+K+K+!$R.(+B.N%K+g%O+h%a+%+:*/ / / / / / / / / / / / / / / / / / / / / / / / / / / / / / / / / / / Y*<@2+,@x@O+f+1@`.S.N $$K+K+H#;#2@,@O@2@Z*`* =.=+=O+6+b+5+5+5+{@%@Z d@G@G@(#|+y#z#G@G@z#Z@%@`@%@",
"Z@z#-#d@z#=+z#z#Q#$$G@(#G@&@@=%@#=O$b+5+@%b+2&$=%=&=N*S&x@h%<@T%H#,@O+6+l+)*X.Z.O+O@K+N%x@H#U+a@:*/ / / / / / / / / / / / / / / / / / / / / / / / / / / / / / / / / / / O*f+M#Y%R+H#O+@@c@_+V.'.)$K+@%H#Y%x@h%x@2@*===-=;=>=:@f#O$c@=#G@=@[+Y.=#(#(#1@]@G&z#G@=#d@y#y#%@",
":&(#(#z#(#^#:&=#y#5+:&(#:&y#@%I#(#O$^#a+O+,='=)=+&!=~=H#@%h%O@x@H#,@0*J$U.{=]=f+a+:@O+h%H#H#:@C$^=/ / / / / / / / / / / / / / / / / / / / / / / / / / / / / / / / / / / /=<@2+,@2@<@:@:@P&y M R.M f#g%v$x@x@O+:@P@(=_=:=<=[=}=h#@%G@G@G@{@a+&@}+3+(#p%=@%@d@z#G@d@)#I#I#",
"z#(#Z@z#G@/#G&d@6+K+^#=+=#|=O$&@(#^#5+@%1=2=3=4=5=6=P@K+f#h%O@:@H#x@B.7=N -+@@K+O$:@H#x@<@<@:@=@^=/ / / / / / / / / / / / / / / / / / / / / / / / / / / / / / / / / / / 8=6+P&,@r@x@H#v$a+M#P#,.9=R f#v$v$O+<@h%O+:@0=a=b=c=d=e=b+(#G@G@y#a+{@z#%@z#f#g+,$%@%@z#3+Y#%@3+",
"d@Z@3+z#z#G&=#%@f#J*=#z#z#)#-#i+U#^#/#O%f=g=h=i=j=x@:@@%O$P@H#O+K+q@)*E ` 6+:@O$b+@%K+<@,@H#5+,+/ / / / / / / / / / / / / / / / / / / / / / / / / / / / / / / / / / / / k=5+,@Y%<@O@O+:@O$O+M#l=W.m=&.f#P@R+O+H#H#@%H#(=a=n=o=p=q=z#=+=#&@%@y#Z@3+3+|+5+P#%@)#%@%@d@B d@",
"d@U#Z@3+z#z#r=&@Z@=#%@'+{@%@)#}$d@=#:&s=t=u&u=v=T%K+@%f#v$g%:@v${@{+G w=s+N%@%(#=+U+g%f+N%0*h+T ^=/ / / / / / / / / / / / / / / / / / / / / / / / / / / / / / / / / / / x=]@6+,@x@x@O+:@:@O+p%@@B.E y=` U+Y%<@h%x@O+U+U+L&z=&=.*A=U#f#}+b@/*z@^#$.,$d@G@=@y#%@)#y#B B %@",
"3+:&3+I#U#-#-#=@z#z#B=q%h+%@I#'+d@h+C=D=E=F=G=0$U+O%5+v$h%h%@%P#E !+;+t+6+@%U+=+O$H#N%N%f#)$H=)+I=/ / / / / / / / / / / / / / / / / / / / / / / / / / / / / / / / / / / J=R $$K+H#P&h%@%U+:@f#K+,@>+D {*,+<@T%:@H#O+:@5+@%L&K=L=M=$$|+G@b@x.x.z#o+|$U#z#[+q@q@%@ +%@%@d@",
"d@3+Q#,$3+z#Z@{@>*(#/*P#$$d@^*n$d@G@-#N=#*r=a+5+^#W&O$:@O@h%b+l@H R O=a+5+f#@%O$b+h%0*@%K+'+_+P=Q=R=/ / / / / / / / / / / / / / / / / / / / / / / / / / / / / / / / / / / S=;+f#6+f+:@@%@%:@@%G@f#d+:+W.X a+Z#U+H#h%@%=+)$f#T=U=V=G@&+P#B=z@&@G@z#Y =#G@{@l@I#U#y#)#y#%@",
"W=B=B=X=l@l@B=d@=+h+5+G@3+y#)#Z.=#=+d@Y=Z=W$|+=+|=(#=+@%@%v$5+&@q+X.z c@=+O$@%v$E%6+p%@%<@!#`= -.-M +-/ / / / / / / / / / / / / / / / / / / / / / / / / / / / / / / / / / ^=@-,@x@h%g%@%v$f#f#(#=#,@,.p+R K+O+U+@%O%b+(#c@G@q@v.{+V$c@=#l@B.b@=#:&f#^#$$[+[*&@y##-S+B=&@",
"M+9@$-Y%H#N%K+P&$$a@:&G@z#=@)#Z.=#1+|+%-X.W$++5+b+=+b+@%@%:@U+b@q+N a@)$5+G@W&@%&-f#K+f#x@*-=---;->-,-/ / / / / / / / / / / / / / / / / / / / / / / / / / / / / / / / / / / '-(@P&N%K+O$@%O$O$=+z#6+'$X.D$1+K+K+b+@%f#=+c@|+[+X.T.W$c@G@y#B.[*=#^#5+5+^#5+,@z+2+H+r@x+t+",
"0*K+f#G@=+^#}+0*O$(#:&G@G@[+M ` )$O+)$&$)-B.:@:@@%5+b+O%O$@%O+x.:+W.=*J*$$=+(#O$f#a+)$O$a&!-~-{-]-^-/-/ / / / / / / / / / / / / / / / / / / / / / / / / / / / / / / / / / / (-_-h%b+a+f#f#f#(#-#=#a+'$_+S g+f#f#5+f#@%=+(#:-Q#p+T.i+h+h#&@N Z G@^#5+^#|+y a+1+1+1+g+++|+",
"5+O$b+f#f#^#=#a+5+G@^#G@$$ +W.'+5+++%+{+E*<-[-}-|-W&v$:@O$=+K+Z._+W.q@G@O$O$(#=+=+G@'+Q#_@K*1-2-3-4-/-/ / / / / / / / / / / / / / / / / / / / / / / / / / / / / / / / / / / 5-6-O$N f#O$b+W&z#3+-#f#&$)-S )$@%@%:@K+@%W&7-8-9-M {+E$c@G@z@{+i+G@5+^#5+5+}+f#++++a+5+G@5+",
"^#5+5+a+6+5+^#5+5+5+=+$$(#&@(+;+h+(#%+&$a$0-a-b-c-W&b+U+O$|=a+A.)-W.q@=#b+=+(#5+f#c@2$l@p@K*d-e-f-g-/-/ / / / / / / / / / / / / / / / / / / / / / / / / / / / / / / / / / / 5-5*@%($:@f#(#:&-#d@=#f#G M M $$^#:@:@@%O$A*h-i-j-m+'$A.h+h+[*,.j+G@5+G@^#G@h+^#a+5+f#5+}+G@",
"^#^#@@@%^#5+5+$$G@G@=#=#z#b@(+$.B h+y &$k-l-m-n-o-=+=+U+f#=+p%Z.:+N j$=#5+5+f#@%U+)$'+=@p-q-r-s-t-u-/-/ / / / / / / / / / / / / / / / / / / / / / / / / / / / / / / / / / / 5-v-K+(+N%a+=+(#:&(#=+p%{+M S 5+p%@%:@K+5+w-x-y-z-m+D A.h+h+Z.,.-+c@G@^#G@c@q@}+++f#^#G@z#=#",
"o&|+)$=#=#G@}+h+$$5+=#h+h+&@(+o+h+^#%+W.$.l-A-B-:-=#E%:@U+O$6+B.`.W.j$=#5+5+a+a+K+++>+)#h%N@C-D-E-4-/-/ / / / / / / / / / / / / / / / / / / / / / / / / / / / / / / / / / / F-G-w-)-N%f#f#O$N+W&=+K+G M `.1+K+U+a+O+5+O$H-I-z-m+&$B.}+|+Z.W.k$&+G@|+^#}+q@B }+G@(#d@=#5+",
"=*_*&@&@q@b@/*[+$$5+=#h+h+/*(+X y /#B G m+J-K-L-N+(#5+:@5+@%K+B._+G j$=#5+f#p%K+f#++@@@%T%M-N-O-P-Q-/-/ / / / / / / / / / / / / / / / / / / / / / / / / / / / / / / / / / / F->=&-5+g%G@f#@%=+(#(#p%G M D$1+K+5+U+K+@%W&R-S-T-:+N e#5+|+Z.N Z.&+^#G@G@}+[+V$Z.Z.e#e#[+'%",
"'+$.q+m+q+M v.l+h+)$=#G@c@=@%@-+h+/#4 {+:+x.U-O%=+=+=+U+a+P@O+j$R G >%=#b+f#f#K+f#f#N%g%p@V-W-X-Y-Z-`-/ / / / / / / / / / / / / / / / / / / / / / / / / / / / / / / / / / /  ;.;v$@%@%|+5+a+^#=#=#6+&$M T 1+@%@%K+v$O$=+=++;%@R '$j$|+}+z@A.=@G@G@^#^#h+>+$._+_+M M m+`.",
"B q@=@[+=@x.B.W$}+5+G@G@G@y#q@i+h+=+a@@;_+Z.G@^#=+=+z#f#a+6+K+j$_+N V$G@b+f#a+6+K+a+@%a+6+!#A=#;$;N@+-/ / / / / / / / / / / / / / / / / / / / / / / / / / / / / / / / / / / %;=#@%W&@%1@5+K+5+}+G@e+N P T 1+O+K+f+U+O$3+=#++q@M =&W$|+h+x.A.Z.h+G@c@/#c@Z.&@%@%@ +&@&@=@",
"c@}+%+a@h+%+[+V$y ^#=@d@=#=@&@i+c@G@q@T.:+B.&+5+-#-#(#O$g%a+5+=@_+W.[+h+5+^#f#K+5+a+f#6+@%(# +&;*;/-/ / / / / / / / / / / / / / / / / / / / / / / / / / / / / / / / / / / =;C$p%K+f#K+5+5+6+a+$$5+)$N R -;1+O+1+O+K+5+z#G@++C$M {+W$$$|+B.l+>+c@z#A.B h+/*{@=#=#d@d@d@h+",
"h+P#B z#=#a@%@e#G@h+J$'+}%B.e#Y }+}+C$($;;,$a+5+G@z#=+O$b+5+5+h+m+p+D$d@5+f#O$b+G@f#1+a+b+$$)$[*>;/ / / / / / / / / / / / / / / / / / / / / / / / / / / / / / / / / / / ,;=*V&^#f#6+a+=#G@K+f#G@$$Y &$:+Z.1+6+a+:@5+5+G@++g+Z@d$($V$G@c@Y.l+i+d@i+` B d@Z. +d@=#d@z#3+h+",
"d@P#B d@3+%@y#B.5+B a@Z.d@B.B=Z y c@+++$';);!;W&z#z#b+=#(#(#b+M#@=$.]+R h+5+^#^#=+5+1@K+f#a+5+ +t@/ / / / / / / / / / / / / / / / / / / / / / / / / / / / / / / / / / / ~;u )$/#6+K+a+G@G@f#a+}+>+)*v.>+t+1+K+O$f#^#|+|+U+6-{;];^;|+y d@i+'+Y }+1$d@%@z#Z.b@%@d@d@d@z#d@",
"d@a@h+/;z#B ]@Z.c@G@%@z#P#b@y#Y d@x x (;_;:;<;[;W&^#=+=#=+=+=+f#2+ +M a.W G@f#^#5+f#K+K+K+f#h+i+};/ / / / / / / / / / / / / / / / / / / / / / / / / / / / / / / / / / / |;P#^#a+K+@%a+G@$$)$1@b@)*%-|$d+p%f#U+5+^#=+h#5+v-1;2;3;4;++C$a@>+>+Y P#%@%@%@=#[*B=)#B q@%@%@%@",
"a@h+G@h+}+a@=@Z.d@5+d@h+a@&@5+z@y y a@L+5;6;7;8;9;N+(#W&W&b+(#(#5+,@[*'.a.'+G@5+f#1@6+a+f#a+G@>+,;/ / / / / / / / / / / / / / / / / / / / / / / / / / / / / / / / / / / 0;h+p%K+g%@%U+|+5+++=@V.{+q+g+1+a+5+a+a+a+5+b+a;b;c;d;C&x@}+[+B [*a@>+%@%@%@%@z#Z.&@y#%@)#)#Q#}%",
"d@h+:&d@%@y#^*1$-+G@|+h+q@x.^#x.y y d@y x@e;f;g;h;i;=+=+O$W&O$=+G@^#N%1$j;P.i+^#)$1@1+f#f#5+G@B.k;/ / / / / / / / / / / / / / / / / / / / / / / / / / / / / / / / / / / l;}+5+5+K+K+K+)$5+[+F G R &+^#^#@%5+a+5+++^#m;n;o;p;q;e$)$y d@%@[*d@z@%@a@%@d@B.}$B=)#)#l@l@l@)#",
"%@d@z#%@%@%@y#z@n+]@}+h+P#j$y [+a@}+}+%+h+r;s;t;u;v;w;Z#:@@%@%O$5+G@$$d+!$G a.i+%+5+a+5+a+f#P#x.x;/ / / / / / / / / / / / / / / / / / / / / / / / / / / / / / / / / / / y;&+5+5+5+++++)$=@!+V._+z h+(#f#K+a+5+=#a+a&4&z;A;B;C;b+z#c@z#]@Z.P#&@z#%@)#{@k-S+y#%@U#z@B=W=y#",
"y#q@%@)#)#%@y#,$/*y#}+h+h+$${@P#b@a@}+h+d@=#v%D;E;F;G;H;v$@%@%@%5+5+c@5+p%q%{+0.Y h+|+++f#5+%@x.I;/ / / / / / / / / / / / / / / / / / / / / / / / / / / / / / / / / / / J;c@)$|+5+f#G@%@E V.-.%+)$B z#5+1+f#f#^#f#K;L;M;N;O;5+Y#-#G@U#B=P#%@^#=#d@%@)#q#^*)#I# +P;B=Q#%@",
"&@%@i%%@Z@d@%@%@,$[+d@q@d@c@^#%@C$B.%@=#G@G@^#Q;R;S;T;U;O%U+5+=+^#=+G@}+&+V;q+)*0.Z.c@$$G@G@%@B.I;/ / / / / / / / / / / / / / / / / / / / / / / / / / / / / / / / / / / J;_*^#5+a+f#%@N S.M C$|+^#d@}+5+@%=+@%@%W;X;Y;Z;`;@%=#q@d@z#&@ +%@z#:&d@%@%@=@[*l@q@y#)#l@y#)#)#",
"l@`@,$)#z#Z@%@%@,$ +%@)#B %+h+}+{@j$B.d@G@^#G@5+ >.>+>@>#>2&5+G@^#^#5+G@}+)$)$$>V.P.x.}+G@$$B &@I;/ / / / / / / / / / / / / / / / / / / / / / / / / / / / / / / / / / / J;c@G@5+5+h+,.]+X.e#|+&+=#h+G@^#f#K+P@%>&>*>=>->:@d@d@d@%@ +j$b@U#d@%@%@%@)#e#z@y#y#y#Q#)# +%@y#",
"]@l@&@Q#d@d@)#,$&@=@%@)#%@d@q@%@G@=*J$B.P#$$=+z#$$8%;>>>,>'>N+$$h+$$5+G@$$|+&+&+$.)*)>j$c@$$a@e#!>/ / / / / / / / / / / / / / / / / / / / / / / / / / / / / / / / / / / ~>y G@G@h+M Q.E*j$++)$G@G@G@}+5+K+v${>]>^>/>-%@%d@%@%@%@b@b@<+a@@= +)#%@I#)#%@Z. +%@%@I#%@y#)#&@",
"l@&@l@y#q@)#Q#y#&@=@%@)#%@q@=@]@h+)$[+w=i+{@z#d@B }+(>_>:><>[>v$G@)$)$5+5+|+_*X+z -.}>V.e#G@%@b@I;/ / / / / / / / / / / / / / / / / / / / / / / / / / / / / / / / / / / |>%+h+h+q+R.X.B.1@G@$$}+|+G@)$f#g%1>2>3>4>5>f#{@%@d@%@b@n+a@{@a@ +y#{@%@y#y# +[*=@%@%@3+%@l@&@b@",
")#y#l@A@)#y#y#y#B==@%@B %@}%q@=@C$e#[*>%`.i+Q#%@Z@B A*O&)=6>7>i;=+)$&+G@G@c@h+c@++q@M a.!+[+q@x.I;/ / / / / / / / / / / / / / / / / / / / / / / / / / / / / / / / / / / |>C$%+`.9=,.B.1+c@d@h+G@5+f#5+@%m;P%8>9>0>h%%@U#%@q@x.q+&@y#Y e#l@y#d@`@Q#q@y#[*&@y#I#%@y#&@&@&@",
"`@y#y#l@y#y#l@l@[*=@a@B B )#{@[+q@A.}$Z./*q+A.B }+%+P#h%a>b>c>d>y#y |+G@|+G@P#%+%+++[+X.y=D [+x.I;/ / / / / / / / / / / / / / / / / / / / / / / / / / / / / / / / / / / e>y -+5.%-n$d+h+B d@c@c@|+^#G@y f>g>9>h>Y%h+%@%@B B.:+P;B.B=!$&@y#q@d@%@y#)#e#W+z@y#,$%@l@B=l@&@",
"%@y#y#l@l@l@&@^*[*x.%@q@C$y#)#%@B x.Z i>B.&@R ,+B y y =#a&j>k>l>&$e#}+=#c@&+c@}+%@a@5+Z.=&a. +b@I;/ / / / / / / / / / / / / / / / / / / / / / / / / / / / / / / / / / / e>%+X T.M d+y B P#|+5+^#c@c@h+`.m>n>o>p@c@h+d@q@[+`.B. +`./*X &@ +q@)#)#=@q@e#6#B=l@l@i%y#&@l@&@",
"&@z@l@&@l@l@B=S+1$Z.%@%@d@%@%@q@C$&@p>9*l+&@b@R Z.d@h+d@c@a+)$$.T.=&[+a@c@c@c@%+C$C$a@'+G R.b@Z.I;/ / / / / / / / / / / / / / / / / / / / / / / / / / / / / / / / / / / q>B n+G !+a@h+P#z#^#f#G@9*P#o+{+:+z#<@f#G@h+q@x.$.[*[+|$P#&@!$=@y#y#y#)#y#)#e#6#z@B=m@ +)#y#l@l@",
"B=x.l@B=B=B=z@>+Y A.]@y#d@d@%@a@%+=@5#%@y i+=@e#q+A.q@B %@}+4$%+q+!+'.[+h+c@}+d@B %@C$X {+R.x.B.I;/ / / / / / / / / / / / / / / / / / / / / / / / / / / / / / / / / / / r>a@$.T.a.q@%@%@d@G@5+}+y X {+M J$O+|+^#G@B x.`./* +` {@q@&@!$e#y#l@y#y#y#]@&@6#z@/*y#)#%@,$y#W=",
"y#y#y##-z@&@B=X=5#>+/*b@y#)#q@%@c@=@Y y#P#1@w=&@S+M A.q@a@B }+p%a@M R.K B G@$$d@%@P#a@o+{+a.L#k$s>/ / / / / / / / / / / / / / / / / / / / / / / / / / / / / / / / / / / t>'%`.T.a.q@d@q@)#h+A#c@>+)*E*B.t+5+=#3+Z@q@$.i+q@$.C$q@ +b@o+&@l@]@q@%@Q#y#&@6#S+B=I#)#}%Q#)#y#",
"%@ +)#y#l@&@&@W=z@Z.y#y#q@q@B P#%+B.}$l@%@=#c@%@%@>+`.=@%+ +q@&+e+{@(+R.l+P#y d@a@P#h+Y u>5.B.Z.s>/ / / / / / / / / / / / / / / / / / / / / / / / / / / / / / / / / / / t>B q+T.a.%@%@y#y#%@}+q@F N }$6+++c@d@a@%@i+'+%@%+=@C$=@l@B=W &@l@=@y# +%@&@e#>+z@B=%@)# +l@)#)#",
")#)#y#=@y#,$l@l@S+S+]@]@{@%@a@B a@B.v>/*l@%@%@y#%@l@1$$.a@d@%@h+&+1+E*w>` %+P#i%q@B B x>T.6.x.[*y>/ / / / / / / / / / / / / / / / / / / / / / / / / / / / / / / / / / / t>q@M U.5.{@)#)#[+[+h+[+z>*+^#a+5+z#d@h+i+'+l@%@d@l@q@)#&@B=o+&@&@B=z@&@l@S+b@Z.&@B=y#y#y#^*l@y#",
"=@l@l@y#=@y##-z@5#Z.]@y#y#[+{@B {@A.o+/*&@%@%@]@%@ +P;;;e#C$B C$}+h#A>B>C>a@a@q@[+B %@!$T.0.B.Z.y>/ / / / / / / / / / / / / / / / / / / / / / / / / / / / / / / / / / / t>q@M S.6.[+{@)#%@d@c@3+D>E>F>G@/#=#h+d@R z@y#%@d@]@]@y#&@&@o+x.]@&@B=&@&@z@x.[*l@y#W=&@&@z@B=&@",
"y#]@y#%@y#l@z@[*5#Z.=@y#q@%@{@q@%@z@~$x.l@q@%@y#y#m@&@v>1$]@%@{@}+:@G>H>I>4 a@a@%@d@%@%.{+6.x.A.s>/ / / / / / / / / / / / / / / / / / / / / / / / / / / / / / / / / / / J>5 M ]+O.=@%@)#%@z#G@K>L>M>N>5+G&U#d@%@m+/*l@d@P#=@O>l@m@b@!$&@]@l@&@B=z@z@B.Z.=@y#&@&@l@B=B=l@",
"l@=@l@q@=@B=[*S+w.A.=@y#q@q@{@%@%@Z.!$&@ +}%%@)#l@#-^*|$Z ]@ +=@a@U+P>Q>R>%@%+y %+a@a@` {+O.B.Y.y>/ / / / / / / / / / / / / / / / / / / / / / / / / / / / / / / / / / / J>q@R S.6.=@%@q@I#%@h++=S>T>U>b+z#i%)#)#2$b@]@d@P#l@B=&@&@x.!$B. +{@{@&@/*z@b@Z.y#l@&@&@y#y#y#=@",
"x.&@x.l@y#/*[*S+1$Y.=@y#&@x.x.y#[+>+v>,$y#y#%@)#l@l@&@!$A.{@=@&@d@L+V>W>X>)#4 y %+}+%+!${+5.B.l+y>/ / / / / / / / / / / / / / / / / / / / / / / / / / / / / / / / / / / Y>[+M u>6.=@%@ +)#q@B +=Z>`>U>=+%@)#q@%@$.=@%@z#d@]@&@&@&@x.'+B.y#%@B y#&@B=x.Z.&@B=B=b@l@y# +=@",
"B.z@x.x.e#/*[*A.W+Y.j$x.&@x.&@=@q@A.!$B=]@y#)#)#y#l@&@o+i+=@]@y#a@U+ ,.,+,Q#C$y /;h+y $.!+5.k$k+y>/ / / / / / / / / / / / / / / / / / / / / / / / / / / / / / / / / / / @,[+M T.6.=@ +]@=@=@%@+=#,$,%,(#%@)#y#{@_+y#q@%@B =@&@x.=@e#!$&@y#%@B q@z@]@x.[*Z.S+z@z@&@x.x.x.",
"b@z@z@&@b@x.z@A.W+i+e#B.B=e#b@y#%@z@4+z@&@`@%@%@i%l@&@~$Y &@ +{@=@h#&,*,=,Q#C$%+h+z#h+n+T.0.k+i+y>/ / / / / / / / / / / / / / / / / / / / / / / / / / / / / / / / / / / @,%@M -,O.e#]@&@=@]@`@;,>,,,%,|=%@)#y#q@R [+ +)#q@&@=@y#=@x.X B.y#=@{@l@B= +]@1$p>S+S+P;]@&@x.e#",
"b@Z.b@&@B.S+',A.W+l+B.B.&@x.B.=@q@Z.Z x.&@)#U#%@)#]@B=o+E$*@y# +y#b+),!,X>`@q@%@}+z#%@o+T.M.Y.-+y>/ / / / / / / / / / / / / / / / / / / / / / / / / / / / / / / / / / / Y>q@M Q.6.&@]@ +y#]@`@~,{,],%,^,%@l@,$q@R y#q@=@&@b@*@=@&@/*X x.&@]@&@&@/*&@e#w.[*5#Z.=@ +b@B.B.",
"A.z@&@e#x.A.z@x.i+i+B.e#]@b@e#x.&@[*'+/*=@q@{@Q#l@&@b@~$k+[+y#l@q@G@/,(,_,l@{@a@h+d@q@o+~+M.A.i+y>/ / / / / / / / / / / / / / / / / / / / / / / / / / / / / / / / / / / :,q@R U.N.e#y#)#%@%@`@<,[,$,},d@y#W=)#B P y#4 y#&@B.x.e#/*A.n+Z.e#&@b@b@S+&@e#>+B.z@&@ +y#e#z@A.",
"[*[*A.&@b@A.z@S+i+Y.x.b@=@&@y#&@Z.Y '+&@ +=@)#y#&@&@x.!$Y.q@=@&@B G@|,1,2,W= +C$P#%@q@}$~+M.k$i+y>/ / / / / / / / / / / / / / / / / / / / / / / / / / / / / / / / / / / 3,5 q+U.4,e#i%q@%@q@,$9-5,6,7,%@q@l@q@q@M e#4 [+x.x.&@B./*A.$.b@b@y#=@z@p>B.x.>+x.e#&@&@y#e#z@A.",
"B.Z.A.x.z@A.[*[*W+i+B.x.=@y#q@&@Z.1$o+&@q@=@y#=@]@&@&@n+A.4 [+q@d@8,9,0,a,b@=@q@C$B q@}$T.M.k$E$y>/ / / / / / / / / / / / / / / / / / / / / / / / / / / / / / / / / / / b,[+q+R./+=@%@ +}%y#=@c,d,e,f,l@q@&@]@y#M B.q@[+B.x.&@x./*A.W Z.&@ +y#z@[*B.x.i+B.x.e#b@]@x.x.Z.",
"=@b@&@]@B.A.Z.A.W+l+B.B.B.&@[+e#&@Y n+Z.Q# +q@l@]@l@/*2$E$[+4 q@q@T@g,h,i,x.=@e#y#)#{@Z @;4,Z.j+y>/ / / / / / / / / / / / / / / / / / / / / / / / / / / / / / / / / / / :,[+q+a.4,q@%@y#q@]@&@j,k,l,m,x.[+&@x.=@M B.q@=@B.x.]@y#&@>+W z@z@&@b@n,w.A.L#Y A.A.x.B.B.x.Z.Z.",
"]@x.e#=@]@B.A.[*>+-+Z.Z.x.&@[+=@=@i+$.[*]@l@ +&@&@x.z@k-Y$e#q@%@z#L&o,p,q,n,=@e#=@l@=@!$T.M.,+i+y>/ / / / / / / / / / / / / / / / / / / / / / / / / / / / / / / / / / / r,]@R ^+/+[+%@{@y#=@{@s,t,u,v,A* +b@]@=@M x.{@=@x.Z.&@y#&@A.o+A.Z.A.A.[*1$[*B.Y A.z@&@z@b@Z./*B.",
"&@B.B.]@=@=@x.A.>+i+Z.A.b@e#=@]@x.Z m+[*b@&@l@B=/*B=z@m+` =@e#&@ +N+w,x,y,x.=@5  + +B.$.U.M.B.X$y>/ / / / / / / / / / / / / / / / / / / / / / / / / / / / / / / / / / / z,W$O 9=/+[+d@%@q@%@%@|&A,B,C,3+&@B=/*e#M e# +b@z@[*B.]@x.Y.&.A.A.Z.[*[*1$[*B.Z Z.x.]@]@&@Z.x.B.",
"&@x.b@&@e#]@b@Z.i+i+Z.A.b@&@]@b@Z.Z m+>+A.&@]@z@z@&@z@m+` =@&@b@=@D,E,F,_,&@*@*@e#[+b@q+]+/+Z.i+G,/ / / / / / / / / / / / / / / / / / / / / / / / / / / / / / / / / / / z,W$M R.N.[+d@)#q@{@%@H,I,J,#>%@x.&@/*=@M Z.x.P;&@S+A.x.J$Z R i+[*A.[*>+w.>+,+Z A.B.x.e#B.Z.B.x.",
"x.B.5@x.B.B.x.B.W+i+Z.A.x.z@A.[*[*'+:+Y w.A./*Z.B=&@z@q+-+x.b@b@=@K,E,L,R>l@V$5 e#e#B.a$Q.4,E$j+G,/ / / / / / / / / / / / / / / / / / / / / / / / / / / / / / / / / / / z,e#p+R.N.j$)#l@=@]@)#M,{,N,O,Q#x.]@b@z@p+>+z@/*Z.S+Z.Z.A.%.M i+>+[*[*>+W+i+Z.-+k+A.A.A.A.A.Z.x.",
"x.B.B.L#/*B.b@Z.Y l+Z.A.A.[*1$W+i+!$:+Y [*w.[*S+B=z@[*a$l+Z.x.]@]@D,P,Q,R,%@a@q@[+e#Z._+U.4,X$j+G,/ / / / / / / / / / / / / / / / / / / / / / / / / / / / / / / / / / / S,x.(+a.4,x.e#b@&@x.&@W;T,U,},%@l@ +y#x.(+1$A.Z.>+Z.Z.A.Y o+Q Y i+[*[*>+i+>+B.` Y i+>+1$Y Y A.5@",
"B.Z.B.x.Z.B.B.A.-+V$b@A.w.1$Y >+[*'+:+Y 1$W+A./*z@S+[*:+E$5@x.]@]@W&),V,R,%@C$5 [+y#x.R ]+4,Y.Y.G,/ / / / / / / / / / / / / / / / / / / / / / / / / / / / / / / / / / / W,x.W.5.4,B.e#&@z@S+&@X,T,Y,Z,r=y#)#]@e#,.A.A./*>+x.A.[*Y !$M 1$[*>+>+w.i+Z.j$n$i+A.A.[*x>}$>+Z.",
"/*A.B.x./*x.Z.i+W$B.A.i+Y '+q+Y k+W m+i+[*Y >+Z./*S+Z.`.l+B.x.x.]@W&),`, 'Q#4 V$e#=@x.`.)>M.Z.I$G,/ / / / / / / / / / / / / / / / / / / / / / / / / / / / / / / / / / / W,j$H a.4,B.b@/*B.x.P;.'T,Y,+'r= +=@y#y#p+Z.A.B.i+Z.A.A.w.o+M <+i+R Y w.>+>+x.[+Z A.A.z@1$}$>+Z.",
"Z./*b@x.&@x.Z.o+Y.Z.>+Z '+@'D$'+-@N :+R `.:+v.$.m+:+Z $.Y B.&@x.y#W&#'!,R>l@q@q@V$W$B.n+{*4,]=E$$'/ / / / / / / / / / / / / / / / / / / / / / / / / / / / / / / / / / / %'x.N 6.&'B.z@Z.b@x.l@*'='-'},I#=@[+q@y#X.>+M o+&.M `.`.M m+C ;+!$M N Z w.>+B.j$`.>+Z.Z.'+Z i+[*",
"A.z@Z.Z.x.z@W+m+i+A.i+'+'.-.-+n+N M &$-.R.G >.!+@'T.i+m+'+Z.B=B.[+=+;'>','&@5 q@=@e#x.$.]+4,Y.j+$'/ / / / / / / / / / / / / / / / / / / / / / / / / / / / / / / / / / / ''W$H 0.)'B.B=Z.x.b@b@.'{,!'~'`@=@]@e#=@X.i+)+D {']'^'C J V.M G $.#.M N ` w.B.e#R Y A.A.Y i+A.A.",
"Z.Z.z@[*J$J$'+m+i+>+Y $.N X q+C X.m+M P.'.C )>@'P.C 2$_+'+B.z@Z.&@G&/'('_'&@5 [+e#&@b@`.]+4,i+l+$'/ / / / / / / / / / / / / / / / / / / / / / / / / / / / / / / / / / / S=B.W.6.:'x.b@b@=@=@]@9-{,<'~')#e#x.x.e#X.` G ['J y=]'=&}'|',.X.G q+;+N $.A.Z.L#M Y A.A.A.>+Z.A.",
">+A.[*i+Z.Z.Z m+l+>+'+-+'+`.N '.`.q+1'C E V.@'m==&!+!$_+-+=@b@/*=@Z@2'3'4'&@[+q@x.x.[*q%Q.4,X$l$$'/ / / / / / / / / / / / / / / / / / / / / / / / / / / / / / / / / / / 5'k$D 9=/+B.x.=@[+[+y#6'7'8'9'q@&@z@B.e#K Z W.E 0'@')>a'E m=W.q+$.=&M $.w.Y A.L#M '+>+A.[*A.Z.Z.",
"Y Y i+Y k+A.Z n+k$Z.'+n+`.W.K b'` $.q%;+2$n+q+`.`.:+n$X A.[+&@=@q@%@c'd'e'x.=@[+B.x.A._+]+0.Y.X $'/ / / / / / / / / / / / / / / / / / / / / / / / / / / / / / / / / / / f'A.N R.O.,+B.b@e#[+l@g'W*h'i'C$e#z@e#=@,.j$`.$>m+o+H=`.:+R :+W j'D$G m+!$1$>+=@_+!$i+[*>+i+A.B.",
"Y Y i+i+i+i+'+o+=#:@=+=#f#Y m+`.v.v.M X.X.v.{=(+W.)+M R j$=@x.[+4 x.k'l'm'x.e#x.Z.B.A._+T.X W$Y$$'/ / / / / / / / / / / / / / / / / / / / / / / / / / / / / / / / / / / f'k+Y G O.k+x.B.]@=@x.X#t=n's=V$L#B.]@V$$>q+M {+{=,.X.K X.,.p+X.M p+$.^#W&@%o'T%$.o+i+A.A.i+i+k$",
">+>+>+A.i+Y !$M j+,+B.B.=@>*N+v$f#O$=#z#r=-#r=(#:&p'q'a@W$e#B.q@A.r'$*i,)-A.x.Z.A.Z.[*:+O d@x.X $'/ / / / / / / / / / / / / / / / / / / / / / / / / / / / / / / / / / / s'i+e#X R.[*B.&@y#&@[*;;t'u'v'X e#]@[+=@&@w'x'y')#:&=#>*f#0*p%=+|=W&=+z j$B.]@=@X.o+i+i+W+1$<+Y.",
">+A.i+A.>+Y |$O j+A.Z.z@Z.e# +x.=@q@[+x.B.B.w.Z.[*[*x.B.x.e#x.q@>+z'A'{=M A.x.A.[*[*>+_+H Z.B.X $'/ / / / / / / / / / / / / / / / / / / / / / / / / / / / / / / / / / / B'Z.k$`.a.A.Z./*=@=@[*C'D'E'F'`.V$[+[+5 z@x.x.&@]@&@Z.]@q@=@e#Z.Z.Z.b@B.A.A.Z.x.W.!$1$Y Z Z Y Y.",
">+i+Y i+1$1$}$M E$W$B.Z.Z.B.e#A.e#q@]@e#x.x.A.Z.A.A.e#[+Z.B.x.e#Y -,G'(+R A.B.A.[*>+>+_+N [*Z.#.H'/ / / / / / / / / / / / / / / / / / / / / / / / / / / / / / / / / / / I'A.Z.q+6.A.A.Z.&@=@[*k--,G -,O x.=@=@]@[+e#x.x.=@e#A.B.x.e#B.5@Z.i+>+Z.>+>+B.B.W.W '+}$Z v>Y Y.",
"i+Y i+>+Y Z !$M l+B.Z.A.Z.A.k$A.x.x.x.k$A.B.A.A.x.=@[+x.Z.A.5@B.` J'K'X.R A.x.A.i+k+i+M N >+A.&.H'/ / / / / / / / / / / / / / / / / / / / / / / / / / / / / / / / / / / L'A.A.O 6.>+Z.>+B.e#A.o+u>&$Q.R k$e#x.=@5 V$]@=@5 e#A.B.5@L#A.A.i+Y [*Z.B.A.b@L#,.n+'+!$o+o+Z Y.",
"Y Y Y Y i+}$!$Q X$B.J$>+>+A.i+>+k$M'B.Z.k$k$5@B.=@q@e#B.B.A.A.A.` Q.N.E*-.k+A.A.i+i+N'M W.Y A.T H'/ / / / / / / / / / / / / / / / / / / / / / / / / / / / / / / / / / / O'X$k+P 6.>+A.i+Y.e#A.W {+&$U.q+]@]@e#L#e#B.4 =@=@x.Z.B.A.B.k$k$i+A./*Z.&@Z.B.e#W.n+'+!$o+$.X i+",
"Z Z '+v>Z }$|$M X$B.A.i+i+Z.E$i+A.B.e#B.k$A.A.B.=@]@x.B.5@A.>+Y.X R.G'(+K l+A.w.Y i+i+M D Z E$O P'/ / / / / / / / / / / / / / / / / / / / / / / / / / / / / / / / / / / O'A.k+O M.Y i+N'>+A.>+W Q'G )*R B.L#L#*@L#y#q@V$B.Z.>+B.k$B.k$k$i+w./*Z.A.x.B.e#W.$.v>%.o+m+X i+",
"Z ` v>!$!$Z o+M j+B.A.>+k$B.i+i+k+x.V$V$k$k+A.A.L#L#B.x.x.B.Z.>+!$R.N.,.M Z >+Y '+Z <+M E Z E$O P'/ / / / / / / / / / / / / / / / / / / / / / / / / / / / / / / / / / / O'A.i+M N.Y >+i+w.Y '+m+{+&$)*M k+A.A.B.5@*@e#W$k$A.Z.B.A.B.k$k$x.A.e#k$Z.x.B.V$W.$.!$!$n+m+X -+",
"Z !$~$~$X !$o+X.`$A.i+Z.x.Z.[*A.A.A.R'L#k$k+A.A.Z.x.x.B.A.k+A.k+X E {+R M ` E$Y ` Y ` X.G ` Z O P'/ / / / / / / / / / / / / / / / / / / / / / / / / / / / / / / / / / / S'l+Y M 0.-+i+Z 4+'+'+q+G K '.R i+i+A.A.5@B.V$e#x.A.A.B.A.A.A.A.5@k$L#B.B.B.B.4 W.m+!$o+o+n+!$Z ",
"!$n+o+X o+o+$.M ,+Y.Y.A.A.Z.>+A.A.k$k$5@A.A.A.x.A.k+k$B.k+E$>+k+X {+M `.O ` T'Z '+Z o+X.D X ` O P'/ / / / / / / / / / / / / / / / / / / / / / / / / / / / / / / / / / / U'` ` M 6.'+-+'+4+'+X q+M Y$,.R i+Z Y i+>+Z.B.k$e#V'k+A.>+k+N'w.k+A.5@A.k+A.>+x.R R o+!$n+n+!$X ",
"$.$.$.n+n+$.M ,+A.A.i+A.>+A.E$>+A.A.M'k+k+k+A.A.A.A.k$>+i+Z j+s@X &$W'#.M X Z J+-@Z J+,.G Y$` O P'/ / / / / / / / / / / / / / / / / / / / / / / / / / / / / / / / / / / X'` ` M 6.'+Y Z '+Z '+$.O @+W.D$'%Y Y Z Y >+>+A.Z.E$i+E$i+T'T'N'w.i+i+k+E$A.Y i+Z.)-`.$.m+:+U $.",
"N N N W.,.W.` -+` ` X Z ` ` X ` Z Z Z Z ` ` ` ` Z Z Z Z ` X Y$l$O !+'.C !$!$` -@W !$Z N F X ` K P'/ / / / / / / / / / / / / / / / / / / / / / / / / / / / / / / / / / / Y'Y$` ,./+Y Z '+Z Z o+!$N E {+X.X$X o+!$` -+Z -@'+X X '+X -@X Z ` X X X X X W &.W Y W.{=W.%-N W.",
"q%$.$.$.|$X M R.M.:')'Z':'4,4,/+M.4,4,/+/+/+/+M.4,N.9={*!+V.)>S.!+X._+` o+$.U `.q+>.#.F `'X ` K P'/ / / / / / / / / / / / / / / / / / / / / / / / / / / / / / / / / / / Y'`  )K N.i+R M n+;+`.;+X v._+G V.R.R.S.]+a.6./+:'.)4,4,Z')':':'Z'.):'4,N.4,4,/+6.W.;;'+}$~$|$|$",
"+)@)+)#)+)$)+)%)m.%)J.&)H.*)K.*)#)+)#)+)#)K.m.m.m.#)#)+)#)#)*)#)+)#)*)#)m.J.I.H.m.m.=)-)G o+W H P'/ / / / / / / / / / / / / / / / / / / / / / / / / / / / / / / / / / / ;)W W )+>),)%)m.J.')J.m.%)#)))))))+)#)#)*)m.J.%)#)K.K.#)#)#)#)*)J.H.m.%)m.%)m.*)#)))!)~)))#)#)m.",
"Q.Q.{)^+^+^+b.^+R.6.b.N.O.6.6.6.a.Q.^+6.b.N.b.b.b.])])6.6.6.6.^+^+6.6.R.T.-,^)^+^+D'/)()_)p+N )>P'/ / / / / / / / / / / / / / / / / / / / / / / / / / / / / / / / / / / :)=&H %-<)[)})-,R.^)5.])^+^)R.Q.~+Q.R.b.])^+6.6.^+])^+{)Q.Q.R.^+6.b.b.6.b.5.6.b.b.^)Q.|)1)b.2)b.",
"V&&+B q@4 4 4 '%f 3)4 4 '%8 8 x t V&f x %+q@a@C$C$A A z &+x &+x &+h &+h &+&+y A '%C$B d@%+y &+_*^=/ / / / / / / / / / / / / / / / / / / / / / / / / / / / / / / / / / / 4)4*y c@)$h+%+|+&+u x 9*c@c@G@c@5)u x A 6)b a@C$%@C$c@x x f 3)y &+_*_*c@x )$_*a@q@q@C$%+=*V$e#5 ",
"7)8)9)0)a)b)c)d)e)f)8)g)k=8)f)h)e)i)j)k)h)8)k=k=k=8)k=8)k)l)m)l)n)n)n)7)f)f)8)k=o)p)k=k=k=q)m)r)+-/ / / / / / / / / / / / / / / / / / / / / / / / / / / / / / / / / / / s)8)q)q)d)d)d)f)k)t)u)f)l)v)d)f)n)w)k)7)x)f)8)k=k=k=7)n)k)k)f)d)f)d)m)w)l)n)f)7)k=k=k=k=9)y)y)9)"};
