/* XPM */
static char * so_door9_tex_xpm[] = {
"132 132 1471 2",
"  	c #2D3640",
". 	c #2C353E",
"+ 	c #2C3640",
"@ 	c #2D3741",
"# 	c #2E3841",
"$ 	c #2D3641",
"% 	c #2D3842",
"& 	c #2E3944",
"* 	c #2E3943",
"= 	c #2F3A45",
"- 	c #2E3842",
"; 	c #2F3B46",
"> 	c #2F3944",
", 	c #2F3A46",
"' 	c #303C46",
") 	c #303B46",
"! 	c #303C47",
"~ 	c #303A45",
"{ 	c #313D4A",
"] 	c #313E4A",
"^ 	c #323E4A",
"/ 	c #323F4A",
"( 	c #313D48",
"_ 	c #35393C",
": 	c #393939",
"< 	c #303B45",
"[ 	c #323F4B",
"} 	c #313D49",
"| 	c #303C48",
"1 	c #2E3843",
"2 	c #2E3A44",
"3 	c #2E3942",
"4 	c #2C363F",
"5 	c #2E3741",
"6 	c #2C363E",
"7 	c #233341",
"8 	c #243341",
"9 	c #243342",
"0 	c #233240",
"a 	c #243543",
"b 	c #243443",
"c 	c #253544",
"d 	c #253646",
"e 	c #253645",
"f 	c #243544",
"g 	c #253545",
"h 	c #263746",
"i 	c #273847",
"j 	c #263645",
"k 	c #273645",
"l 	c #283847",
"m 	c #283948",
"n 	c #293A49",
"o 	c #283949",
"p 	c #273848",
"q 	c #293B4A",
"r 	c #293949",
"s 	c #293B4B",
"t 	c #293A4A",
"u 	c #2A3B4B",
"v 	c #2A3B4A",
"w 	c #2B3D4C",
"x 	c #2C3F4F",
"y 	c #2D3F4F",
"z 	c #2C3F50",
"A 	c #2D4151",
"B 	c #2C3D4C",
"C 	c #33393E",
"D 	c #2B3C4B",
"E 	c #2A3C4B",
"F 	c #293C4B",
"G 	c #2D4050",
"H 	c #283848",
"I 	c #283A49",
"J 	c #273948",
"K 	c #273947",
"L 	c #263846",
"M 	c #253746",
"N 	c #253543",
"O 	c #17222C",
"P 	c #17222D",
"Q 	c #17232D",
"R 	c #18222D",
"S 	c #18242D",
"T 	c #18242E",
"U 	c #17242D",
"V 	c #192530",
"W 	c #19242F",
"X 	c #1A2630",
"Y 	c #1A2732",
"Z 	c #1A2631",
"` 	c #1A2833",
" .	c #18252F",
"..	c #1B2833",
"+.	c #1B2834",
"@.	c #1A2733",
"#.	c #1B2934",
"$.	c #1C2934",
"%.	c #1C2A35",
"&.	c #1C2A36",
"*.	c #1D2A36",
"=.	c #1D2B38",
"-.	c #1E2D39",
";.	c #1F2F3C",
">.	c #1F2E3B",
",.	c #1F2E3A",
"'.	c #1F2C39",
").	c #313437",
"!.	c #303337",
"~.	c #1F2C38",
"{.	c #1E2C38",
"].	c #1C2B37",
"^.	c #1D2D3A",
"/.	c #1D2B37",
"(.	c #1C2935",
"_.	c #1B2733",
":.	c #1B2933",
"<.	c #1A2632",
"[.	c #1A2731",
"}.	c #192631",
"|.	c #192630",
"1.	c #19252F",
"2.	c #18232D",
"3.	c #060B0F",
"4.	c #060C10",
"5.	c #070C11",
"6.	c #070B10",
"7.	c #070C10",
"8.	c #070D11",
"9.	c #070D12",
"0.	c #080D12",
"a.	c #070D13",
"b.	c #080E12",
"c.	c #080E13",
"d.	c #080F14",
"e.	c #080D13",
"f.	c #080E14",
"g.	c #090E14",
"h.	c #091015",
"i.	c #09131B",
"j.	c #091C2B",
"k.	c #0F1E29",
"l.	c #131F27",
"m.	c #131E27",
"n.	c #131C24",
"o.	c #2F3031",
"p.	c #2E2F31",
"q.	c #131E26",
"r.	c #141F28",
"s.	c #121E27",
"t.	c #091C29",
"u.	c #08151F",
"v.	c #081015",
"w.	c #090F14",
"x.	c #090F15",
"y.	c #0C141A",
"z.	c #0B1219",
"A.	c #0B1218",
"B.	c #0C131A",
"C.	c #0B1319",
"D.	c #0D151B",
"E.	c #0C141B",
"F.	c #0B131A",
"G.	c #0D151C",
"H.	c #0E171E",
"I.	c #0C151B",
"J.	c #0A1117",
"K.	c #0A1116",
"L.	c #0C1319",
"M.	c #0E1821",
"N.	c #0F1E2A",
"O.	c #192733",
"P.	c #20303E",
"Q.	c #223341",
"R.	c #303336",
"S.	c #2F3236",
"T.	c #21313F",
"U.	c #223340",
"V.	c #101E28",
"W.	c #0E1A23",
"X.	c #0B151B",
"Y.	c #0A1218",
"Z.	c #0F161E",
"`.	c #0E161D",
" +	c #0D161C",
".+	c #0E171D",
"++	c #0F181F",
"@+	c #0B141A",
"#+	c #0A1217",
"$+	c #121D26",
"%+	c #121C24",
"&+	c #111B23",
"*+	c #121D25",
"=+	c #121C25",
"-+	c #131D26",
";+	c #131D27",
">+	c #142028",
",+	c #14202A",
"'+	c #142029",
")+	c #16212B",
"!+	c #15222C",
"~+	c #15212B",
"{+	c #16222B",
"]+	c #182530",
"^+	c #192732",
"/+	c #21313E",
"(+	c #21323F",
"_+	c #1C2B36",
":+	c #233644",
"<+	c #1E303F",
"[+	c #293C4C",
"}+	c #233340",
"|+	c #313438",
"1+	c #2F3337",
"2+	c #263947",
"3+	c #283B4A",
"4+	c #192834",
"5+	c #263B4B",
"6+	c #1F2F3B",
"7+	c #1D2C38",
"8+	c #20313E",
"9+	c #22333F",
"0+	c #1E2E3A",
"a+	c #192731",
"b+	c #16222C",
"c+	c #15212C",
"d+	c #16232D",
"e+	c #15202A",
"f+	c #131F28",
"g+	c #111B24",
"h+	c #111C24",
"i+	c #1B2A35",
"j+	c #1B2A36",
"k+	c #1A2934",
"l+	c #182631",
"m+	c #1B2935",
"n+	c #1F303C",
"o+	c #243644",
"p+	c #273949",
"q+	c #283B4B",
"r+	c #2A3E4E",
"s+	c #2C4253",
"t+	c #243847",
"u+	c #1E2E3B",
"v+	c #283C4C",
"w+	c #2A3F4F",
"x+	c #243442",
"y+	c #313538",
"z+	c #303438",
"A+	c #283A4B",
"B+	c #293D4D",
"C+	c #273B4C",
"D+	c #2D4253",
"E+	c #2B4050",
"F+	c #2B3F4F",
"G+	c #2B4051",
"H+	c #2A3E4D",
"I+	c #263948",
"J+	c #20303D",
"K+	c #202F3B",
"L+	c #21303E",
"M+	c #20303C",
"N+	c #1C2B38",
"O+	c #1D2C39",
"P+	c #192632",
"Q+	c #1F2D39",
"R+	c #1E2C39",
"S+	c #263744",
"T+	c #2C4151",
"U+	c #2C4152",
"V+	c #2A3F4E",
"W+	c #2E4354",
"X+	c #2E4455",
"Y+	c #2D4353",
"Z+	c #2F4456",
"`+	c #2D4354",
" @	c #2D4454",
".@	c #32485A",
"+@	c #324A5C",
"@@	c #32495B",
"#@	c #32495C",
"$@	c #31485B",
"%@	c #31485A",
"&@	c #2C4354",
"*@	c #1E303E",
"=@	c #1E2D3A",
"-@	c #293E4E",
";@	c #2A3E4F",
">@	c #2E4557",
",@	c #263C4C",
"'@	c #2A3F50",
")@	c #323639",
"!@	c #303539",
"~@	c #2B4153",
"{@	c #203240",
"]@	c #2D4355",
"^@	c #293D4E",
"/@	c #2B3F51",
"(@	c #1F2F3D",
"_@	c #293D4B",
":@	c #344B5E",
"<@	c #314658",
"[@	c #314859",
"}@	c #2F4557",
"|@	c #304658",
"1@	c #2D4252",
"2@	c #2B4151",
"3@	c #2B3F50",
"4@	c #2C4051",
"5@	c #253745",
"6@	c #253846",
"7@	c #243746",
"8@	c #233544",
"9@	c #233342",
"0@	c #223442",
"a@	c #233543",
"b@	c #2E4355",
"c@	c #2E4353",
"d@	c #2B4152",
"e@	c #304759",
"f@	c #344C5F",
"g@	c #2D4457",
"h@	c #1E313F",
"i@	c #243745",
"j@	c #233443",
"k@	c #2A3D4E",
"l@	c #2E4558",
"m@	c #2E4659",
"n@	c #294052",
"o@	c #293E4F",
"p@	c #2B4052",
"q@	c #273745",
"r@	c #32363A",
"s@	c #30353A",
"t@	c #293D4C",
"u@	c #2C4355",
"v@	c #213443",
"w@	c #2F4558",
"x@	c #223240",
"y@	c #374F62",
"z@	c #2E4456",
"A@	c #2F4457",
"B@	c #2D4455",
"C@	c #2B3E4F",
"D@	c #223441",
"E@	c #233444",
"F@	c #243645",
"G@	c #233442",
"H@	c #253847",
"I@	c #273A49",
"J@	c #304558",
"K@	c #2E4457",
"L@	c #2D4152",
"M@	c #30485B",
"N@	c #31495D",
"O@	c #2D4659",
"P@	c #1F3342",
"Q@	c #223543",
"R@	c #223542",
"S@	c #2D4557",
"T@	c #30475A",
"U@	c #2B4254",
"V@	c #2C4254",
"W@	c #273846",
"X@	c #33373B",
"Y@	c #30363B",
"Z@	c #213343",
"`@	c #2F4659",
" #	c #2A4052",
".#	c #2C4153",
"+#	c #213240",
"@#	c #223645",
"##	c #31485C",
"$#	c #30485A",
"%#	c #31495C",
"&#	c #31475A",
"*#	c #2E4658",
"=#	c #273A4A",
"-#	c #233645",
";#	c #334A5C",
">#	c #304557",
",#	c #2D4254",
"'#	c #304659",
")#	c #32495D",
"!#	c #324A5E",
"~#	c #1B2F3D",
"{#	c #2A3F51",
"]#	c #293E50",
"^#	c #30373C",
"/#	c #203341",
"(#	c #32495E",
"_#	c #1A2B38",
":#	c #30495C",
"<#	c #324A5D",
"[#	c #334B5E",
"}#	c #2F4658",
"|#	c #374E62",
"1#	c #253848",
"2#	c #233646",
"3#	c #243646",
"4#	c #273A4B",
"5#	c #344A5D",
"6#	c #304657",
"7#	c #314759",
"8#	c #334A5E",
"9#	c #344C60",
"0#	c #324B5F",
"a#	c #334C61",
"b#	c #2E485B",
"c#	c #1D3140",
"d#	c #263A49",
"e#	c #253949",
"f#	c #2D4356",
"g#	c #33373C",
"h#	c #30373D",
"i#	c #1F303F",
"j#	c #1D2E3B",
"k#	c #334A5D",
"l#	c #344D61",
"m#	c #375063",
"n#	c #273B4B",
"o#	c #263A4A",
"p#	c #283B4C",
"q#	c #293C4D",
"r#	c #314758",
"s#	c #334B5F",
"t#	c #334C60",
"u#	c #344D62",
"v#	c #314A5F",
"w#	c #1F3241",
"x#	c #2D4357",
"y#	c #34383D",
"z#	c #31383F",
"A#	c #1F303E",
"B#	c #1E2F3D",
"C#	c #324A5F",
"D#	c #30475B",
"E#	c #344D60",
"F#	c #354E61",
"G#	c #354D61",
"H#	c #344E62",
"I#	c #354D62",
"J#	c #385164",
"K#	c #283D4C",
"L#	c #293B4C",
"M#	c #283A4A",
"N#	c #344C5E",
"O#	c #324C5F",
"P#	c #2F485C",
"Q#	c #1F3140",
"R#	c #1A2834",
"S#	c #2E4458",
"T#	c #34393D",
"U#	c #31393F",
"V#	c #1E303D",
"W#	c #2D4558",
"X#	c #2C4052",
"Y#	c #314A5E",
"Z#	c #344C61",
"`#	c #354E62",
" $	c #354E63",
".$	c #385165",
"+$	c #253948",
"@$	c #263848",
"#$	c #273B4A",
"$$	c #334B5D",
"%$	c #334D61",
"&$	c #2F495D",
"*$	c #203140",
"=$	c #35393D",
"-$	c #313940",
";$	c #2A4051",
">$	c #233746",
",$	c #3A5368",
"'$	c #2A3D4D",
")$	c #2C4252",
"!$	c #334B60",
"~$	c #2F475B",
"{$	c #253947",
"]$	c #233545",
"^$	c #1C2B39",
"/$	c #2B4154",
"($	c #2D4456",
"_$	c #243846",
":$	c #395367",
"<$	c #344B60",
"[$	c #1E3140",
"}$	c #253747",
"|$	c #283E4F",
"1$	c #35393E",
"2$	c #313A41",
"3$	c #293D4F",
"4$	c #1B2C39",
"5$	c #30465A",
"6$	c #375064",
"7$	c #33495B",
"8$	c #17242E",
"9$	c #203444",
"0$	c #2F475A",
"a$	c #353A3E",
"b$	c #313A42",
"c$	c #182734",
"d$	c #223544",
"e$	c #18242F",
"f$	c #283C4B",
"g$	c #1D2D39",
"h$	c #1C2C39",
"i$	c #314C60",
"j$	c #2B475C",
"k$	c #213D51",
"l$	c #243E50",
"m$	c #17242F",
"n$	c #1D2E3C",
"o$	c #253B4D",
"p$	c #253E52",
"q$	c #2A465A",
"r$	c #1E2F3B",
"s$	c #1D2E39",
"t$	c #1F303D",
"u$	c #1C2C38",
"v$	c #2E4352",
"w$	c #2B3E4E",
"x$	c #30485C",
"y$	c #37546B",
"z$	c #1F4965",
"A$	c #1A74A2",
"B$	c #2A495E",
"C$	c #2A4153",
"D$	c #1A2935",
"E$	c #323B43",
"F$	c #1A2A36",
"G$	c #1C2D3A",
"H$	c #2C4659",
"I$	c #2A5B7B",
"J$	c #265F82",
"K$	c #305069",
"L$	c #365064",
"M$	c #233542",
"N$	c #22323F",
"O$	c #1F2E39",
"P$	c #1E2D38",
"Q$	c #20313D",
"R$	c #20303B",
"S$	c #1D2C37",
"T$	c #355065",
"U$	c #1D4864",
"V$	c #127BB7",
"W$	c #2A4A61",
"X$	c #2C4356",
"Y$	c #283E4E",
"Z$	c #1B2B38",
"`$	c #2E4A5E",
" %	c #286388",
".%	c #246287",
"+%	c #2F4E66",
"@%	c #202F3A",
"#%	c #1B2A34",
"$%	c #202F3C",
"%%	c #233440",
"&%	c #1D2C36",
"*%	c #21303B",
"=%	c #21313D",
"-%	c #21333F",
";%	c #385268",
">%	c #1E4864",
",%	c #137BB9",
"'%	c #2B4B61",
")%	c #273C4C",
"!%	c #303941",
"~%	c #2F4A5E",
"{%	c #296489",
"]%	c #236389",
"^%	c #2F4F66",
"/%	c #30485D",
"(%	c #233441",
"_%	c #21303D",
":%	c #243542",
"<%	c #21303C",
"[%	c #1E4966",
"}%	c #0F7CC1",
"|%	c #2B4A61",
"1%	c #283D4D",
"2%	c #2B404F",
"3%	c #363A3D",
"4%	c #313B43",
"5%	c #28658A",
"6%	c #23668D",
"7%	c #2F5067",
"8%	c #2E475A",
"9%	c #334C5F",
"0%	c #233643",
"a%	c #223440",
"b%	c #263745",
"c%	c #2E4253",
"d%	c #385368",
"e%	c #1F4966",
"f%	c #0E7DC4",
"g%	c #2C4B62",
"h%	c #36393D",
"i%	c #313A43",
"j%	c #2A6488",
"k%	c #22668F",
"l%	c #2F5069",
"m%	c #2A3E50",
"n%	c #365267",
"o%	c #1E4765",
"p%	c #1279C2",
"q%	c #2D4A61",
"r%	c #303A44",
"s%	c #2A668B",
"t%	c #216690",
"u%	c #2F526B",
"v%	c #2C4456",
"w%	c #32485B",
"x%	c #365167",
"y%	c #1277C2",
"z%	c #2F485D",
"A%	c #2B658A",
"B%	c #206692",
"C%	c #30526B",
"D%	c #31495E",
"E%	c #293F4F",
"F%	c #293F50",
"G%	c #233745",
"H%	c #354F65",
"I%	c #1E4967",
"J%	c #107AC4",
"K%	c #2E4C63",
"L%	c #363A3E",
"M%	c #313B45",
"N%	c #293E4D",
"O%	c #1B2B36",
"P%	c #2F495E",
"Q%	c #2B658C",
"R%	c #1F6693",
"S%	c #30536D",
"T%	c #2C4457",
"U%	c #344F64",
"V%	c #0F7BC7",
"W%	c #2D4C63",
"X%	c #2F3A43",
"Y%	c #2C658B",
"Z%	c #1F6692",
"`%	c #30526C",
" &	c #2D4458",
".&	c #283C4D",
"+&	c #26394A",
"@&	c #1E4763",
"#&	c #0F7AC6",
"$&	c #2C4C63",
"%&	c #2F4A5F",
"&&	c #21668F",
"*&	c #2F5169",
"=&	c #2C4255",
"-&	c #2A4050",
";&	c #283D4E",
">&	c #204763",
",&	c #0F7CC6",
"'&	c #303B44",
")&	c #216790",
"!&	c #2A4152",
"~&	c #1F4763",
"{&	c #0E7DC5",
"]&	c #2C4D64",
"^&	c #2F3B45",
"/&	c #2B4253",
"(&	c #304A5F",
"_&	c #22658F",
":&	c #2F4759",
"<&	c #1F4864",
"[&	c #0D7EC7",
"}&	c #2D4E65",
"|&	c #2B6386",
"1&	c #23648C",
"2&	c #1D445F",
"3&	c #127CBC",
"4&	c #2B4B62",
"5&	c #18252E",
"6&	c #36393C",
"7&	c #2F3A44",
"8&	c #2E4559",
"9&	c #2D475B",
"0&	c #2B6081",
"a&	c #266083",
"b&	c #2B4A60",
"c&	c #253A4A",
"d&	c #2A3F52",
"e&	c #1F3A4E",
"f&	c #2A5875",
"g&	c #253F53",
"h&	c #254A62",
"i&	c #224862",
"j&	c #1C3040",
"k&	c #263949",
"l&	c #253A49",
"m&	c #2C4759",
"n&	c #244055",
"o&	c #254F69",
"p&	c #243C4E",
"q&	c #2E3A43",
"r&	c #273E50",
"s&	c #25485E",
"t&	c #254962",
"u&	c #294458",
"v&	c #304758",
"w&	c #1D4561",
"x&	c #1B73A7",
"y&	c #28485F",
"z&	c #37393C",
"A&	c #293F51",
"B&	c #294356",
"C&	c #2A5F80",
"D&	c #255F83",
"E&	c #2C4960",
"F&	c #1D4764",
"G&	c #127BBD",
"H&	c #2A4B62",
"I&	c #2E3A45",
"J&	c #2C475B",
"K&	c #236289",
"L&	c #2E4D65",
"M&	c #1E4A67",
"N&	c #107CC4",
"O&	c #2A4A62",
"P&	c #293E4C",
"Q&	c #2E3A46",
"R&	c #2C485D",
"S&	c #29668C",
"T&	c #216590",
"U&	c #223443",
"V&	c #1E4866",
"W&	c #107BC4",
"X&	c #2D3A44",
"Y&	c #29668A",
"Z&	c #206792",
"`&	c #2D4F68",
" *	c #304859",
".*	c #1E4A68",
"+*	c #107BC3",
"@*	c #2A4961",
"#*	c #37393B",
"$*	c #2D3943",
"%*	c #2B475B",
"&*	c #1D4966",
"**	c #1279BD",
"=*	c #2A485F",
"-*	c #2D3A45",
";*	c #2B4559",
">*	c #296386",
",*	c #236489",
"'*	c #2D4F67",
")*	c #2B4252",
"!*	c #1579B5",
"~*	c #29485E",
"{*	c #2B4558",
"]*	c #296082",
"^*	c #256083",
"/*	c #2A3D4C",
"(*	c #263B4C",
"_*	c #1D2F3B",
":*	c #1A384C",
"<*	c #21526E",
"[*	c #253E51",
"}*	c #2C3842",
"|*	c #214962",
"1*	c #204962",
"2*	c #2B4457",
"3*	c #1A2A37",
"4*	c #1A3040",
"5*	c #2C3742",
"6*	c #1D303F",
"7*	c #1C2E3D",
"8*	c #263845",
"9*	c #17232E",
"0*	c #2C3944",
"a*	c #253A48",
"b*	c #38393B",
"c*	c #2D3B45",
"d*	c #15212A",
"e*	c #37393A",
"f*	c #2B3944",
"g*	c #152029",
"h*	c #1F303B",
"i*	c #213341",
"j*	c #213442",
"k*	c #213340",
"l*	c #273C4A",
"m*	c #273A48",
"n*	c #38393A",
"o*	c #2C3945",
"p*	c #20313F",
"q*	c #172B39",
"r*	c #182833",
"s*	c #2B3844",
"t*	c #172936",
"u*	c #213647",
"v*	c #253845",
"w*	c #284155",
"x*	c #1B3F56",
"y*	c #255A77",
"z*	c #1F394B",
"A*	c #273B49",
"B*	c #293F4E",
"C*	c #2A3843",
"D*	c #223746",
"E*	c #285773",
"F*	c #1B445D",
"G*	c #223E53",
"H*	c #294357",
"I*	c #1D4159",
"J*	c #1973A8",
"K*	c #24648A",
"L*	c #2B495F",
"M*	c #293642",
"N*	c #275471",
"O*	c #0F7DC0",
"P*	c #1E4964",
"Q*	c #264257",
"R*	c #294153",
"S*	c #1D3F56",
"T*	c #1C6F9F",
"U*	c #1E6D9C",
"V*	c #2D536D",
"W*	c #293743",
"X*	c #304D64",
"Y*	c #285E81",
"Z*	c #0980C9",
"`*	c #1E4863",
" =	c #264055",
".=	c #273C4D",
"+=	c #1B3648",
"@=	c #1A72A5",
"#=	c #2D5570",
"$=	c #192833",
"%=	c #2A3844",
"&=	c #24638A",
"*=	c #147AB2",
"==	c #1C3E54",
"-=	c #273C4B",
";=	c #1A3141",
">=	c #1D3B4F",
",=	c #285D7C",
"'=	c #2B536D",
")=	c #293844",
"!=	c #2F4D65",
"~=	c #285A78",
"{=	c #1F425A",
"]=	c #1A3346",
"^=	c #253C4E",
"/=	c #1B394F",
"(=	c #275876",
"_=	c #285A77",
":=	c #2A4C62",
"<=	c #293845",
"[=	c #2D4A60",
"}=	c #224D68",
"|=	c #206A96",
"1=	c #1C4057",
"2=	c #253F52",
"3=	c #253946",
"4=	c #263B4A",
"5=	c #1D3C53",
"6=	c #275777",
"7=	c #127DBD",
"8=	c #2C4E65",
"9=	c #1971A8",
"0=	c #216692",
"a=	c #1B3E56",
"b=	c #263E51",
"c=	c #283E51",
"d=	c #1E3D54",
"e=	c #265474",
"f=	c #2D5774",
"g=	c #2B465B",
"h=	c #182630",
"i=	c #21323E",
"j=	c #383939",
"k=	c #263641",
"l=	c #2C4559",
"m=	c #2E526D",
"n=	c #1474B3",
"o=	c #236189",
"p=	c #1B3D56",
"q=	c #263C4F",
"r=	c #283F50",
"s=	c #1D3C54",
"t=	c #234E6C",
"u=	c #0782D3",
"v=	c #2B5B7B",
"w=	c #2C485E",
"x=	c #15222A",
"y=	c #263440",
"z=	c #141F27",
"A=	c #2C4458",
"B=	c #2D5470",
"C=	c #0E7ABF",
"D=	c #265B7D",
"E=	c #1A3A4F",
"F=	c #243A4B",
"G=	c #243948",
"H=	c #1E3B50",
"I=	c #1F4C6A",
"J=	c #0382DA",
"K=	c #2A5C7E",
"L=	c #2C4A60",
"M=	c #24323F",
"N=	c #233642",
"O=	c #141E26",
"P=	c #0E7CC3",
"Q=	c #275676",
"R=	c #193549",
"S=	c #25394B",
"T=	c #1E3241",
"U=	c #193950",
"V=	c #295F82",
"W=	c #2C4A62",
"X=	c #1E2E39",
"Y=	c #1C2933",
"Z=	c #151F27",
"`=	c #2B5471",
" -	c #1A2C3A",
".-	c #253A4B",
"+-	c #162936",
"@-	c #1A3447",
"#-	c #2B516C",
"$-	c #2D4B61",
"%-	c #1C2C37",
"&-	c #333537",
"*-	c #282D32",
"=-	c #284F69",
"--	c #1E4256",
";-	c #162733",
">-	c #162835",
",-	c #283C4A",
"'-	c #101C25",
")-	c #141D26",
"!-	c #353738",
"~-	c #252E35",
"{-	c #24394A",
"]-	c #1A2D3A",
"^-	c #172430",
"/-	c #213342",
"(-	c #203340",
"_-	c #16242E",
":-	c #182732",
"<-	c #152531",
"[-	c #122C3E",
"}-	c #103C55",
"|-	c #383839",
"1-	c #212F3A",
"2-	c #2E4556",
"3-	c #2B4354",
"4-	c #17252F",
"5-	c #273D4C",
"6-	c #1C303D",
"7-	c #162C3B",
"8-	c #124361",
"9-	c #11688D",
"0-	c #103447",
"a-	c #35383A",
"b-	c #29343E",
"c-	c #324859",
"d-	c #1A2933",
"e-	c #1B3140",
"f-	c #153143",
"g-	c #134B6C",
"h-	c #0B729B",
"i-	c #10394F",
"j-	c #35383B",
"k-	c #293640",
"l-	c #2C4558",
"m-	c #273D4E",
"n-	c #213645",
"o-	c #245570",
"p-	c #27455C",
"q-	c #263C4D",
"r-	c #163449",
"s-	c #144D6E",
"t-	c #0A749E",
"u-	c #103B52",
"v-	c #283641",
"w-	c #284255",
"x-	c #263F52",
"y-	c #205371",
"z-	c #233B4D",
"A-	c #233B4C",
"B-	c #127CA8",
"C-	c #274F6C",
"D-	c #263D4F",
"E-	c #153449",
"F-	c #154D6F",
"G-	c #0774A3",
"H-	c #103B53",
"I-	c #29495F",
"J-	c #0E7BAD",
"K-	c #234358",
"L-	c #1B2B37",
"M-	c #243E4F",
"N-	c #0A84B7",
"O-	c #28516F",
"P-	c #273E51",
"Q-	c #294051",
"R-	c #1B303F",
"S-	c #153247",
"T-	c #144C6E",
"U-	c #0675A5",
"V-	c #0F3A52",
"W-	c #284256",
"X-	c #283E4D",
"Y-	c #2A4B61",
"Z-	c #0783B8",
"`-	c #24455B",
" ;	c #0E81B0",
".;	c #28506C",
"+;	c #153347",
"@;	c #144C6D",
"#;	c #0973A0",
"$;	c #28343F",
"%;	c #274053",
"&;	c #2A495F",
"*;	c #0C7EAC",
"=;	c #283A48",
"-;	c #233848",
";;	c #275E7C",
">;	c #29475D",
",;	c #1C3141",
"';	c #153043",
");	c #144A6B",
"!;	c #0975A1",
"~;	c #103B51",
"{;	c #284154",
"];	c #275B77",
"^;	c #243C4F",
"/;	c #2A3D4B",
"(;	c #263F51",
"_;	c #1D3241",
":;	c #152D3D",
"<;	c #144764",
"[;	c #0D7299",
"};	c #11384D",
"|;	c #35373A",
"1;	c #28323C",
"2;	c #283F51",
"3;	c #273F51",
"4;	c #16222D",
"5;	c #15364A",
"6;	c #124D69",
"7;	c #212F3B",
"8;	c #1B2D3A",
"9;	c #172A3A",
"0;	c #2D373F",
"a;	c #1E2C37",
"b;	c #1C2D39",
"c;	c #2F3439",
"d;	c #333639",
"e;	c #1E3749",
"f;	c #27526E",
"g;	c #27455B",
"h;	c #2F363C",
"i;	c #204A63",
"j;	c #214A60",
"k;	c #1B2E3C",
"l;	c #263847",
"m;	c #2E4759",
"n;	c #224259",
"o;	c #0880D0",
"p;	c #285C7E",
"q;	c #254259",
"r;	c #33363A",
"s;	c #2E343A",
"t;	c #24526F",
"u;	c #088ACD",
"v;	c #254E68",
"w;	c #2A4254",
"x;	c #2F4C62",
"y;	c #285372",
"z;	c #008AE3",
"A;	c #275675",
"B;	c #254156",
"C;	c #2E3439",
"D;	c #283F53",
"E;	c #244E69",
"F;	c #0683D2",
"G;	c #276083",
"H;	c #2F5168",
"I;	c #295979",
"J;	c #0087E2",
"K;	c #265270",
"L;	c #253F54",
"M;	c #17252E",
"N;	c #33373A",
"O;	c #2E353B",
"P;	c #273D4F",
"Q;	c #254A63",
"R;	c #0A7ECC",
"S;	c #216997",
"T;	c #294E68",
"U;	c #2B4356",
"V;	c #2B4E66",
"W;	c #266088",
"X;	c #0188DB",
"Y;	c #25516E",
"Z;	c #263F53",
"`;	c #34373B",
" >	c #2F353C",
".>	c #1479B7",
"+>	c #1B71A7",
"@>	c #284E68",
"#>	c #2D475C",
"$>	c #2B4F67",
"%>	c #236692",
"&>	c #117EBB",
"*>	c #234C66",
"=>	c #274052",
"->	c #34373A",
";>	c #2E353C",
">>	c #26475D",
",>	c #1D6F9E",
"'>	c #1577B4",
")>	c #28506B",
"!>	c #2D485D",
"~>	c #213441",
"{>	c #223342",
"]>	c #2D485B",
"^>	c #2B4F68",
"/>	c #226994",
"(>	c #256487",
"_>	c #213E51",
":>	c #2B3F4E",
"<>	c #213A4C",
"[>	c #205571",
"}>	c #137AB1",
"|>	c #274F69",
"1>	c #304D63",
"2>	c #2E495D",
"3>	c #27465C",
"4>	c #224358",
"5>	c #224A66",
"6>	c #234258",
"7>	c #1B2B35",
"8>	c #264256",
"9>	c #1E4B64",
"0>	c #204157",
"a>	c #24465C",
"b>	c #2E4C61",
"c>	c #244155",
"d>	c #0C7EC5",
"e>	c #23648E",
"f>	c #24435A",
"g>	c #16212A",
"h>	c #34383B",
"i>	c #2E363C",
"j>	c #274357",
"k>	c #235572",
"l>	c #0886C7",
"m>	c #23475E",
"n>	c #2F4B60",
"o>	c #26516F",
"p>	c #0083DD",
"q>	c #265C82",
"r>	c #234157",
"s>	c #152129",
"t>	c #2D353C",
"u>	c #264054",
"v>	c #224F6C",
"w>	c #0588D4",
"x>	c #265471",
"y>	c #2F4D63",
"z>	c #0181DA",
"A>	c #255372",
"B>	c #0882CF",
"C>	c #27597A",
"D>	c #2C4C64",
"E>	c #2E516A",
"F>	c #245170",
"G>	c #1774AD",
"H>	c #1E3C51",
"I>	c #2D343B",
"J>	c #1E3546",
"K>	c #206A99",
"L>	c #294D66",
"M>	c #1D2D38",
"N>	c #2A485C",
"O>	c #203E52",
"P>	c #192A38",
"Q>	c #172733",
"R>	c #1F3C4F",
"S>	c #28455A",
"T>	c #1F313E",
"U>	c #2C353B",
"V>	c #2C333B",
"W>	c #213241",
"X>	c #343739",
"Y>	c #2C333A",
"Z>	c #15222D",
"`>	c #1D2E3A",
" ,	c #182834",
".,	c #1E2F3C",
"+,	c #353739",
"@,	c #182632",
"#,	c #162D3D",
"$,	c #17455B",
"%,	c #1D3342",
"&,	c #18384B",
"*,	c #16394E",
"=,	c #23394A",
"-,	c #1F2E3C",
";,	c #163E57",
">,	c #1A7198",
",,	c #204054",
"',	c #2B3239",
"),	c #253D4F",
"!,	c #255673",
"~,	c #1F5978",
"{,	c #244257",
"],	c #17425D",
"^,	c #147AAD",
"/,	c #204359",
"(,	c #295D7D",
"_,	c #235E7F",
":,	c #25455B",
"<,	c #184461",
"[,	c #107CB7",
"},	c #22445B",
"|,	c #2A3239",
"1,	c #2A5E7F",
"2,	c #225F82",
"3,	c #18435F",
"4,	c #107CB8",
"5,	c #21445B",
"6,	c #2A323A",
"7,	c #2A5F7F",
"8,	c #235F83",
"9,	c #24445B",
"0,	c #18425E",
"a,	c #0F7DBB",
"b,	c #21445C",
"c,	c #14212B",
"d,	c #243F53",
"e,	c #295F7F",
"f,	c #236084",
"g,	c #20323F",
"h,	c #17415D",
"i,	c #117CB9",
"j,	c #243E52",
"k,	c #2A5F7E",
"l,	c #226084",
"m,	c #25394A",
"n,	c #17405B",
"o,	c #147AB1",
"p,	c #204257",
"q,	c #293138",
"r,	c #223C4E",
"s,	c #2A5E7C",
"t,	c #234359",
"u,	c #173D57",
"v,	c #1677AA",
"w,	c #204155",
"x,	c #2A3139",
"y,	c #2A5C79",
"z,	c #255D7D",
"A,	c #214055",
"B,	c #1D2F3D",
"C,	c #17354A",
"D,	c #21607E",
"E,	c #1D394C",
"F,	c #293139",
"G,	c #203646",
"H,	c #204F6A",
"I,	c #1E506B",
"J,	c #1A3345",
"K,	c #182D3B",
"L,	c #1F3E52",
"M,	c #1C2F3D",
"N,	c #1F3340",
"O,	c #1E384B",
"P,	c #1F394D",
"Q,	c #1A2B39",
"R,	c #202F3D",
"S,	c #1A3F57",
"T,	c #1C6A8D",
"U,	c #1D3C4F",
"V,	c #293038",
"W,	c #21394A",
"X,	c #23536F",
"Y,	c #1F5471",
"Z,	c #27455A",
"`,	c #153F59",
" '	c #1578A7",
".'	c #1F4055",
"+'	c #283038",
"@'	c #2A5C7A",
"#'	c #225978",
"$'	c #224258",
"%'	c #263A4B",
"&'	c #16415C",
"*'	c #137AB0",
"='	c #363739",
"-'	c #233C4E",
";'	c #2A5E7E",
">'	c #235A7A",
",'	c #253849",
"''	c #127BB1",
")'	c #223B4D",
"!'	c #225B7C",
"~'	c #234257",
"{'	c #17425E",
"]'	c #117CB4",
"^'	c #20445A",
"/'	c #273037",
"('	c #2B5F7F",
"_'	c #235D7E",
":'	c #107DB7",
"<'	c #272F37",
"['	c #223A4C",
"}'	c #245C7E",
"|'	c #244359",
"1'	c #107DB9",
"2'	c #20435A",
"3'	c #223C4D",
"4'	c #24445A",
"5'	c #192730",
"6'	c #17405C",
"7'	c #363738",
"8'	c #272F36",
"9'	c #111C23",
"0'	c #233C4D",
"a'	c #2B607F",
"b'	c #235C7F",
"c'	c #163F5B",
"d'	c #127AB7",
"e'	c #204258",
"f'	c #262E35",
"g'	c #235B7E",
"h'	c #224157",
"i'	c #152028",
"j'	c #1B2832",
"k'	c #18232C",
"l'	c #153E59",
"m'	c #1379AF",
"n'	c #1E4156",
"o'	c #225C7E",
"p'	c #17222B",
"q'	c #17232C",
"r'	c #19252E",
"s'	c #142129",
"t'	c #143D57",
"u'	c #1279A9",
"v'	c #1D4056",
"w'	c #242C33",
"x'	c #223A4B",
"y'	c #2B5E7B",
"z'	c #225B7D",
"A'	c #223F54",
"B'	c #162129",
"C'	c #19262F",
"D'	c #273946",
"E'	c #133A51",
"F'	c #167198",
"G'	c #1C3D51",
"H'	c #232B32",
"I'	c #21384A",
"J'	c #205978",
"K'	c #213C4F",
"L'	c #293B49",
"M'	c #142B3C",
"N'	c #184057",
"O'	c #1B2E3D",
"P'	c #17384E",
"Q'	c #294050",
"R'	c #243848",
"S'	c #253C4C",
"T'	c #142430",
"U'	c #232C33",
"V'	c #172835",
"W'	c #1F3749",
"X'	c #182F3E",
"Y'	c #263D4E",
"Z'	c #263D4D",
"`'	c #233846",
" )	c #111F2A",
".)	c #0F1A23",
"+)	c #242C34",
"@)	c #1B2A37",
"#)	c #131F29",
"$)	c #15232D",
"%)	c #12202A",
"&)	c #111C25",
"*)	c #373738",
"=)	c #232B34",
"-)	c #14212A",
";)	c #111D25",
">)	c #232B33",
",)	c #22313F",
"')	c #222B33",
"))	c #373838",
"!)	c #16232E",
"~)	c #222A32",
"{)	c #202A32",
"])	c #21303F",
"^)	c #23333F",
"/)	c #202931",
"()	c #1F272E",
"_)	c #202E3B",
":)	c #0E181F",
"<)	c #0F1820",
"[)	c #0F1920",
"})	c #101920",
"|)	c #101A20",
"1)	c #0E161C",
"2)	c #0F171F",
"3)	c #0F1921",
"4)	c #111E28",
"5)	c #1E262D",
"6)	c #121F28",
"7)	c #111C26",
"8)	c #0D161E",
"9)	c #101A21",
"0)	c #101B23",
"a)	c #101B22",
"b)	c #0D181F",
"c)	c #0C161C",
"d)	c #141F29",
"e)	c #131E28",
"f)	c #132029",
"g)	c #13222D",
"h)	c #132939",
"i)	c #162530",
"j)	c #1B2229",
"k)	c #142938",
"l)	c #132431",
"m)	c #14222C",
"n)	c #13212A",
"o)	c #132028",
"p)	c #121D27",
"q)	c #253644",
"r)	c #25323D",
"s)	c #2B3E4D",
"t)	c #273746",
"u)	c #263643",
"v)	c #23313D",
"w)	c #24343F",
"x)	c #24333F",
"y)	c #24313E",
"z)	c #253440",
"A)	c #23313C",
"B)	c #22303C",
"C)	c #23303C",
"D)	c #23313E",
"E)	c #243440",
"F)	c #283845",
"G)	c #253441",
"H)	c #24313F",
"I)	c #263442",
"J)	c #283744",
"K)	c #273643",
"L)	c #263542",
"M)	c #253542",
"N)	c #263543",
"O)	c #23323E",
"P)	c #25343F",
"Q)	c #242F38",
"R)	c #273543",
"S)	c #253541",
"T)	c #243441",
"U)	c #253442",
"V)	c #25333F",
"W)	c #222F3B",
"X)	c #212C39",
"Y)	c #232F3B",
"Z)	c #222F39",
"    . . + @ #     @ $ @ # @ % & * & = - # * = = = ; = > > > , , ' = ) ! ' ; ; = = , ; = ; ) ! ~ ! ! ! { ] ^ ^ / ( _ : : : : : : : : : : : : : : : : : _ < ! ! ^ ^ ^ [ ^ ] } ) ! ! | ! ) = = 1 = ! = = = = , = = = = ; = = = = = 2 * * % 3 * 2 - - * # %     4   5 #   6 ",
"7 8 7 9 0 a b 9 b c c d e c f g e h i h j k l m m n o m l l o o o h p q q o o m o r s t n t u v u v w x y x z A B C : : : : : : : : : : : : : : : : : C D E F z A G y w w q n v E v o m m p i o E t r o m n H H o r q o H I I J K L M e e e M j h h e c g b 8 9 b N N N ",
"O O P P O Q P R P S S T T U P P Q V V W W W V V X Y Y Z Z Z Y ` Y  .V ..+.Y Y @.` ..+...#.$.%.&.*.&.=.-.;.>.,.,.'.).: : : : : : : : : : : : : : : : : !.~.{.].^.-.{.{./.&.(...%.*.%._._.......:.#...Y Y Z <.Z _.Y ...._.[.` ` }.|.V V W  .T  .1.V 1.T S T T P 2.P S S S ",
"3.4.5.6.7.5.6.5.5.8.8.9.8.5.6.7.5.0.0.9.0.0.0.a.b.c.c.0.c.c.c.c.d.a.e.f.d.f.f.f.d.d.f.c.c.c.f.f.g.d.h.i.j.k.l.m.n.o.: : : : : : : : : : : : : : : : : p.q.r.s.t.u.v.w.w.w.g.f.g.w.w.f.d.d.d.d.w.x.f.c.f.0.e.c.f.f.g.g.f.c.f.f.c.c.c.c.c.e.9.9.c.c.e.9.8.9.9.5.5.4.7.5.5.",
"y.y.z.A.B.y.A.C.y.y.y.y.y.y.y.D.E.F.y.E.y.y.G.H.E.A.A.C.F.y.C.y.D.y.C.y.G.D.I.y.E.y.C.J.K.w.x.K.L.y.y.M.N.O.P.Q.'.R.: : : : : : : : : : : : : : : : : S.T.U.-.V.W.X.Y.C.C.A.K.K.Y.y.G.H.Z.`.I.G.`.H.E.y.E.y.E. +`.G.E.E.E.D..+++++H.`.D.I.y.E.E.y.F.@+y.F.F.C.z.z.J.#+#+",
"$+$+%+&+&+*+=+=+=+-+-+$+-+q.q.q.m.;+;+;+r.r.>+,+'+'+'+)+!+!+!+~+~+'+'+{+Q Q T ]+}.^+]+V %./.,./+(+,._+:+<+].J [+}+|+: : : : : : : : : : : : : : : : : 1+2+3+:+4+5+6+7+8+9+0+-.,.^+` #.#...+.` a+` P )+b+)+~+c+!+Q d+{+e+'+>+'+'+'+l.f+r.f+r.>+;+$+*+s.;+;+$+$+*+=+g+=+h+",
"&.].%.` ` i+j+i+k+#.#.` @...#...}. . . .l+}.` k+m+&.&.].&._+&.m+m+` ` &.-.-.-.,.n+6+0+,.o+J p+q+[+r+[+s+t+u+v+w+x+y+: : : : : : : : : : : : : : : : : z+A+B+C+^.D+E+F+G+H+q+I+3+J+K+J+(+L+M+,.-.,._+j+].].N+7+7+O+N+_+m++.` O.P+O.l+}.P+].N+].k+` k+m+m+m+k++.` ` ` ` ` ",
"Q+,.-.R+=.=.].=.7+7+&.+.` +.i+S+q+H+T+H+U+V+r+E+W+X+Y+Z+`+ @`+U+Y+U+Y+.@+@@@#@$@%@&@*@=@%.p+-@;@B+U+X+>@,@U.-@'@S+)@: : : : : : : : : : : : : : : : : !@q+;@~@{@`+Y+W+]@^@/@B+,.>.(@_@%@:@@@<@[@}@X+Y+Z+|@Z+}@W+X+1@2@E+G+U+3@F+1@1@4@r+H+6+&.].m+m+k+k+j+&.].m+m+#.#.i+",
"5@6@7@M 8@9@f e e 7@o+0@9@a@0@R+n H+H+q+r+B+w+U+`+`+U+b@`+c@s+U+d@U+U+]@e@e@e@$@f@g@h@i@j@[+w+k@[+w+l@m@n@o+o@p@q@r@: : : : : : : : : : : : : : : : : s@t@p@u@v@m@>@w@s+r+s+U+x@2+{@[+y@$@|@w@z@A@X+B@}@e@|@>@z@`+U+E+3@3@/@w+C@U+1@G+F M+a@6@i@D@P.{@T.E@F@f o+e a@a@G@",
"I+I+5@H@6@6@I+p+p+p+I@H@I+J H@P.%.4@3@w+G+G+G+U+J@w@Z+}@e@}@w@K@]@`+L@}@%@#@M@M@N@O@P@Q@R@v+;@;@-@o@S@T@U@F@'@V@W@X@: : : : : : : : : : : : : : : : : Y@k@s+V@Z@`@T@m@ #[+.#p@+#H@@#v+##`@$#%#|@|@}@z@e@&#e@$@e@*#z@s+V@s+U+d@p@`+`+|@M+8+p+[+=#7@Q.0@-#7@J I+H@I+I+H@7@",
"=#q+J J I@I@=#q+q+=#q+=#p+q+=#o+;.;#>#w+U+U+G+,#|@&#$@'#)#T@$@T@*#*#w@T@#@!#N@##!#O@~#'+R@C+d@p@{#]#]@##u@F@p@z@K X@: : : : : : : : : : : : : : : : : ^#/@,#p@/#T@(#'#{#-@>@/@T.O+_#C+:#l@$@!#$@<#$@|@#@$@&#[#!#N@$@|@}#}@A@s+p@]@Z+|#J+F@v+w+[+1#7@2#3#M 4#p+p+p+I+I+=#",
"[+t@q+v+[+[+3+3+q+=#v+[+v+v+=#M T.5#6#U+X+,#U+B@}@7#8#9#8#)#!#N@$@$@$@$@<#8#8#0#a#b#c#l+d#e#p@V@p@p@f#T@U@6@s+]@K g#: : : : : : : : : : : : : : : : : h#p@]@p@i#T@##}@s+s+'#'@-#{@j#o@!#e@N@(#!#[#[#k#8#$@$@l#l#9#8#!#<#$@&#}@s+X+}@m#(+7@[+r+n#4#o#d#=#I+p#q+q+v+q+=#3+",
"3+[+=#=#v+[+q+=#3+q+q+v+[+q#q+H@x@:@r#`+]@}@}@|@$@$@[#l#8#)#!#s#!#!#)#N@(#8#s#t#u#v#w#4+=#p+p@l@w@V@]@M@u@I+x#]@I y#: : : : : : : : : : : : : : : : : z#p@K@s+A#m@l@>@V@]@&#U+7@+#B#w+s#C#D#N@s#E#l#F#G#N@$@8#H#I#G#9#9#[##@w@,#]@|@J#G@M K#K#=#q+=#=#q+p+p#[+q+q+L#v+q+",
"3+v+I@I@=#[+[+q+q+M#=#=#v+r+;@p#9@N#%@`+}@&#$@8#f@[#[#8#!#w@$@!#l#0#)#!#0#s#t#s#O#P#Q#R#I@M /@l@`@l@*#T@~@M S#K@F T#: : : : : : : : : : : : : : : : : U#s+K@p@V#W#g@u@g@`@T@X#t+0@*@-@0#8#M@Y#H#Z#9#`# $t#N@0#s#H#I#I#l#l#8#}@,#X+|@.$8@J [+v+v++$H@+$I+@$=#v+q+t@v+q+I ",
"I@[+p+I@#$t@r+H+[+[+L#p+A+3@G+B+a@$$[@,#`+}#e@<#8#:@8#8#$#K@g@`@8#!###8#s#)#C#t#%$&$*$R#+$7@^@f#'#K@l@l@ #F@g@l@F =$: : : : : : : : : : : : : : : : : -$`+*#;$^.u@u@~@l@##e@G+>$0@*@w+l#Z#N@N@t#9#`#9#I#f@####$@[#s#s#t#H#[#l@V@,#e@,$e q+r+w+r+B+=#=#=#+$d#v+[+[+[+L#I ",
"J 2+H@H@I+[+r+B+3@w+'$[+[+w+w+v+7 @@7#)$p@s+V@l@#@<#<#[#e@z@l@T@!##@)#0#s#!#0#!$u#~$Q#i+{$]$^@.#w@M@l@g@o@F@>@f#s T#: : : : : : : : : : : : : : : : : z#z@}@'@^$/$u@($T@T@K@'@_$Q@{@;@H#H#a#t#s#t#9#$@[#8#T@#@T@$@<#!#)#N@)#`@,#V@e@:$7@[+U+D+3@w+r+K#I@n#v+r+[+[+v+v+p+",
"H@M I+H@p+[+r+B+3@3@w+w+B+n#q+p+9@[@w@U+'@d@d@'@($$@@@#@$@w@l@e@#@e@##)#!#<$Z#a#t#D#[$j+}$M  #.#T@N@$@*#|$a@V@]@E 1$: : : : : : : : : : : : : : : : : 2$]@($3$4$W#g@l@T@*#}#p@2#j@A#^@s#I#l#9#0#0#!#$@9#f@&#T@$#`@%#$@T@5$$@##f#,#l@6$F@[+G+X#U+'@3@[+n#B+r+w+w+B+B+v+J ",
"i@H@v+q+r+w+B+B+r+3@w+3@B+n##$2+G@7$[@'@^@B+O+b+8$}.}.V  .Q Q T  . .}.#.6@##t#!#s#&$9$8@v+H@p@g@0$$#!#M@;$8$M d@E a$: : : : : : : : : : : : : : : : : b$.#'@` c$T@`@`@K@]@>@p@+$=#d$3@!$l#l#0#G+O+` O.` `  .8$8$e$}.}.l+]+i+]@]@B+,#9#8@f$'@)$p@w+r+t@B+G+3@G+w+r+r+[+p+",
"6@=#r+B+G+3@3@B+/@3@C@3@;@[+#$p+F@L J+j+j+j+j+0+,.g$].g$R+g$h$O+,.u+>.o+>.|@[#0#0#i$j$k$l$C+l@`@T@T@##M@ #m$ .d@'$a$: : : : : : : : : : : : : : : : : 2$s+F@8$n$:#T@`@f#X#]@V@o$p$q$!#8#8#s#t#J+U.T.h$r$6+g$g$s$^.h$0+8+t$^.T.>.u$M+I+7@r+p@s+U+'@G+3@3@4@G+U+3@r+[+v+I+",
"2+q+r+r+B+v+r+;@3@E+H+H+w+[+v+p+H@r#t@=#i@(+t$K+v$F@T.M+T.T.0+Q.L+P.6@w$s }@$@!#x$s#y$z$A$B$g@`@'#M@'#l@C$D$i+d@H+a$: : : : : : : : : : : : : : : : : E$G+v+F$G$M@*#g@f#s+f#H$I$J$K$L$9#N@##[#M$W+2+>.8+T.L+G@>.;.(+F@4@9+8+7@M q+F+[@[+-@d@V@)$G+U+G+U+3@C@C@w+B+[+v+H@",
"6@q+H+v+v+p+q+'$G+3@3@w+'@[+v+o#0@6#[+4#H@7 U.N$O$0@e P$Q$:.R$S$Y N$-.B+=#}@D#D#0$0#T$U$V$W$X$g@l@f#f#u@Y$F$i+'@w$=$: : : : : : : : : : : : : : : : : b$'@-@u$Z$}#g@u@V@u@l@`$ %.%+%0#T@*#x$[#7@)$6+N$|.K+O$:.@%Y 0@7@M$(+G@5@p+L#F+}@I@r+/@V@U+U+U+U+G+r+r+t@[+v+q+p#I+",
"d#K#K#q+v+#$q+r+G+p@/@3@G+^@v+d#0@[@w+f$F@#%M$U.$%,.5@-.P$%%&%*%=%$.-%'@H@z@T@D#m@:#;%>%,%'%f#z@V@p@]@p@)%D$` G+E+=$: : : : : : : : : : : : : : : : : !%p@r+u$k+*#W#f#V@X$*#~%{%]%^%/%m@m@M@t#F@U+:+#%K+-.@%9+:.N$U.G@N$6@6@K+a [+r+|@J B+;$s+d@U+s+U+p@w+4@r+v+=#q+[+p+",
"p+[+B+B+[+B+[+;@B+'@'@p@G+U+'@v+:+:@U+v+4#5@K+M$(%_%8+G@L+Q+:%K+<%:%7+K#=#B@M@x$m@M@;%[%}%|%u@]@.#.#V@V@1%D$^+2@2%3%: : : : : : : : : : : : : : : : : 4%p@r+h$#.l@*#l@W#l@l@&$5%6%7%v#8%m@:#9%7@s+0+0%g$J+S+O$a%/+7@T.J q+a%M$B+[+)$[@p+-@G+p@p@p@U+)$`+s+D+3@t@=#q+w+v+",
"J [+[+[+r+r+q+B+[+B+B+w+p@p@d@B+7@$$U+v+v+K#5@,.F@b%N$F@p#U+c%W+|@Y+B+d@v+B@M@x$0$x$d%e%f%g%f#g@u@~@V@,#v+D$|.E+w$h%: : : : : : : : : : : : : : : : : i%G+B+N+` S@*#l@($*#`@~%j%k%l%v#0$0$M@!#M B@w+d@;$U+D+F+w+p#7 q+v+a o+w+B+B+`+%@p+v+'@p@p@p@p@p@)$G+X+)$w+B+r+r+[+",
"2+'$r+;@U+w+q+B+/@G+;@r+m%o@/@-@7@+@D+^@B+B+'@6@=#M#@$3#m%V@V@V@>@g@~@~@d#X+N@N@D#P#n%o%p%q%l@`@f#u@u@d@v+D$ .3@F+h%: : : : : : : : : : : : : : : : : r%p@B+].` S@m@m@g@l@T@&$s%t%u%v#M@0$P#<#0@d@]@v%u@`+($,#p@'@7@B+/@q+p@{#'@/@u@w%H@=#^@;@'@;$G+G+w+v+U+/@r+r+w+F+[+",
"I+v+[+3@d@d@B+-@/@;$;@B+B+o@o@B+H@%@`+w+'@'@U+d@K#v+=#}$'@V@]@,#.#X$~@d@1#z@T@##5$x$x%[%y%q%'#e@*#($d@d@v+k+8$r+C@h%: : : : : : : : : : : : : : : : : r%U+B+].` S@g@g@u@g@:#z%A%B%C%0#D%0$`@%#7@u@f#g@u@($($K@d@'@M w+;$p@s+p@3$d@K@&#p+1%o@'@'@E%;$'@^@B+w+'@B+[+w+H+v+",
"i@#$f$3@d@)$p@;@;$;$3$1%-@-@1%1%n#q+U+p@~@V@]@g@d@/@-@=#p@]@W#}#g@u@F%F%G%U+K@w@}#M@H%I%J%K%$#$@w@l@f#v%K#m+]+r+r+L%: : : : : : : : : : : : : : : : : M%&@N%O%..S@f#g@g@T@D#P%Q%R%S%0#Y#0$0$N@7@u@*#*#l@l@f#f#d@p@H@p@p@p@s+V@;$p@]@w+d#^@'@'@o@o@o@;$'@w+'@r+-@r+r+t@n#",
"i@I@=#B+-@/@d@^@1%1%o@'@d@;$)%C+4#D@d@'@p@V@u@u@f#>@'@1#d@V@v%W#T%X$ #{#2#U+f#x#'#M@U%I%V%W%`@##$@`@*#f#^@j+ .r+H+h%: : : : : : : : : : : : : : : : : X%d@K#j+:.S@l@l@`@0$0$~%Y%Z%`%0#/% &0$<#-#u@*#m@*#S@f#V@s+p@I+d@U+V@]@]@p@s+X+a@5+o@.&;@^@o@'@'@;$-@-@q+v+v+v+q+I@",
"6@M 1#=#C+1%o@^@v+B+3${#;@d@1%o#C+H@s+'@m%d@V@V@g@l@{#+&p@V@V@X$u@X$ # #8@'@]@x#S#T@H#@&#&$&m@T@T@e@S@V@B+m+T w+r+h%: : : : : : : : : : : : : : : : : X%p@q+m+` U@v%v%*#0$P#%&Y%&&*&Y#m@g@m@<#]$=&0$0$l@u@u@s+p@'@p+s+V@u@]@s+;$p@z@+$.&^@1%3$^@o@;@o@F%^@v++$I+p+I@p+I+",
"I+H@H@d#5+K#;@3$.&o@m%3$]#-&1%o#;&C+s+'@'@d@V@l@w@e@;$o#{#V@u@X$~@~@F% #2#r+.#]@]@`@l#>&,&$&*#e@&#w@($u@B+m+8$w+w+3%: : : : : : : : : : : : : : : : : '&;$n#k+a+s+~@~@l@T@x$P%Y%)&*&Y# &m@`@<#7@f#D#0$*#u@U@d@ #]#M#/@p@u@]@d@'@'@z@o#1%1%^@;&;&o@{#{#o@o@n#H@{$=#=#J {$",
"H@H@=#=#C+B+/@^@1%^@^@^@m%o@K#e#;&C+U+G+;$V@V@($*#`@d@o#;$V@U@U@U@!&F%F%7@/@V@~@~@`@l#~&{&]&5$&#e@>@g@u@t@m+ .w+w+3%: : : : : : : : : : : : : : : : : ^&p@3+k+|./&d@p@g@m@M@(&A%_&7%N@g@*#0$!#6@($`@:&0$ &U@~@ #{#}$o@~@s+f#d@{#d@]@1#v+^@;$]#-@o@-@^@o@;$v+p+q+v+q+I+I+",
"H@6@p+d#=#K#'@'@3$o@^@^@o@-@-@C+o@1%Y+G+;$s+u@]@>@l@d@e#F%;$F%~@V@~@ # #2#p@V@{#d@w@t#<&[&}&`@|@w@($u@/&K#m+ .3@w+h%: : : : : : : : : : : : : : : : : = G+q+k+}.d@d@ #f#*#T@`$|&1&^%x$W#*#T@[#7@($T@$#*#g@~@ #;${#+$'@~@~@g@d@]# # @d#1%K#'@o@{#;$1%1%'@s+B+n##$q+p+2+H@",
"6@M +$p#v+v+K#C+o@^@o@o@o@o@]#^@1%C+U+'@;$p@s+($l@l@d@e#^@ #/&&@V@~@!&o@-#'@s+d@S@'#m@2&3&4& &l@K@]@]@~@n#m+5&'@H+6&: : : : : : : : : : : : : : : : : 7&'@p+i+` u@ #{#]@l@8&9&0&a&b&T@`@l@M@[#F@f#w@`@`@($U@!&'@]#M m% #d@]@ #o@]#`+n#1%1%o@)%o@'@o@-@G+d@-@v+q+p+p+I+I+",
"5@M {$v+K#C+=#c&v+o@]#o@'@^@o@C+v+v+2@;&-@p@u@l@>@>@p@e#'@p@&@V@/$ #d&o@8@-@V@~@($m@h@e&f&g&U@($K@]@&@ #v+m+T w+H+6&: : : : : : : : : : : : : : : : : * w+p+j+a+&@d@d@u@u@&@C$h&i&j&;$`@S@`@#@i@($l@l@*#g@/&/& #;$F@^@'@p@u@p@1%'@)$=#o@v+o#o#5+^@'@'@'@;$K#v+p#=#p+{$6@",
"F@H@{$+$d#d#k&5+C+v+^@'@;$^@o@C+^@B+Y+;$o@;$l@>@S@S@ #l&/&s+V@g@u@ #{#o@d$-@V@d@u@M@m&n&o&p&p@s+`+s+V@d@I@` Q w+N%6&: : : : : : : : : : : : : : : : : q&-&I+m+ .&@&@V@`+s+ #r&s&t&u&m@*#u@m@$@7@($l@V@g@U@&@&@&@'@o+-@m%{#s+/@^@;$2@5+^@v+5+o#n#B+-@-@w+'@p+I+d#+$d#{$6@",
"i@i@8@M d#n#v+v+v+^@'@;$'@-@;$o@1%B+1@'@v+'@]@($($g@'@e#u@u@U@S@U@ #]#o@8@;@/& #V@v&Y#w&x&y&]@X+V@d@d@d@6@` T -@t@z&: : : : : : : : : : : : : : : : : 2 w+2+k+V >@g@($($u@A&B&C&D&E&$#l@u@l@#@j@u@g@;$!&v%V@ #/&'@F@p@d@'@d@'@{#;@E+o#1%)%.&1%1%K#1%K#p#B+=#M 7@H@{$p+I+",
"8@F@F@H@=#v+v+K#'@;$;$'@E%-@;$F%1%v+E+o@v+-&&@f#g@u@E%l&~@g@g@W#u@d@ #F%>$-@d@d@s+l@t#F&G&H&W#l@]@G+p@/@M ` Q r+[+z&: : : : : : : : : : : : : : : : : I&'@2+k+V X+($d@u@($/&J&{%K&L&`@*#($>@$@8@V@u@F%F%d@U@ # #;$7@G+V@;$ #'@d@;$U+5+Y$)%B+'@o@1%v+v+v+v+d#H@M M =#=#I+",
"j@8@7@k&v+1%n#o#v+o@^@5+1%^@w+F%1%C+F+w+C+ #u@u@B@u@B++$;$&@&@v% &u@d@o@8@-@p@d@s+>@H#M&N&O&T%}@z@U+d@;@7@O.P r+P&z&: : : : : : : : : : : : : : : : : Q&-@2+`  .`+d@;$s+B@u@R&S&T&*&8%`@l@l@:&G@d@/& #F%~@V@~@~@o@8@'@p@p@ #o@{#d@d@=#1%)%K#w+w+;@^@B+v+v+n#4#7@H@p+=#I+",
"U&Q@:+=#o@o@n#l&C+C+1%e#o#K#K#1%1%=#H+N%v+;$u@]@($s+v+_$1%'@;$ #d@ #{#^@d$w+d@ #~@S@N@V&W&W$u@g@V@V@p@'@7@P+b+N%t@z&: : : : : : : : : : : : : : : : : X&B+I+`  .s+;$F%d@&@u@j$Y&Z&`&8%}#]@>@ *a@ #s+/&d@~@d@ #;$1%j@G+)$;$o@o@o@d@2@+$v+K#v+t@-@B+w+r+K#=#n#f$p+d#d#H@H@",
"Q@8@7@=#^@1%n#)%^@3$o@o#5+v+C+K#v+=#H+w+-@-@d@p@/&;$5+>$1%^@]#F%F%A&^@Y$2#v+o@'@d@u@x$.*+*@*d@V@p@;$p@;$H@O.b+-@q+#*: : : : : : : : : : : : : : : : : $*B+I+`  .s+'@o@p@V@V@%*Y&&&`&~$$#&@g@e@-#F%p@ #!&s+{#o@F%1%j@d@d@/@;$^@1%U+4@k&C+K#1%^@v+v+B+t@f$n#K#v+p#=#o#M 5@",
"a@-#H@=#v+)%)%1%'@p@ #^@^@^@)%v+n#=#r+3@'@^@-@^@;$w++$]$1%1%v+Y$;&]#d@A&2#{$)%;$;$d@P#&***=*;$d@p@p@ #d@I+` d+N%=##*: : : : : : : : : : : : : : : : : -*w+J ` U B@ #o@;$d@V@;*>*,*'*8%*#u@V@w@-#;$d@ #;$)*'@F%o@,@0@/@d@'@o@B+^@G+V+6@C+;&'@-@=#v+K#v+n#K#K#p#v+q++$H@:+",
"7@7@7@I+4#v+#$1%;$p@/@;$o@w+K#v+C+o#r+w+-@-@-@'@s+E++$-#)%5+o#5+C+'@/&Y$/#I@o@ #;$d@$@U$!*~*F% #d@d@d@d@+$` P t@J #*: : : : : : : : : : : : : : : : : X&w+J k+8$u@d@^@o@;$d@{*]*^*]&m@($v%>@v&R@-&V@p@1%;$o@w+o@)%G@G+p@-@-@1%B+B+E+d#B+;@G+w+p#4#q+v+K#B+v+q+K#=#H@7@F@",
"7@7@_$H@+$I++$v+^@o@;$'@^@B+1%C+)%d#/*N%K#K#-@;@d@G+d#Q@)%1%v+C+C+p@d@(*_*v+/@d@]#s+|@:*<*[*w+G+'@;$ # #1#O.P t@3+#*: : : : : : : : : : : : : : : : : }*-@p+` U &@ #^@;@p@)*n@|*1*2*l@V@V@>@}#T.w+s+p@)%o@'@E%B+5+a@3@'@v+^@1%v+B+2@I+p#v+'@B+n#=#5+v+B+B+v+v+[+=#I+F@8@",
"o+7@7@-#H@7@7@o#v+C+-@-@B+^@B+n#)%+$t@t@v+1%B+w+-&o@+$-#K#^@^@5+.&;$o@Q@{$G+U+p@p@)$)$3*4*H@o@'@ #;$d@'@H@@.Q N%s #*: : : : : : : : : : : : : : : : : 5*w+I@O.U u@&@ #/@d@s+B+6*7*w+l@S@ #d@`+E+D@r+;$C+(*o@o@o@o@F@w+'@^@B+^@v+B+H+7@=#v+r+v+n#K#p+=#v+v+q+n#n#=#d#-#8@",
"F@i@8@0@7@H@+$+$=#5+v+'@o@o@1%C+C+1#P&r+v+v+-@-@o@o@d#-#o@o@-&_$7@^@-#a@r+D+U+G+;$E+J+Q k+8*-&p@d@~@/&p@p+@.9*3@s #*: : : : : : : : : : : : : : : : : 0*3@6@`  .u@/&~@s+]@]@w+_+^+_+)$]@{#~@]@X+[+G@B++$D@v+^@'@o@o+-@-@-@-@K#C+B+B+H@4#v+K#=#C+C+=#+$d#=#=#d#d#+$H@8@a@",
"-#7@8@0@-#t+d#=#5+C+n#^@-&-&1%1%v++$t@v+#$v+K#^@w+o@o#-#Y$'@v+s${$a@M$n#d@s+`+)$1%D@'+}.-.2@/&p@~@&@&@d@a*` U w+q+b*: : : : : : : : : : : : : : : : : c*w+M ` 5&s+/&s+u@g@>@z@o+#%'+-.d@d@/&s+B@`+I@-%v+M+i@-@B+v+a t@1%1%B+1%C+1%w+H@=#^@K#1#o#e#t+_$t+d#=#=#=#H@7@a@G@",
"8@F@3#2#_$l&)%v+5+5+5+-@E%'@^@v+n#7@n#d#+$l&o#1%B+^@+$Q@1%n#6+6@G%0@K#o@;$`+)$w+a@d*P+P$K#'@;$d@;$d@p@;$7@` T v+3+e*: : : : : : : : : : : : : : : : : f*;@F@^+5&d@ #u@f#u@V@>@`+Q.#%g*Q+'@G+d@U+`+;$2+Q.I@h*:+=#5+G@B+-@;&v+)%K#v+B+7@=#K#B+d#+$1#>$7@7@p+f$v+4#I+M Q@i*",
"8@7@7@7@+$=#n#v+C+=#5+^@w+B+v+5+=#H@I@+$7@_$4#1%1%B+d#j*+$0+o#H@k*'@;$o@;$s+d@5@~+ .-.l*^@v+^@p@Y$F%'@B+7@` S v+m*n*: : : : : : : : : : : : : : : : : o*r+j@P+5&2@F%~@~@V@u@d@G+2@(+` '+6+r+`+)$&@d@-@i@U.I@-.D@e#0@B+K#C+5+(*5+=#B+7@d#=#K#v+o#+$>$7@-#=#v+v+d#d#M a@D@",
"a@7@7@H@+$o#=#=#C+n#v+o@-@K#C+5+o#H@I@+$d#o#v+v+v+o@a*0@g$7@_$p*C+d@;$'@;$s+r&q*r*g$N%1%^@o@o@G+w+-&1%I+` }.|.H+2+n*: : : : : : : : : : : : : : : : : s*r+M$^+8$U.n#!& # #&@p@;$w+d@/+m+t*u*V@d@s+E%/@-@0@(+v*#%+$G@=#5+)%5+n#d#d#K#-#1#I+)%C+)%5+1#H@G%=#5+n#7@H@7@7@Q.",
"G%7@M 7@I+=#5+5+p#v+v+B+B+1%C+n#=#t+I@d#v+v+=#5+)%1%I+D@{$7@8+d#K#;$^@U+,#w*x*y*z*r+E+v+1% # #d@d@G+=#|.8$#.A*B*2+n*: : : : : : : : : : : : : : : : : C*N%U+g$]+r.D@E%~@~@v%V@d@K#2@`+D*E*F*G*f#`+-@;$G+o@R@D@v*=#(%+$5+)%v+v+4#I+v+Q@7@7@o#o#v+C++$t+>$o#o#k&i@-#Q@7@0@",
"i@H@H@7@+$l&=#)%n#n#n#C+v+5+d#o#d#7@#$o#(*v+d#=#=#)%d#2+v*s$n#^@1%B+^@d@H*I*J*K*L*G+3@-@F%;$!&p@p@t@` b+i+2+w+B+2+n*: : : : : : : : : : : : : : : : : M*N%d@'@h$8$d*F@d@{#~@($&@;$3@c@&$N*O*P*Q*V@w+E%o@F%-&8+U.[+D@d#C+5+(*5+5+=#f$0@7@2#e#e#(*o#+$t+7@d#l&+$t+7@7@-#0@",
"7@+$d#7@6@k&5+v+v+C+=#d#5+e#t+t++$2#I+d#n#d#H@=#n#d#T.(+6++$3$v+C+1%'@R*S*T*U*V*T%U+d@'@^@E%'@;$N%:.,+` 6@G+G+B+2+n*: : : : : : : : : : : : : : : : : W*^@G+ #)*O+d+{+{$'@d@/& #&@p@d@l@X*Y*Z*`* =;@w+^@v+-&K#V#a%8+7@5+o#v+v+1#o#=#0@-#-#_$H@o#e#7@7@_$o#d#d#k&1#-#Q@0@",
"7@I+=#d#+$5+o#4#5+=#o#=#o#o#t+7@+$]$q+I@n#d#o##$I@D@L ;$Y$B+C+v+v+;&.=+=)&@=#=O@s+p@!& #'@F%o@1%i+>+$=a@3@;$;$1%2+n*: : : : : : : : : : : : : : : : : %=;@p@o@p@w+h$d+b+7@;$d@;$!&/&/&s+l@+%&=*===e#^@K#v+^@1%K#!&l*(+H@o#p#C++$o#-=8@M H@t+1#1#e#7@7@{$o#+$+$1#H@6@i@a@",
"7@=#n#n#o#o#+$o#l&+${$d#5+C+e#7@H@8@#$-=v+5+)%d#0@5@v*K#-@v+d#1%1%,@;=>=,='=H$B@)$d@ # #Y$Y$B+].>+}.a@'@o@^@'@B+2+n*: : : : : : : : : : : : : : : : : )='@d@;$ #;$N%].b+Q q+w+F%A&&@u@&@s+W#!=~={=]=^=o@B+B+v+1%B+_$-%p*7@n#=#+${$v+-#+$=#o#H@H@t+H@7@H@=#e#d#d#d#H@6@i@",
"7@=#I@I@d#d#H@1#1#+$_$t+1#o#e#t+H@a@J f$=#n#o#a@+${$n#v+v+C+C+1%r&/=(=_=:=H$;$p@p@ # #'@-@-@g$'+l+U.-&-@E%'@F%B+2+n*: : : : : : : : : : : : : : : : : <=p@s+d@ #'@G+t@_+)+ .#$-@-@;$f#u@d@{#u@[=}=|=1=2='@w+C+v+v+v+i@7@>.H@=#=#o#q+8@+$=#=#+$1#7@2#7@t++$1#=#I++$7@i@F@",
"-#d#k&d#I+H@t+t+1#1#+$e#H@+$5++$+$]$#$=#o#=#0@3=7@4=)%C+v+1%C+r&5=6=7='={* #F%p@!&;$d@'@w+M+d*^+(+'@{#-@-& #;$^@6@n*: : : : : : : : : : : : : : : : : )=G+)$/&~@;$'@2@I@k+{+|.f$-@1%;$/& #F% #u@8=9=0=a=b=o@K#)%I@d#=#a@o+/+d#o#o#t@j@k&+$=#d#H@8@8@7@2#-#M +$H@+$H@7@8@",
"a@H@6@I+o#+$H@+$H@l&o#o#+$o#n#l&d#8@v+l&o#l&8@1%>$o#)%n#B+'@c=d=e=[&f=g=;$1%F%{# #;$d@B*-%~+h=i=G+B+o@'@F%;$;$o@5@j=: : : : : : : : : : : : : : : : : k=p@s+d@u@p@o@o@)*J ` '+` K#E%Y$ # #'@o@]#l=m=n=o=p=q=p#1%=#=#=#i@B+0@p+t+o#N%a@7@H@+$=#H@-#>$>$_$7@+$o#d#H@7@-#Q@",
"M$7@H@+$o#1#H@H@+$+$o#1#+$=#4#k&H@w+-@n#5+d#c&)%0@o#n#v+1%r=s=t=u=v=w=]#-@K#F%{#o@;$ #U.x= .6+2@-@)%o@;$ #p@p@o@a@j=: : : : : : : : : : : : : : : : : y=w+)*d@V@ #;$Y$B+)${$}.z=#.K#Y$Y$'@p@F%'@o@A=B=C=D=E=F=C+o#=#=#8@B+i@+$7@+$K#H+d$7@7@+$t+}$7@t+7@7@G=d#H@7@i@-#8@",
"G@7@p+=#d#H@H@H@H@H@1#t++$+$k&d#7@K#-=d#+$+$-#e#J+_$n#4#;&H=I=J=K=L= #o@1%)%]#;$'@-@F@d*U ,.w+o@)%C+1%-@p@d@;$v+9+: : : : : : : : : : : : : : : : : : M=v+d@/&p@{#'@o@)%'@)$N=]+O=/.K#]#~@'@;$;$1%;$l=B=P=Q=R=S=+$5+d#0@7@8@1#t+t+q+v+{$7@-#7@7@H@M H@t+}$7@M F@:+-#7@-#",
"(%5@p+d#p++$7@F@7@H@_$1#t++$+$G=0@1#d#7@0+i@7@-#r$H@d#l&T=U=W&V=W=!&-@1%K#Y$E%o@Y$i@d+Q X=T+-&1%o#5+^@E%G+-&B*I+%.j=: : : : : : : : : : : : : : : : : Y=j@w+d@ # #'@o@o@'@N%2@U.U Z=,.^@/&p@F% #'@^@^@;*`=7=|* -_$K#p+D@k*+#n#].d$H@=#a@8@7@-#8@M M 7@6@6@7@:+F@7@7@i@i@",
"M$M H@+$M 1#7@>$7@t+l&t+>$_$e#e#a@+$+$i*O%I+7@>$0+H@I+.-+-@-#-$-C$^@;&v+Y$F%F%1%{$U b+7+U+w+1%^@5+)%;$-&-&K#f$%-a+&-: : : : : : : : : : : : : : : : : *-#.#$-@;$)*F%1%^@o@K#-@d@8+T g*9+p@!&o@;$'@o@v+1%;*=---;-#$q+=#D@Q.Q.+$O+s$_$+$o+F@F@7@:+7@7@H@H@d#+$7@i@7@F@7@o+",
"U.8@7@7@7@7@}$7@7@H@t+]$d$t++$1#i@a*o#k*{$#$H@j*Q$H@=#e#>-3*G=B+v+n#(*)%o@{#F%C+Q@V #.,-B+v+K#1%)%C+F%B*1%-@0+k+'-)-!-: : : : : : : : : : : : : : : : : ~-7+K#w+G+o@1%1%o@1%=#K#E+m+]+-.B+|$^@;$F%1%5+f$K#{-]-^-=#3+{$i*+#0@=#+$;.d#=#i@Q@>$_$8@-#8@7@t+}$7@7@i@-#:+7@]$",
"8+p*k*(+k*i*/-i*Q@U&i*i*(-Q@Q@i*H@5+I+v+=#t+8@-#(+d#5+H@_-:-(%q+5+c&o#5+1%1%Y$v+0@i+^+K I@5+)%1%Y$.&w+N%1%p@j#<-[-}-` |-: : : : : : : : : : : : : : : : j=1-d@ #F%E%1%Y$K#K#o#d#d@}.P+#.-@'@^@1%;&C+o#I@=#F@O.d+a I@d#Q@U.D@d#l&K#n##$o+p*0@8@/-{@i*0@i*0@+#Q.+#{@i*T.T.",
"2@|@2-)*G+'@;$V@B@>@B@3-/&;$-&-@)*#$6@l&=#+$a@-#(+d#r+q+4-^+(%[+v+C+5+C+1%1%o@^@D@i+ .6@f$v+=#(*1%5-K#-@K# #6-7-8-9-0-a-: : : : : : : : : : : : : : : : : b-m@)*-&-@)%1%)%)%5++$w+e$^+#%r+-@-@C+1%K#5+I@q+o+^+!+(%I@=#8@U.p*d#n#v+v+n#v+d@`+s+&@V@Y+U+G+U+D+1@1@4@c@v&c-",
"2+N%[+q+q+n#n#v+B+B*-@K#=#5+n#p+B*)%o#l&=#=#o+` ,.f$'@f$8$d-U.o@o@1%v+C+;&)%1%'@Q.m+]+8*-=#$5+o#)%K#B+f$)%A&e-f-g-h-i-j-: : : : : : : : : : : : : : : : : k-l-F%C+B+K#K#K#o#e#d#B+e$k+$.H+K#K#v+K#1%5+o#m-]$P+!+J+I+p#0@ .>.=#n#v+n#q+J B+r+r+r+H+[+q+v+v+[+[+[+v+t@w+2%",
"a I@n#C+n#f$n#d#n#v+)%C+K#K#n#d#B+v+=#n#=##$:+]+0+v+[+2+d+$=n-o-p-q-(*Y$o@)%5+-@(+k+]+F@=#)%)%o#5+5+=#0+]$n@;=r-s-t-u-j-: : : : : : : : : : : : : : : : : v-w-)% .K#)%C+(*+$t+e#K#8$d-$.f$1%1%o@-@1%(*x-y-z-` d+$%I@=#+#d+J+=#v+n#v+v+p+K#[+[+B+v+=#v+N%=#I+I+I+I@I@[+/*",
"5@q+K#v+4#v+#$I+=#n#v+v+B+w+v+n#v+v+v+5+#$o#0@l+7+I+o#2+8$D$A-B-C-D-(*C+^@)%c&B+T.d-]+F@d#C+5+o#v+K#I@u$Q@U@;=E-F-G-H-j-: : : : : : : : : : : : : : : : : v-w*1%m$o@K#o#l&e#H@d#K#Q ` ` #$n#o@o@1%)%.=I-J-K-j+e$T.I+I+p*}.K+=#v+=#n#=#I+n#B+v+K#v+p+=#v+I@p+1#d#I+I+q+[+",
"0%I@f$#$q+n#n#+$n#n#n#2@1%n#v+v+#$=#=#d#d#+$D@l+].M I+J 8$L-M-N-O-P-5+5+^@K#5+N%(+m+ .M$d#v+v+K#1%^@f$0+a@Q-R-S-T-U-V-j-: : : : : : : : : : : : : : : : : v-W--@l+-&B+5+o#l&o#5+N%d+` $.v+N%1%o@-@v+X-Y-Z-`-j+T T.I+I+(+}.6+I@=#n#=#I@F@p+[+K#n#=#+$d#=#2+6@M M H@{$p+v+",
"M$m*I@I@3+3+H@+$n#P&q+f$d#d#=#p+I+#$v+d#I+I+0@l+O+I+n#2+]+].M- ;.;m-d#.&o@^@)%w+U._+]+M$d#v+v+B+B+-@[+8+-#F%~#+;@;#;u-j-: : : : : : : : : : : : : : : : : $;%;X-d--&K#K#)%,@(*5+-@Q ` _+r+-@^@B+'@v+)%&;*;`-j+8$U.p+q+(+]+N$3+=#q+n#p+F@M p+=#o#H@d#v+J 2+7@6@H@M 7@5@f$",
"M$I G@G@/*w$:+5@=;8*m*0@0@F@D@k*o+#$v+d#I+I+k*l+-.J 4#M Q j+-;;;>;,@o#v+o@v+1%-@U.k+Q M$d#v+K#N%-@K#[+2@1%!&,;';);!;~;j-: : : : : : : : : : : : : : : : : $;b=5-v+E%=#K#1%5+o#o#N%Q ` #%r+-@v+^@-@1%(*{;];^;m+ .G@v+q+(+ .(+3+n#=#=#p+o+a (+(+G@G@o+b%o+U.N$G@o+U.a b%/;",
"-.-.i+j+&._+_+].7+0+].i+j+i+` O.M+I+f$d#=#I@a@7@6+I+4#e d+m+Q.(;;&5+5+5+^@B+]#'@M$#.Q 0%d#C+K#K#-@K#K#-&E%U@_;:;<;[;};|;: : : : : : : : : : : : : : : : : 1;2;Y$1%1%q+v+B+n#d#d#w+8$` %.r+1%1%-@Y$)%5+5+3;7@#.e$M$q+p++#T.a@=#=#n#n#I+8+].k+k+` ` j+_+].i+]._+m+` j+_+-.",
"/+Q.0@o+j@8@M F@a@M F@a@o+a@Q.U.(%p+v+=#=#=#8@F@J+I+5+6@4;k+(+=#n#5+5++$K#B+w+-@M$k+ .a =#C+K#B+w+-@B+1%B+w+j# -5;6;~#|-: : : : : : : : : : : : : : : : : 7;d#1%(*1%t@v+-@v+p+=#F+ .+.%.r+'@-@G+^@)%t+d#[+F@` 5&(%q+I+Q.T.(+I+=#I@4#I@(+0@7@7@:+0@0@a@a@o+M 7@G@0@G@U.k*",
"-%:+{$I+=#d#+$I+H@I@p+2+6@I+2+o+a J n#a@H@d#a@0@J+I@=#F@!+m+U.3+v+e#e#o#)%E%B+v+a@k+]+o+I+v+n#K#-@v+B+K#w+1%o#:+8;9;j-: : : : : : : : : : : : : : : : : 0;5@N%-@K#-@v+v+w+B+#$v+f$ .#.a;r+'@r+'@-@v++$=#[+5@` d+(%#$q+U.M+8+I@+$T.M I+k*i@d#d#H@H@H@I+H@7@I++$M 5@F@8@8@",
"-%5@+$H@=#d#H@H@H@I+{$M +$d#6@7@G@=#I+-%0+3#U.G@;.p+p+5@m$b;d$B+v+=#+$5+)%C+v+v+I+j+P+#%H@v+K#)%C+=#K#r+B+C+#$f$p*c;: : : : : : : : : : : : : : : : : d;8*/*n#K#w+B+d#=#-@K#=##$;.8$m+(+r+w+B+o@v+v+=#[+H+1#G$m$a =#I@/+M+J+H@J+,.M H@(+:+H@d#H@+$t+I+M i@H@M {$6@F@:+G@",
"(+7@H@{$H@I+7@8@-#H@{$M H@t+7@8@U.v+M 6@(+H@U.i*>.J I@[+4$e;f;g;(*+$+$C+d#o#o#C+)$3=].e+#.I+v+n#n#5+v+t@-@K#B+v+:+X@: : : : : : : : : : : : : : : : : h;F f$4#w+-@B+=#=#K#B+p+8+d*O.8+U+r+-@)%K#n#q+q+^@w-i;j;k;q+J H@J+0+;.p+t$H@7@+$(+D@7@H@H@H@+$H@7@8@o+6@6@H@F@8@G@",
"p*a@i@7@F@M 7@8@M H@6@I+l;+$M j@(+I@=#7@+${$D@8@;.H@I I m;n;o;p;q;(*n#5+d#5+5+5+K#s+:+` r.=.=#K#n#v+K#-@-@-@K#I+J+r;: : : : : : : : : : : : : : : : : s;{$n#B+-@1%B+=##$f$t@D@d*4-s$E+N%K#^@v+n#5+p#v+W-t;u;v;w;[+5@6@8+8+;.{$7@7@7@d#p*i*-#M F@7@7@7@:+8@8@6@M 6@6@7@a@",
"U.j@0@0@:+F@7@7@M 6@I+=#I+p+6@a@(+H@v+H@I+6@0@v++#J J 6@;@x;y;z;A;B;,@o#(*(*C+o#o#v+d@p*|.r.0+=#v+K#t@w+B+K#B+=#8+d;: : : : : : : : : : : : : : : : : C;I+N%-@E%1%^@q+v+[+a@{+d+i+H+r+B+v+B+B+B+v+C+D;E;F;G;@* #p+o+M p*6@8+7@7@7@7@+$(+0@8@7@-#-#]$3#7@7@7@M F@-#7@8@G@",
":+0@j*i*Q@8@7@H@H@H@I+l&H@7@8@j*t$6+=#q+I+F@Q.n#Q.J J H@J  #H;I;J;K;L;5+5+)%(*)%5+=#n#-&t$M;>+J+n#f$t@r+K#K#v+=#U.N;: : : : : : : : : : : : : : : : : O;p+v+v+-@-@-@f$v+o+P Q #.3+n#n#1%v+B+v+[+n#P;Q;R;S;T;H$f$J H@7@p*H@+#7@6@7@H@U.r$i*-#-#Q@Q@Q@-#7@7@F@7@]$0@a@0@Q.",
"k*Q.+#0@a@-#7@H@7@7@H@+$7@7@7@8@+#N+j@p+I+{$M$J o+6@p+p+2+I+U;V;W;X;Y;Z;|$o@1%1%)%v+=##$E+g$Q r.J+2+v+B+v+B+K#{$Q.`;: : : : : : : : : : : : : : : : :  >3+v+v+v+[+[+f$a@b+{+k+K I+o#K#-@B+v+d#B+A&t&.>+>@>#>C++$I@+$j@(+{$0@+$7@-#i@L-{@8@7@_$+#i*U&8@7@-#U&Q@Q@k*0@j@Q.",
"(++#0@8@8@F@7@7@7@8@F@7@-#-#7@8@d$k*8@p+I+I+#$i@{$D@6@p+I+H@d#T%$>%>&>*>=>Y$1%1%1%v+v+I@v+N%O%d+q.;.I+q+[+K#v+7@Q.->: : : : : : : : : : : : : : : : : ;>I@f$q+v+K#=#7@U {+:.2+f$M +$v+r+K#K#n#K#>>,>'>)>!>v+}$e#=#_$i*{$7@n#d#H@7@-#V#j*-#>$:+~>i*]$7@M -#T.T.{@+#Q.Q.Q.",
"k*0@{>8@8@]$Q@j@F@0@7@G%7@1#H@7@7@d$o+H@F@H@I@n#7@5@U.7@d#=#=#n#]>^>/>(>_>;&^@v+5+n#5+=#p+3+:>i+d*q.(+I@#$=#=#7@U.->: : : : : : : : : : : : : : : : : ;>m*n#v+B+K#7@ .)+` 5@q+n#H@p+v+1%5+1%1%<>[>}>|>1>1%d#F@H@+$0@:+7@+$l&H@7@7@a@p*Q@F@8@-#Q@8@-#-#]$d$+#k*i*i*Q.Q@i*",
"(+k*k*0@Q.0@Q@0@0@Q@2#d$-#+$1#7@7@d$:+7@-#M 2+I+p+i@M$U.H@=#n#=#v+2>3>4>5>6>r&v+=#n#n#v+=#p+f$f$7>{+>+Q.p+=##$M 0@->: : : : : : : : : : : : : : : : : ;>I@=#v+v+I+}.e+^+G@q+3+d#I+=#n#K#-@]#8>9>0>a>b>o@H@H@H@7@:+M$D@_$H@7@7@7@-#G@+#8@8@8@]$-#:+7@8@0@0@Q@Q@Q@Q@Q@j@Q.",
"P.+#(+(+i*0@0@0@k*j@Q@0@]$H@H@-#d$0@a@7@-#7@H@F@7@=#8*-%U.{$#$5++$#$v%c>d>e>f>,@#$I+#$v+=##$q+3+3+].d*g>M$I@#$6@G@h>: : : : : : : : : : : : : : : : : i>J =#=#I+` ,+$=M$[+f$=#=#=#p+v+-@Y$j>k>l>m>8%1%H@7@7@7@D@D@n+6@3=:+-#7@>$-#7@(+:+7@7@>$7@8@-#0@i*8@7@-#0@+#k*0@Q.",
"P.(+(+i*Q.+#i*k*0@Q@0@Q@8@F@-#]$8@0@a@7@-#7@F@a@j@I+f$o+X=J+i@+$H@M p+n>o>p>q>r>Y$=#f$f$v+v+q+m*_@K :.s>{+G@=#7@D@->: : : : : : : : : : : : : : : : : t>2+I+I+i+'+^+U.t@=##$p+q+=#f$K#E%u>v>w>x>y>K#i@7@H@7@D@N+6@i@6@:+8@i@7@8@8@:+p*a@7@7@t+7@Q@0@D@k*:+]$0@i*A#p*Q.+#",
"8++#i*Q@0@i*0@i*d$-#8@Q@@#-#8@8@8@i*a@7@M 7@3#F@a@5@G@p*0%_+J+]$7@1#M .='*e=z>A>L;5+f$3+=#=#I@I+I@[+F@` r.b+o+F@Q.->: : : : : : : : : : : : : : : : : t>5@2+_+z=}.U.r+I@H@I+=#v+K#v+1%P;>&B>C>D>F%7@_$7@F@Q.i+0@8@;.G@Q@8@H@2#]$F@8@p*0@8@>$7@8@0@0@0@i*8@d$+#+#T.{@+#T.",
"p*Q.i*Q@8@0@/-Q@d$2#8@8@Q@8@8@Q@Q@p*a@6@M M -#i@o+F@T.r$(+k*i+T.M p+2+{$F%E>F>G>H>8@J q+=#q+=#{$2+2+[+o+^+Z=T o+Q.->: : : : : : : : : : : : : : : : : I>J 6+l.4-Q$E+I+M H@I@I@q+n#=#J J>K>C>L>/&I+7@7@M U.m+~>U.i*g$0@8@F@H@7@8@-#G@(@+#8@d$7@Q@i*Q@0@0@8@0@+#D@Q.+#i*+#",
"8+Q.Q@Q@8@0@i*Q@]$7@8@8@Q@Q@Q@0@j*p*Q.7@F@5@8@-#7@M Q.>.M>U.0@#.9+M J J d#A&N>O>P>8$G@p+d#I@3+I@p+7@6@v+(+5&r.:+D@->: : : : : : : : : : : : : : : : : I>2+-.!+` E+J M {$q+v+n#I@I@I+_+Q>R>S>U@I@I+H@F@o+_+U.:+_+k*-.0@:+F@-#-#a@F@G@B#i*Q@Q@G%8@0@Q@0@0@8@Q@R@i*+#+#k*+#",
"8+(+0@k*i*Q@/-R@Q@0@+#Q@0@Q@Q@i*{@t$(+7@7@H@7@7@F@5@0@T>A*M+0@D@#.(+H@I+H@I@B+f$].!+5&o+6@I@I@I@2+5@5@6@0+Q '+D@(+->: : : : : : : : : : : : : : : : : U>M N+Q b+6@I+{$+$n#K#=#A*{$O+d+m++$p@K#=#I+F@Q.].p*o+s${$0@g$a@8@8@8@-#8@-#G@B#+#i*R@:+-#8@Q@Q@(+Q@i*j*i*+#(+p*T.",
"8++#Q.(+i*0@i*Q@0@i*Q.Q@i*i*i*+#8+;.T.j@8@H@H@7@6@2+a@A#7@J J+a@G@i+T.F@M 7@p+w$2+i+b+|.o+I+I@p+H@M 7@5@-.d+'+Q.U.->: : : : : : : : : : : : : : : : : V>6@].!+r.F@7@7@H@=#v+p+J -.d+` -%'@q+n#=#M Q._+k*:+,.i@F@0@g$G@8@Q@8@8@8@j@0@B#+#k*8@-#7@d$8@U&+#/-+#j*+#p*P.A#P.",
"8+Q.D@{@W>/-Q@j@-#8@8@8@/-+#0@i*(-A#8+k*D@8@-#F@7@I@a@;.8@{$t@X=0@{@` T.F@6@M p+N%6@` '+Y M =##$H@7@{$6@O+d+r.7 N$X>: : : : : : : : : : : : : : : : : Y>b%_+!+r.F@H@F@-#I+L#I@8+d*$=U.U+v+d#t+1#F@].J+F@].5@F@:+D@O+0@Q@j@F@7@]$8@0@B#{@i*>$-#3#]$-#8@j*U&0@i*T.+#p*p*t$",
"J+k*+#p*p*i*a@-#7@7@:+-#8@Q@0@0@U&+#(+8@8@F@F@M {$2+U.r$Q@7@d#I@7@7@8+_+a@2+:+F@3+F+i@l+'+M+{$J H@6@{$I+;.Z>l.U.(+X>: : : : : : : : : : : : : : : : : Y>M i+!+r.7@7@8@8@7@p+F@P  .r$w+[+I@H@6@7@J+0+7@2+a@5@a@Q@i*=.0@Q@a@8@:+7@0@G@8++#i*7@-#:+Q@-#-#0@0@j@0@U.i*T.p*p*",
";.T.(+p*p*k*j@8@8@-#-#8@a@8@d$Q@Q@{@{@j@j@i@7@6@M 6@U.`>k*Q@7@7@8@7@Q@t$].6@H@7@I+3+r+$= ,,.2+{$G%F@M M .,!+m.Q.p*+,: : : : : : : : : : : : : : : : : Y>F@` ~+l.i@-#-#o+o+I+o+@,4+n#B+v++$H@I+J+0+Q@7@H@Q@F@-#0@i*O+0@0@i*+#0@Q@{@D@(+0@i*8@8@8@j*Q@8@8@Q@0@Q.U.k*k*T.P.",
"6+T.T.{@i*i*Q@0@j@a@Q@Q@8@a@8@/-+#A#(+j@8@8@o+i@M i@T.O+k*0@7@7@j@7@:+~>b;G@5@M 5@p+p##,$,%,6@6@F@o+M 7@g$!+q.U.(++,: : : : : : : : : : : : : : : : : Y>F@` )+m.o+i@-#7@H@I@t+&,*,=,=#4#d#I+H@#.+#8@7@H@j@j@8@0@0@O+Q.j@0@i*0@0@+#Q.p*Q@8@U&0@0@+#i*0@8@Q@i*k*T.T.(+T.t$",
"-,p*{@{@i*Q@0@0@8@8@j@8@7@8@Q@+#p*A#(+a@8@F@7@i@F@7@+#h$Q.Q@F@7@8@8@R@0@`>t$j@7@i@p+o@;,>,,,e 6@6@7@H@7@^.d+m.Q.T.X>: : : : : : : : : : : : : : : : : ',f ` e+;+a@7@-#7@+$=#),!,~,{,v+k&_$H@7@j+k*Q@H@{$a@{>Q@R@D@g$0@j@Q@0@i*+#+#U.(+a@8@0@0@Q@i*i*Q@0@Q@Q.Q.U.U.U.T.(@",
"0+T.p*k*Q@0@i*v@Q@Q@a@Q@F@a@i*p*{@P.T.a@8@F@F@i@7@7@(+g$0@:+3#7@-#Q@/-j*s$>.j@:+a@6@^@],^,/,7@2+J 2+6@6@,.d+;+U./++,: : : : : : : : : : : : : : : : : ',F@#.)+m.a@7@F@>$7@I+2=(,_,:,C++$G%-#-#u$D@j@H@{$Q@i*0@0@Q.g$U.:+i@i@0@k*+#D@(+8@Q@0@0@8@8@8@a@j@G@k*T.(+k*Q.(+;.",
">.p*A#i*Q.D@k*i*0@Q.0@Q.Q@8@k*p*{@t$/+a@8@0@Q.Q.8@o+8+`>d$8@8@7@-#Q@Q@0@g$T.i@a@0@H@;@<,[,},-#e J 2+p+2+g$d+l.U.M++,: : : : : : : : : : : : : : : : : |,o+` Z>m.a@7@:+-#F@M 2=1,2,:,5+7@-#F@7@].a@7@+$H@j@0@0@0@Q.0+U.8@7@M 8@0@i*Q.(+0@i*i*D@Q@8@:+a@j@8@j@U.(++#k*8+`>",
";.P.j#p*+#+#0@Q.j@U.+#Q.Q.G@k*p*T.(@/+M$Q.0@Q.0@a@F@T.g$i*j@8@-#-#8@Q@0@O+J+a@j@8@6@^@3,4,5,]$5@J l;I+J ].b+l.N$L++,: : : : : : : : : : : : : : : : : 6,o+` !+m.a@:+j@a@a@7@2=7,8,9,o#7@-#8@i@k+8@F@7@M a@0@Q.a@G@g$0@8@7@M F@+#j@Q.p*(+{@+#+#0@Q.Q.Q.a@G@G@G@Q.D@D@8+0+",
">.P..,;.p*Q.j@0@8@D@+#+#0@D@Q.+#T.(@J+G@U.i*G@D@8@7@+#u++#0@2#7@7@G%Q@0@h$;.0@:+i@a@p#0,a,b,]$5@2+I++$I+N+!+q.L+J++,: : : : : : : : : : : : : : : : : 6,7@` c,;+G@j@0@a@j@2#d,e,f,9,c&7@-#8@F@#.o+:+-#F@0@a@8@a@Q.-.U.8@a@i@Q@i*:+j@t$T>{@{@~>j@0@Q.G@G@Q.Q.Q.U.0@U.;.].",
">.J+;.8+p*Q.8@8@:+D@(+D@0@U.{@g,T.(@M+U.U.0@Q.U.a@F@(+>.Q.0@-#_$7@-#j@i*O+$%9@8@:+8@C+h,i,},2#F@7@p++$7@O+!+-+/+6++,: : : : : : : : : : : : : : : : : |,F@` ,+m.0@j@:+8@j@2#j,k,l,9,m,7@Q@d$F@#.8@F@a@0@D@9@a@0@k*-.Q.0@j@0@0@k*0@G@P.p*A#(+a@:+D@U.U.T.U.U.U.D@k*U.;.N+",
"0+J+(++#T.Q.j@j@0@T.+#0@G@Q.T.+#Q.J+J+U.G@j@D@G@Q.0@p*0+k*a@F@i@]$Q@0@D@h$L+o+8@Q@F@=#n,o,p,Q@i@6@I+H@F@O+c+-+T.J++,: : : : : : : : : : : : : : : : : q,F@#.~+$+G@8@-#7@7@2#r,s,8,t,H@8@U&-#M +.8@e 8@0@U.Q.G@k*T.N+(+G@0@D@D@{@0@G@8+U.+#0@:+8@G@+#T.T.U.(+T.p*(+U.J+O+",
">.T.U.(+T.T.+#+#{@p*p*T.0@D@T.+#{@J+/+Q.D@a@0@8@0@(+;.0+0@:+a@-#8@0@0@Q.g$/+F@a@0@M =#u,v,w,U&:+5@{$7@F@r$c+-+N$J++,: : : : : : : : : : : : : : : : : x,f i+~+=+G@G%F@7@F@d$z-y,z,A,7@F@Q@F@F@` G@e o+Q.Q.0@U.k*T.].D@D@8@a@+#T>U.Q.8+Q.G@0@0@8@G@+#T.Q.Q.k*(+;.J+;.>.O+",
"0+8+(+(+(+p*p*p*(+U.(+T.Q.+#T.p*p*(@J+U.Q.a@8@F@0@(+t$O+0@F@a@8@a@j@0@0@N+T.e o+F@H@B,C,D,E,D@a@F@5@M F@r$!+-+N$$%+,: : : : : : : : : : : : : : : : : F,o+i+'+*+a@7@:+3#8@a@G,H,I,J,Q@F@0@j@8@` U.F@o+U.Q.0@Q.k*T.=.(+0@:+8@+#p*U.Q.J+U.Q.G@D@j@Q.Q.(++#T.p*(+8+;.`>g$7+",
"u+J+8+8+T.+#+#T.k*a@D@0@j@U.T.(+T.(@M+U.U.U.0@o+G@0@;.N+(+]$:+F@Q@j@Q@k*u$$%o+e F@F@_#K,L,M,Q.a@G@8@-#i@>.4;=+(+K++,: : : : : : : : : : : : : : : : : q,o+i+r.=+F@7@8@F@j@0@N,O,P,Q,Q.o+0@Q.a@` U.F@a@U.Q.j@8@0@8+=.+#+#0@D@W>P.T.7 ;.T.T.Q.U.U.Q.(+(+p*T.(+k*(+8+0+`>0+",
"0+R,8+8+T.Q.+#8++#j@Q.G@a@j@U.T.p*8+6+(+(+Q.0@o+a@a@J+].p*j@Q@:+0@0@Q.+#L-Q+G@F@7@+$;*S,T,U,W>a@G@a@Q@a@g$!+-+9+J++,: : : : : : : : : : : : : : : : : V,j@#.f+*+o+7@i@8@a@i@W,X,Y,Z,.=:+D@j@a@` Q.i@a@Q.(+0@8@0@T.O+T.(+T.T.p*t$p*U.;.T.+#0@+#D@(+k*U.(+p*(++#T.(@r$;.>.",
"-.;.8+T.8++#+#T.+#0@U.U.j@a@a@Q.T.8+J+(+T.D@G@a@j@Q.>.j+p*D@0@Q@i*k*i*+#j+,.a@G@0@:+,@`, '.'Q.a@f :+:+U.].~+-+U._%+,: : : : : : : : : : : : : : : : : +'(%..z=*+o+H@7@F@7@7@p&@'#'$'t+0@i*k*G@` G@:+D@+#p*U.j@Q./+/.T.T.(+p*p*t$p*U.>.(+Q.j@j@0@(+Q.U.+#T.U.T.T.8+;.;.(@",
"g$;.;.P.t$p*{@k*+#0@Q.D@0@G@j@D@(+J+J+(+T.D@0@j@D@(+>.j+8+T.0@j@+#+#0@+#j+,.a@0@D@a@%'&'*'p,0@9@9@G@o+D@i+e+*+(+J+=': : : : : : : : : : : : : : : : : +'(%` '+$+o+H@-#F@i@7@-';'>'6>7@Q.0@k*a@` (+Q.~>0@{@T.Q.-%>.#.J+p*T.p*8+P.8+9+>.T.U.Q.G@U.(+U.Q.T.Q.U.U.(+8+J+J+;.",
"R+;.J+;.;.t$T.k*D@Q.U.x@Q.U.U.Q.U.(@J+(+T.Q.+#T.p*p*0+m+;.P.T.k*(+i*0@+#i+6+Q.D@D@a@,'&'''/,Q@a f G@G@U.D$,+=+$%K+=': : : : : : : : : : : : : : : : : +'G@P+'+$+M$-#Q@a@j@-#)'k,!'~']$Q.j@D@+#P+8++#k*(+{@(+(+T.^.` J+8+p*p*8+(@J+(+6+L+T.T.T.T.T.(+Q.x@Q.T.8+(+8+T.P.>.",
"].>.J+P.(@P.{@p*U.Q.U.U.7 k*U.D@(+;.M+(+T.T.p*t$(@J+g$m+;.p*P.p*{@i*+#p*D$M+(+Q.j@j@%'{']'^'7@6@F@o+G@(+k+~+=+_%K+=': : : : : : : : : : : : : : : : : /'Q.l+r.=+Q.G@D@0@Q.0@<>('_'t,7@Q@:+8@Q.l+t$T.(+8+(+(+T.;.O+@.;.J+p*p*8+J+8+U.,.;.J+8+t$;.;.T.x@U.U.(+P.+#(+T.L+,.",
"N+>.8+J+;.(@p*P.p*U.(+U.Q.(+U.U.T.6+a D@T.P.t$;.8+p*0+m+;.t$(@T.k*+#{@p*m+$%x@Q.j@j@(*h,:'^'7@5@f o+8@Q.#.e+=+/+/+=': : : : : : : : : : : : : : : : : <'Q.]+l.=+U.G@0@+#{@0@['('}'|'G=8@-#j@G@}.T.T.k*8+Q.T.p*;.g$` t$p*8+8+P.J+(+M$Q$J+T.T.p*.,r$8+(+T.U.T.T.(+(+T.T.$%",
"N+>.M+J+P.T.T.P.T.k*T.U.Q.k*Q.(+J+(%U.T.J+;.0+i+;.L+=.j+J+p*;.8+(+k*{@(+_+M+U.Q.Q.j@(*h,1'2']$e a G@a@Q._+g>-+(+=%=': : : : : : : : : : : : : : : : : <'M$V r.=+U.D@k*U.Q.~>3'('}'4'G=:+a@8@8@P+(+T.U.J+(+T.T.P.O+` n+J+#.;.P.8+8+Q.o+>.T.T.+#t$r$8+(+/+(+T.(+8+J+8+J+;.",
"j+`>>.$%L+T.T.8+8+(+k*D@Q.0@Q.(+O+/+(+8+>.0+5'#%0+R+ .m+#._+m+O.].j+m+>.].;.U.0@Q.8@(*6'i,/,Q@F@F@a (%U.N+g*=+i=$%7': : : : : : : : : : : : : : : : : 8'Q. .m.9'U.+#(+D@Q.Q@0'a'b't,>$a@o+F@8@^+8+` O+/.` _+_+` j+S 7+g$`  .>.P.8+U.M$_+8+(+(+0+>.J+p*8+J+T.T.J+8+8+>.0+",
"j+0+;.J+J+T.T.J+J+T.+#(+(+Q.+#(@j+J+T.J+0+|.:.6+N+ .` 8$:.'+Q [.b+5'!+J+j+0+(+i*U.o+5+c'd'e'0@f F@a@G@Q.].e+=+/+K+7': : : : : : : : : : : : : : : : : f'(%V q.&+U.i*(+Q.D@D@3'k,g'h'2#a@j@G@a@^+J+a+T i'j'k'S X {+` Q ].{.`  .,.P.U.G@#.;.T.T.;.J+T.T.t$J+T.8+>.8+$%>.g$",
"].^.;.;.P.8+8+T.T.(+(++#p*-%-%0+j+J+8+;.]. .-.i+S ^+j+` >+|.S g>5'>+S u$k+0+U.+#(+0@k&l'm'n'0@f o+G@0@D@_+e+=+J+M+7': : : : : : : : : : : : : : : : : ~-U.]+m.%+Q.D@D@a@a@j@z-k,o'h'-#G@Q.Q.G@^+,.Q p'X Z=j'5&q'r'}.^+Q i+7+ .].T.(+7 ` ;.T.T.T.8+(+T.n+8+J+J+8+P.J+;.O+",
"].O+>.>.J+J+L+J+J+8+T.p*J+(+(+>.j+M+8+0+6+0+_+ .|._+i+s'S U {+5'O=5&b+g$k+6+a@D@k*a@1#t'u'v'0@o+F@Q.Q.p*O%,+=+_%O$7': : : : : : : : : : : : : : : : : w'N$T z=*+U.Q.a@o+o+8@x'y'z'A'F@0@+#U.G@Y >.]+U B'5'g>C'U O=]+i+].5&` ].P.;.T.7 ` 0+8+T.p*T.(+(+J+T.8+(+(+J+$%0+N+",
"N+g$g$g$;.p*(+T.J+;.;.J+;.L+T.>.N+N$(+0+N+_+]+Y D',.].O%7+u$N+i+_+_+m+Q$-.T.o+0@a@F@7@E'F'G'Q.a@o+U.Q.T.k+e+q./+-.7': : : : : : : : : : : : : : : : : H'T. .'+;+9+U.D@G@o+Q@I'_=J'K'5@G@+#G@a@}.M$_+7>j+O+%-_+m+#.m+=.L'#%Q j+g$t$8+a@k+g$J+p*8+J+T.U.T.9+-%U.(+8+0+O+].",
"O+O+N+g$;.R,T.T.J+;.;.J+J+J+J+0+O+d#o@5+d#K#;.j+_+O.O.` ^+^+O.h=l+]+a+` #.M$a@Q.o+e Q.M'N'O'Q.G@Q.(+U.T.k+!+-.(%Q+7': : : : : : : : : : : : : : : : : H'L+;.Q ;+L+Q.U.j@a@Q.[$U=P'T=a 7 U.j@a 7>i+` d+h=}.^+Y ^+}.P+^+` P+].n#(*1%Q'!&].O+J+T.T.J+J+N$U.9+8+T.J+;.0+0+O+",
"N+].].O+-,J+;.;.8+8+8+8+T.J+;.g$` K+9+U.U.a@a*,@Y$K#)%d#+$G=e#G=o#l&R'S'6@(%G@U.F@T.T'4*M,d-T.Q.(+T.(+p*m+..H@Q.-.7': : : : : : : : : : : : : : : : : U'J+G@-.'+p*U.0@8@0@p*b;V'W'X'-.G@j@o+a@0@Y'Z'`'-#l&d#a*K#B*N%5+c&(*5+K M$U.j@a@^+O+J+J+(@t$n+/+9+/+J+T./+;.6+0+=.",
"i+N+N+O+>.;.0+0+;.8+T.J+T.8+;.s$..K+T.(++#(+G@:+Q.a@F@o+Q.U.U.P.(+p*p*Q.U.Q.G@Q.F@8+ ).)h=` T.Q.T.p*p*8+k+V (+U.-.7': : : : : : : : : : : : : : : : : +)(+N$_+r.T.(+k*a@a@p*@)#)$)%)_+a o+o+f +#Q.Q.0@j@0@(+j@F@a@G@(+(+(+D@U.T.T.(+Q.]+g$t$;.>.>.;./+T.J+;.8+$%;.;.0+7+",
"_+N+].O+;.>.0+g$;.8+J+;.J+t$t$r$` $%(%U.(+(+U.G@T.G@F@j@G@Q.Q.T.(+T.T.G@o+(+U.Q.G@;.c,&)l+#.T.U.T.p*8+8+k+ .p*(+{.*): : : : : : : : : : : : : : : : : =)T.(+i+m.T.T.(+0@a@p*L-c,Q c,..Q.a@a@j@o+G@Q.Q.a@G@T.U.Q.G@U.x@(+J+8+(+8+8+U.U.]+=.0+r$>.`>;./+8+;.,.M+;.>.-.g$O+",
"_+7+=.,.0+;.0+0+0+J+;.J+8+;.>.g$` M+U.(+T.(+T.N$T.Q.Q.Q.N$T.U.T.T.Q.a@o+Q.(+T.x@U.,.-);)^+#.T.Q.T.J+L+J+`  .8+T./.*): : : : : : : : : : : : : : : : : >)T.T...m.8+(+8+U.G@T.O+Z>8$,+#.N$G@Q.a@f a j@a@f G@T.U.x@7 T.T.J+;.p*(+U.T.D@7 }.N+0+g$O+O+>./+T.P.0+-.,.R,-.g$=.",
"7+-.-.g$g$;.0+g$0+;.;.;.;.J+r$g$@._%U.-%8+8+T.J+8+N$,)U.(+N$N$x@U.a@F@G@U.U.T.T.T.,.,+$+$=:.L+T.T.J+J+R,` ]+;.T.%.*): : : : : : : : : : : : : : : : : ')_%L++.m.8+T.J+/+G@T.=.d+8$~+i+j@j@G@7 G@U.e a@a@Q.(+U.T.U.N$N$J+T.k*(+0@(+U.G@]+N+0+g$O+].-.J+/+8+>.0+g$0+O+R+R+",
"7+g$g$O+g$r$=@g$g$>.>.0+`>>.r$s$` _%U.T.J+J+(+$%J+T.U.G@U.N$T.T.U.a@j@Q.U.x@T.8+/+-.'+&)l+Y M+T.P.;.J+J+` T >.$%..)): : : : : : : : : : : : : : : : : ')T.L+..-+;.J+R,8+T.8+=.!)Q d*#.U.7 7 9@7 8@F@a U.(+8+U.N$U.N$N$J+P.k*(+T.Q.U.G@]+].`>^.O+j+-.J+8+(@g$7+7+O+]._+7+",
"O+g$u$N+h$^.O+g$=@>.,.`>g$g$>.O+` K+U.T.8+N$U.J+J+L+Q.a a N$L+T.T.7 7 U.Q.Q.U.(+8+g$'+$+}.` >.8+;.0+>.n+` U >.$%..)): : : : : : : : : : : : : : : : : ')T.J+` $+;.8+J+P.;.0+j+d+8$d*` L+T.T.U.x@9@G@(%N$T.(+U.T.U.N$N$Q.T.G@N$(+Q.U.a ]+].g$g$N+j+-.6+,.6+-.=.7+].].].=.",
"].O+O+7+=.g$O+O+O+>.g$h$h$-.g$O+^+<%T.J+(+Q.(+p*T.T.T.0 7 N$L+T.T.(+Q.Q.U.T.L+T.L+-.U d+#.` ,.$%;.,.;.,.^+Q ,.>...)): : : : : : : : : : : : : : : : : ~)M+;.` q.6+J+>.u+0+0+i+Q Y |.#.J+J+T.T.x@U.a G@Q.T.T.U.T.T.T.T.x@N$7 U.U.U.U.e ]+j+g$O+O+N+g$>.g$-.O+=.O+=.N+N+].",
"i+].N+N+=.N+N+].N+g$N+O+-.O+O+].` 9+/+/+T.T.(+8+T.T.N$N$x@T.T.T.Q.T.L+N$U.L+$%8+L+-.d+` _+..,.-,>.0+>.O+^+T -.,...)): : : : : : : : : : : : : : : : : {),.,.` m.0+6+0+u+0+-.i+` Q+}.#.J+>.;.J+8+(+U.N$G@])L+T.8+L+R,P.L+T.x@T.L+T.8+Q.#.#.O+g$N+N+g$-.=.=.].&._+N+N+i+#.",
"` ` k+m+m+j+j+i+i+].].].N+N+].` 9+T.T.J+T.8+T.$%8+T.T.,)L+L+L+T.T.T.T.N$8+J+>.K+W@-.8$^){.` -.>.=@R+>.=@}.Q Q+,...)): : : : : : : : : : : : : : : : : /),.,.` m.0+;.>.0+>.0+]...}+]+#%b%;.;.>.;.8+8+T.(+$%J+$%J+-,-,R,P.J+J+L+$%T.;.J+(+d-_+].j+m+&.].].i+m+k+k+` #.` @.",
"d+Q Q 8$Q 8$8$ .]+ . . .]+}.]+,.6+,.,.-.>.,.,.-.,.>.>.>.>.,.,.,.,.>.>.>.>.,.-.Q+O$..b+|.S g$g$,.R+=.g$>. .P -.,.Y )): : : : : : : : : : : : : : : : : ()Q+,.}.*+;.>.0+>.>.O+g$ .U d+^+_%-.O+g$,.6+>.R+0+-.-.0+-.R+-.>.,.-.-.-.-.-.=./.=.;.]+h=]+4- .]+]+8$8$8$Q Q Q d+b+",
"d-j+L-g$u$].i+k+j+O%].].].s$-.` '+-+%+&+g+%+=+=+*+-+=+=+*+*+*+*+-+=+$+z=g*b+{+g>)+b+^+k+,.O+].&._+i+[.{.P O -.,.Y )): : : : : : : : : : : : : : : : : (),._)Y $+J+#.` N+7+_+7+-.O.k+Q {+'+'+)+e+r.m.*+%+h+=+=+g+&+%+%+g+h+%+=+$+=+=+*+m.]+b;0+r$h$s$s$g$h$g$O+].O%k+i+d-",
"H.H.:)<)<)[)<)<)<)[)})[)<)[)|)[):)H.:).+1)`.2)++2)<)[)<)[)<)++H.H.H.<)<)[)<)<)2)<)[)<)2)<)H..+ +`.H.H.3)4)Q O+=.V )): : : : : : : : : : : : : : : : : 5)=.=.a+6)7):)H..+8).+H.:)<)9)9)9)[)<)<)2)H..+:)<)++++<)<)<)<)2).+`.H.:)H.:)H.2)<)9)0)a)9)<)<)H.:)<)<)<)<)b) + +c)",
"=+=+$+s.s.f+f+m.m.,+,+d)f+f+f+s.f+'+m.s.$+;+m.m.m.r.,+f+m.s.$+s.s.s.e)e)m.m.m.m.f+f+m.m.'+!+c,f)f+f+#)g)h)i)P+ .g>)): : : : : : : : : : : : : : : : : j)5&V 4-k)l)m)c,'+f)l.e)f+f)'+,+c+,+'+s.e)f+m.m.f+e)f+d),+,+'+f+m.s.s.m.s.l.m.s.s.f),+n)o)s.p)s.s.s.z=f+f+m.$+=+$+",
"q)c L o+5@L L b%5@/*3+M F@e e e b%q =;e e b%i i I E /*q I 2+F@6@5@5@L L K 3+I 3+I 3+s 3+s 3+3+J L b%5@M H@2+J 3+m*j=: : : : : : : : : : : : : : : : : r)v*J I@f$I+2+q+3+F I A*I@I@=#I@s)F I L t)m 6@5@7@5@I@I I q =;J 3+m*m*I@I f$m*6@F@F@5@2+8*a G@f a 7 b%5@5@q)5@S+u)",
"v)M=w)w)x)x)w)y)y)z)x)v)A)B)C)D)E)F)G)x)H)M=x)G)I)F)J)K)L)I)x)M=M=M=x)M=x)L)M)u)M)N)N)N)z)G)G)x)M=y)O)M=M=M=w)u)P)|-: : : : : : : : : : : : : : : : : Q)x)w)w)E)E)E)G)L)R)S)G)M)T)E)G)N)U)L)z)V)G)x)M=M=M=z)N)L)L)G)E)G)E)u)U)M)N)G)z)M=M=M=M=v)W)W)v)W)X)Y)C)C)C)M=y)Z)"};
