/* XPM */
static char * so_door33_tex_xpm[] = {
"132 132 15 1",
" 	c #393939",
".	c #383939",
"+	c #37383A",
"@	c #37393A",
"#	c #38393A",
"$	c #38393B",
"%	c #383A3C",
"&	c #383A3B",
"*	c #37393B",
"=	c #383839",
"-	c #35383A",
";	c #35383B",
">	c #35373A",
",	c #373839",
"'	c #373838",
"                                                                .                                                                   ",
"                                                                +                                                                   ",
"                                                                +                                                                   ",
"                                                                +                                                                   ",
"                                                                +                                                                   ",
"                                                                +                                                                   ",
"                                                                +                                                                   ",
"                                                                +                                                                   ",
"                                                                +                                                                   ",
"                                                                @                                                                   ",
"                                                                @                                                                   ",
"                                                                +                                                                   ",
"                                                                @                                                                   ",
"                                                                @                                                                   ",
"                                                                @                                                                   ",
"                                                                @                                                                   ",
"                                                                @                                                                   ",
"                                                                @                                                                   ",
"                                                                @                                                                   ",
"                                                                #                                                                   ",
"                                                                $                                                                   ",
"                                                                $                                                                   ",
"                                                                %                                                                   ",
"                                                                %                                                                   ",
"                                                                %                                                                   ",
"                                                                &                                                                   ",
"                                                                &                                                                   ",
"                                                                %                                                                   ",
"                                                                &                                                                   ",
"                                                                &                                                                   ",
"                                                                %                                                                   ",
"                                                                %                                                                   ",
"                                                                %                                                                   ",
"                                                                &                                                                   ",
"                                                                &                                                                   ",
"                                                                $                                                                   ",
"                                                                $                                                                   ",
"                                                                $                                                                   ",
"                                                                $                                                                   ",
"                                                                $                                                                   ",
"                                                                $                                                                   ",
"                                                                &                                                                   ",
"                                                                $                                                                   ",
"                                                                $                                                                   ",
"                                                                #                                                                   ",
"                                                                #                                                                   ",
"                                                                #                                                                   ",
"                                                                @                                                                   ",
"                                                                @                                                                   ",
"                                                                $                                                                   ",
"                                                                $                                                                   ",
"                                                                *                                                                   ",
"                                                                $                                                                   ",
"                                                                $                                                                   ",
"                                                                $                                                                   ",
"                                                                &                                                                   ",
"                                                                $                                                                   ",
"                                                                $                                                                   ",
"                                                                $                                                                   ",
"                                                                $                                                                   ",
"                                                                $                                                                   ",
"                                                                $                                                                   ",
"=                                                               $                                                                   ",
"-                                                               *                                                                   ",
";                                                               *                                                                   ",
";                                                               @                                                                   ",
";                                                               @                                                                   ",
";                                                               $                                                                   ",
";                                                               $                                                                   ",
";                                                               $                                                                   ",
">                                                               $                                                                   ",
"=                                                               $                                                                   ",
"                                                                *                                                                   ",
"                                                                $                                                                   ",
"                                                                *                                                                   ",
"                                                                $                                                                   ",
"                                                                *                                                                   ",
"                                                                @                                                                   ",
"                                                                +                                                                   ",
"                                                                @                                                                   ",
"                                                                @                                                                   ",
"                                                                @                                                                   ",
"                                                                @                                                                   ",
"                                                                @                                                                   ",
"                                                                @                                                                   ",
"                                                                @                                                                   ",
"                                                                @                                                                   ",
"                                                                @                                                                   ",
"                                                                @                                                                   ",
"                                                                @                                                                   ",
"                                                                @                                                                   ",
"                                                                @                                                                   ",
"                                                                @                                                                   ",
"                                                                +                                                                   ",
"                                                                +                                                                   ",
"                                                                +                                                                   ",
"                                                                +                                                                   ",
"                                                                +                                                                   ",
"                                                                +                                                                   ",
"                                                                @                                                                   ",
"                                                                +                                                                   ",
"                                                                +                                                                   ",
"                                                                +                                                                   ",
"                                                                +                                                                   ",
"                                                                +                                                                   ",
"                                                                +                                                                   ",
"                                                                +                                                                   ",
"                                                                ,                                                                   ",
"                                                                ,                                                                   ",
"                                                                ,                                                                   ",
"                                                                ,                                                                   ",
"                                                                ,                                                                   ",
"                                                                ,                                                                   ",
"                                                                ,                                                                   ",
"                                                                ,                                                                   ",
"                                                                ,                                                                   ",
"                                                                ,                                                                   ",
"                                                                ,                                                                   ",
"                                                                ,                                                                   ",
"                                                                ,                                                                   ",
"                                                                ,                                                                   ",
"                                                                ,                                                                   ",
"                                                                ,                                                                   ",
"                                                                ,                                                                   ",
"                                                                '                                                                   ",
"                                                                '                                                                   ",
"                                                                '                                                                   ",
"                                                                '                                                                   ",
"                                                                '                                                                   ",
"                                                                '                                                                   ",
"                                                                +                                                                   ",
"                                                                ,                                                                   "};
