/* XPM */
static char * so_door6_tex_xpm[] = {
"132 132 1493 2",
"  	c #2D363F",
". 	c #2C363F",
"+ 	c #2D3640",
"@ 	c #2C353E",
"# 	c #2C3640",
"$ 	c #2D3741",
"% 	c #2E3841",
"& 	c #2D3641",
"* 	c #2D3842",
"= 	c #2E3944",
"- 	c #2E3943",
"; 	c #2F3A45",
"> 	c #2E3842",
", 	c #2F3B46",
"' 	c #2F3944",
") 	c #2F3A46",
"! 	c #303C46",
"~ 	c #303B46",
"{ 	c #303C47",
"] 	c #303A45",
"^ 	c #313D4A",
"/ 	c #313E4A",
"( 	c #323E4A",
"_ 	c #323F4A",
": 	c #313D48",
"< 	c #35393C",
"[ 	c #393939",
"} 	c #303B45",
"| 	c #323F4B",
"1 	c #313D49",
"2 	c #303C48",
"3 	c #2E3843",
"4 	c #2E3A44",
"5 	c #2E3942",
"6 	c #2E3741",
"7 	c #2D3841",
"8 	c #2C363E",
"9 	c #2C353F",
"0 	c #2C353D",
"a 	c #22303E",
"b 	c #22313F",
"c 	c #23313F",
"d 	c #233341",
"e 	c #243341",
"f 	c #243342",
"g 	c #233240",
"h 	c #243543",
"i 	c #243443",
"j 	c #253544",
"k 	c #253646",
"l 	c #253645",
"m 	c #243544",
"n 	c #253545",
"o 	c #263746",
"p 	c #273847",
"q 	c #263645",
"r 	c #273645",
"s 	c #283847",
"t 	c #283948",
"u 	c #293A49",
"v 	c #283949",
"w 	c #273848",
"x 	c #293B4A",
"y 	c #293949",
"z 	c #293B4B",
"A 	c #293A4A",
"B 	c #2A3B4B",
"C 	c #2A3B4A",
"D 	c #2B3D4C",
"E 	c #2C3F4F",
"F 	c #2D3F4F",
"G 	c #2C3F50",
"H 	c #2D4151",
"I 	c #2C3D4C",
"J 	c #33393E",
"K 	c #2B3C4B",
"L 	c #2A3C4B",
"M 	c #293C4B",
"N 	c #2D4050",
"O 	c #283848",
"P 	c #283A49",
"Q 	c #273948",
"R 	c #273947",
"S 	c #263846",
"T 	c #253746",
"U 	c #253543",
"V 	c #233340",
"W 	c #151F29",
"X 	c #162029",
"Y 	c #16212A",
"Z 	c #17222C",
"` 	c #17222D",
" .	c #17232D",
"..	c #18222D",
"+.	c #18242D",
"@.	c #18242E",
"#.	c #17242D",
"$.	c #192530",
"%.	c #19242F",
"&.	c #1A2630",
"*.	c #1A2732",
"=.	c #1A2631",
"-.	c #1A2833",
";.	c #18252F",
">.	c #1B2833",
",.	c #1B2834",
"'.	c #1A2733",
").	c #1B2934",
"!.	c #1C2934",
"~.	c #1C2A35",
"{.	c #1C2A36",
"].	c #1D2A36",
"^.	c #1D2B38",
"/.	c #1E2D39",
"(.	c #1F2F3C",
"_.	c #1F2E3B",
":.	c #1F2E3A",
"<.	c #1F2C39",
"[.	c #313437",
"}.	c #303337",
"|.	c #1F2C38",
"1.	c #1E2C38",
"2.	c #1C2B37",
"3.	c #1D2D3A",
"4.	c #1D2B37",
"5.	c #1C2935",
"6.	c #1B2733",
"7.	c #1B2933",
"8.	c #1A2632",
"9.	c #1A2731",
"0.	c #192631",
"a.	c #192630",
"b.	c #19252F",
"c.	c #18232D",
"d.	c #17232C",
"e.	c #060A0F",
"f.	c #060B0E",
"g.	c #060B0F",
"h.	c #060C10",
"i.	c #070C11",
"j.	c #070B10",
"k.	c #070C10",
"l.	c #070D11",
"m.	c #070D12",
"n.	c #080D12",
"o.	c #070D13",
"p.	c #080E12",
"q.	c #080E13",
"r.	c #080F14",
"s.	c #080D13",
"t.	c #080E14",
"u.	c #090E14",
"v.	c #091015",
"w.	c #09131B",
"x.	c #091C2B",
"y.	c #0F1E29",
"z.	c #131F27",
"A.	c #131E27",
"B.	c #131C24",
"C.	c #2F3031",
"D.	c #2E2F31",
"E.	c #131E26",
"F.	c #141F28",
"G.	c #121E27",
"H.	c #091C29",
"I.	c #08151F",
"J.	c #081015",
"K.	c #090F14",
"L.	c #090F15",
"M.	c #0B1219",
"N.	c #0B141A",
"O.	c #0C1319",
"P.	c #0C141A",
"Q.	c #0B1218",
"R.	c #0C131A",
"S.	c #0B1319",
"T.	c #0D151B",
"U.	c #0C141B",
"V.	c #0B131A",
"W.	c #0D151C",
"X.	c #0E171E",
"Y.	c #0C151B",
"Z.	c #0A1117",
"`.	c #0A1116",
" +	c #0E1821",
".+	c #0F1E2A",
"++	c #192733",
"@+	c #20303E",
"#+	c #223341",
"$+	c #303336",
"%+	c #2F3236",
"&+	c #21313F",
"*+	c #223340",
"=+	c #101E28",
"-+	c #0E1A23",
";+	c #0B151B",
">+	c #0A1218",
",+	c #0F161E",
"'+	c #0E161D",
")+	c #0D161C",
"!+	c #0E171D",
"~+	c #0F181F",
"{+	c #0A1217",
"]+	c #111A23",
"^+	c #131D26",
"/+	c #121D26",
"(+	c #121C24",
"_+	c #111B23",
":+	c #121D25",
"<+	c #121C25",
"[+	c #131D27",
"}+	c #142028",
"|+	c #14202A",
"1+	c #142029",
"2+	c #16212B",
"3+	c #15222C",
"4+	c #15212B",
"5+	c #16222B",
"6+	c #182530",
"7+	c #192732",
"8+	c #21313E",
"9+	c #21323F",
"0+	c #1C2B36",
"a+	c #233644",
"b+	c #1E303F",
"c+	c #293C4C",
"d+	c #313438",
"e+	c #2F3337",
"f+	c #263947",
"g+	c #283B4A",
"h+	c #192834",
"i+	c #263B4B",
"j+	c #1F2F3B",
"k+	c #1D2C38",
"l+	c #20313E",
"m+	c #22333F",
"n+	c #1E2E3A",
"o+	c #192731",
"p+	c #16222C",
"q+	c #15212C",
"r+	c #16232D",
"s+	c #15202A",
"t+	c #131F28",
"u+	c #111B24",
"v+	c #111C24",
"w+	c #1B2A35",
"x+	c #1B2A36",
"y+	c #1A2934",
"z+	c #182631",
"A+	c #1B2935",
"B+	c #1F303C",
"C+	c #243644",
"D+	c #273949",
"E+	c #283B4B",
"F+	c #2A3E4E",
"G+	c #2C4253",
"H+	c #243847",
"I+	c #1E2E3B",
"J+	c #283C4C",
"K+	c #2A3F4F",
"L+	c #243442",
"M+	c #313538",
"N+	c #303438",
"O+	c #283A4B",
"P+	c #293D4D",
"Q+	c #273B4C",
"R+	c #2D4253",
"S+	c #2B4050",
"T+	c #2B3F4F",
"U+	c #2B4051",
"V+	c #2A3E4D",
"W+	c #263948",
"X+	c #20303D",
"Y+	c #202F3B",
"Z+	c #21303E",
"`+	c #20303C",
" @	c #1C2B38",
".@	c #1D2C39",
"+@	c #192632",
"@@	c #18242F",
"#@	c #1F2D39",
"$@	c #1E2C39",
"%@	c #263744",
"&@	c #2C4151",
"*@	c #2C4152",
"=@	c #2A3F4E",
"-@	c #2E4354",
";@	c #2E4455",
">@	c #2D4353",
",@	c #2F4456",
"'@	c #2D4354",
")@	c #2D4454",
"!@	c #32485A",
"~@	c #324A5C",
"{@	c #32495B",
"]@	c #32495C",
"^@	c #31485B",
"/@	c #31485A",
"(@	c #2C4354",
"_@	c #1E303E",
":@	c #1E2D3A",
"<@	c #293E4E",
"[@	c #2A3E4F",
"}@	c #2E4557",
"|@	c #263C4C",
"1@	c #2A3F50",
"2@	c #323639",
"3@	c #303539",
"4@	c #2B4153",
"5@	c #203240",
"6@	c #2D4355",
"7@	c #293D4E",
"8@	c #2B3F51",
"9@	c #1F2F3D",
"0@	c #293D4B",
"a@	c #344B5E",
"b@	c #314658",
"c@	c #314859",
"d@	c #2F4557",
"e@	c #304658",
"f@	c #2D4252",
"g@	c #2B4151",
"h@	c #2B3F50",
"i@	c #2C4051",
"j@	c #253745",
"k@	c #253846",
"l@	c #243746",
"m@	c #233544",
"n@	c #233342",
"o@	c #223442",
"p@	c #233543",
"q@	c #2E4355",
"r@	c #2E4353",
"s@	c #2B4152",
"t@	c #304759",
"u@	c #344C5F",
"v@	c #2D4457",
"w@	c #1E313F",
"x@	c #243745",
"y@	c #233443",
"z@	c #2A3D4E",
"A@	c #2E4558",
"B@	c #2E4659",
"C@	c #294052",
"D@	c #293E4F",
"E@	c #2B4052",
"F@	c #273745",
"G@	c #32363A",
"H@	c #30353A",
"I@	c #293D4C",
"J@	c #2C4355",
"K@	c #213443",
"L@	c #2F4558",
"M@	c #223240",
"N@	c #374F62",
"O@	c #2E4456",
"P@	c #2F4457",
"Q@	c #2D4455",
"R@	c #2B3E4F",
"S@	c #223441",
"T@	c #233444",
"U@	c #243645",
"V@	c #233442",
"W@	c #253847",
"X@	c #273A49",
"Y@	c #304558",
"Z@	c #2E4457",
"`@	c #2D4152",
" #	c #30485B",
".#	c #31495D",
"+#	c #2D4659",
"@#	c #1F3342",
"##	c #223543",
"$#	c #223542",
"%#	c #2D4557",
"&#	c #30475A",
"*#	c #2B4254",
"=#	c #2C4254",
"-#	c #273846",
";#	c #33373B",
">#	c #30363B",
",#	c #213343",
"'#	c #2F4659",
")#	c #2A4052",
"!#	c #2C4153",
"~#	c #213240",
"{#	c #223645",
"]#	c #31485C",
"^#	c #30485A",
"/#	c #31495C",
"(#	c #31475A",
"_#	c #2E4658",
":#	c #273A4A",
"<#	c #233645",
"[#	c #334A5C",
"}#	c #304557",
"|#	c #2D4254",
"1#	c #304659",
"2#	c #32495D",
"3#	c #324A5E",
"4#	c #1B2F3D",
"5#	c #2A3F51",
"6#	c #293E50",
"7#	c #30373C",
"8#	c #203341",
"9#	c #32495E",
"0#	c #1A2B38",
"a#	c #30495C",
"b#	c #324A5D",
"c#	c #334B5E",
"d#	c #2F4658",
"e#	c #374E62",
"f#	c #253848",
"g#	c #233646",
"h#	c #243646",
"i#	c #273A4B",
"j#	c #22323F",
"k#	c #344A5D",
"l#	c #304657",
"m#	c #314759",
"n#	c #334A5E",
"o#	c #344C60",
"p#	c #324B5F",
"q#	c #334C61",
"r#	c #2E485B",
"s#	c #1D3140",
"t#	c #263A49",
"u#	c #253949",
"v#	c #2D4356",
"w#	c #33373C",
"x#	c #30373D",
"y#	c #1F303F",
"z#	c #1D2E3B",
"A#	c #334A5D",
"B#	c #344D61",
"C#	c #375063",
"D#	c #273B4B",
"E#	c #263A4A",
"F#	c #283B4C",
"G#	c #293C4D",
"H#	c #314758",
"I#	c #334B5F",
"J#	c #334C60",
"K#	c #344D62",
"L#	c #314A5F",
"M#	c #1F3241",
"N#	c #2D4357",
"O#	c #34383D",
"P#	c #31383F",
"Q#	c #1F303E",
"R#	c #1E2F3D",
"S#	c #324A5F",
"T#	c #30475B",
"U#	c #344D60",
"V#	c #354E61",
"W#	c #354D61",
"X#	c #344E62",
"Y#	c #354D62",
"Z#	c #385164",
"`#	c #283D4C",
" $	c #293B4C",
".$	c #202F3C",
"+$	c #283A4A",
"@$	c #344C5E",
"#$	c #324C5F",
"$$	c #2F485C",
"%$	c #1F3140",
"&$	c #1A2834",
"*$	c #2E4458",
"=$	c #34393D",
"-$	c #31393F",
";$	c #1E303D",
">$	c #2D4558",
",$	c #2C4052",
"'$	c #314A5E",
")$	c #344C61",
"!$	c #354E62",
"~$	c #354E63",
"{$	c #385165",
"]$	c #253948",
"^$	c #263848",
"/$	c #273B4A",
"($	c #334B5D",
"_$	c #334D61",
":$	c #2F495D",
"<$	c #203140",
"[$	c #35393D",
"}$	c #313940",
"|$	c #2A4051",
"1$	c #233746",
"2$	c #3A5368",
"3$	c #263847",
"4$	c #253947",
"5$	c #2A3D4D",
"6$	c #2C4252",
"7$	c #334B60",
"8$	c #2F475B",
"9$	c #233545",
"0$	c #1C2B39",
"a$	c #2B4154",
"b$	c #2D4456",
"c$	c #243846",
"d$	c #395367",
"e$	c #344B60",
"f$	c #1E3140",
"g$	c #253747",
"h$	c #283E4F",
"i$	c #35393E",
"j$	c #313A41",
"k$	c #293D4F",
"l$	c #1B2C39",
"m$	c #30465A",
"n$	c #375064",
"o$	c #1C2C39",
"p$	c #33495B",
"q$	c #17242E",
"r$	c #203444",
"s$	c #2F475A",
"t$	c #353A3E",
"u$	c #313A42",
"v$	c #182734",
"w$	c #223544",
"x$	c #283C4B",
"y$	c #1D2D39",
"z$	c #314C60",
"A$	c #2B475C",
"B$	c #213D51",
"C$	c #243E50",
"D$	c #17242F",
"E$	c #1D2E3C",
"F$	c #253B4D",
"G$	c #253E52",
"H$	c #2A465A",
"I$	c #1E2F3B",
"J$	c #1D2E39",
"K$	c #1F303D",
"L$	c #1C2C38",
"M$	c #2E4352",
"N$	c #2B3E4E",
"O$	c #30485C",
"P$	c #37546B",
"Q$	c #1F4965",
"R$	c #1A74A2",
"S$	c #2A495E",
"T$	c #2A4153",
"U$	c #1A2935",
"V$	c #323B43",
"W$	c #1A2A36",
"X$	c #1C2D3A",
"Y$	c #2C4659",
"Z$	c #2A5B7B",
"`$	c #265F82",
" %	c #305069",
".%	c #365064",
"+%	c #233542",
"@%	c #1F2E39",
"#%	c #1E2D38",
"$%	c #20313D",
"%%	c #20303B",
"&%	c #1D2C37",
"*%	c #355065",
"=%	c #1D4864",
"-%	c #127BB7",
";%	c #2A4A61",
">%	c #2C4356",
",%	c #283E4E",
"'%	c #1B2B38",
")%	c #2E4A5E",
"!%	c #286388",
"~%	c #246287",
"{%	c #2F4E66",
"]%	c #202F3A",
"^%	c #1B2A34",
"/%	c #233440",
"(%	c #1D2C36",
"_%	c #21303B",
":%	c #21313D",
"<%	c #21333F",
"[%	c #385268",
"}%	c #1E4864",
"|%	c #137BB9",
"1%	c #2B4B61",
"2%	c #273C4C",
"3%	c #303941",
"4%	c #2F4A5E",
"5%	c #296489",
"6%	c #236389",
"7%	c #2F4F66",
"8%	c #30485D",
"9%	c #111B22",
"0%	c #233441",
"a%	c #21303D",
"b%	c #243542",
"c%	c #21303C",
"d%	c #1E4966",
"e%	c #0F7CC1",
"f%	c #2B4A61",
"g%	c #283D4D",
"h%	c #2B404F",
"i%	c #363A3D",
"j%	c #313B43",
"k%	c #28658A",
"l%	c #23668D",
"m%	c #2F5067",
"n%	c #2E475A",
"o%	c #334C5F",
"p%	c #233643",
"q%	c #223440",
"r%	c #131F26",
"s%	c #15232D",
"t%	c #263745",
"u%	c #2E4253",
"v%	c #385368",
"w%	c #1F4966",
"x%	c #0E7DC4",
"y%	c #2C4B62",
"z%	c #36393D",
"A%	c #313A43",
"B%	c #2A6488",
"C%	c #22668F",
"D%	c #2F5069",
"E%	c #2A3E50",
"F%	c #365267",
"G%	c #1E4765",
"H%	c #1279C2",
"I%	c #2D4A61",
"J%	c #303A44",
"K%	c #2A668B",
"L%	c #216690",
"M%	c #2F526B",
"N%	c #2C4456",
"O%	c #32485B",
"P%	c #1D2E3A",
"Q%	c #365167",
"R%	c #1277C2",
"S%	c #2F485D",
"T%	c #2B658A",
"U%	c #206692",
"V%	c #30526B",
"W%	c #31495E",
"X%	c #293F4F",
"Y%	c #15212A",
"Z%	c #293F50",
"`%	c #233745",
" &	c #354F65",
".&	c #1E4967",
"+&	c #107AC4",
"@&	c #2E4C63",
"#&	c #363A3E",
"$&	c #313B45",
"%&	c #293E4D",
"&&	c #1B2B36",
"*&	c #2F495E",
"=&	c #2B658C",
"-&	c #1F6693",
";&	c #30536D",
">&	c #2C4457",
",&	c #344F64",
"'&	c #0F7BC7",
")&	c #2D4C63",
"!&	c #2F3A43",
"~&	c #2C658B",
"{&	c #1F6692",
"]&	c #30526C",
"^&	c #2D4458",
"/&	c #283C4D",
"(&	c #253845",
"_&	c #26394A",
":&	c #1E4763",
"<&	c #0F7AC6",
"[&	c #2C4C63",
"}&	c #2F4A5F",
"|&	c #21668F",
"1&	c #2F5169",
"2&	c #2C4255",
"3&	c #2A4050",
"4&	c #283D4E",
"5&	c #204763",
"6&	c #0F7CC6",
"7&	c #303B44",
"8&	c #216790",
"9&	c #263845",
"0&	c #2A4152",
"a&	c #1F4763",
"b&	c #0E7DC5",
"c&	c #2C4D64",
"d&	c #2F3B45",
"e&	c #2B4253",
"f&	c #304A5F",
"g&	c #22658F",
"h&	c #2F4759",
"i&	c #1F4864",
"j&	c #0D7EC7",
"k&	c #2D4E65",
"l&	c #2B6386",
"m&	c #23648C",
"n&	c #1D445F",
"o&	c #127CBC",
"p&	c #2B4B62",
"q&	c #18252E",
"r&	c #36393C",
"s&	c #2F3A44",
"t&	c #2E4559",
"u&	c #2D475B",
"v&	c #2B6081",
"w&	c #266083",
"x&	c #2B4A60",
"y&	c #253A4A",
"z&	c #2A3F52",
"A&	c #1F3A4E",
"B&	c #2A5875",
"C&	c #253F53",
"D&	c #254A62",
"E&	c #224862",
"F&	c #1C3040",
"G&	c #263949",
"H&	c #253A49",
"I&	c #2C4759",
"J&	c #244055",
"K&	c #254F69",
"L&	c #243C4E",
"M&	c #2E3A43",
"N&	c #273E50",
"O&	c #25485E",
"P&	c #254962",
"Q&	c #294458",
"R&	c #304758",
"S&	c #1D4561",
"T&	c #1B73A7",
"U&	c #28485F",
"V&	c #37393C",
"W&	c #293F51",
"X&	c #294356",
"Y&	c #2A5F80",
"Z&	c #255F83",
"`&	c #2C4960",
" *	c #1D4764",
".*	c #127BBD",
"+*	c #2A4B62",
"@*	c #2E3A45",
"#*	c #2C475B",
"$*	c #236289",
"%*	c #2E4D65",
"&*	c #1E4A67",
"**	c #107CC4",
"=*	c #2A4A62",
"-*	c #293E4C",
";*	c #2E3A46",
">*	c #2C485D",
",*	c #29668C",
"'*	c #216590",
")*	c #223443",
"!*	c #1E4866",
"~*	c #107BC4",
"{*	c #2D3A44",
"]*	c #29668A",
"^*	c #206792",
"/*	c #2D4F68",
"(*	c #304859",
"_*	c #1E4A68",
":*	c #107BC3",
"<*	c #2A4961",
"[*	c #37393B",
"}*	c #2D3943",
"|*	c #2B475B",
"1*	c #1D4966",
"2*	c #1279BD",
"3*	c #2A485F",
"4*	c #2D3A45",
"5*	c #2B4559",
"6*	c #296386",
"7*	c #236489",
"8*	c #2D4F67",
"9*	c #2B4252",
"0*	c #1579B5",
"a*	c #29485E",
"b*	c #2B4558",
"c*	c #296082",
"d*	c #256083",
"e*	c #2A3D4C",
"f*	c #263B4C",
"g*	c #1D2F3B",
"h*	c #1A384C",
"i*	c #21526E",
"j*	c #253E51",
"k*	c #2C3842",
"l*	c #214962",
"m*	c #204962",
"n*	c #2B4457",
"o*	c #1A2A37",
"p*	c #1A3040",
"q*	c #2C3742",
"r*	c #1D303F",
"s*	c #1C2E3D",
"t*	c #17232E",
"u*	c #2C3944",
"v*	c #253A48",
"w*	c #38393B",
"x*	c #2D3B45",
"y*	c #37393A",
"z*	c #2B3944",
"A*	c #152029",
"B*	c #1F303B",
"C*	c #213341",
"D*	c #213442",
"E*	c #213340",
"F*	c #273C4A",
"G*	c #273A48",
"H*	c #38393A",
"I*	c #2C3945",
"J*	c #20313F",
"K*	c #172B39",
"L*	c #182833",
"M*	c #2B3844",
"N*	c #172936",
"O*	c #213647",
"P*	c #284155",
"Q*	c #1B3F56",
"R*	c #255A77",
"S*	c #1F394B",
"T*	c #273B49",
"U*	c #293F4E",
"V*	c #2A3843",
"W*	c #223746",
"X*	c #285773",
"Y*	c #1B445D",
"Z*	c #223E53",
"`*	c #294357",
" =	c #1D4159",
".=	c #1973A8",
"+=	c #24648A",
"@=	c #2B495F",
"#=	c #293642",
"$=	c #275471",
"%=	c #0F7DC0",
"&=	c #1E4964",
"*=	c #264257",
"==	c #294153",
"-=	c #1D3F56",
";=	c #1C6F9F",
">=	c #1E6D9C",
",=	c #2D536D",
"'=	c #293743",
")=	c #304D64",
"!=	c #285E81",
"~=	c #0980C9",
"{=	c #1E4863",
"]=	c #264055",
"^=	c #273C4D",
"/=	c #1B3648",
"(=	c #1A72A5",
"_=	c #2D5570",
":=	c #192833",
"<=	c #2A3844",
"[=	c #24638A",
"}=	c #147AB2",
"|=	c #1C3E54",
"1=	c #273C4B",
"2=	c #1A3141",
"3=	c #1D3B4F",
"4=	c #285D7C",
"5=	c #2B536D",
"6=	c #293844",
"7=	c #2F4D65",
"8=	c #285A78",
"9=	c #1F425A",
"0=	c #1A3346",
"a=	c #253C4E",
"b=	c #1B394F",
"c=	c #275876",
"d=	c #285A77",
"e=	c #2A4C62",
"f=	c #293845",
"g=	c #2D4A60",
"h=	c #224D68",
"i=	c #206A96",
"j=	c #1C4057",
"k=	c #253F52",
"l=	c #253946",
"m=	c #263B4A",
"n=	c #1D3C53",
"o=	c #275777",
"p=	c #127DBD",
"q=	c #2C4E65",
"r=	c #1971A8",
"s=	c #216692",
"t=	c #1B3E56",
"u=	c #263E51",
"v=	c #283E51",
"w=	c #1E3D54",
"x=	c #265474",
"y=	c #2D5774",
"z=	c #2B465B",
"A=	c #182630",
"B=	c #21323E",
"C=	c #383939",
"D=	c #263641",
"E=	c #2C4559",
"F=	c #2E526D",
"G=	c #1474B3",
"H=	c #236189",
"I=	c #1B3D56",
"J=	c #263C4F",
"K=	c #283F50",
"L=	c #1D3C54",
"M=	c #234E6C",
"N=	c #0782D3",
"O=	c #2B5B7B",
"P=	c #2C485E",
"Q=	c #15222A",
"R=	c #263440",
"S=	c #141F27",
"T=	c #2C4458",
"U=	c #2D5470",
"V=	c #0E7ABF",
"W=	c #265B7D",
"X=	c #1A3A4F",
"Y=	c #243A4B",
"Z=	c #243948",
"`=	c #1E3B50",
" -	c #1F4C6A",
".-	c #0382DA",
"+-	c #2A5C7E",
"@-	c #2C4A60",
"#-	c #24323F",
"$-	c #233642",
"%-	c #141E26",
"&-	c #0E7CC3",
"*-	c #275676",
"=-	c #193549",
"--	c #25394B",
";-	c #1E3241",
">-	c #193950",
",-	c #295F82",
"'-	c #2C4A62",
")-	c #1E2E39",
"!-	c #1C2933",
"~-	c #151F27",
"{-	c #2B5471",
"]-	c #1A2C3A",
"^-	c #253A4B",
"/-	c #162936",
"(-	c #1A3447",
"_-	c #2B516C",
":-	c #2D4B61",
"<-	c #1C2C37",
"[-	c #333537",
"}-	c #282D32",
"|-	c #284F69",
"1-	c #1E4256",
"2-	c #162733",
"3-	c #162835",
"4-	c #283C4A",
"5-	c #101C25",
"6-	c #141D26",
"7-	c #353738",
"8-	c #252E35",
"9-	c #24394A",
"0-	c #1A2D3A",
"a-	c #172430",
"b-	c #213342",
"c-	c #203340",
"d-	c #16242E",
"e-	c #182732",
"f-	c #152531",
"g-	c #122C3E",
"h-	c #103C55",
"i-	c #383839",
"j-	c #212F3A",
"k-	c #2E4556",
"l-	c #2B4354",
"m-	c #17252F",
"n-	c #273D4C",
"o-	c #1C303D",
"p-	c #162C3B",
"q-	c #124361",
"r-	c #11688D",
"s-	c #103447",
"t-	c #35383A",
"u-	c #29343E",
"v-	c #324859",
"w-	c #1A2933",
"x-	c #1B3140",
"y-	c #153143",
"z-	c #134B6C",
"A-	c #0B729B",
"B-	c #10394F",
"C-	c #35383B",
"D-	c #293640",
"E-	c #2C4558",
"F-	c #273D4E",
"G-	c #213645",
"H-	c #245570",
"I-	c #27455C",
"J-	c #263C4D",
"K-	c #163449",
"L-	c #144D6E",
"M-	c #0A749E",
"N-	c #103B52",
"O-	c #283641",
"P-	c #284255",
"Q-	c #263F52",
"R-	c #205371",
"S-	c #233B4D",
"T-	c #233B4C",
"U-	c #127CA8",
"V-	c #274F6C",
"W-	c #263D4F",
"X-	c #153449",
"Y-	c #154D6F",
"Z-	c #0774A3",
"`-	c #103B53",
" ;	c #29495F",
".;	c #0E7BAD",
"+;	c #234358",
"@;	c #1B2B37",
"#;	c #243E4F",
"$;	c #0A84B7",
"%;	c #28516F",
"&;	c #273E51",
"*;	c #294051",
"=;	c #1B303F",
"-;	c #153247",
";;	c #144C6E",
">;	c #0675A5",
",;	c #0F3A52",
"';	c #284256",
");	c #283E4D",
"!;	c #2A4B61",
"~;	c #0783B8",
"{;	c #24455B",
"];	c #0E81B0",
"^;	c #28506C",
"/;	c #153347",
"(;	c #144C6D",
"_;	c #0973A0",
":;	c #28343F",
"<;	c #274053",
"[;	c #2A495F",
"};	c #0C7EAC",
"|;	c #19262F",
"1;	c #283A48",
"2;	c #233848",
"3;	c #275E7C",
"4;	c #29475D",
"5;	c #1C3141",
"6;	c #153043",
"7;	c #144A6B",
"8;	c #0975A1",
"9;	c #103B51",
"0;	c #284154",
"a;	c #275B77",
"b;	c #243C4F",
"c;	c #2A3D4B",
"d;	c #1E2C37",
"e;	c #263F51",
"f;	c #1D3241",
"g;	c #152D3D",
"h;	c #144764",
"i;	c #0D7299",
"j;	c #11384D",
"k;	c #35373A",
"l;	c #28323C",
"m;	c #283F51",
"n;	c #273F51",
"o;	c #16222D",
"p;	c #15364A",
"q;	c #124D69",
"r;	c #212F3B",
"s;	c #1B2D3A",
"t;	c #172A3A",
"u;	c #2D373F",
"v;	c #1C2D39",
"w;	c #2F3439",
"x;	c #333639",
"y;	c #1E3749",
"z;	c #27526E",
"A;	c #27455B",
"B;	c #2F363C",
"C;	c #204A63",
"D;	c #214A60",
"E;	c #1B2E3C",
"F;	c #2E4759",
"G;	c #224259",
"H;	c #0880D0",
"I;	c #285C7E",
"J;	c #254259",
"K;	c #33363A",
"L;	c #2E343A",
"M;	c #24526F",
"N;	c #088ACD",
"O;	c #254E68",
"P;	c #2A4254",
"Q;	c #2F4C62",
"R;	c #285372",
"S;	c #008AE3",
"T;	c #275675",
"U;	c #254156",
"V;	c #2E3439",
"W;	c #283F53",
"X;	c #244E69",
"Y;	c #0683D2",
"Z;	c #276083",
"`;	c #2F5168",
" >	c #295979",
".>	c #0087E2",
"+>	c #265270",
"@>	c #253F54",
"#>	c #17252E",
"$>	c #33373A",
"%>	c #2E353B",
"&>	c #273D4F",
"*>	c #254A63",
"=>	c #0A7ECC",
"->	c #216997",
";>	c #294E68",
">>	c #2B4356",
",>	c #2B4E66",
"'>	c #266088",
")>	c #0188DB",
"!>	c #25516E",
"~>	c #263F53",
"{>	c #34373B",
"]>	c #2F353C",
"^>	c #1479B7",
"/>	c #1B71A7",
"(>	c #284E68",
"_>	c #2D475C",
":>	c #2B4F67",
"<>	c #236692",
"[>	c #117EBB",
"}>	c #234C66",
"|>	c #274052",
"1>	c #34373A",
"2>	c #2E353C",
"3>	c #26475D",
"4>	c #1D6F9E",
"5>	c #1577B4",
"6>	c #28506B",
"7>	c #2D485D",
"8>	c #213441",
"9>	c #223342",
"0>	c #2D485B",
"a>	c #2B4F68",
"b>	c #226994",
"c>	c #256487",
"d>	c #213E51",
"e>	c #2B3F4E",
"f>	c #213A4C",
"g>	c #205571",
"h>	c #137AB1",
"i>	c #274F69",
"j>	c #304D63",
"k>	c #2E495D",
"l>	c #27465C",
"m>	c #224358",
"n>	c #224A66",
"o>	c #234258",
"p>	c #1B2B35",
"q>	c #264256",
"r>	c #1E4B64",
"s>	c #204157",
"t>	c #24465C",
"u>	c #2E4C61",
"v>	c #244155",
"w>	c #0C7EC5",
"x>	c #23648E",
"y>	c #24435A",
"z>	c #34383B",
"A>	c #2E363C",
"B>	c #274357",
"C>	c #235572",
"D>	c #0886C7",
"E>	c #23475E",
"F>	c #2F4B60",
"G>	c #26516F",
"H>	c #0083DD",
"I>	c #265C82",
"J>	c #234157",
"K>	c #152129",
"L>	c #2D353C",
"M>	c #264054",
"N>	c #224F6C",
"O>	c #0588D4",
"P>	c #265471",
"Q>	c #2F4D63",
"R>	c #0181DA",
"S>	c #255372",
"T>	c #0882CF",
"U>	c #27597A",
"V>	c #2C4C64",
"W>	c #2E516A",
"X>	c #245170",
"Y>	c #1774AD",
"Z>	c #1E3C51",
"`>	c #2D343B",
" ,	c #1E3546",
".,	c #206A99",
"+,	c #294D66",
"@,	c #111C23",
"#,	c #15232C",
"$,	c #1D2D38",
"%,	c #2A485C",
"&,	c #203E52",
"*,	c #192A38",
"=,	c #172733",
"-,	c #1F3C4F",
";,	c #28455A",
">,	c #1F313E",
",,	c #2C353B",
"',	c #2C333B",
"),	c #213241",
"!,	c #343739",
"~,	c #2C333A",
"{,	c #15222D",
"],	c #182834",
"^,	c #1E2F3C",
"/,	c #353739",
"(,	c #182632",
"_,	c #162D3D",
":,	c #17455B",
"<,	c #1D3342",
"[,	c #18384B",
"},	c #16394E",
"|,	c #23394A",
"1,	c #1F2E3C",
"2,	c #163E57",
"3,	c #1A7198",
"4,	c #204054",
"5,	c #2B3239",
"6,	c #253D4F",
"7,	c #255673",
"8,	c #1F5978",
"9,	c #244257",
"0,	c #17425D",
"a,	c #147AAD",
"b,	c #204359",
"c,	c #295D7D",
"d,	c #235E7F",
"e,	c #25455B",
"f,	c #184461",
"g,	c #107CB7",
"h,	c #22445B",
"i,	c #2A3239",
"j,	c #2A5E7F",
"k,	c #225F82",
"l,	c #18435F",
"m,	c #107CB8",
"n,	c #21445B",
"o,	c #2A323A",
"p,	c #2A5F7F",
"q,	c #235F83",
"r,	c #24445B",
"s,	c #18425E",
"t,	c #0F7DBB",
"u,	c #21445C",
"v,	c #14212B",
"w,	c #243F53",
"x,	c #295F7F",
"y,	c #236084",
"z,	c #20323F",
"A,	c #17415D",
"B,	c #117CB9",
"C,	c #243E52",
"D,	c #2A5F7E",
"E,	c #226084",
"F,	c #25394A",
"G,	c #17405B",
"H,	c #147AB1",
"I,	c #204257",
"J,	c #293138",
"K,	c #223C4E",
"L,	c #2A5E7C",
"M,	c #234359",
"N,	c #173D57",
"O,	c #1677AA",
"P,	c #204155",
"Q,	c #2A3139",
"R,	c #2A5C79",
"S,	c #255D7D",
"T,	c #214055",
"U,	c #1D2F3D",
"V,	c #17354A",
"W,	c #21607E",
"X,	c #1D394C",
"Y,	c #293139",
"Z,	c #203646",
"`,	c #204F6A",
" '	c #1E506B",
".'	c #1A3345",
"+'	c #182D3B",
"@'	c #1F3E52",
"#'	c #1C2F3D",
"$'	c #1F3340",
"%'	c #1E384B",
"&'	c #1F394D",
"*'	c #1A2B39",
"='	c #202F3D",
"-'	c #1A3F57",
";'	c #1C6A8D",
">'	c #1D3C4F",
",'	c #293038",
"''	c #21394A",
")'	c #23536F",
"!'	c #1F5471",
"~'	c #27455A",
"{'	c #153F59",
"]'	c #1578A7",
"^'	c #1F4055",
"/'	c #283038",
"('	c #2A5C7A",
"_'	c #225978",
":'	c #224258",
"<'	c #263A4B",
"['	c #16415C",
"}'	c #137AB0",
"|'	c #363739",
"1'	c #233C4E",
"2'	c #2A5E7E",
"3'	c #235A7A",
"4'	c #253849",
"5'	c #127BB1",
"6'	c #223B4D",
"7'	c #225B7C",
"8'	c #234257",
"9'	c #131D25",
"0'	c #17425E",
"a'	c #117CB4",
"b'	c #20445A",
"c'	c #273037",
"d'	c #2B5F7F",
"e'	c #235D7E",
"f'	c #101A21",
"g'	c #107DB7",
"h'	c #272F37",
"i'	c #223A4C",
"j'	c #245C7E",
"k'	c #244359",
"l'	c #107DB9",
"m'	c #20435A",
"n'	c #223C4D",
"o'	c #24445A",
"p'	c #192730",
"q'	c #17405C",
"r'	c #363738",
"s'	c #272F36",
"t'	c #233C4D",
"u'	c #2B607F",
"v'	c #235C7F",
"w'	c #163F5B",
"x'	c #127AB7",
"y'	c #204258",
"z'	c #262E35",
"A'	c #235B7E",
"B'	c #224157",
"C'	c #152028",
"D'	c #1B2832",
"E'	c #18232C",
"F'	c #153E59",
"G'	c #1379AF",
"H'	c #1E4156",
"I'	c #225C7E",
"J'	c #17222B",
"K'	c #19252E",
"L'	c #142129",
"M'	c #143D57",
"N'	c #1279A9",
"O'	c #1D4056",
"P'	c #242C33",
"Q'	c #223A4B",
"R'	c #2B5E7B",
"S'	c #225B7D",
"T'	c #223F54",
"U'	c #162129",
"V'	c #273946",
"W'	c #133A51",
"X'	c #167198",
"Y'	c #1C3D51",
"Z'	c #232B32",
"`'	c #21384A",
" )	c #205978",
".)	c #213C4F",
"+)	c #293B49",
"@)	c #142B3C",
"#)	c #184057",
"$)	c #1B2E3D",
"%)	c #17384E",
"&)	c #294050",
"*)	c #243848",
"=)	c #253C4C",
"-)	c #142430",
";)	c #232C33",
">)	c #172835",
",)	c #1F3749",
"')	c #182F3E",
"))	c #263D4E",
"!)	c #263D4D",
"~)	c #233846",
"{)	c #111F2A",
"])	c #0F1A23",
"^)	c #242C34",
"/)	c #1B2A37",
"()	c #131F29",
"_)	c #12202A",
":)	c #111C25",
"<)	c #373738",
"[)	c #232B34",
"})	c #14212A",
"|)	c #111D25",
"1)	c #232B33",
"2)	c #222B33",
"3)	c #373838",
"4)	c #16232E",
"5)	c #222A32",
"6)	c #202A32",
"7)	c #21303F",
"8)	c #23333F",
"9)	c #202931",
"0)	c #1F272E",
"a)	c #192832",
"b)	c #202E3B",
"c)	c #0C151C",
"d)	c #0E181F",
"e)	c #0F1820",
"f)	c #0F1920",
"g)	c #101920",
"h)	c #101A20",
"i)	c #0E161C",
"j)	c #0F171F",
"k)	c #0F1921",
"l)	c #111E28",
"m)	c #1E262D",
"n)	c #121F28",
"o)	c #111C26",
"p)	c #0D161E",
"q)	c #101B23",
"r)	c #101B22",
"s)	c #0D181F",
"t)	c #0C161C",
"u)	c #101A22",
"v)	c #141F29",
"w)	c #131E28",
"x)	c #132029",
"y)	c #13222D",
"z)	c #132939",
"A)	c #162530",
"B)	c #1B2229",
"C)	c #142938",
"D)	c #132431",
"E)	c #14222C",
"F)	c #13212A",
"G)	c #132028",
"H)	c #121D27",
"I)	c #253644",
"J)	c #25323D",
"K)	c #2B3E4D",
"L)	c #273746",
"M)	c #263643",
"N)	c #222F3B",
"O)	c #23303D",
"P)	c #23313D",
"Q)	c #24343F",
"R)	c #24333F",
"S)	c #24313E",
"T)	c #253440",
"U)	c #23313C",
"V)	c #22303C",
"W)	c #23303C",
"X)	c #23313E",
"Y)	c #243440",
"Z)	c #283845",
"`)	c #253441",
" !	c #24313F",
".!	c #263442",
"+!	c #283744",
"@!	c #273643",
"#!	c #263542",
"$!	c #253542",
"%!	c #263543",
"&!	c #23323E",
"*!	c #25343F",
"=!	c #242F38",
"-!	c #273543",
";!	c #253541",
">!	c #243441",
",!	c #253442",
"'!	c #25333F",
")!	c #212C39",
"!!	c #232F3B",
"~!	c #23323F",
"{!	c #222F39",
"]!	c #23303B",
"^!	c #212E39",
"  . + + + @ @ # $ % + + $ & $ % $ * = - = ; > % - ; ; ; , ; ' ' ' ) ) ! ; ~ { ! , , ; ; ) , ; , ~ { ] { { { ^ / ( ( _ : < [ [ [ [ [ [ [ [ [ [ [ < } { { ( ( ( | ( / 1 ~ { { 2 { ~ ; ; 3 ; { ; ; ; ; ) ; ; ; ; , ; ; ; ; ; 4 - - * 5 - 4 > > - % > + + . + 6 7 + 8 9 @ 0 ",
"a b c d e d f g h i f i j j k l j m n l o p o q r s t t u v t s s v v v o w x x v v t v y z A u A B C B C D E F E G H I J [ [ [ [ [ [ [ [ [ [ [ J K L M G H N F D D x u C L C v t t w p v L A y v t u O O v y x v O P P Q R S T l l l T q o o l j n i e f i U U U e V b ",
"W X Y Z Z ` ` Z  .` ..` +.+.@.@.#.` `  .$.$.%.%.%.$.$.&.*.*.=.=.=.*.-.*.;.$.>.,.*.*.'.-.>.,.>.).!.~.{.].{.^./.(._.:.:.<.[.[ [ [ [ [ [ [ [ [ [ [ }.|.1.2.3./.1.1.4.{.5.>.~.].~.6.6.>.>.>.7.).>.*.*.=.8.=.6.*.>.>.6.9.-.-.0.a.$.$.%.;.@.;.b.$.b.@.+.@.@.` c.` +.+.+.Z d.Y ",
"e.f.f.g.h.i.j.k.i.j.i.i.l.l.m.l.i.j.k.i.n.n.m.n.n.n.o.p.q.q.n.q.q.q.q.r.o.s.t.r.t.t.t.r.r.t.q.q.q.t.t.u.r.v.w.x.y.z.A.B.C.[ [ [ [ [ [ [ [ [ [ [ D.E.F.G.H.I.J.K.K.K.u.t.u.K.K.t.r.r.r.r.K.L.t.q.t.n.s.q.t.t.u.u.t.q.t.t.q.q.q.q.q.s.m.m.q.q.s.m.l.m.m.i.i.h.k.i.i.h.g.g.",
"M.N.O.P.P.M.Q.R.P.Q.S.P.P.P.P.P.P.P.T.U.V.P.U.P.P.W.X.U.Q.Q.S.V.P.S.P.T.P.S.P.W.T.Y.P.U.P.S.Z.`.K.L.`.O.P.P. +.+++@+#+<.$+[ [ [ [ [ [ [ [ [ [ [ %+&+*+/.=+-+;+>+S.S.Q.`.`.>+P.W.X.,+'+Y.W.'+X.U.P.U.P.U.)+'+W.U.U.U.T.!+~+~+X.'+T.Y.P.U.U.P.V.N.P.V.V.S.M.M.Z.{+{+Z.Z.>+",
"]+^+^+/+/+(+_+_+:+<+<+<+^+^+/+^+E.E.E.A.[+[+[+F.F.}+|+1+1+1+2+3+3+3+4+4+1+1+5+ . .@.6+0.7+6+$.~.4.:.8+9+:.0+a+b+2.Q c+V d+[ [ [ [ [ [ [ [ [ [ [ e+f+g+a+h+i+j+k+l+m+n+/.:.7+-.).).>.,.-.o+-.` 2+p+2+4+q+3+ .r+5+s+1+}+1+1+1+z.t+F.t+F.}+[+/+:+G.[+[+/+/+:+<+u+<+v+:+/+v+",
" .-.~.{.2.~.-.-.w+x+w+y+).).-.'.>.).>.0.;.;.;.z+0.-.y+A+{.{.2.{.0+{.A+A+-.-.{./././.:.B+j+n+:.C+Q D+E+c+F+c+G+H+I+J+K+L+M+[ [ [ [ [ [ [ [ [ [ [ N+O+P+Q+3.R+S+T+U+V+E+W+g+X+Y+X+9+Z+`+:./.:.0+x+2.2. @k+k+.@ @0+A+,.-.+++@++z+0.+@2. @2.y+-.y+A+A+A+y+,.-.-.-.-.-.-.-.;.",
" .@@).#@:./.$@^.^.2.^.k+k+{.,.-.,.w+%@E+V+&@V+*@=@F+S+-@;@>@,@'@)@'@*@>@*@>@!@~@{@]@^@/@(@_@:@~.D+<@[@P+*@;@}@|@*+<@1@%@2@[ [ [ [ [ [ [ [ [ [ [ 3@E+[@4@5@'@>@-@6@7@8@P+:._.9@0@/@a@{@b@c@d@;@>@,@e@,@d@-@;@f@g@S+U+*@h@T+f@f@i@F+V+j+{.2.A+A+y+y+x+{.2.A+A+).).w+-.#.z.",
"0.0+&+j@k@l@T m@n@m l l l@C+o@n@p@o@$@u V+V+E+F+P+K+*@'@'@*@q@'@r@G+*@s@*@*@6@t@t@t@^@u@v@w@x@y@c+K+z@c+K+A@B@C@C+D@E@F@G@[ [ [ [ [ [ [ [ [ [ [ H@I@E@J@K@B@}@L@G+F+G+*@M@f+5@c+N@^@e@L@O@P@;@Q@d@t@e@}@O@'@*@S+h@h@8@K+R@*@f@U+M `+p@k@x@S@@+5@&+T@U@m C+l p@p@V@#+/.` ",
"-._.#+W+W+j@W@k@k@W+D+D+D+X@W@W+Q W@@+~.i@h@K+U+U+U+*@Y@L@,@d@t@d@L@Z@6@'@`@d@/@]@ # #.#+#@###$#J+[@[@<@D@%#&#*#U@1@=#-#;#[ [ [ [ [ [ [ [ [ [ [ >#z@G+=#,#'#&#B@)#c+!#E@~#W@{#J+]#'#^#/#e@e@d@O@t@(#t@^@t@_#O@G+=#G+*@s@E@'@'@e@`+l+D+c+:#l@#+o@<#l@Q W+W@W+W+W@l@l@V@7+",
"A+X+p@:#E+Q Q X@X@:#E+E+:#E+:#D+E+:#C+(.[#}#K+*@*@U+|#e@(#^@1#2#&#^@&#_#_#L@&#]@3#.#]#3#+#4#1+$#Q+s@E@5#6#6@]#J@U@E@O@R ;#[ [ [ [ [ [ [ [ [ [ [ 7#8@|#E@8#&#9#1#5#<@}@8@&+.@0#Q+a#A@^@3#^@b#^@e@]@^@(#c#3#.#^@e@d#d@P@G+E@6@,@e#X+U@J+K+c+f#l@g#h#T i#D+D+D+W+W+:#T C+-.",
"/.j#T c+I@E+J+c+c+g+g+E+:#J+c+J+J+:#T &+k#l#*@;@|#*@Q@d@m#n#o#n#2#3#.#^@^@^@^@b#n#n#p#q#r#s#z+t#u#E@=#E@E@v#&#*#k@G+6@R w#[ [ [ [ [ [ [ [ [ [ [ x#E@6@E@y#&#]#d@G+G+1#1@<#5@z#D@3#t@.#9#3#c#c#A#n#^@^@B#B#o#n#3#b#^@(#d@G+;@d@C#9+l@c+F+D#i#E#t#:#W+F#E+E+J+E+:#g+f+U@{.",
"_.V@Q g+c+:#:#J+c+E+:#g+E+E+J+c+G#E+W@M@a@H#'@6@d@d@e@^@^@c#B#n#2#3#I#3#3#2#.#9#n#I#J#K#L#M#h+:#D+E@A@L@=#6@ #J@W+N#6@P O#[ [ [ [ [ [ [ [ [ [ [ P#E@Z@G+Q#B@A@}@=#6@(#*@l@~#R#K+I#S#T#.#I#U#B#V#W#.#^@n#X#Y#W#o#o#c#]@L@|#6@e@Z#V@T `#`#:#E+:#:#E+D+F#c+E+E+ $J+E+f+l 4.",
".$U@Q g+J+X@X@:#c+c+E+E++$:#:#J+F+[@F#n@@$/@'@d@(#^@n#u@c#c#n#3#L@^@3#B#p#2#3#p#I#J#I##$$$%$&$X@T 8@A@'#A@_#&#4@T *$Z@M =$[ [ [ [ [ [ [ [ [ [ [ -$G+Z@E@;$>$v@J@v@'#&#,$H+o@_@<@p#n# #'$X#)$o#!$~$J#.#p#I#X#Y#Y#B#B#n#d@|#;@e@{$m@Q c+J+J+]$W@]$W+^$:#J+E+I@J+E+P Q l k+",
"&+T j@X@c+D+X@/$I@F+V+c+c+ $D+O+h@U+P+p@($c@|#'@d#t@b#n#a@n#n#^#Z@v@'#n#3#]#n#I#2#S#J#_$:$<$&$]$l@7@v#1#Z@A@A@)#U@v@A@M [$[ [ [ [ [ [ [ [ [ [ [ }$'@_#|$3.J@J@4@A@]#t@U+1$o@_@K+B#)$.#.#J#o#!$o#Y#u@]#]#^@c#I#I#J#X#c#A@=#|#t@2$l E+F+K+F+P+:#:#:#]$t#J+c+c+c+ $P 3$h k+",
"&+4$k@Q f+W@W@W+c+F+P+h@K+5$c+c+K+K+J+d {@m#6$E@G+=#A@]@b#b#c#t@O@A@&#3#]@2#p#I#3#p#7$K#8$%$w+4$9$7@!#L@ #A@v@D@U@}@v#z =$[ [ [ [ [ [ [ [ [ [ [ P#O@d@1@0$a$J@b$&#&#Z@1@c$##5@[@X#X#q#J#I#J#o#^@c#n#&#]@&#^@b#3#2#.#2#'#|#=#t@d$l@c+*@R+h@K+F+`#X@D#J+F+c+c+J+J+D+W+p@.@",
"X+k@W+W@T W+W@D+c+F+P+h@h@K+K+P+D#E+D+n@c@L@*@1@s@s@1@b$^@{@]@^@L@A@t@]@t@]#2#3#e$)$q#J#T#f$x+g$T )#!#&#.#^@_#h$p@=#6@L i$[ [ [ [ [ [ [ [ [ [ [ j$6@b$k$l$>$v@A@&#_#d#E@g#y@Q#7@I#Y#B#o#p#p#3#^@o#u@(#&#^#'#/#^@&#m$^@]#v#|#A@n$U@c+U+,$*@1@h@c+D#P+F+K+K+P+P+J+Q T y@o$",
"9+k@W+x@W@J+E+F+K+P+P+F+h@K+h@P+D#/$f+V@p$c@1@7@P+.@p+q$0.0.$.;. . .@.;.;.0.).k@]#J#3#I#:$r$m@J+W@E@v@s$^#3# #|$q$T s@L t$[ [ [ [ [ [ [ [ [ [ [ u$!#1@-.v$&#'#'#Z@6@}@E@]$:#w$h@7$B#B#p#U+.@-.++-.-.;.q$q$@@0.0.z+6+w+6@6@P+|#o#m@x$1@6$E@K+F+I@P+U+h@U+K+F+F+c+D+T y@ @",
"n+#+j@k@:#F+P+U+h@h@P+8@h@R@h@[@c+/$D+U@S X+x+x+x+x+n+:.y$2.y$$@y$o$.@:.I+_.C+_.e@c#p#p#z$A$B$C$Q+A@'#&#&#]# #)#D$;.s@5$t$[ [ [ [ [ [ [ [ [ [ [ j$G+U@q$E$a#&#'#v#,$6@=#F$G$H$3#n#n#I#J#X+*+&+o$I$j+y$y$J$3.o$n+l+K$3.&+_.L$`+W+l@F+E@G+*@1@U+h@h@i@U+*@h@F+c+J+W+U@#+2.",
"k+l+U@f+E+F+F+P+J+F+[@h@S+V+V+K+c+J+D+W@H#I@:#x@9+K$Y+M$U@&+`+&+&+n+#+Z+@+k@N$z d@^@3#O$I#P$Q$R$S$v@'#1# #1#A@T$U$w+s@V+t$[ [ [ [ [ [ [ [ [ [ [ V$U+J+W$X$ #_#v@v#G+v#Y$Z$`$ %.%o#.#]#c#+%-@f+_.l+&+Z+V@_.(.9+U@i@m+l+l@T E+T+c@c+<@s@=#6$U+*@U+*@h@R@R@K+P+c+J+W@y@*+~.",
".@X+9+k@E+V+J+J+D+E+5$U+h@h@K+1@c+J+E#o@l#c+i#W@d *+j#@%o@l #%$%7.%%&%*.j#/.P+:#d@T#T#s$p#*%=%-%;%>%v@A@v#v#J@,%W$w+1@N$[$[ [ [ [ [ [ [ [ [ [ [ u$1@<@L$'%d#v@J@=#J@A@)%!%~%{%p#&#_#O$c#l@6$j+j#a.Y+@%7.]%*.o@l@+%9+V@j@D+ $T+d@X@F+8@=#*@*@*@*@U+F+F+I@c+J+E+F#W+#+j+A+",
"a.&+m+t#`#`#E+J+/$E+F+U+E@8@h@U+7@J+t#o@c@K+x$U@^%+%*+.$:.j@/.#%/%(%_%:%!.<%1@W@O@&#T#B@a#[%}%|%1%v#O@=#E@6@E@2%U$-.U+S+[$[ [ [ [ [ [ [ [ [ [ [ 3%E@F+L$y+_#>$v#=#>%_#4%5%6%7%8%B@B@ #J#U@*@a+^%Y+/.]%m+7.j#*+V@j#k@k@Y+h c+F+e@Q P+|$G+s@*@G+*@E@K+i@F+J+:#E+c+D+*+*+0.",
"9%2.:.D+c+P+P+c+P+c+[@P+1@1@E@U+*@1@J+a+a@*@J+i#j@Y++%0%a%l+V@Z+#@b%Y+c%b%k+`#:#Q@ #O$B@ #[%d%e%f%J@6@!#!#=#=#g%U$7+g@h%i%[ [ [ [ [ [ [ [ [ [ [ j%E@F+o$).A@_#A@>$A@A@:$k%l%m%L#n%B@a#o%l@G+n+p%y$X+%@@%q%8+l@&+Q E+q%+%P+c+6$c@D+<@U+E@E@E@*@6$'@G+R+h@I@:#E+K+J+9+_.r%",
"s%_./.Q c+c+c+F+F+E+P+c+P+P+K+E@E@s@P+l@($*@J+J+`#j@:.U@t%j#U@F#*@u%-@e@>@P+s@J+Q@ #O$s$O$v%w%x%y%v#v@J@4@=#|#J+U$a.S+N$z%[ [ [ [ [ [ [ [ [ [ [ A%U+P+ @-.%#_#A@b$_#'#4%B%C%D%L#s$s$ #3#T Q@K+s@|$*@R+T+K+F#d E+J+h C+K+P+P+'@/@D+J+1@E@E@E@E@E@6$U+;@6$K+P+F+F+c+9+&+ .",
"3.*+n+f+5$F+[@*@K+E+P+8@U+[@F+E%D@8@<@l@~@R+7@P+P+1@k@:#+$^$h#E%=#=#=#}@v@4@4@t#;@.#.#T#$$F%G%H%I%A@'#v#J@J@s@J+U$;.h@T+z%[ [ [ [ [ [ [ [ [ [ [ J%E@P+2.-.%#B@B@v@A@&#:$K%L%M%L# #s$$$b#o@s@6@N%J@'@b$|#E@1@l@P+8@E+E@5#1@8@J@O%W@:#7@[@1@|$U+U+K+J+*@8@F+F+K+T+c+#+U@P%",
"<+p+y$W+J+c+h@s@s@P+<@8@|$[@P+P+D@D@P+W@/@'@K+1@1@*@s@`#J+:#g$1@=#6@|#!#>%4@s@f#O@&#]#m$O$Q%d%R%I%1#t@_#b$s@s@J+y+q$F+R@z%[ [ [ [ [ [ [ [ [ [ [ J%*@P+2.-.%#v@v@J@v@a#S%T%U%V%p#W%s$'#/#l@J@v#v@J@b$b$Z@s@1@T K+|$E@G+E@k$s@Z@(#D+g%D@1@1@X%|$1@7@P+K+1@P+c+K+V+J+*+-.v+",
"Y%6+&+x@/$x$h@s@6$E@[@|$|$k$g%<@<@g%g%D#E+*@E@4@=#6@v@s@8@<@:#E@6@>$d#v@J@Z%Z%`%*@Z@L@d# # &.&+&@&^#^@L@A@v#N%`#A+6+F+F+#&[ [ [ [ [ [ [ [ [ [ [ $&(@%&&&>.%#v#v@v@&#T#*&=&-&;&p#'$s$s$.#l@J@_#_#A@A@v#v#s@E@W@E@E@E@G+=#|$E@6@K+t#7@1@1@D@D@D@|$1@K+1@F+<@F+F+I@D#p@2.p+",
"+@A+*+x@X@:#P+<@8@s@7@g%g%D@1@s@|$2%Q+i#S@s@1@E@=#J@J@v#}@1@f#s@=#N%>$>&>%)#5#g#*@v#N#1# #,&.&'&)&'#]#^@'#_#v#7@x+;.F+V+z%[ [ [ [ [ [ [ [ [ [ [ !&s@`#x+7.%#A@A@'#s$s$4%~&{&]&p#8%^&s$b#<#J@_#B@_#%#v#=#G+E@W+s@*@=#6@6@E@G+;@p@i+D@/&[@7@D@1@1@|$<@<@E+J+J+J+E+X@U@.@^%",
"y+ @(&k@T f#:#Q+g%D@7@J+P+k$5#[@s@g%E#Q+W@G+1@E%s@=#=#v@A@5#_&E@=#=#>%J@>%)#)#m@1@6@N#*$&#X#:&<&[&B@&#&#t@%#=#P+A+@.K+F+z%[ [ [ [ [ [ [ [ [ [ [ !&E@E+A+-.*#N%N%_#s$$$}&~&|&1&'$B@v@B@b#9$2&s$s$A@J@J@G+E@1@D+G+=#J@6@G+|$E@O@]$/&7@g%k$7@D@[@D@Z%7@J+]$W+D+X@D+W+T y$w+",
"&$ @Q W+W@W@t#i+`#[@k$/&D@E%k$6#3&g%E#4&Q+G+1@1@s@=#A@L@t@|$E#5#=#J@>%4@4@Z%)#g#F+!#6@6@'#B#5&6&[&_#t@(#L@b$J@P+A+q$K+K+i%[ [ [ [ [ [ [ [ [ [ [ 7&|$D#y+o+G+4@4@A@&#O$*&~&8&1&'$^&B@'#b#l@v#T#s$_#J@*#s@)#6#+$8@E@J@6@s@1@1@O@E#g%g%7@4&4&D@5#5#D@D@D#W@4$:#:#Q 4$j@y$2.",
"-.k+9&W@W@:#:#Q+P+8@7@g%7@7@7@E%D@`#u#4&Q+*@U+|$=#=#b$_#'#s@E#|$=#*#*#*#0&Z%Z%l@8@=#4@4@'#B#a&b&c&m$(#t@}@v@J@I@A+;.K+K+i%[ [ [ [ [ [ [ [ [ [ [ d&E@g+y+a.e&s@E@v@B@ #f&T%g&m%.#v@_#s$3#k@b$'#h&s$^&*#4@)#5#g$D@4@G+v#s@5#s@6@f#J+7@|$6#<@D@<@7@D@|$J+D+E+J+E+W+W+9&_..@",
"7+L$l W@k@D+t#:#`#1@1@k$D@7@7@D@<@<@Q+D@g%>@U+|$G+J@6@}@A@s@u#Z%|$Z%4@=#4@)#)#g#E@=#5#s@L@J#i&j&k&'#e@L@b$J@e&`#A+;.h@K+z%[ [ [ [ [ [ [ [ [ [ [ ; U+E+y+0.s@s@)#v#_#&#)%l&m&7%O$>$_#&#c#l@b$&#^#_#v@4@)#|$5#]$1@4@4@v@s@6#)#)@t#g%`#1@D@5#|$g%g%1@G+P+D#/$E+D+f+W@j@_./.",
"7+&&C+k@T ]$F#J+J+`#Q+D@7@D@D@D@D@6#7@g%Q+*@1@|$E@G+b$A@A@s@u#7@)#e&(@=#4@0&D@<#1@G+s@%#1#B@n&o&p&^&A@Z@6@6@4@D#A+q&1@V+r&[ [ [ [ [ [ [ [ [ [ [ s&1@D+w+-.J@)#5#6@A@t&u&v&w&x&&#'#A@ #c#U@v#L@'#'#b$*#0&1@6#T E%)#s@6@)#D@6#'@D#g%g%D@2%D@1@D@<@U+s@<@J+E+D+D+W+W+h /.2.",
"-.0+h j@T 4$J+`#Q+:#y&J+D@6#D@1@7@D@Q+J+J+g@4&<@E@J@A@}@}@E@u#1@E@(@=#a$)#z&D@m@<@=#4@b$B@w@A&B&C&*#b$Z@6@(@)#J+A+@.K+V+r&[ [ [ [ [ [ [ [ [ [ [ - K+D+x+o+(@s@s@J@J@(@T$D&E&F&|$'#%#'#]@x@b$A@A@_#v@e&e&)#|$U@7@1@E@J@E@g%1@6$:#D@J+E#E#i+7@1@1@1@|$`#J+F#:#D+4$k@V@y$w+",
"++w+&+U@W@4$]$t#t#G&i+Q+J+7@1@|$7@D@Q+7@P+>@|$D@|$A@}@%#%#)#H&e&G+=#v@J@)#5#D@w$<@=#s@J@ #I&J&K&L&E@G+'@G+=#s@X@-. .K+%&r&[ [ [ [ [ [ [ [ [ [ [ M&3&W+A+;.(@(@=#'@G+)#N&O&P&Q&B@_#J@B@^@l@b$A@=#v@*#(@(@(@1@C+<@E%5#G+8@7@|$g@i+7@J+i+E#D#P+<@<@K+1@D+W+t#]$t#4$k@V@ @>.",
"0.-.l+x@x@m@T t#D#J+J+J+7@1@|$1@<@|$D@g%P+f@1@J+1@6@b$b$v@1@u#J@J@*#%#*#)#6#D@m@[@e&)#=#R&'$S&T&U&6@;@=#s@s@s@k@-.@.<@I@V&[ [ [ [ [ [ [ [ [ [ [ 4 K+f+y+$.}@v@b$b$J@W&X&Y&Z&`&^#A@J@A@]@y@J@v@|$0&N%=#)#e&1@U@E@s@1@s@1@5#[@S+E#g%2%/&g%g%`#g%`#F#P+:#T l@W@4$D+W+p@2.7.",
"6+-.X+m@U@U@W@:#J+J+`#1@|$|$1@X%<@|$Z%g%J+S+D@J+3&(@v#v@J@X%H&4@v@v@>$J@s@)#Z%1$<@s@s@G+A@J# *.*+*>$A@6@U+E@8@T -. .F+c+V&[ [ [ [ [ [ [ [ [ [ [ @*1@f+y+$.;@b$s@J@b$e&#*5%$*%*'#_#b$}@^@m@=#J@Z%Z%s@*#)#)#|$l@U+=#|$)#1@s@|$*@i+,%2%P+1@D@g%J+J+J+J+t#W@T T :#:#W+#+/.w+",
"@.-.j+y@m@l@G&J+g%D#E#J+D@7@i+g%7@K+Z%g%Q+T+K+Q+)#J@J@Q@J@P+]$|$(@(@N%^&J@s@D@m@<@E@s@G+}@X#&***=*>&d@O@*@s@[@l@++` F+-*V&[ [ [ [ [ [ [ [ [ [ [ ;*<@f+-.;.'@s@|$G+Q@J@>*,*'*1&n%'#A@A@h&V@s@e&)#Z%4@=#4@4@D@m@1@E@E@)#D@5#s@s@:#g%2%`#K+K+[@7@P+J+J+D#i#l@W@D+:#W+V@$@0+",
"6+A+(.)*##a+:#D@D@D#H&Q+Q+g%u#E#`#`#g%g%:#V+%&J+|$J@6@b$G+J+c$g%1@|$)#s@)#5#7@w$K+s@)#4@%#.#!*~*;%J@v@=#=#E@1@l@+@p+%&I@V&[ [ [ [ [ [ [ [ [ [ [ {*P+W+-.;.G+|$Z%s@(@J@A$]*^*/*n%d#6@}@(*p@)#G+e&s@4@s@)#|$g%y@U+6$|$D@D@D@s@g@]$J+`#J+I@<@P+K+F+`#:#D#x$D+t#t#W@W@V@k+w+",
";.y+I$##m@l@:#7@g%D#2%7@k$D@E#i+J+Q+`#J+:#V+K+<@<@s@E@e&|$i+1$g%7@6#Z%Z%W&7@,%g#J+D@1@s@J@O$_*:*<*s@=#E@|$E@|$W@++p+<@E+[*[ [ [ [ [ [ [ [ [ [ [ }*P+W+-.;.G+1@D@E@=#=#|*]*|&/*8$^#(@v@t@<#Z%E@)#0&G+5#D@Z%g%y@s@s@8@|$7@g%*@i@G&Q+`#g%7@J+J+P+I@x$D#`#J+F#:#E#T j@#+$@x+",
"6+w+X+p@<#W@:#J+2%2%g%1@E@)#7@7@7@2%J+D#:#F+h@1@7@<@7@|$K+]$9$g%g%J+,%4&6#s@W&g#4$2%|$|$s@$$1*2*3*|$s@E@E@)#s@W+-.r+%&:#[*[ [ [ [ [ [ [ [ [ [ [ 4*K+Q -.#.Q@)#D@|$s@=#5*6*7*8*n%_#J@=#L@<#|$s@)#|$9*1@Z%D@|@o@8@s@1@D@P+7@U+=@k@Q+4&1@<@:#J+`#J+D#`#`#F#J+E+]$W@a+*+k+2.",
"0.w+8+l@l@l@W+i#J+/$g%|$E@8@|$D@K+`#J+Q+E#F+K+<@<@<@1@G+S+]$<#2%i+E#i+Q+1@e&,%8#X@D@)#|$s@^@=%0*a*Z%)#s@s@s@s@]$-.` I@Q [*[ [ [ [ [ [ [ [ [ [ [ {*K+Q y+q$J@s@7@D@|$s@b*c*d*c&B@b$N%}@R&$#3&=#E@g%|$D@K+D@2%V@U+E@<@<@g%P+P+S+t#P+[@U+K+F#i#E+J+`#P+J+E+`#:#W@l@U@S@k+.@",
"$.w+9+l@l@c$W@]$W+]$J+7@D@|$1@7@P+g%Q+2%t#e*%&`#`#<@[@s@U+t###2%g%J+Q+Q+E@s@f*g*J+8@s@6#G+e@h*i*j*K+U+1@|$)#)#f#++` I@g+[*[ [ [ [ [ [ [ [ [ [ [ k*<@D+-.#.(@)#7@[@E@9*C@l*m*n*A@=#=#}@d#&+K+G+E@2%D@1@X%P+i+p@h@1@J+7@g%J+P+g@W+F#J+1@P+D#:#i+J+P+P+J+J+c+:#W+U@m@9+2.).",
"0.).8+C+l@l@<#W@l@l@E#J+Q+<@<@P+7@P+D#2%]$I@I@J+g%P+K+3&D@]$<#`#7@7@i+/&|$D@##4$U+*@E@E@6$6$o*p*W@D@1@)#|$s@1@W@'. .%&z [*[ [ [ [ [ [ [ [ [ [ [ q*K+X@++#.J@(@)#8@s@G+P+r*s*K+A@%#)#s@'@S+S@F+|$Q+f*D@D@D@D@U@K+1@7@P+7@J+P+V+l@:#J+F+J+D#`#D+:#J+J+E+D#D#:#t#<#m@l+w+w+",
"+@A+8+U@x@m@o@l@W@]$]$:#i+J+1@D@D@g%Q+Q+f#-*F+J+J+<@<@D@D@t#<#D@D@3&c$l@7@<#p@F+R+*@U+|$S+X+ .y+9&3&E@s@4@e&E@D+'.t*h@z [*[ [ [ [ [ [ [ [ [ [ [ u*h@k@-.;.J@e&4@G+6@6@K+0+7+0+6$6@5#4@6@;@c+V@P+]$S@J+7@1@D@C+<@<@<@<@`#Q+P+P+W@i#J+`#:#Q+Q+:#]$t#:#:#t#t#]$W@m@p@l+A+-.",
"6+).X+<#l@m@o@<#H+t#:#i+Q+D#7@3&3&g%g%J+]$I@J+/$J+`#7@K+D@E#<#,%1@J+J$4$p@+%D#s@G+'@6$g%S@1+0./.g@e&E@4@(@(@s@v*-.#.K+E+w*[ [ [ [ [ [ [ [ [ [ [ x*K+T -.q&G+e&G+J@v@}@O@C+^%1+/.s@s@e&G+Q@'@X@<%J+`+x@<@P+J+h I@g%g%P+g%Q+g%K+W@:#7@`#f#E#u#H+c$H+t#:#:#:#W@l@p@V@(.A+0.",
"+@A+X+m@U@h#g#c$H&2%J+i+i+i+<@X%1@7@J+D#l@D#t#]$H&E#g%P+7@]$##g%D#j+k@`%o@`#D@|$'@6$K+p@Y%+@#%`#1@|$s@|$s@E@|$l@-.@.J+g+y*[ [ [ [ [ [ [ [ [ [ [ z*[@U@7+q&s@)#J@v#J@=#}@'@#+^%A*#@1@U+s@*@'@|$f+#+X@B*a+:#i+V@P+<@4&J+2%`#J+P+l@:#`#P+t#]$f#1$l@l@D+x$J+i#W+T ##C*K$y++@",
"w+2.j+m@l@l@l@]$:#D#J+Q+:#i+7@K+P+J+i+:#W@X@]$l@c$i#g%g%P+t#D*]$n+E#W@E*1@|$D@|$G+s@j@4+;./.F*7@J+7@E@,%Z%1@P+l@-.+.J+G*H*[ [ [ [ [ [ [ [ [ [ [ I*F+y@+@q&g@Z%4@4@=#J@s@U+g@9+-.1+j+F+'@6$(@s@<@x@*+X@/.S@u#o@P+`#Q+i+f*i+:#P+l@t#:#`#J+E#]$1$l@<#:#J+J+t#t#T p@S@(.).).",
"n+l+9+p@l@l@W@]$E#:#:#Q+D#J+D@<@`#Q+i+E#W@X@]$t#E#J+J+J+D@v*o@y$l@c$J*Q+s@|$1@|$G+N&K*L*y$%&g%7@D@D@U+K+3&g%W+-.0.a.V+f+H*[ [ [ [ [ [ [ [ [ [ [ M*F++%7+q$*+D#0&)#)#(@E@|$K+s@8+A+N*O*=#s@G+X%8@<@o@9+(&^%]$V@:#i+2%i+D#t#t#`#<#f#W+2%Q+2%i+f#W@`%:#i+D#l@W@l@l@#+l+n+o$",
"l+C+*+`%l@T l@W+:#i+i+F#J+J+P+P+g%Q+D#:#H+X@t#J+J+:#i+2%g%W+S@4$l@l+t#`#|$7@*@|#P*Q*R*S*F+S+J+g%)#)#s@s@U+:#a.q$).T*U*f+H*[ [ [ [ [ [ [ [ [ [ [ V*%&*@y$6+F.S@X%4@4@N%=#s@`#g@'@W*X*Y*Z*v#'@<@|$U+D@$#S@(&:#0%]$i+2%J+J+i#W+J+##l@l@E#E#J+Q+]$H+1$E#E#G&x@<###l@o@l+l+l+",
"9+l@E*x@W@W@l@]$H&:#2%D#D#D#Q+J+i+t#E#t#l@/$E#f*J+t#:#:#2%t#f+(&J$D#7@g%P+7@s@`* =.=+=@=U+h@<@Z%|$0&E@E@I@-.p+w+f+K+P+f+H*[ [ [ [ [ [ [ [ [ [ [ #=%&s@1@o$q$Y%U@s@5#4@b$(@|$h@r@:$$=%=&=*==#K+X%D@Z%3&l+*+c+S@t#Q+i+f*i+i+:#x$o@l@g#u#u#f*E#]$H+l@t#H&]$H+l@l@<#o@J*5@J*",
"~#m@&+l@]$t#l@k@G&i+J+J+Q+:#t#i+u#H+H+]$g#W+t#D#t#W@:#D#t#&+9+j+]$k$J+Q+g%1@==-=;=>=,=>&*@s@1@7@X%1@|$%&7.|+-.k@U+U+P+f+H*[ [ [ [ [ [ [ [ [ [ [ '=7@U+)#9*.@r+5+4$1@s@e&)#(@E@s@A@)=!=~={=]=[@K+7@J+3&`#;$q%l+l@i+E#J+J+f#E#:#o@<#<#c$W@E#u#l@l@c$E#t#t#G&f#<###o@&+o@9+",
"*+x@l+l@W+:#t#]$i+E#i#i+:#E#:#E#E#H+l@]$9$E+X@D#t#E#/$X@S@S |$,%P+Q+J+J+4&^=/=8&(=_=+#G+E@0&)#1@Z%D@g%w+}+:=p@h@|$|$g%f+H*[ [ [ [ [ [ [ [ [ [ [ <=[@E@D@E@K+o$r+p+l@|$s@|$0&e&e&G+A@{%[=}=|=u#7@`#J+7@g%`#0&F*9+W@E#F#Q+]$E#1=m@T W@H+f#f#u#l@l@4$E#]$]$f#W@k@x@p@&+p@p@",
"o@U@&+l@:#D#D#E#E#]$E#H&]$4$t#i+Q+u#l@W@m@/$1=J+i+2%t#o@j@(&`#<@J+t#g%g%|@2=3=4=5=Y$Q@6$s@)#)#,%,%P+2.}+0.p@1@D@7@1@P+f+H*[ [ [ [ [ [ [ [ [ [ [ 6=1@s@|$)#|$%&2.p+ .E+K+Z%W&(@J@(@G+>$7=8=9=0=a=D@P+P+J+g%P+c$<%J*l@D#:#]$4$J+<#]$:#E#W@W@H+W@l@W@:#u#t#t#t#W@k@x@<%l@C+",
"#+m@&+l@:#X@X@t#t#W@f#f#]$c$H+f#E#u#H+W@p@Q x$:#D#E#p@]$4$D#J+J+Q+Q+g%N&b=c=d=e=Y$|$E@E@)#)#1@<@<@y$1+z+*+3&<@X%1@Z%P+f+H*[ [ [ [ [ [ [ [ [ [ [ f=E@G+s@)#1@U+I@0+2+;./$<@<@|$v#J@s@5#J@g=h=i=j=k=1@K+Q+J+J+J+x@l@_.W@:#:#E#E+m@]$:#:#]$f#l@g#l@H+]$f#:#W+]$l@x@U@*+l@#+",
"M@p@X+<#t#G&t#W+W@H+H+f#f#]$u#W@]$i+]$]$9$/$:#E#:#o@l=l@m=2%Q+J+g%Q+N&n=o=p=5=b*)#Z%E@0&|$s@1@K+`+Y%7+9+1@5#<@3&)#|$7@k@H*[ [ [ [ [ [ [ [ [ [ [ 6=U+6$e&4@|$1@g@X@y+5+a.x$<@g%|$e&)#Z%)#J@q=r=s=t=u=D@`#2%X@t#:#p@C+8+t#E#E#I@y@G&]$:#t#W@m@m@l@g#<#T ]$W@]$W@l@m@&+p@V@",
"n+9+l+p@W@k@W+E#]$W@]$W@H&E#E#]$E#D#H&t#m@J+H&E#H&m@g%1$E#2%D#P+1@v=w=x=j&y=z=|$g%Z%5#)#|$s@U*<%4+A=B=U+P+D@1@Z%|$|$D@j@C=[ [ [ [ [ [ [ [ [ [ [ D=E@G+s@J@E@D@D@9*Q -.1+-.`#X%,%)#)#1@D@6#E=F=G=H=I=J=F#g%:#:#:#x@P+o@D+H+E#%&p@l@W@]$:#W@<#1$1$c$l@]$E#t#W@l@<###l+9+(.",
"^+5+`++%l@W@]$E#f#W@W@]$]$E#f#]$:#i#G&W@K+<@D#i+t#y&2%o@E#D#J+g%K=L=M=N=O=P=6#<@`#Z%5#D@|$)#*+Q=;.j+g@<@2%D@|$)#E@E@D@p@C=[ [ [ [ [ [ [ [ [ [ [ R=K+9*s@=#)#|$,%P+6$4$0.S=).`#,%,%1@E@Z%1@D@T=U=V=W=X=Y=Q+E#:#:#m@P+x@]$l@]$`#V+w$l@l@]$H+g$l@H+l@l@Z=t#W@l@x@<#m@:.3+/+",
"s+^%m+V@l@D+:#t#W@W@W@W@W@f#H+]$]$G&t#l@`#1=t#]$]$<#u#X+c$D#i#4&`= -.-+-@-)#D@g%2%6#|$1@<@U@Y%#.:.K+D@2%Q+g%<@E@s@|$J+m+[ [ [ [ [ [ [ [ [ [ [ [ #-J+s@e&E@5#1@D@2%1@6$$-6+%-4.`#6#4@1@|$|$g%|$E=U=&-*-=---]$i+t#o@l@m@f#H+H+E+J+4$l@<#l@l@W@T W@H+g$l@T U@a+<#l@<#_.0.1+",
" .k+l+0%j@D+t#D+]$l@U@l@W@c$f#H+]$]$Z=o@f#t#l@n+x@l@<#I$W@t#H&;->-~*,-'-0&<@g%`#,%X%D@,%x@r+ .)-&@3&g%E#i+7@X%U+3&U*W+~.C=[ [ [ [ [ [ [ [ [ [ [ !-y@K+s@)#)#1@D@D@1@%&g@*+#.~-:.7@e&E@Z%)#1@7@7@5*{-p=l*]-c$`#D+S@E*~#D#2.w$W@:#p@m@l@<#m@T T l@k@k@l@a+U@l@l@x@x@P%y+ .",
"5+~.8++%T W@]$T f#l@1$l@H+H&H+1$c$u#u#p@]$]$C*&&W+l@1$n+W@W+^-/-(-_-:-T$7@4&J+,%Z%Z%g%4$#.p+k+*@K+g%7@i+2%|$3&3&`#x$<-o+[-[ [ [ [ [ [ [ [ [ [ [ }-)./$<@|$9*Z%g%7@D@`#<@s@l+@.A*m+E@0&D@|$1@D@J+g%5*|-1-2-/$E+:#S@#+#+]$.@J$c$]$C+U@U@l@a+l@l@W@W@t#]$l@x@l@U@l@C+_.-.` ",
"1+0.V *+m@l@l@l@l@g$l@l@W@H+9$w$H+]$f#x@v*E#E*4$/$W@D*$%W@:#u#3-o*Z=P+J+D#f*2%D@5#Z%Q+##$.).4-P+J+`#g%2%Q+Z%U*g%<@n+y+5-6-7-[ [ [ [ [ [ [ [ [ [ [ 8-k+`#K+U+D@g%g%D@g%:#`#S+A+6+/.P+h$7@|$Z%g%i+x$`#9-0-a-:#g+4$C*~#o@:#]$(.t#:#x@##1$c$m@<#m@l@H+g$l@l@x@<#a+l@9$8+0.|+",
"#.*.0%l+J*E*9+E*C*b-C*##)*C*C*c-####C*W@i+W+J+:#H+m@<#9+t#i+W@d-e-0%E+i+y&E#i+g%g%,%J+o@w+7+R X@i+2%g%,%/&K+%&g%E@z#f-g-h--.i-[ [ [ [ [ [ [ [ [ [ C=j-s@)#Z%X%g%,%`#`#E#t#s@0.+@).<@1@7@g%4&Q+E#X@:#U@++r+h X@t###*+S@t#H&`#D#/$C+J*o@m@b-5@C*o@C*o@~##+~#5@C*&+&+`+0.s+",
"-.w+j#g@e@k-9*U+1@|$=#Q@}@Q@l-e&|$3&<@9*/$k@H&:#]$p@<#9+t#F+E+m-7+0%c+J+Q+i+Q+g%g%D@7@S@w+;.k@x$J+:#f*g%n-`#<@`#)#o-p-q-r-s-t-[ [ [ [ [ [ [ [ [ [ [ u-B@9*3&<@2%g%2%2%i+]$K+@@7+^%F+<@<@Q+g%`#i+X@E+C+7+3+0%X@:#m@*+J*t#D#J+J+D#J+s@'@G+(@=#>@*@U+*@R+f@f@i@r@R&v-Y+>.p+",
"o+-./.f+%&c+E+E+D#D#J+P+U*<@`#:#i+D#D+U*2%E#H&:#:#C+-.:.x$1@x$q$w-*+D@D@g%J+Q+4&2%g%1@#+A+6+9&1=/$i+E#2%`#P+x$2%W&x-y-z-A-B-C-[ [ [ [ [ [ [ [ [ [ [ D-E-Z%Q+P+`#`#`#E#u#t#P+@@y+!.V+`#`#J+`#g%i+E#F-9$+@3+X+W+F#o@;._.:#D#J+D#E+Q P+F+F+F+V+c+E+J+J+c+c+c+J+I@K+h%#%o+Z ",
"@.*.2.h X@D#Q+D#x$D#t#D#J+2%Q+`#`#D#t#P+J+:#D#:#/$a+6+n+J+c+f+r+:=G-H-I-J-f*,%D@2%i+<@9+y+6+U@:#2%2%E#i+i+:#n+9$C@2=K-L-M-N-C-[ [ [ [ [ [ [ [ [ [ [ O-P-2%;.`#2%Q+f*]$H+u#`#q$w-!.x$g%g%D@<@g%f*Q-R-S--.r+.$X@:#~#r+X+:#J+D#J+J+D+`#c+c+P+J+:#J+%&:#W+W+W+X@X@c+e*{.o+Y ",
"@.0./.j@E+`#J+i#J+/$W+:#D#J+J+P+K+J+D#J+J+J+i+/$E#o@z+k+W+E#f+q$U$T-U-V-W-f*Q+7@2%y&P+&+w-6+U@t#Q+i+E#J+`#X@L$##*#2=X-Y-Z-`-C-[ [ [ [ [ [ [ [ [ [ [ O-P*g%D$D@`#E#H&u#W@t#`# .-.-./$D#D@D@g%2%^= ;.;+;x+@@&+W+W+J*0.Y+:#J+:#D#:#W+D#P+J+`#J+D+:#J+X@D+f#t#W+W+E+c+^.$.A*",
" .9.4.p%X@x$/$E+D#D#]$D#D#D#g@g%D#J+J+/$:#:#t#t#]$S@z+2.T W+Q q$@;#;$;%;&;i+i+7@`#i+%&9+A+;.+%t#J+J+`#g%7@x$n+p@*;=;-;;;>;,;C-[ [ [ [ [ [ [ [ [ [ [ O-';<@z+3&P+i+E#H&E#i+%&r+-.!.J+%&g%D@<@J+);!;~;{;x+@.&+W+W+9+0.j+X@:#D#:#X@U@D+c+`#D#:#]$t#:#f+k@T T W@4$D+J+0+q$F.",
" .9./.+%G*X@X@g+g+W@]$D#-*E+x$t#t#:#D+W+/$J+t#W+W+o@z+.@W+D#f+6+2.#;];^;F-t#/&D@7@2%K+*+0+6++%t#J+J+P+P+<@c+l+<#Z%4#/;(;_;N-C-[ [ [ [ [ [ [ [ [ [ [ :;<;);w-3&`#`#2%|@f*i+<@ .-.0+F+<@7@P+1@J+2%[;};{;x+q$*+D+E+9+6+j#g+:#E+D#D+U@T D+:#E#W@t#J+Q f+l@k@W@T l@j@x$w+ .A*",
"Z |;2.+%P V@V@e*N$a+j@1;9&G*o@o@U@S@E*C+/$J+t#W+W+E*z+/.Q i#T  .x+2;3;4;|@E#J+D@J+g%<@*+y+ .+%t#J+`#%&<@`#c+g@g%0&5;6;7;8;9;C-[ [ [ [ [ [ [ [ [ [ [ :;u=n-J+X%:#`#g%i+E#E#%& .-.^%F+<@J+7@<@g%f*0;a;b;A+;.V@J+E+9+;.9+g+D#:#:#D+C+h 9+9+V@V@C+t%C+*+j#V@C+*+h t%c;0+;.Y%",
"p+@.d;/./.w+x+{.0+0+2.k+n+2.w+x+w+-.++`+W+x$t#:#X@p@l@j+W+i#l r+A+#+e;4&i+i+i+7@P+6#1@+%). .p%t#Q+`#`#<@`#`#3&X%*#f;g;h;i;j;k;[ [ [ [ [ [ [ [ [ [ [ l;m;,%g%g%E+J+P+D#t#t#K+q$-.~.F+g%g%<@,%2%i+i+n;l@).@@+%E+D+~#&+p@:#:#D#D#W+l+2.y+y+-.-.x+0+2.w+2.0+A+-.x+0+/.<-;.Y%",
" .+.Y+8+#+o@C+y@m@T U@p@T U@p@C+p@#+*+0%D+J+:#:#:#m@U@X+W+i+k@o;y+9+:#D#i+i+]$`#P+K+<@+%y+;.h :#Q+`#P+K+<@P+g%P+K+z#]-p;q;4#i-[ [ [ [ [ [ [ [ [ [ [ r;t#g%f*g%I@J+<@J+D+:#T+;.,.~.F+1@<@U+7@2%H+t#c+U@-.q&0%E+W+#+&+9+W+:#X@i#X@9+o@l@l@a+o@o@p@p@C+T l@V@o@V@*+E*$%@.1+",
"r+Z :%<%a+4$W+:#t#]$W+W@X@D+f+k@W+f+C+h Q D#p@W@t#p@o@X+X@:#U@3+A+*+g+J+u#u#E#2%X%P+J+p@y+6+C+W+J+D#`#<@J+P+`#K+g%E#a+s;t;C-[ [ [ [ [ [ [ [ [ [ [ u;j@%&<@`#<@J+J+K+P+/$J+x$;.).d;F+1@F+1@<@J+]$:#c+j@-.r+0%/$E+*+`+l+X@]$&+T W+E*x@t#t#W@W@W@W+W@l@W+]$T j@U@m@m@`+o+Y%",
"r++.`+<%j@]$W@:#t#W@W@W@W+4$T ]$t#k@l@V@:#W+<%n+h#*+V@(.D+D+j@D$v;w$P+J+:#]$i+2%Q+J+J+W+x++@^%W@J+`#2%Q+:#`#F+P+Q+/$x$J*w;[ [ [ [ [ [ [ [ [ [ [ x;9&e*D#`#K+P+t#:#<@`#:#/$(.q$A+9+F+K+P+D@J+J+:#c+V+f#X$D$h :#X@8+`+X+W@X+:.T W@9+a+W@t#W@]$H+W+T x@W@T 4$k@U@a+V@/.-. .",
"4+o+@%9+l@W@4$W@W+l@m@<#W@4$T W@H+l@m@*+J+T k@9+W@*+C*_.Q X@c+l$y;z;A;f*]$]$Q+t#E#E#Q+6$l=2.s+).W+J+D#D#i+J+I@<@`#P+J+a+;#[ [ [ [ [ [ [ [ [ [ [ B;M x$i#K+<@P+:#:#`#P+D+l+Y%++l+*@F+<@2%`#D#E+E+7@P-C;D;E;E+Q W@X+n+(.D+K$W@l@]$9+S@l@W@W@W@]$W@l@m@C+k@k@W@U@m@V@:.$.` ",
"r+-._.J*p@x@l@U@T l@m@T W@k@W+3$]$T y@9+X@:#l@]$4$S@m@(.W@P P F;G;H;I;J;f*D#i+t#i+i+i+`#G+a+-.F.^.:#`#D#J+`#<@<@<@`#W+X+K;[ [ [ [ [ [ [ [ [ [ [ L;4$D#P+<@g%P+:#/$x$I@S@Y%m-J$S+%&`#7@J+D#i+F#J+';M;N;O;P;c+j@k@l+l+(.4$l@l@l@t#J*C*<#T U@l@l@l@a+m@m@k@T k@k@l@p@.$;.p+",
"p+a.j+*+y@o@o@a+U@l@l@T k@W+:#W+D+k@p@9+W@J+W@W+k@o@J+~#Q Q k@[@Q;R;S;T;U;|@E#f*f*Q+E#E#J+s@J*a.F.n+:#J+`#I@K+P+`#P+:#l+x;[ [ [ [ [ [ [ [ [ [ [ V;W+%&<@X%g%7@E+J+c+p@5+r+w+V+F+P+J+P+P+P+J+Q+W;X;Y;Z;<*)#D+C+T J*k@l+l@l@l@l@]$9+o@m@l@<#<#9$h#l@l@l@T U@<#l@m@V@(.;.p+",
"y$K$C+a+o@D*C*##m@l@W@W@W@W+H&W@l@m@D*K$j+:#E+W+U@#+D##+Q Q W@Q )#`; >.>+>@>i+i+2%f*2%i+:#D#3&K$#>}+X+D#x$I@F+`#`#J+:#*+$>[ [ [ [ [ [ [ [ [ [ [ %>D+J+J+<@<@<@x$J+C+`  .).g+D#D#g%J+P+J+c+D#&>*>=>->;>Y$x$Q W@l@J*W@~#l@k@l@W@*+I$C*<#<#######<#l@l@U@l@9$o@p@o@#+V@J*n+",
"(.<%l+E*#+~#o@p@<#l@W@l@l@W@]$l@l@l@m@~# @y@D+W+4$+%Q C+k@D+D+f+W+>>,>'>)>!>~>h$D@g%g%2%J+:#/$S+y$ .F.X+f+J+P+J+P+`#4$#+{>[ [ [ [ [ [ [ [ [ [ [ ]>g+J+J+J+c+c+x$p@p+5+y+R W+E#`#<@P+J+t#P+W&P&^>/>(>_>Q+]$X@]$y@9+4$o@]$l@<#x@@;5@m@l@c$~#C*)*m@l@<#)*####E*o@y@#+_.9+(.",
"I$&+X+9+~#o@m@m@U@l@l@l@m@U@l@<#<#l@m@w$E*m@D+W+W+/$x@4$S@k@D+W+W@t#>&:><>[>}>|>,%g%g%g%J+J+X@J+%&&&r+E.(.W+E+c+`#J+l@#+1>[ [ [ [ [ [ [ [ [ [ [ 2>X@x$E+J+`#:#l@#.5+7.f+x$T ]$J+F+`#`#D#`#3>4>5>6>7>J+g$u#:#c$C*4$l@D#t#W@l@<#;$D*<#1$a+8>C*9$l@T <#&+&+5@~##+#+#+_.&+(.",
"I$~#X+E*o@9>m@m@9$##y@U@o@l@`%l@f#W@l@l@w$C+W@U@W@X@D#l@j@*+l@t#:#:#D#0>a>b>c>d>4&7@J+i+D#i+:#D+g+e>w+Y%E.9+X@/$:#:#l@*+1>[ [ [ [ [ [ [ [ [ [ [ 2>G*D#J+P+`#l@;.2+-.j@E+D#W@D+J+g%i+g%g%f>g>h>i>j>g%t#U@W@]$o@a+l@]$H&W@l@l@p@J*##U@m@<###m@<#<#9$w$~#E*C*C*#+##C*I+~#@+",
"(.S@J*9+E*E*o@#+o@##o@o@##g#w$<#]$f#l@l@w$a+l@<#T f+W+D+x@+%*+W@:#D#:#J+k>l>m>n>o>N&J+:#D#D#J+:#D+x$x$p>5+}+#+D+:#/$T o@1>[ [ [ [ [ [ [ [ [ [ [ 2>X@:#J+J+W+0.s+7+V@E+g+t#W+:#D#`#<@6#q>r>s>t>u>D@W@W@W@l@a++%S@c$W@l@l@l@<#V@~#m@m@m@9$<#a+l@m@o@o@##########y@#+n+&+J*",
"(.*+l+@+~#9+9+C*o@o@o@E*y@##o@9$W@W@<#w$o@p@l@<#l@W@U@l@:#9&<%*+4$/$i+]$/$N%v>w>x>y>|@/$W+/$J+:#/$E+g+g+2.Y%Y +%X@/$k@V@z>[ [ [ [ [ [ [ [ [ [ [ A>Q :#:#W+-.|+:=+%c+x$:#:#:#D+J+<@,%B>C>D>E>n%g%W@l@l@l@S@S@B+k@l=a+<#l@1$<#l@9+a+l@l@1$l@m@<#o@C*m@l@<#o@~#E*o@#+P%&+l+",
"_.&+X+@+9+9+C*#+~#C*E*o@##o@##m@U@<#9$m@o@p@l@<#l@U@p@y@W+x$C+)-X+x@]$W@T D+F>G>H>I>J>,%:#x$x$J+J+E+G*0@R 7.K>5+V@:#l@S@1>[ [ [ [ [ [ [ [ [ [ [ L>f+W+W+w+1+7+*+I@:#/$D+E+:#x$`#X%M>N>O>P>Q>`#x@l@W@l@S@ @k@x@k@a+m@x@l@m@m@a+J*p@l@l@H+l@##o@S@E*a+9$o@C*Q#J*#+~#.@J*j+",
"y$l+(.l+~#C*##o@C*o@C*w$<#m@##{#<#m@m@m@C*p@l@T l@h#U@p@j@V@J*p%0+X+9$l@f#T ^=8*x=R>S>@>i+x$g+:#:#X@W+X@c+U@-.F.p+C+U@#+1>[ [ [ [ [ [ [ [ [ [ [ L>j@f+0+S=0.*+F+X@W@W+:#J+`#J+g%&>5&T>U>V>Z%l@c$l@U@#+w+o@m@(.V@##m@W@g#9$U@m@J*o@m@1$l@m@o@o@o@C*m@w$~#~#&+5@~#&+.@(..@",
"1+z+n+J*#+C*##m@o@b-##w$g#m@m@##m@m@####J*p@k@T T <#x@C+U@&+I$9+E*w+&+T D+f+4$Z%W>X>Y>Z>m@Q E+:#E+:#4$f+f+c+C+7+~-@.C+#+1>[ [ [ [ [ [ [ [ [ [ [ `>Q j+z.m-$%S+W+T W@X@X@E+D#:#Q  ,.,U>+,e&W+l@l@T *+A+8>*+C*y$o@m@U@W@l@m@<#V@9@~#m@w$l@##C*##o@o@m@o@~#S@#+~#C*~#J$-.F.",
"@,#,L$l+#+####m@o@C*##9$l@m@m@######o@D*J*#+l@U@j@m@<#l@T #+_.$,*+o@).m+T Q Q t#W&%,&,*,q$V@D+t#X@g+X@D+l@k@J+9+q&F.a+S@1>[ [ [ [ [ [ [ [ [ [ [ `>f+/.3+-.S+Q T 4$E+J+D#X@X@W+0+=,-,;,*#X@W+W@U@C+0+*+a+0+E*/.o@a+U@<#<#p@U@V@R#C*####`%m@o@##o@o@m@##$#C*~#~#E*~#L$q&@,",
"(+#>y$l+9+o@E*C*##b-$###o@~###o@####C*5@K$9+l@l@W@l@l@U@j@o@>,T*`+o@S@).9+W@W+W@X@P+x$2.3+q&C+k@X@X@X@f+j@j@k@n+ .1+S@9+1>[ [ [ [ [ [ [ [ [ [ [ ,,T  @ .p+k@W+4$]$D#`#:#T*4$.@r+A+]$E@`#:#W+U@#+2.J*C+J$4$o@y$p@m@m@m@<#m@<#V@R#~#C*$#a+<#m@####9+##C*D*C*~#9+J*&+k+q$:+",
"<+@.k+l+~##+9+C*o@C*##o@C*#+##C*C*C*~#l+(.&+y@m@W@W@l@k@f+p@Q#l@Q X+p@V@w+&+U@T l@D+N$f+w+p+a.C+W+X@D+W@T l@j@/.r+1+#+*+1>[ [ [ [ [ [ [ [ [ [ [ ',k@2.3+F.U@l@l@W@:#J+D+Q /.r+-.<%1@E+D#:#T #+0+E*a+:.x@U@o@y$V@m@##m@m@m@y@o@R#~#E*m@<#l@w$m@)*~#b-~#D*~#J*@+Q#@+{.;.G.",
"<+#.2.l+#+S@5@),b-##y@<#m@m@m@b-~#o@C*c-Q#l+E*S@m@<#U@l@X@p@(.m@4$I@)-o@5@-.&+U@k@T D+%&k@-.1+*.T :#/$W@l@4$k@.@r+F.d j#!,[ [ [ [ [ [ [ [ [ [ [ ~,t%0+3+F.U@W@U@<#W+ $X@l+Y%:=*+*@J+t#H+f#U@2.X+U@2.j@U@a+S@.@o@##y@U@l@9$m@o@R#5@C*1$<#h#9$<#m@D*)*o@C*&+~#J*J*K$2. .A.",
"<+#.k+X+E*~#J*J*C*p@<#l@l@a+<#m@##o@o@)*~#9+m@m@U@U@T 4$f+*+I$##l@t#X@l@l@l+0+p@f+a+U@g+T+x@z+1+`+4$Q W@k@4$W+(.{,z.*+9+!,[ [ [ [ [ [ [ [ [ [ [ ~,T w+3+F.l@l@m@m@l@D+U@` ;.I$K+c+X@W@k@l@X+n+l@f+p@j@p@##C*^.o@##p@m@a+l@o@V@l+~#C*l@<#a+##<#<#o@o@y@o@*+C*&+J*J*2.;.A.",
"(+#.<-(.&+9+J*J*E*y@m@m@<#<#m@p@m@w$####5@5@y@y@x@l@k@T k@*+P%E*##l@l@m@l@##K$2.k@W@l@W+g+F+:=],:.f+4$`%U@T T ^,3+A.#+J*/,[ [ [ [ [ [ [ [ [ [ [ ~,U@-.4+z.x@<#<#C+C+W+C+(,h+D#P+J+]$W@W+X+n+##l@W@##U@<#o@C*.@o@o@C*~#o@##5@S@9+o@C*m@m@m@D*##m@m@##o@#+*+E*E*&+@+w+;.G.",
"v+ .2.j+&+&+5@C*C*##o@y@p@####m@p@m@b-~#Q#9+y@m@m@C+x@T x@&+.@E*o@l@l@y@l@a+8>v;V@j@T j@D+F#_,:,<,k@k@U@C+T l@y$3+E.*+9+/,[ [ [ [ [ [ [ [ [ [ [ ~,U@-.2+A.C+x@<#l@W@X@H+[,},|,:#i#t#W+W@).~#m@l@W@y@y@m@o@o@.@#+y@o@C*o@o@~##+J*##m@)*o@o@~#C*o@m@##C*E*&+&+9+&+K$). .[+",
"(+r+n+1,J*5@5@C*##o@o@m@m@y@m@l@m@##~#J*Q#9+p@m@U@l@x@U@l@~#o$#+##U@l@m@m@$#o@P%K$y@l@x@D+D@2,3,4,l k@k@l@W@l@3.r+A.#+&+!,[ [ [ [ [ [ [ [ [ [ [ 5,m -.s+[+p@l@<#l@]$:#6,7,8,9,J+G&c$W@l@x+E*##W@4$p@9>##$#S@y$o@y@##o@C*~#~#*+9+p@m@o@o@##C*C*##o@###+#+*+*+*+&+9@{. ./+",
"@,3+k+n+&+J*E*##o@C*K@####p@##U@p@C*J*5@@+&+p@m@U@U@x@l@l@9+y$o@a+h#l@<###b-D*J$_.y@a+p@k@7@0,a,b,l@f+Q f+k@k@:.r+[+*+8+/,[ [ [ [ [ [ [ [ [ [ [ 5,U@).2+A.p@l@U@1$l@W+k=c,d,e,Q+]$`%<#<#L$S@y@W@4$##C*o@o@#+y$*+a+x@x@o@E*~#S@9+m@##o@o@m@m@m@p@y@V@E*&+9+E*#+9+(.0+ .A.",
"_+p+/._.J*Q#C*#+S@E*C*o@#+o@#+##m@E*J*5@K$8+p@m@o@#+#+m@C+l+P%w$m@m@l@<#####o@y$&+x@p@o@W@[@f,g,h,<#l Q f+D+f+y$r+z.*+`+/,[ [ [ [ [ [ [ [ [ [ [ i,C+-.{,A.p@l@a+<#U@T k=j,k,e,i+l@<#U@l@2.p@l@]$W@y@o@o@o@#+n+*+m@l@T m@o@C*#+9+o@C*C*S@##m@a+p@y@m@y@*+9+~#E*l+P%0+` /+",
"_+5+L$(.@+z#J*~#~#o@#+y@*+~##+#+V@E*J*&+9@8++%#+o@#+o@p@U@&+y$C*y@m@<#<#m@##o@.@X+p@y@m@k@7@l,m,n,9$j@Q 3$W+Q 2.p+z.j#Z+/,[ [ [ [ [ [ [ [ [ [ [ o,C+-.3+A.p@a+y@p@p@l@k=p,q,r,E#l@<#m@x@y+m@U@l@T p@o@#+p@V@y$o@m@l@T U@~#y@#+J*9+5@~#~#o@#+#+#+p@V@V@V@#+S@S@l+n+0+r+A.",
"_+4+2._.@+^,(.J*#+y@o@m@S@~#~#o@S@#+~#&+9@X+V@*+C*V@S@m@l@~#I+~#o@g#l@l@`%##o@o$(.o@a+x@p@F#s,t,u,9$j@f+W+]$W+ @3+E.Z+X+/,[ [ [ [ [ [ [ [ [ [ [ o,l@-.v,[+V@y@o@p@y@g#w,x,y,r,y&l@<#m@U@).C+a+<#U@o@p@m@p@#+/.*+m@p@x@##C*a+y@K$>,5@5@8>y@o@#+V@V@#+#+#+*+o@*+(.2.2.` A.",
"v+Y%k+_.X+(.l+J*#+m@m@a+S@9+S@o@*+5@z,&+9@`+*+*+o@#+*+p@U@9+_.#+o@<#c$l@<#y@C*.@.$n@m@a+m@Q+A,B,h,g#U@l@D+]$l@.@3+^+8+j+/,[ [ [ [ [ [ [ [ [ [ [ i,U@-.|+A.o@y@a+m@y@g#C,D,E,r,F,l@##w$U@).m@U@p@o@S@n@p@o@E*/.#+o@y@o@o@E*o@V@@+J*Q#9+p@a+S@*+*+&+*+*+*+S@E**+(. @w+5+A.",
":+p+4.n+X+9+~#&+#+y@y@o@&+~#o@V@#+&+~##+X+X+*+V@y@S@V@#+o@J*n+E*p@U@x@9$##o@S@o$Z+C+m@##U@:#G,H,I,##x@k@W+W@U@.@q+^+&+X+/,[ [ [ [ [ [ [ [ [ [ [ J,U@).4+/+V@m@<#l@l@g#K,L,q,M,W@m@)*<#T ,.m@l m@o@*+#+V@E*&+ @9+V@o@S@S@5@o@V@l+*+~#o@a+m@V@~#&+&+*+9+&+J*9+*+X+.@w+p+<+",
"(+p+/._.&+*+9+&+&+~#~#5@J*J*&+o@S@&+~#5@X+8+#+S@p@o@m@o@9+(.n+o@a+p@<#m@o@o@#+y$8+U@p@o@T :#N,O,P,)*a+j@4$l@U@I$q+^+j#X+/,[ [ [ [ [ [ [ [ [ [ [ Q,m w+4+<+V@`%U@l@U@w$S-R,S,T,l@U@##U@U@-.V@l C+#+#+o@*+E*&+2.S@S@m@p@~#>,*+#+l+#+V@o@o@m@V@~#&+#+#+E*9+(.X+(._..@w+r+[+",
"(+ .1.n+l+9+9+9+J*J*J*9+*+9+&+#+~#&+J*J*9@X+*+#+p@m@U@o@9+K$.@o@U@p@m@p@y@o@o@ @&+l C+U@W@U,V,W,X,S@p@U@j@T U@I$3+^+j#.$/,[ [ [ [ [ [ [ [ [ [ [ Y,C+w+1+:+p@l@a+h#m@p@Z,`, '.'##U@o@y@m@-.*+U@C+*+#+o@#+E*&+^.9+o@a+m@~#J**+#+X+*+#+V@S@y@#+#+9+~#&+J*9+l+(.P%y$k+2. .[+",
"(+r+2.I+X+l+l+&+~#~#&+E*p@S@o@y@*+&+9+&+9@`+*+*+*+o@C+V@o@(. @9+9$a+U@##y@##E*L$.$C+l U@U@0#+'@'#'#+p@V@m@<#x@_.o;<+9+Y+/,[ [ [ [ [ [ [ [ [ [ [ J,C+w+F.<+U@l@m@U@y@o@$'%'&'*'#+C+o@#+p@-.*+U@p@*+#+y@m@o@l+^.~#~#o@S@),@+&+d (.&+&+#+*+*+#+9+9+J*&+9+E*9+l+n+P%n+2.@.E.",
"(+4+2.n+='l+l+&+#+~#l+~#y@#+V@p@y@*+&+J*l+j+9+9+#+o@C+p@p@X+2.J*y@##a+o@o@#+~#@;#@V@U@l@]$5*-';'>'),p@V@p@##p@y$3+^+m+X+/,[ [ [ [ [ [ [ [ [ [ [ ,'y@).t+:+C+l@x@m@p@x@'')'!'~'^=a+S@y@p@-.#+x@p@#+9+o@m@o@&+.@&+9+&+&+J*K$J**+(.&+~#o@~#S@9+E**+9+J*9+~#&+9@I$(._.w+ .^+",
"<+Y%&%/.(.l+&+l+~#~#&+~#o@*+*+y@p@p@#+&+l+X+9+&+S@V@p@y@#+_.x+J*S@o@##C*E*C*~#x+:.p@V@o@a+|@{']'^'#+p@m a+a+*+2.4+^+*+a%/,[ [ [ [ [ [ [ [ [ [ [ /'0%>.S=:+C+W@l@U@l@l@L&('_':'H+o@C*E*V@-.V@a+S@~#J**+y@#+8+4.&+&+9+J*J*K$J**+_.9+#+y@y@o@9+#+*+~#&+*+&+&+l+(.(.9@~. .A.",
"(+Y%{.y$(.(.@+K$J*5@E*~#o@#+S@o@V@y@S@9+X+X+9+&+S@o@y@S@9+_.x+l+&+o@y@~#~#o@~#x+:.p@o@S@p@<'['}'I,o@n@n@V@C+S@w+s+:+9+X+|'[ [ [ [ [ [ [ [ [ [ [ /'0%-.1+/+C+W@<#U@x@l@1'2'3'o>l@#+o@E*p@-.9+#+8>o@5@&+#+<%_.).X+J*&+J*l+@+l+m+_.&+*+#+V@*+9+*+#+&+#+*+*+9+l+X+X+(.{.5+/+",
"_+1+>.$@(.X+(.(.K$&+E*S@#+*+M@#+*+*+#+*+9@X+9+&+#+~#&+J*J*n+A+(.@+&+E*9+C*o@~#w+j+#+S@S@p@4'['5'b,##h m V@V@*+U$|+<+.$Y+|'[ [ [ [ [ [ [ [ [ [ [ /'V@+@1+/++%<###p@y@<#6'D,7'8'9$#+y@S@~#+@l+~#E*9+5@9+9+&+3.-.X+l+J*J*l+9@X+9+j+Z+&+&+&+&+&+9+#+M@#+&+l+9+l+&+@+_.,.Z 9'",
"(+}+-.2._.X+@+9@@+5@J**+#+*+*+d E**+S@9+(.`+9+&+&+J*K$9@X+y$A+(.J*@+J*5@C*~#J*U$`+9+#+y@y@<'0'a'b'l@k@U@C+V@9+y+4+<+a%Y+|'[ [ [ [ [ [ [ [ [ [ [ c'#+z+F.<+#+V@S@o@#+o@f>d'e'M,l@##a+m@#+z+K$&+9+l+9+9+&+(..@'.(.X+J*J*l+X+l+*+:.(.X+l+K$(.(.&+M@*+*+9+@+~#9+&+Z+:.-. .:+",
"f'}+-. @_.l+X+(.9@J*@+J**+9+*+#+9+*+*+&+j+h S@&+@+K$(.l+J*n+A+(.K$9@&+E*~#5@J*A+.$M@#+y@y@f*A,g'b'l@j@m C+m@#+).s+<+8+8+|'[ [ [ [ [ [ [ [ [ [ [ h'#+6+z.<+*+V@o@~#5@o@i'd'j'k'Z=m@<#y@V@0.&+&+E*l+#+&+J*(.y$-.K$J*l+l+@+X+9++%$%X+&+&+J*^,I$l+9+&+*+&+&+9+9+&+&+.$A+p+_+",
"&&/.). @_.`+X+@+&+&+@+&+E*&+*+#+E*#+9+X+0%*+&+X+(.n+w+(.Z+^.x+X+J*(.l+9+E*5@9+0+`+*+#+#+y@f*A,l'm'9$l h V@p@#+0+Y ^+9+:%|'[ [ [ [ [ [ [ [ [ [ [ h'+%$.F.<+*+S@E**+#+8>n'd'j'o'Z=a+p@m@m@+@9+&+*+X+9+&+&+@+.@-.B+X+).(.@+l+l+#+C+_.&+&+~#K$I$l+9+8+9+&+9+l+X+l+X+(.w+P%o$",
"<+-.0.x+P%_..$Z+&+&+l+l+9+E*S@#+o@#+9+.@8+9+l+_.n+p'^%n+$@;.A+).0+A+++2.x+A+_.2.(.*+o@#+m@f*q'B,b,##U@U@h 0%*+ @A*<+B=.$r'[ [ [ [ [ [ [ [ [ [ [ s'#+;.A.@,*+~#9+S@#+##t'u'v'M,1$p@C+U@m@7+l+-..@4.-.0+0+-.x++.k+y$-.;._.@+l+*++%0+l+9+9+n+_.X+J*l+X+&+&+X+l+l+_.n+-.w+1+",
"9%}+#.x+n+(.X+X+&+&+X+X+&+~#9+9+#+~#9@x+X+&+X+n+a.7.j+ @;.-.q$7.1+ .9.p+p'3+X+x+n+9+C**+C+i+w'x'y'o@m U@p@V@#+2.s+<+8+Y+r'[ [ [ [ [ [ [ [ [ [ [ z'0%$.E._+*+C*9+#+S@S@n'D,A'B'g#p@y@V@p@7+X+o+@.C'D'E'+.&.5+-. .2.1.-.;.:.@+*+V@).(.&+&+(.X+&+&+K$X+&+l+_.l+.$_.y$'. ._+",
"#>7+9.2.3.(.(.@+l+l+&+&+9+9+~#J*<%<%n+x+X+l+(.2.;./.w++.7+x+-.}+a.+.Y p'}++.L$y+n+*+~#9+o@G&F'G'H'o@m C+V@o@S@0+s+<+X+`+r'[ [ [ [ [ [ [ [ [ [ [ 8-*+6+A.(+#+S@S@p@p@y@S-D,I'B'<#V@#+#+V@7+:. .J'&.~-D'q&d.K'0.7+ .w+k+;.2.&+9+d -.(.&+&+&+l+9+&+B+l+X+X+l+@+X+(..@*.-. .",
" .;.;.2..@_._.X+X+Z+X+X+l+&+J*X+9+9+_.x+`+l+n+j+n+0+;.a.0+w+L'+.#.5+p'%-q&p+y$y+j+p@S@E*p@f#M'N'O'o@C+U@#+#+J*&&|+<+a%@%r'[ [ [ [ [ [ [ [ [ [ [ P'j#@.S=:+*+#+p@C+C+m@Q'R'S'T'U@o@~#*+V@*._.6+#.U'p'Y |;#.%-6+w+2.q&-.2.@+(.&+d -.n+l+&+J*&+9+9+X+&+l+9+9+X+.$n+ @-.q&3+",
"6+0+). @y$y$y$(.J*9+&+X+(.(.X+(.Z+&+_. @j#9+n+ @0+6+*.V':.2.&&k+L$ @w+0+0+A+$%/.&+C+o@p@U@l@W'X'Y'#+p@C+*+#+&+y+s+E.8+/.r'[ [ [ [ [ [ [ [ [ [ [ Z'&+;.1+[+m+*+S@V@C+##`'d= ).)j@V@~#V@p@0.+%0+p>x+.@<-0+A+).A+^.+)^% .x+y$K$l+p@y+y$X+J*l+X+&+*+&+m+<%*+9+l+n+.@2.w+x+#.",
"#.A+x+.@.@ @y$(.='&+&+X+(.(.X+X+X+X+n+.@t#D@i+t#`#(.x+0+++++-.7+7+++A=z+6+o+-.).+%p@#+C+l #+@)#)$)#+V@#+9+*+&+y+3+/.0%#@r'[ [ [ [ [ [ [ [ [ [ [ Z'Z+(. .[+Z+#+*+y@p@#+f$>-%);-h d *+y@h p>w+-.r+A=0.7+*.7+0.+@7+-.+@2.D#f*g%&)0&2..@X+&+&+X+X+j#*+m+l+&+X+(.n+n+.@x+A+` ",
";.A+2. @2.2..@1,X+(.(.l+l+l+l+&+X+(.y$-.Y+m+*+*+p@v*|@,%`#2%t#]$Z=u#Z=E#H&*)=)k@0%V@*+U@&+-)p*#'w-&+#+9+&+9+J*A+>.W@#+/.r'[ [ [ [ [ [ [ [ [ [ [ ;)X+V@/.1+J**+o@m@o@J*v;>),)')/.V@y@C+p@o@))!)~)<#H&t#v*`#U*%&i+y&f*i+R +%*+y@p@7+.@X+X+9@K$B+8+m+8+X+&+8+(.j+n+^.2.w+` ",
"+.y+A+w+ @ @.@_.(.n+n+(.l+&+X+&+l+(.J$>.Y+&+9+~#9+V@a+#+p@U@C+#+*+*+@+9+J*J*#+*+#+V@#+U@l+{)])A=-.&+#+&+J*J*l+y+$.9+*+/.r'[ [ [ [ [ [ [ [ [ [ [ ^)9+j#0+F.&+9+E*p@p@J*/)()s%_)0+h C+C+m ~##+#+o@y@o@9+y@U@p@V@9+9+9+S@*+&+&+9+#+6+y$K$(._._.(.8+&+X+(.l+.$(.(.n+k+2.-.p+",
" .y+2.0+ @2..@(._.n+y$(.l+X+(.X+K$K$I$-..$0%*+9+9+*+V@&+V@U@y@V@#+#+&+9+&+&+V@C+9+*+#+V@(.v,:)z+).&+*+&+J*l+l+y+;.J*9+1.<)[ [ [ [ [ [ [ [ [ [ [ [)&+9+w+A.&+&+9+o@p@J*@;v, .v,>.#+p@p@y@C+V@#+#+p@V@&+*+#+V@*+M@9+X+l+9+l+l+*+*+6+^.n+I$_.P%(.8+l+(.:.`+(._./.y$.@2.-.p+",
" .).2.0+k+^.:.n+(.n+n+n+X+(.X+l+(._.y$-.`+*+9+&+9+&+j#&+#+#+#+j#&+*+&+&+#+p@C+#+9+&+M@*+:.})|)7+).&+#+&+X+Z+X+-.;.l+&+4.<)[ [ [ [ [ [ [ [ [ [ [ 1)&+&+>.A.l+9+l+*+V@&+.@{,q$|+).j#V@#+p@m h y@p@m V@&+*+M@d &+&+X+(.J*9+*+&+S@d 0. @n+y$.@.@_.8+&+@+n+/.:.='/.y$^.2.-.q+",
" .-.0+k+/./.y$y$(.n+y$n+(.(.(.(.X+I$y$'.a%*+<%l+l+&+X+l+j#b *+9+j#j#M@*+p@U@V@*+*+&+&+&+:.|+/+:=7.Z+&+&+X+X+='-.6+(.&+~.<)[ [ [ [ [ [ [ [ [ [ [ 2)a%Z+,.A.l+&+X+8+V@&+^.r+q$4+w+y@y@V@d V@*+l p@p@#+9+*+&+*+j#j#X+&+E*9+o@9+*+V@6+ @n+y$.@2./.X+8+l+_.n+y$n+.@$@$@{.-.2+",
"r+w-2.k+y$y$.@y$I$:@y$y$_._.n+P%_.I$J$-.a%*+&+X+X+9+.$X+&+*+V@*+j#&+&+*+p@y@#+*+M@&+l+8+/.1+:)z+*.`+&+@+(.X+X+-.@._..$>.3)[ [ [ [ [ [ [ [ [ [ [ 2)&+Z+>.^+(.X+='l+&+l+^.4) .Y%).*+d d n@d m@U@h *+9+l+*+j#*+j#j#X+@+E*9+&+#+*+V@6+2.P%3..@x+/.X+l+9@y$k+k+.@2.0+k+0+-.2+",
"` -.2..@y$L$ @o$3..@y$:@_.:.P%y$y$_..@-.Y+*+&+l+j#*+X+X+Z+#+h h j#Z+&+&+d d *+#+#+*+9+l+y$1+/+0.-._.l+(.n+_.B+-.#._..$>.3)[ [ [ [ [ [ [ [ [ [ [ 2)&+X+-./+(.l+X+@+(.n+x+r+q$Y%-.Z+&+&+*+M@n@V@0%j#&+9+*+&+*+j#j##+&+V@j#9+#+*+h 6+2.y$y$ @x+/.j+:.j+/.^.k+2.2.2.^.2.-.s+",
"2+7+).2..@.@k+^.y$.@.@.@_.y$o$o$/.y$.@7+c%&+X+9+#+9+J*&+&+&+g d j#Z+&+&+9+#+#+*+&+Z+&+Z+/.#.r+).-.:..$(.:.(.:.7+ .:._.>.3)[ [ [ [ [ [ [ [ [ [ [ 5)`+(.-.E.j+X+_.I+n+n+w+ .*.a.).X+X+&+&+M@*+h V@#+&+&+*+&+&+&+&+M@j#d *+*+*+*+l 6+x+y$.@.@ @y$_.y$/..@^..@^. @ @2.A+7+1+",
"1+6+-.w+2. @ @^. @ @2. @y$ @.@/..@.@2.-.m+8+8+&+&+9+l+&+&+j#j#M@&+&+&+#+&+Z+j#*+Z+.$l+Z+/.r+-.0+>.:.1,_.n+_..@7+@./.:.>.3)[ [ [ [ [ [ [ [ [ [ [ 6):.:.-.A.n+j+n+I+n+/.w+-.#@0.).X+_.(.X+l+9+*+j#V@7)Z+&+l+Z+='@+Z+&+M@&+Z+&+l+#+).)..@y$ @ @y$/.^.^.2.{.0+ @ @w+).).o+F.",
"}++.*.-.-.y+A+A+x+x+w+w+2.2.2. @ @2.-.m+&+&+X+&+l+&+.$l+&+&+b Z+Z+Z+&+&+&+&+j#l+X+_.Y+-#/.q$8)1.-./._.:@$@_.:@0. .#@:.>.3)[ [ [ [ [ [ [ [ [ [ [ 9):.:.-.A.n+(._.n+_.n+2.>.V 6+^%t%(.(._.(.l+l+&+9+.$X+.$X+1,1,='@+X+X+Z+.$&+(.X+9+w-0+2.x+A+{.2.2.w+A+y+y+-.).-.'.'.6+<+",
"S=p+3+r+ . .q$ .q$q$;.6+;.;.;.6+0.6+:.j+:.:./._.:.:./.:._._._._.:.:.:.:._._._._.:./.#@@%>.p+a.+.y$y$:.$@^.y$_.;.` /.:.*.3)[ [ [ [ [ [ [ [ [ [ [ 0)#@:.0.:+(._.n+_._..@y$;.#.r+7+a%/..@y$:.j+_.$@n+/./.n+/.$@/._.:./././././.^.4.^.(.6+A=6+m-;.6+6+q$q$q$ . . .r+p+2+K>/+",
"` a)w-w-x+@;y$L$2.w+y+x+&&2.2.2.J$/.-.1+^+(+_+u+(+<+<+:+^+<+<+:+:+:+:+^+<+/+S=A*p+5+Y 2+p+7+y+:..@2.{.0+w+9.1.` Z /.:.*.3)[ [ [ [ [ [ [ [ [ [ [ 0):.b)*./+X+).-. @k+0+k+/.++y+ .5+1+1+2+s+F.A.:+(+v+<+<+u+_+(+(+u+v+(+<+/+<+<+:+A.6+v;n+I$o$J$J$y$o$y$.@2.&&y+w+w--.0.q$",
"S.c)X.X.X.d)e)e)f)e)e)e)f)g)f)e)f)h)f)d)X.d)!+i)'+j)~+j)e)f)e)f)e)~+X.X.X.e)e)f)e)e)j)e)f)e)j)e)X.!+)+'+X.X.k)l) ..@^.$.3)[ [ [ [ [ [ [ [ [ [ [ m)^.^.o+n)o)d)X.!+p)!+X.d)e)f'f'f'f)e)e)j)X.!+d)e)~+~+e)e)e)e)j)!+'+X.d)X.d)X.j)e)f'q)r)f'e)e)X.d)e)e)e)e)s))+)+t)Y.P.V.",
"f)u)u+<+<+/+G.G.t+t+A.A.|+|+v)t+t+t+G.t+1+A.G./+[+A.A.A.F.|+t+A.G./+G.G.G.w)w)A.A.A.A.t+t+A.A.1+3+v,x)t+t+()y)z)A)+@;.Y 3)[ [ [ [ [ [ [ [ [ [ [ B)q&$.m-C)D)E)v,1+x)z.w)t+x)1+|+q+|+1+G.w)t+A.A.t+w)t+v)|+|+1+t+A.G.G.A.G.z.A.G.G.x)|+F)G)G.H)G.G.G.S=t+t+A./+<+/+<+]+e)",
"d h m I)j S C+j@S S t%j@e*g+T U@l l l t%x 1;l l t%p p P L e*x P f+U@k@j@j@S S R g+P g+P g+z g+z g+g+Q S t%j@T W@f+Q g+G*C=[ [ [ [ [ [ [ [ [ [ [ J)(&Q X@x$W+f+E+g+M P T*X@X@:#X@K)M P S L)t k@j@l@j@X@P P x 1;Q g+G*G*X@P x$G*k@U@U@j@f+9&h V@m h d t%j@j@I)j@%@M)U b%m+",
"N)O)P)P)#-Q)Q)R)R)Q)S)S)T)R)P)U)V)W)X)Y)Z)`)R) !#-R)`).!Z)+!@!#!.!R)#-#-#-R)#-R)#!$!M)$!%!%!%!T)`)`)R)#-S)&!#-#-#-Q)M)*!i-[ [ [ [ [ [ [ [ [ [ [ =!R)Q)Q)Y)Y)Y)`)#!-!;!`)$!>!Y)`)%!,!#!T)'!`)R)#-#-#-T)%!#!#!`)Y)`)Y)M),!$!%!`)T)#-#-#-#-P)N)N)P)N))!!!W)W)W)~!S){!]!]!^!"};
