/* XPM */
static char * so_door28_tex_xpm[] = {
"132 132 1332 2",
"  	c #2F3A46",
". 	c #303C46",
"+ 	c #2F3A45",
"@ 	c #303B46",
"# 	c #303C47",
"$ 	c #2F3B46",
"% 	c #303A45",
"& 	c #313D4A",
"* 	c #313E4A",
"= 	c #323E4A",
"- 	c #323F4A",
"; 	c #313D48",
"> 	c #35393C",
", 	c #393939",
"' 	c #383939",
") 	c #303B45",
"! 	c #323F4B",
"~ 	c #313D49",
"{ 	c #303C48",
"] 	c #2E3843",
"^ 	c #283949",
"/ 	c #263746",
"( 	c #273848",
"_ 	c #293B4A",
": 	c #283948",
"< 	c #293949",
"[ 	c #293B4B",
"} 	c #293A4A",
"| 	c #293A49",
"1 	c #2A3B4B",
"2 	c #2A3B4A",
"3 	c #2B3D4C",
"4 	c #2C3F4F",
"5 	c #2D3F4F",
"6 	c #2C3F50",
"7 	c #2D4151",
"8 	c #2C3D4C",
"9 	c #33393E",
"0 	c #37383A",
"a 	c #2B3C4B",
"b 	c #2A3C4B",
"c 	c #293C4B",
"d 	c #2D4050",
"e 	c #273847",
"f 	c #1A2732",
"g 	c #1A2833",
"h 	c #18252F",
"i 	c #192530",
"j 	c #1B2833",
"k 	c #1B2834",
"l 	c #1A2733",
"m 	c #1B2934",
"n 	c #1C2934",
"o 	c #1C2A35",
"p 	c #1C2A36",
"q 	c #1D2A36",
"r 	c #1D2B38",
"s 	c #1E2D39",
"t 	c #1F2F3C",
"u 	c #1F2E3B",
"v 	c #1F2E3A",
"w 	c #1F2C39",
"x 	c #313437",
"y 	c #303337",
"z 	c #1F2C38",
"A 	c #1E2C38",
"B 	c #1C2B37",
"C 	c #1D2D3A",
"D 	c #1D2B37",
"E 	c #1C2935",
"F 	c #1B2733",
"G 	c #1B2933",
"H 	c #1A2631",
"I 	c #1A2632",
"J 	c #080E13",
"K 	c #080F14",
"L 	c #070D13",
"M 	c #080D13",
"N 	c #080E14",
"O 	c #090E14",
"P 	c #091015",
"Q 	c #09131B",
"R 	c #091C2B",
"S 	c #0F1E29",
"T 	c #131F27",
"U 	c #131E27",
"V 	c #131C24",
"W 	c #2F3031",
"X 	c #2E2F31",
"Y 	c #131E26",
"Z 	c #141F28",
"` 	c #121E27",
" .	c #091C29",
"..	c #08151F",
"+.	c #081015",
"@.	c #090F14",
"#.	c #090F15",
"$.	c #080D12",
"%.	c #0B1319",
"&.	c #0C141A",
"*.	c #0D151B",
"=.	c #0D151C",
"-.	c #0C151B",
";.	c #0C141B",
">.	c #0A1117",
",.	c #0A1116",
"'.	c #0C1319",
").	c #0E1821",
"!.	c #0F1E2A",
"~.	c #192733",
"{.	c #20303E",
"].	c #223341",
"^.	c #303336",
"/.	c #2F3236",
"(.	c #21313F",
"_.	c #223340",
":.	c #101E28",
"<.	c #0E1A23",
"[.	c #0B151B",
"}.	c #0A1218",
"|.	c #0B1218",
"1.	c #0E171E",
"2.	c #0F161E",
"3.	c #0E161D",
"4.	c #15222C",
"5.	c #15212B",
"6.	c #142029",
"7.	c #16222B",
"8.	c #17232D",
"9.	c #18242E",
"0.	c #182530",
"a.	c #192631",
"b.	c #192732",
"c.	c #21313E",
"d.	c #21323F",
"e.	c #1C2B36",
"f.	c #233644",
"g.	c #1E303F",
"h.	c #273948",
"i.	c #293C4C",
"j.	c #233340",
"k.	c #313438",
"l.	c #2F3337",
"m.	c #263947",
"n.	c #283B4A",
"o.	c #192834",
"p.	c #263B4B",
"q.	c #1F2F3B",
"r.	c #1D2C38",
"s.	c #20313E",
"t.	c #22333F",
"u.	c #1E2E3A",
"v.	c #192731",
"w.	c #17222D",
"x.	c #16212B",
"y.	c #16222C",
"z.	c #1B2935",
"A.	c #1F303C",
"B.	c #243644",
"C.	c #273949",
"D.	c #283B4B",
"E.	c #2A3E4E",
"F.	c #2C4253",
"G.	c #243847",
"H.	c #1E2E3B",
"I.	c #283C4C",
"J.	c #2A3F4F",
"K.	c #243442",
"L.	c #313538",
"M.	c #303438",
"N.	c #283A4B",
"O.	c #293D4D",
"P.	c #273B4C",
"Q.	c #2D4253",
"R.	c #2B4050",
"S.	c #2B3F4F",
"T.	c #2B4051",
"U.	c #2A3E4D",
"V.	c #263948",
"W.	c #20303D",
"X.	c #202F3B",
"Y.	c #21303E",
"Z.	c #20303C",
"`.	c #1B2A36",
" +	c #1C2B38",
".+	c #2D4354",
"++	c #2C4152",
"@+	c #2D4353",
"#+	c #32485A",
"$+	c #324A5C",
"%+	c #32495B",
"&+	c #32495C",
"*+	c #31485B",
"=+	c #31485A",
"-+	c #2C4354",
";+	c #1E303E",
">+	c #1E2D3A",
",+	c #293E4E",
"'+	c #2A3E4F",
")+	c #2E4455",
"!+	c #2E4557",
"~+	c #263C4C",
"{+	c #2A3F50",
"]+	c #263744",
"^+	c #323639",
"/+	c #303539",
"(+	c #2B4153",
"_+	c #203240",
":+	c #2E4354",
"<+	c #2D4355",
"[+	c #293D4E",
"}+	c #2B3F51",
"|+	c #1F2F3D",
"1+	c #293D4B",
"2+	c #344B5E",
"3+	c #314658",
"4+	c #314859",
"5+	c #2F4557",
"6+	c #2F4456",
"7+	c #304658",
"8+	c #2B4152",
"9+	c #304759",
"0+	c #344C5F",
"a+	c #2D4457",
"b+	c #1E313F",
"c+	c #243745",
"d+	c #233443",
"e+	c #2A3D4E",
"f+	c #2E4558",
"g+	c #2E4659",
"h+	c #294052",
"i+	c #293E4F",
"j+	c #2B4052",
"k+	c #273745",
"l+	c #32363A",
"m+	c #30353A",
"n+	c #293D4C",
"o+	c #2C4355",
"p+	c #213443",
"q+	c #2F4558",
"r+	c #223240",
"s+	c #374F62",
"t+	c #2E4456",
"u+	c #2F4457",
"v+	c #2D4455",
"w+	c #2E4457",
"x+	c #2D4152",
"y+	c #30485B",
"z+	c #31495D",
"A+	c #2D4659",
"B+	c #1F3342",
"C+	c #223543",
"D+	c #223542",
"E+	c #2D4557",
"F+	c #30475A",
"G+	c #2B4254",
"H+	c #243645",
"I+	c #2C4254",
"J+	c #273846",
"K+	c #33373B",
"L+	c #37393A",
"M+	c #30363B",
"N+	c #213343",
"O+	c #2F4659",
"P+	c #2A4052",
"Q+	c #2C4153",
"R+	c #213240",
"S+	c #253847",
"T+	c #223645",
"U+	c #31485C",
"V+	c #30485A",
"W+	c #31495C",
"X+	c #31475A",
"Y+	c #2E4658",
"Z+	c #324A5E",
"`+	c #1B2F3D",
" @	c #2A3F51",
".@	c #293E50",
"+@	c #273947",
"@@	c #30373C",
"#@	c #2D4254",
"$@	c #203341",
"%@	c #32495E",
"&@	c #304659",
"*@	c #1D2C39",
"=@	c #1A2B38",
"-@	c #30495C",
";@	c #324A5D",
">@	c #334A5E",
",@	c #324B5F",
"'@	c #334C61",
")@	c #2E485B",
"!@	c #1D3140",
"~@	c #182631",
"{@	c #263A49",
"]@	c #253949",
"^@	c #2D4356",
"/@	c #253846",
"(@	c #33373C",
"_@	c #30373D",
":@	c #1F303F",
"<@	c #233645",
"[@	c #1D2E3B",
"}@	c #334B5E",
"|@	c #334A5D",
"1@	c #334B5F",
"2@	c #32495D",
"3@	c #334C60",
"4@	c #344D62",
"5@	c #314A5F",
"6@	c #1F3241",
"7@	c #273A4A",
"8@	c #2D4357",
"9@	c #283A49",
"0@	c #34383D",
"a@	c #31383F",
"b@	c #1F303E",
"c@	c #243746",
"d@	c #1E2F3D",
"e@	c #324A5F",
"f@	c #30475B",
"g@	c #344D60",
"h@	c #344D61",
"i@	c #354E61",
"j@	c #354D61",
"k@	c #324C5F",
"l@	c #2F485C",
"m@	c #1F3140",
"n@	c #1A2834",
"o@	c #273A49",
"p@	c #253746",
"q@	c #2E4458",
"r@	c #34393D",
"s@	c #31393F",
"t@	c #1E303D",
"u@	c #2D4558",
"v@	c #2C4052",
"w@	c #223442",
"x@	c #314A5E",
"y@	c #344E62",
"z@	c #344C61",
"A@	c #344C60",
"B@	c #354E62",
"C@	c #354E63",
"D@	c #334D61",
"E@	c #2F495D",
"F@	c #203140",
"G@	c #253948",
"H@	c #35393D",
"I@	c #313940",
"J@	c #2A4051",
"K@	c #233746",
"L@	c #354D62",
"M@	c #334B60",
"N@	c #2F475B",
"O@	c #1B2A35",
"P@	c #253947",
"Q@	c #233545",
"R@	c #1C2B39",
"S@	c #2B4154",
"T@	c #2D4456",
"U@	c #243846",
"V@	c #344B60",
"W@	c #1E3140",
"X@	c #253747",
"Y@	c #283E4F",
"Z@	c #233543",
"`@	c #35393E",
" #	c #313A41",
".#	c #293D4F",
"+#	c #1B2C39",
"@#	c #2F4658",
"##	c #233646",
"$#	c #203444",
"%#	c #233544",
"&#	c #2F475A",
"*#	c #17242E",
"=#	c #353A3E",
"-#	c #313A42",
";#	c #182734",
">#	c #223544",
",#	c #2B3F50",
"'#	c #1C2C39",
")#	c #314C60",
"!#	c #2B475C",
"~#	c #213D51",
"{#	c #243E50",
"]#	c #17242F",
"^#	c #2A3D4D",
"/#	c #1D2E3C",
"(#	c #253B4D",
"_#	c #253E52",
":#	c #2A465A",
"<#	c #1E2F3B",
"[#	c #1D2D39",
"}#	c #2B3E4E",
"|#	c #30485C",
"1#	c #37546B",
"2#	c #1F4965",
"3#	c #1A74A2",
"4#	c #2A495E",
"5#	c #2A4153",
"6#	c #1A2935",
"7#	c #38393A",
"8#	c #323B43",
"9#	c #1A2A36",
"0#	c #1C2D3A",
"a#	c #2C4659",
"b#	c #2A5B7B",
"c#	c #265F82",
"d#	c #305069",
"e#	c #365064",
"f#	c #233542",
"g#	c #20303B",
"h#	c #1D2C37",
"i#	c #22323F",
"j#	c #355065",
"k#	c #1D4864",
"l#	c #127BB7",
"m#	c #2A4A61",
"n#	c #2C4356",
"o#	c #283E4E",
"p#	c #38393B",
"q#	c #1C2C38",
"r#	c #1B2B38",
"s#	c #2E4A5E",
"t#	c #286388",
"u#	c #246287",
"v#	c #2F4E66",
"w#	c #2C4252",
"x#	c #192630",
"y#	c #1F2E39",
"z#	c #1D2C36",
"A#	c #21303B",
"B#	c #21313D",
"C#	c #21333F",
"D#	c #385268",
"E#	c #1E4864",
"F#	c #137BB9",
"G#	c #2B4B61",
"H#	c #273C4C",
"I#	c #303941",
"J#	c #1A2934",
"K#	c #2F4A5E",
"L#	c #296489",
"M#	c #236389",
"N#	c #2F4F66",
"O#	c #30485D",
"P#	c #1B2A34",
"Q#	c #202F3A",
"R#	c #243542",
"S#	c #21303C",
"T#	c #283D4C",
"U#	c #1E4966",
"V#	c #0F7CC1",
"W#	c #2B4A61",
"X#	c #283D4D",
"Y#	c #2B4151",
"Z#	c #2B404F",
"`#	c #363A3D",
" $	c #383A3C",
".$	c #313B43",
"+$	c #28658A",
"@$	c #23668D",
"#$	c #2F5067",
"$$	c #2E475A",
"%$	c #334C5F",
"&$	c #233643",
"*$	c #2E4253",
"=$	c #385368",
"-$	c #1F4966",
";$	c #0E7DC4",
">$	c #2C4B62",
",$	c #36393D",
"'$	c #313A43",
")$	c #2A6488",
"!$	c #22668F",
"~$	c #2F5069",
"{$	c #365267",
"]$	c #1E4765",
"^$	c #1279C2",
"/$	c #2D4A61",
"($	c #303A44",
"_$	c #2A668B",
":$	c #216690",
"<$	c #2F526B",
"[$	c #2C4456",
"}$	c #253848",
"|$	c #30465A",
"1$	c #365167",
"2$	c #1277C2",
"3$	c #2B3E4F",
"4$	c #383A3B",
"5$	c #2F485D",
"6$	c #2B658A",
"7$	c #206692",
"8$	c #30526B",
"9$	c #31495E",
"0$	c #293F50",
"a$	c #233745",
"b$	c #354F65",
"c$	c #1E4967",
"d$	c #107AC4",
"e$	c #2E4C63",
"f$	c #363A3E",
"g$	c #313B45",
"h$	c #293E4D",
"i$	c #1B2B36",
"j$	c #2F495E",
"k$	c #2B658C",
"l$	c #1F6693",
"m$	c #30536D",
"n$	c #2C4457",
"o$	c #344F64",
"p$	c #0F7BC7",
"q$	c #2D4C63",
"r$	c #2F3A43",
"s$	c #2C658B",
"t$	c #1F6692",
"u$	c #30526C",
"v$	c #2D4458",
"w$	c #1E4763",
"x$	c #0F7AC6",
"y$	c #2C4C63",
"z$	c #2F4A5F",
"A$	c #21668F",
"B$	c #2F5169",
"C$	c #2C4255",
"D$	c #204763",
"E$	c #0F7CC6",
"F$	c #303B44",
"G$	c #273B4B",
"H$	c #216790",
"I$	c #2A4152",
"J$	c #1F4763",
"K$	c #0E7DC5",
"L$	c #2C4D64",
"M$	c #2F3B45",
"N$	c #2B4253",
"O$	c #304A5F",
"P$	c #22658F",
"Q$	c #2F4759",
"R$	c #1F4864",
"S$	c #0D7EC7",
"T$	c #2D4E65",
"U$	c #2B6386",
"V$	c #23648C",
"W$	c #1D445F",
"X$	c #127CBC",
"Y$	c #2B4B62",
"Z$	c #18252E",
"`$	c #36393C",
" %	c #2F3A44",
".%	c #2E4559",
"+%	c #2D475B",
"@%	c #2B6081",
"#%	c #266083",
"$%	c #2B4A60",
"%%	c #2A3F52",
"&%	c #1F3A4E",
"*%	c #2A5875",
"=%	c #253F53",
"-%	c #2E3943",
";%	c #254A62",
">%	c #224862",
",%	c #1C3040",
"'%	c #2C4759",
")%	c #244055",
"!%	c #254F69",
"~%	c #243C4E",
"{%	c #2E3A43",
"]%	c #2A4050",
"^%	c #273E50",
"/%	c #25485E",
"(%	c #254962",
"_%	c #294458",
":%	c #304758",
"<%	c #1D4561",
"[%	c #1B73A7",
"}%	c #28485F",
"|%	c #37393C",
"1%	c #2E3A44",
"2%	c #293F51",
"3%	c #294356",
"4%	c #2A5F80",
"5%	c #255F83",
"6%	c #2C4960",
"7%	c #1D4764",
"8%	c #127BBD",
"9%	c #2A4B62",
"0%	c #2E3A45",
"a%	c #2C475B",
"b%	c #236289",
"c%	c #2E4D65",
"d%	c #1E4A67",
"e%	c #107CC4",
"f%	c #2A4A62",
"g%	c #293E4C",
"h%	c #2E3A46",
"i%	c #2C485D",
"j%	c #29668C",
"k%	c #216590",
"l%	c #233442",
"m%	c #1E4866",
"n%	c #107BC4",
"o%	c #192632",
"p%	c #2D3A44",
"q%	c #29668A",
"r%	c #206792",
"s%	c #2D4F68",
"t%	c #304859",
"u%	c #1E4A68",
"v%	c #107BC3",
"w%	c #2A4961",
"x%	c #37393B",
"y%	c #2D3943",
"z%	c #2B475B",
"A%	c #283D4E",
"B%	c #1D4966",
"C%	c #1279BD",
"D%	c #2A485F",
"E%	c #16232D",
"F%	c #2D3A45",
"G%	c #17242D",
"H%	c #2B4559",
"I%	c #296386",
"J%	c #236489",
"K%	c #2D4F67",
"L%	c #2B4252",
"M%	c #263A4A",
"N%	c #1579B5",
"O%	c #29485E",
"P%	c #2B4558",
"Q%	c #296082",
"R%	c #256083",
"S%	c #263B4C",
"T%	c #1D2F3B",
"U%	c #1A384C",
"V%	c #21526E",
"W%	c #253E51",
"X%	c #2C3842",
"Y%	c #214962",
"Z%	c #204962",
"`%	c #2B4457",
" &	c #283C4D",
".&	c #1A2A37",
"+&	c #1A3040",
"@&	c #2C3742",
"#&	c #1D303F",
"$&	c #1C2E3D",
"%&	c #223441",
"&&	c #263845",
"*&	c #17232E",
"=&	c #2C3944",
"-&	c #1D2E39",
";&	c #253A48",
">&	c #2D3B45",
",&	c #15212A",
"'&	c #1E2D38",
")&	c #2B3944",
"!&	c #152029",
"~&	c #1F2D39",
"{&	c #1F303B",
"]&	c #213340",
"^&	c #253745",
"/&	c #273C4A",
"(&	c #18242D",
"_&	c #273A48",
":&	c #2C3945",
"<&	c #20313F",
"[&	c #172B39",
"}&	c #182833",
"|&	c #2B3844",
"1&	c #172936",
"2&	c #213647",
"3&	c #293F4F",
"4&	c #284155",
"5&	c #1B3F56",
"6&	c #255A77",
"7&	c #1F394B",
"8&	c #273B49",
"9&	c #293F4E",
"0&	c #2A3843",
"a&	c #223746",
"b&	c #285773",
"c&	c #1B445D",
"d&	c #223E53",
"e&	c #294357",
"f&	c #1D4159",
"g&	c #1973A8",
"h&	c #24648A",
"i&	c #2B495F",
"j&	c #293642",
"k&	c #2E4353",
"l&	c #275471",
"m&	c #0F7DC0",
"n&	c #1E4964",
"o&	c #264257",
"p&	c #294153",
"q&	c #1D3F56",
"r&	c #1C6F9F",
"s&	c #1E6D9C",
"t&	c #2D536D",
"u&	c #14202A",
"v&	c #293743",
"w&	c #304D64",
"x&	c #285E81",
"y&	c #0980C9",
"z&	c #1E4863",
"A&	c #264055",
"B&	c #273C4D",
"C&	c #1B3648",
"D&	c #1A72A5",
"E&	c #2D5570",
"F&	c #142028",
"G&	c #192833",
"H&	c #2A3844",
"I&	c #24638A",
"J&	c #147AB2",
"K&	c #1C3E54",
"L&	c #1A3141",
"M&	c #1D3B4F",
"N&	c #285D7C",
"O&	c #2B536D",
"P&	c #293844",
"Q&	c #2F4D65",
"R&	c #285A78",
"S&	c #1F425A",
"T&	c #1A3346",
"U&	c #253C4E",
"V&	c #1B394F",
"W&	c #275876",
"X&	c #285A77",
"Y&	c #2A4C62",
"Z&	c #293845",
"`&	c #273B4A",
" *	c #2D4A60",
".*	c #224D68",
"+*	c #206A96",
"@*	c #1C4057",
"#*	c #253F52",
"$*	c #1D3C53",
"%*	c #275777",
"&*	c #127DBD",
"**	c #283C4B",
"=*	c #2C4E65",
"-*	c #1971A8",
";*	c #216692",
">*	c #1B3E56",
",*	c #263E51",
"'*	c #283E51",
")*	c #1E3D54",
"!*	c #265474",
"~*	c #2D5774",
"{*	c #2B465B",
"]*	c #182630",
"^*	c #21323E",
"/*	c #263641",
"(*	c #2C4559",
"_*	c #2E526D",
":*	c #1474B3",
"<*	c #236189",
"[*	c #1B3D56",
"}*	c #263C4F",
"|*	c #1D3C54",
"1*	c #234E6C",
"2*	c #0782D3",
"3*	c #2B5B7B",
"4*	c #2C485E",
"5*	c #15222A",
"6*	c #263440",
"7*	c #141F27",
"8*	c #2C4458",
"9*	c #2D5470",
"0*	c #0E7ABF",
"a*	c #265B7D",
"b*	c #1A3A4F",
"c*	c #1F4C6A",
"d*	c #0382DA",
"e*	c #2A5C7E",
"f*	c #2C4A60",
"g*	c #24323F",
"h*	c #233642",
"i*	c #141E26",
"j*	c #0E7CC3",
"k*	c #275676",
"l*	c #295F82",
"m*	c #2C4A62",
"n*	c #1E2E39",
"o*	c #2C4151",
"p*	c #1C2933",
"q*	c #151F27",
"r*	c #2B5471",
"s*	c #2B516C",
"t*	c #2D4B61",
"u*	c #1C2C37",
"v*	c #333537",
"w*	c #282D32",
"x*	c #284F69",
"y*	c #243948",
"z*	c #283C4A",
"A*	c #101C25",
"B*	c #141D26",
"C*	c #353738",
"D*	c #252E35",
"E*	c #24394A",
"F*	c #233441",
"G*	c #253A4A",
"H*	c #152531",
"I*	c #122C3E",
"J*	c #103C55",
"K*	c #383839",
"L*	c #212F3A",
"M*	c #273D4C",
"N*	c #1C303D",
"O*	c #162C3B",
"P*	c #124361",
"Q*	c #11688D",
"R*	c #103447",
"S*	c #35383A",
"T*	c #29343E",
"U*	c #18242F",
"V*	c #273C4B",
"W*	c #1B3140",
"X*	c #153143",
"Y*	c #134B6C",
"Z*	c #0B729B",
"`*	c #10394F",
" =	c #35383B",
".=	c #293640",
"+=	c #2C4558",
"@=	c #273D4E",
"#=	c #213645",
"$=	c #245570",
"%=	c #27455C",
"&=	c #263C4D",
"*=	c #163449",
"==	c #144D6E",
"-=	c #0A749E",
";=	c #103B52",
">=	c #283641",
",=	c #284255",
"'=	c #1A2933",
")=	c #263F52",
"!=	c #205371",
"~=	c #233B4D",
"{=	c #233B4C",
"]=	c #127CA8",
"^=	c #274F6C",
"/=	c #263D4F",
"(=	c #153449",
"_=	c #154D6F",
":=	c #0774A3",
"<=	c #103B53",
"[=	c #253A49",
"}=	c #29495F",
"|=	c #0E7BAD",
"1=	c #234358",
"2=	c #243E4F",
"3=	c #0A84B7",
"4=	c #28516F",
"5=	c #273E51",
"6=	c #294051",
"7=	c #1B303F",
"8=	c #153247",
"9=	c #144C6E",
"0=	c #0675A5",
"a=	c #0F3A52",
"b=	c #284256",
"c=	c #283E4D",
"d=	c #2A4B61",
"e=	c #0783B8",
"f=	c #24455B",
"g=	c #0E81B0",
"h=	c #28506C",
"i=	c #153347",
"j=	c #144C6D",
"k=	c #0973A0",
"l=	c #28343F",
"m=	c #274053",
"n=	c #2A495F",
"o=	c #0C7EAC",
"p=	c #233848",
"q=	c #275E7C",
"r=	c #29475D",
"s=	c #1C3141",
"t=	c #153043",
"u=	c #144A6B",
"v=	c #0975A1",
"w=	c #103B51",
"x=	c #284154",
"y=	c #275B77",
"z=	c #243C4F",
"A=	c #263F51",
"B=	c #1D3241",
"C=	c #152D3D",
"D=	c #144764",
"E=	c #0D7299",
"F=	c #11384D",
"G=	c #35373A",
"H=	c #28323C",
"I=	c #283F51",
"J=	c #273F51",
"K=	c #243543",
"L=	c #1A2C3A",
"M=	c #15364A",
"N=	c #124D69",
"O=	c #212F3B",
"P=	c #1B2D3A",
"Q=	c #172A3A",
"R=	c #2D373F",
"S=	c #1E2C37",
"T=	c #2F3439",
"U=	c #333639",
"V=	c #2A3D4C",
"W=	c #27526E",
"X=	c #27455B",
"Y=	c #253946",
"Z=	c #15202A",
"`=	c #2F363C",
" -	c #273A4B",
".-	c #204A63",
"+-	c #0880D0",
"@-	c #285C7E",
"#-	c #254259",
"$-	c #33363A",
"%-	c #2E343A",
"&-	c #17252F",
"*-	c #283B4C",
"=-	c #24526F",
"--	c #088ACD",
";-	c #285372",
">-	c #008AE3",
",-	c #275675",
"'-	c #254156",
")-	c #2E3439",
"!-	c #283F53",
"~-	c #244E69",
"{-	c #0683D2",
"]-	c #276083",
"^-	c #2F5168",
"/-	c #295979",
"(-	c #0087E2",
"_-	c #265270",
":-	c #253F54",
"<-	c #1F303D",
"[-	c #17252E",
"}-	c #33373A",
"|-	c #2E353B",
"1-	c #273D4F",
"2-	c #254A63",
"3-	c #0A7ECC",
"4-	c #216997",
"5-	c #294E68",
"6-	c #2B4356",
"7-	c #2B4E66",
"8-	c #266088",
"9-	c #0188DB",
"0-	c #25516E",
"a-	c #263F53",
"b-	c #34373B",
"c-	c #2F353C",
"d-	c #1479B7",
"e-	c #1B71A7",
"f-	c #284E68",
"g-	c #2D475C",
"h-	c #2B4F67",
"i-	c #236692",
"j-	c #117EBB",
"k-	c #234C66",
"l-	c #274052",
"m-	c #34373A",
"n-	c #2E353C",
"o-	c #26475D",
"p-	c #1D6F9E",
"q-	c #1577B4",
"r-	c #28506B",
"s-	c #2D485D",
"t-	c #2D485B",
"u-	c #2B4F68",
"v-	c #226994",
"w-	c #256487",
"x-	c #213E51",
"y-	c #2B3F4E",
"z-	c #213A4C",
"A-	c #205571",
"B-	c #137AB1",
"C-	c #274F69",
"D-	c #304D63",
"E-	c #2E495D",
"F-	c #27465C",
"G-	c #224358",
"H-	c #224A66",
"I-	c #234258",
"J-	c #1B2B35",
"K-	c #264256",
"L-	c #1E4B64",
"M-	c #204157",
"N-	c #24465C",
"O-	c #2E4C61",
"P-	c #244155",
"Q-	c #0C7EC5",
"R-	c #23648E",
"S-	c #24435A",
"T-	c #16212A",
"U-	c #34383B",
"V-	c #2E363C",
"W-	c #274357",
"X-	c #235572",
"Y-	c #0886C7",
"Z-	c #23475E",
"`-	c #2F4B60",
" ;	c #26516F",
".;	c #0083DD",
"+;	c #265C82",
"@;	c #234157",
"#;	c #152129",
"$;	c #2D353C",
"%;	c #264054",
"&;	c #224F6C",
"*;	c #0588D4",
"=;	c #265471",
"-;	c #2F4D63",
";;	c #0181DA",
">;	c #255372",
",;	c #0882CF",
"';	c #27597A",
");	c #2C4C64",
"!;	c #2E516A",
"~;	c #245170",
"{;	c #1774AD",
"];	c #1E3C51",
"^;	c #2D343B",
"/;	c #20313D",
"(;	c #1E3546",
"_;	c #206A99",
":;	c #294D66",
"<;	c #2A485C",
"[;	c #203E52",
"};	c #192A38",
"|;	c #172733",
"1;	c #1F3C4F",
"2;	c #28455A",
"3;	c #2C353B",
"4;	c #2C333B",
"5;	c #233341",
"6;	c #343739",
"7;	c #2C333A",
"8;	c #263745",
"9;	c #293B4C",
"0;	c #15222D",
"a;	c #182834",
"b;	c #1E2F3C",
"c;	c #353739",
"d;	c #182632",
"e;	c #213441",
"f;	c #1C2D39",
"g;	c #162D3D",
"h;	c #17455B",
"i;	c #1D3342",
"j;	c #18384B",
"k;	c #16394E",
"l;	c #23394A",
"m;	c #1D2E3A",
"n;	c #163E57",
"o;	c #1A7198",
"p;	c #204054",
"q;	c #253645",
"r;	c #2B3239",
"s;	c #243544",
"t;	c #131D27",
"u;	c #253D4F",
"v;	c #255673",
"w;	c #1F5978",
"x;	c #244257",
"y;	c #263949",
"z;	c #223342",
"A;	c #243646",
"B;	c #213342",
"C;	c #213442",
"D;	c #17425D",
"E;	c #147AAD",
"F;	c #204359",
"G;	c #295D7D",
"H;	c #235E7F",
"I;	c #25455B",
"J;	c #213341",
"K;	c #184461",
"L;	c #107CB7",
"M;	c #22445B",
"N;	c #2A3239",
"O;	c #2A5E7F",
"P;	c #225F82",
"Q;	c #18435F",
"R;	c #107CB8",
"S;	c #21445B",
"T;	c #263847",
"U;	c #2A323A",
"V;	c #2A5F7F",
"W;	c #235F83",
"X;	c #24445B",
"Y;	c #18425E",
"Z;	c #0F7DBB",
"`;	c #21445C",
" >	c #14212B",
".>	c #243F53",
"+>	c #295F7F",
"@>	c #236084",
"#>	c #202F3C",
"$>	c #233342",
"%>	c #17415D",
"&>	c #117CB9",
"*>	c #131D26",
"=>	c #243E52",
"->	c #2A5F7E",
";>	c #226084",
">>	c #25394A",
",>	c #17405B",
"'>	c #147AB1",
")>	c #204257",
"!>	c #15212C",
"~>	c #293138",
"{>	c #121D26",
"]>	c #223C4E",
"^>	c #2A5E7C",
"/>	c #234359",
"(>	c #223443",
"_>	c #173D57",
":>	c #1677AA",
"<>	c #204155",
"[>	c #2A3139",
"}>	c #121C25",
"|>	c #2A5C79",
"1>	c #255D7D",
"2>	c #214055",
"3>	c #1D2F3D",
"4>	c #17354A",
"5>	c #21607E",
"6>	c #1D394C",
"7>	c #293139",
"8>	c #121D25",
"9>	c #203646",
"0>	c #204F6A",
"a>	c #1E506B",
"b>	c #1A3345",
"c>	c #182D3B",
"d>	c #1F3E52",
"e>	c #1C2F3D",
"f>	c #16222D",
"g>	c #1F3340",
"h>	c #1E384B",
"i>	c #1F394D",
"j>	c #1A2B39",
"k>	c #1B2B37",
"l>	c #1A3F57",
"m>	c #1C6A8D",
"n>	c #1D3C4F",
"o>	c #213241",
"p>	c #293038",
"q>	c #131F28",
"r>	c #21394A",
"s>	c #23536F",
"t>	c #1F5471",
"u>	c #27455A",
"v>	c #153F59",
"w>	c #1578A7",
"x>	c #1F4055",
"y>	c #21303D",
"z>	c #283038",
"A>	c #2A5C7A",
"B>	c #225978",
"C>	c #224258",
"D>	c #263A4B",
"E>	c #16415C",
"F>	c #137AB0",
"G>	c #363739",
"H>	c #233C4E",
"I>	c #2A5E7E",
"J>	c #235A7A",
"K>	c #253849",
"L>	c #127BB1",
"M>	c #223B4D",
"N>	c #225B7C",
"O>	c #234257",
"P>	c #17425E",
"Q>	c #117CB4",
"R>	c #20445A",
"S>	c #373839",
"T>	c #273037",
"U>	c #2B5F7F",
"V>	c #235D7E",
"W>	c #107DB7",
"X>	c #272F37",
"Y>	c #223A4C",
"Z>	c #245C7E",
"`>	c #244359",
" ,	c #107DB9",
".,	c #20435A",
"+,	c #223C4D",
"@,	c #24445A",
"#,	c #17405C",
"$,	c #363738",
"%,	c #272F36",
"&,	c #111C23",
"*,	c #233C4D",
"=,	c #2B607F",
"-,	c #235C7F",
";,	c #1A2731",
">,	c #192730",
",,	c #163F5B",
"',	c #127AB7",
"),	c #204258",
"!,	c #262E35",
"~,	c #111B23",
"{,	c #235B7E",
"],	c #224157",
"^,	c #152028",
"/,	c #1B2832",
"(,	c #18232C",
"_,	c #153E59",
":,	c #1379AF",
"<,	c #1E4156",
"[,	c #121C24",
"},	c #225C7E",
"|,	c #17222B",
"1,	c #1A2630",
"2,	c #143D57",
"3,	c #1279A9",
"4,	c #1D4056",
"5,	c #242C33",
"6,	c #223A4B",
"7,	c #2B5E7B",
"8,	c #225B7D",
"9,	c #223F54",
"0,	c #162129",
"a,	c #133A51",
"b,	c #167198",
"c,	c #1C3D51",
"d,	c #232B32",
"e,	c #21384A",
"f,	c #205978",
"g,	c #213C4F",
"h,	c #142B3C",
"i,	c #184057",
"j,	c #1B2E3D",
"k,	c #193950",
"l,	c #17384E",
"m,	c #1E3241",
"n,	c #243848",
"o,	c #253C4C",
"p,	c #142430",
"q,	c #232C33",
"r,	c #172835",
"s,	c #1F3749",
"t,	c #182F3E",
"u,	c #263D4E",
"v,	c #263D4D",
"w,	c #233846",
"x,	c #111F2A",
"y,	c #0F1A23",
"z,	c #242C34",
"A,	c #1B2A37",
"B,	c #131F29",
"C,	c #15232D",
"D,	c #12202A",
"E,	c #111C25",
"F,	c #373738",
"G,	c #232B34",
"H,	c #14212A",
"I,	c #111D25",
"J,	c #232B33",
"K,	c #202F3D",
"L,	c #222B33",
"M,	c #373838",
"N,	c #16232E",
"O,	c #222A32",
"P,	c #1F2E3C",
"Q,	c #202A32",
"R,	c #21303F",
"S,	c #23333F",
"T,	c #1E2C39",
"U,	c #202931",
"V,	c #1F272E",
"W,	c #17222C",
"X,	c #202E3B",
"Y,	c #111C24",
"Z,	c #0F181F",
"`,	c #0F1820",
" '	c #0F1920",
".'	c #0F171F",
"+'	c #0E171D",
"@'	c #0D161C",
"#'	c #0F1921",
"$'	c #111E28",
"%'	c #1E262D",
"&'	c #121F28",
"*'	c #111C26",
"='	c #0E181F",
"-'	c #0D161E",
";'	c #101A21",
">'	c #131E28",
",'	c #132029",
"''	c #13222D",
")'	c #132939",
"!'	c #162530",
"~'	c #1B2229",
"{'	c #142938",
"]'	c #132431",
"^'	c #14222C",
"/'	c #263846",
"('	c #25323D",
"_'	c #253845",
":'	c #2B3E4D",
"<'	c #273746",
"['	c #24333F",
"}'	c #263542",
"|'	c #253542",
"1'	c #263643",
"2'	c #263543",
"3'	c #253440",
"4'	c #253441",
"5'	c #24313E",
"6'	c #23323E",
"7'	c #24343F",
"8'	c #25343F",
"9'	c #242F38",
"0'	c #243440",
"a'	c #273543",
"b'	c #253541",
"c'	c #243441",
"d'	c #253442",
"e'	c #25333F",
"    . + @ # . $ $ + +   $ + $ @ # % # # # & * = = - ; > , , , , , , , , , , , , , , , , , , , , , , , , , , , , , , , , , , , , , , , , , , , , , , , , , , , , , , , , , , , , , , , , , ' , , , , , , , , , , , > ) # # = = = ! = * ~ @ # # { # @ + + ] + # + + + +   ",
"^ ^ ^ / ( _ _ ^ ^ : ^ < [ } | } 1 2 1 2 3 4 5 4 6 7 8 9 , , , , , , , , , , , , , , , , , , , , , , , , , , , , , , , , , , , , , , , , , , , , , , , , , , , , , , , , , , , , , , , , , 0 , , , , , , , , , , , 9 a b c 6 7 d 5 3 3 _ | 2 b 2 ^ : : ( e ^ b } < ^ : | ",
"f g f h i j k f f l g j k j m n o p q p r s t u v v w x , , , , , , , , , , , , , , , , , , , , , , , , , , , , , , , , , , , , , , , , , , , , , , , , , , , , , , , , , , , , , , , , , 0 , , , , , , , , , , , y z A B C s A A D p E j o q o F F j j j G m j f f H I ",
"J J K L M N K N N N K K N J J J N N O K P Q R S T U V W , , , , , , , , , , , , , , , , , , , , , , , , , , , , , , , , , , , , , , , , , , , , , , , , , , , , , , , , , , , , , , , , , 0 , , , , , , , , , , , X Y Z `  ...+.@.@.@.O N O @.@.N K K K K @.#.N J N $.M ",
"%.&.*.&.%.&.=.*.-.&.;.&.%.>.,.@.#.,.'.&.&.).!.~.{.].w ^., , , , , , , , , , , , , , , , , , , , , , , , , , , , , , , , , , , , , , , , , , , , , , , , , , , , , , , , , , , , , , , , , 0 , , , , , , , , , , , /.(._.s :.<.[.}.%.%.|.,.,.}.&.=.1.2.3.-.=.3.1.;.&.;.&.",
"4.5.5.6.6.7.8.8.9.0.a.b.0.i o D v c.d.v e.f.g.B h.i.j.k., , , , , , , , , , , , , , , , , , , , , , , , , , , , , , , , , , , , , , , , , , , , , , , , , , , , , , , , , , , , , , , , , 0 , , , , , , , , , , , l.m.n.f.o.p.q.r.s.t.u.s v b.g m m j k g v.g w.x.y.x.5.",
"p z.z.g g p s s s v A.q.u.v B.h.C.D.i.E.i.F.G.H.I.J.K.L., , , , , , , , , , , , , , , , , , , , , , , , , , , , , , , , , , , , , , , , , , , , , , , , , , , , , , , , , , , , , , , , , 0 , , , , , , , , , , , M.N.O.P.C Q.R.S.T.U.D.V.n.W.X.W.d.Y.Z.v s v e.`.B B  +",
".+++@+++@+#+$+%+&+*+=+-+;+>+o C.,+'+O.++)+!+~+_.,+{+]+^+, , , , , , , , , , , , , , , , , , , , , , , , , , , , , , , , , , , , , , , , , , , , , , , , , , , , , , , , , , , , , , , , , 0 , , , , , , , , , , , /+D.'+(+_+.+@+:+<+[+}+O.v u |+1+=+2+%+3+4+5+)+@+6+7+6+",
"F.++8+++++<+9+9+9+*+0+a+b+c+d+i.J.e+i.J.f+g+h+B.i+j+k+l+, , , , , , , , , , , , , , , , , , , , , , , , , , , , , , , , , , , , , , , , , , , , , , , , , , , , , , , , , , , , , , , , , 0 , , , , , , , , , , , m+n+j+o+p+g+!+q+F.E.F.++r+m._+i.s+*+7+q+t+u+)+v+5+9+7+",
"q+w+<+.+x+5+=+&+y+y+z+A+B+C+D+I.'+'+,+i+E+F+G+H+{+I+J+K+, , , , , , , , , , , , , , , , , , , , , , , , , , , , , , , , , , , , , , , , , , , , , , , , , , , , , , , , , , , , , , , , , L+, , , , , , , , , , , M+e+F.I+N+O+F+g+P+i.Q+j+R+S+T+I.U+O+V+W+7+7+5+t+9+X+9+",
"*+F+Y+Y+q+F+&+Z+z+U+Z+A+`+6.D+P.8+j+ @.@<+U+o+H+j+t++@K+, , , , , , , , , , , , , , , , , , , , , , , , , , , , , , , , , , , , , , , , , , , , , , , , , , , , , , , , , , , , , , , , , L+, , , , , , , , , , , @@}+#@j+$@F+%@&@ @,+!+}+(.*@=@P.-@f+*+Z+*+;@*+7+&+*+X+",
"Z+z+*+*+*+*+;@>@>@,@'@)@!@~@{@]@j+I+j+j+^@F+G+/@F.<++@(@, , , , , , , , , , , , , , , , , , , , , , , , , , , , , , , , , , , , , , , , , , , , , , , , , , , , , , , , , , , , , , , , , 0 , , , , , , , , , , , _@j+<+j+:@F+U+5+F.F.&@{+<@_+[@i+Z+9+z+%@Z+}@}@|@>@*+*+",
"Z+1@Z+Z+2@z+%@>@1@3@4@5@6@o.7@C.j+f+q+I+<+y+o+V.8@<+9@0@, , , , , , , , , , , , , , , , , , , , , , , , , , , , , , , , , , , , , , , , , , , , , , , , , , , , , , , , , , , , , , , , , L+, , , , , , , , , , , a@j+w+F.b@g+f+!+I+<+X+++c@R+d@J.1@e@f@z+1@g@h@i@j@z+*+",
"*+Z+h@,@2@Z+,@1@3@1@k@l@m@n@o@p@}+f+O+f+Y+F+(+p@q@w+c r@, , , , , , , , , , , , , , , , , , , , , , , , , , , , , , , , , , , , , , , , , , , , , , , , , , , , , , , , , , , , , , , , , L+, , , , , , , , , , , s@F.w+j+t@u@a+o+a+O+F+v@G.w@;+,+,@>@y+x@y@z@A@B@C@3@z+",
"a+O+>@Z+U+>@1@2@e@3@D@E@F@n@G@c@[+^@&@w+f+f+P+H+a+f+c H@, , , , , , , , , , , , , , , , , , , , , , , , , , , , , , , , , , , , , , , , , , , , , , , , , , , , , , , , , , , , , , , , , L+, , , , , , , , , , , I@.+Y+J@C o+o+(+f+U+9+T.K@w@;+J.h@z@z+z+3@A@B@A@L@0+U+",
"f+F+Z+&+2@,@1@Z+,@M@4@N@m@O@P@Q@[+Q+q+y+f+a+i+H+!+^@[ r@, , , , , , , , , , , , , , , , , , , , , , , , , , , , , , , , , , , , , , , , , , , , , , , , , , , , , , , , , , , , , , , , , L+, , , , , , , , , , , a@t+5+{+R@S@o+T@F+F+w+{+U@C+_+'+y@y@'@3@1@3@A@*+}@>@F+",
"f+9+&+9+U+2@Z+V@z@'@3@f@W@`.X@p@P+Q+F+z+*+Y+Y@Z@I+<+b `@, , , , , , , , , , , , , , , , , , , , , , , , , , , , , , , , , , , , , , , , , , , , , , , , , , , , , , , , , , , , , , , , , L+, , , , , , , , , , ,  #<+T@.#+#u@a+f+F+Y+@#j+##d+b@[+1@L@h@A@,@,@Z+*+A@0+X+",
"8.9.h h a.m /@U+3@Z+1@E@$#%#I.S+j+a+&#V+Z+y+J@*#p@8+b =#, , , , , , , , , , , , , , , , , , , , , , , , , , , , , , , , , , , , , , , , , , , , , , , , , , , , , , , , , , , , , , , , , L+, , , , , , , , , , , -#Q+{+g ;#F+O+O+w+<+!+j+G@7@>#,#M@h@h@,@T.*@g ~.g g h ",
"'#*@v H.u B.u 7+}@,@,@)#!#~#{#P.f+O+F+F+U+y+P+]#h 8+^#=#, , , , , , , , , , , , , , , , , , , , , , , , , , , , , , , , , , , , , , , , , , , , , , , , , , , , , , , , , , , , , , , , , L+, , , , , , , , , , ,  #F.H+*#/#-@F+O+^@v@<+I+(#_#:#Z+>@>@1@3@W._.(.'#<#q.[#",
"u.].Y.{./@}#[ 5+*+Z+|#1@1#2#3#4#a+O+&@y+&@f+5#6#O@8+U.=#, , , , , , , , , , , , , , , , , , , , , , , , , , , , , , , , , , , , , , , , , , , , , , , , , , , , , , , , , , , , , , , , , 7#, , , , , , , , , , , 8#T.I.9#0#y+Y+a+^@F.^@a#b#c#d#e#A@z+U+}@f#:+m.u s.(.Y.",
"g#h#f i#s O.7@5+f@f@&#,@j#k#l#m#n#a+f+^@^@o+o#9#O@{+}#H@, , , , , , , , , , , , , , , , , , , , , , , , , , , , , , , , , , , , , , , , , , , , , , , , , , , , , , , , , , , , , , , , , p#, , , , , , , , , , , -#{+,+q#r#@#a+o+I+o+f+s#t#u#v#,@F+Y+|#}@c@w#q.i#x#X.y#",
"z#A#B#n C#{+S+t+F+f@g+-@D#E#F#G#^@t+I+j+<+j+H#6#g T.R.H@, , , , , , , , , , , , , , , , , , , , , , , , , , , , , , , , , , , , , , , , , , , , , , , , , , , , , , , , , , , , , , , , , p#, , , , , , , , , , , I#j+E.q#J#Y+u@^@I+n#Y+K#L#M#N#O#g+g+y+3@H+++f.P#X.s Q#",
"R#X.S#R#r.T#7@v+y+|#g+y+D#U#V#W#o+<+Q+Q+I+I+X#6#b.Y#Z#`#, , , , , , , , , , , , , , , , , , , , , , , , , , , , , , , , , , , , , , , , , , , , , , , , , , , , , , , , , , , , , , , , ,  $, , , , , , , , , , , .$j+E.'#m f+Y+f+u@f+f+E@+$@$#$5@$$g+-@%$c@F.u.&$[#W.]+",
"*$:+7+@+O.8+I.v+y+|#&#|#=$-$;$>$^@a+o+(+I+#@I.6#x#R.}#,$, , , , , , , , , , , , , , , , , , , , , , , , , , , , , , , , , , , , , , , , , , , , , , , , , , , , , , , , , , , , , , , , ,  $, , , , , , , , , , , '$T.O. +g E+Y+f+T@Y+O+K#)$!$~$5@&#&#y+Z+p@v+J.8+J@++Q.",
"I+I+!+a+(+(+{@)+z+z+f@l@{$]$^$/$f+O+^@o+o+8+I.6#h ,#S.,$, , , , , , , , , , , , , , , , , , , , , , , , , , , , , , , , , , , , , , , , , , , , , , , , , , , , , , , , , , , , , , , , ,  $, , , , , , , , , , , ($j+O.B g E+g+g+a+f+F+E@_$:$<$5@y+&#l@;@w@8+<+[$o+.+T@",
"<+#@Q+n#(+8+}$t+F+U+|$|#1$U#2$/$&@9+Y+T@8+8+I.J#*#E.3$,$, , , , , , , , , , , , , , , , , , , , , , , , , , , , , , , , , , , , , , , , , , , , , , , , , , , , , , , , , , , , , , , , , 4$, , , , , , , , , , , ($++O.B g E+a+a+o+a+-@5$6$7$8$,@9$&#O+W+c@o+^@a+o+T@T@",
"u@@#a+o+0$0$a$++w+q+@#y+b$c$d$e$V+*+q+f+^@[$T#z.0.E.E.f$, , , , , , , , , , , , , , , , , , , , , , , , , , , , , , , , , , , , , , , , , , , , , , , , , , , , , , , , , , , , , , , , , 4$, , , , , , , , , , , g$-+h$i$j E+^@a+a+F+f@j$k$l$m$,@x@&#&#z+c@o+Y+Y+f+f+^@",
"[$u@n$n#P+ @##++^@8@&@y+o$c$p$q$O+U+*+O+Y+^@[+`.h E.U.,$, , , , , , , , , , , , , , , , , , , , , , , , , , , , , , , , , , , , , , , , , , , , , , , , , , , , , , , , , , , , , , , , ,  $, , , , , , , , , , , r$8+T#`.G E+f+f+O+&#&#K#s$t$u$,@O#v$&#;@<@o+Y+g+Y+E+^@",
"I+n#o+n#P+P+%#{+<+8@q@F+y@w$x$y$g+F+F+9+E+I+O.z.9.J.E.,$, , , , , , , , , , , , , , , , , , , , , , , , , , , , , , , , , , , , , , , , , , , , , , , , , , , , , , , , , , , , , , , , , 4$, , , , , , , , , , , r$j+D.z.g G+[$[$Y+&#l@z$s$A$B$x@g+a+g+;@Q@C$&#&#f+o+o+",
"o+n#(+(+0$P+##E.Q+<+<+O+h@D$E$y$Y+9+X+q+T@o+O.z.*#J.J.`#, , , , , , , , , , , , , , , , , , , , , , , , , , , , , , , , , , , , , , , , , , , , , , , , , , , , , , , , , , , , , , , , , 4$, , , , , , , , , , , F$J@G$J#v.F.(+(+f+F+|#j$s$H$B$x@v$g+O+;@c@^@f@&#Y+o+G+",
"G+G+G+I$0$0$c@}+I+(+(+O+h@J$K$L$|$X+9+!+a+o+n+z.h J.J.`#, , , , , , , , , , , , , , , , , , , , , , , , , , , , , , , , , , , , , , , , , , , , , , , , , , , , , , , , , , , , , , , , ,  $, , , , , , , , , , , M$j+n.J#x#N$8+j+a+g+y+O$6$P$#$z+a+Y+&#Z+/@T@O+Q$&#v$G+",
"0$(+I+(+P+P+##j+I+ @8+q+3@R$S$T$O+7+q+T@o+N$T#z.h ,#J.,$, , , , , , , , , , , , , , , , , , , , , , , , , , , , , , , , , , , , , , , , , , , , , , , , , , , , , , , , , , , , , , , , ,  $, , , , , , , , , , , + T.D.J#a.8+8+P+^@Y+F+s#U$V$N#|#u@Y+F+}@c@T@F+V+Y+a+(+",
"N$-+I+(+I$i+<@{+F.8+E+&@g+W$X$Y$v$f+w+<+<+(+G$z.Z${+U.`$, , , , , , , , , , , , , , , , , , , , , , , , , , , , , , , , , , , , , , , , , , , , , , , , , , , , , , , , , , , , , , , , ,  $, , , , , , , , , , ,  %{+C.O@g o+P+ @<+f+.%+%@%#%$%F+O+f+y+}@H+^@q+O+O+T@G+",
"-+I+S@P+%%i+%#,+I+(+T@g+b+&%*%=%G+T@w+<+-+P+I.z.9.J.U.`$, , , , , , , , , , , , , , , , , , , , , , , , , , , , , , , , , , , , , , , , , , , , , , , , , , , , , , , , , , , , , , , , , 4$, , , , , , , , , , , -%J.C.`.v.-+8+8+o+o+-+5#;%>%,%J@O+E+O+&+c+T@f+f+Y+a+N$",
"I+a+o+P+ @i+>#,+I+8+o+y+'%)%!%~%j+F..+F.I+8+o@g 8.J.h$`$, , , , , , , , , , , , , , , , , , , , , , , , , , , , , , , , , , , , , , , , , , , , , , , , , , , , , , , , , , , , , , , , , 4$, , , , , , , , , , , {%]%V.z.h -+-+I+.+F.P+^%/%(%_%g+Y+o+g+*+c@T@f+I+a+G+-+",
"G+E+G+P+.@i+%#'+N$P+I+:%x@<%[%}%<+)+I+8+8+8+/@g 9.,+n+|%, , , , , , , , , , , , , , , , , , , , , , , , , , , , , , , , , , , , , , , , , , , , , , , , , , , , , , , , , , , , , , , , , p#, , , , , , , , , , , 1%J.m.J#i !+a+T@T@o+2%3%4%5%6%V+f+o+f+&+d+o+a+J@I$[$I+",
"a+u@o+8+P+0$K@,+8+8+F.f+3@7%8%9%u@f+<+T.j+}+p@g 8.E.i.|%, , , , , , , , , , , , , , , , , , , , , , , , , , , , , , , , , , , , , , , , , , , , , , , , , , , , , , , , , , , , , , , , , p#, , , , , , , , , , , 0%{+m.J#i )+T@8+o+T@N$a%L#b%c%O+Y+T@!+*+%#I+o+0$0$8+G+",
"-+[$v$o+8+i+%#,+j+8+F.!+y@d%e%f%n$5+t+++8+'+c@~.w.E.g%|%, , , , , , , , , , , , , , , , , , , , , , , , , , , , , , , , , , , , , , , , , , , , , , , , , , , , , , , , , , , , , , , , , p#, , , , , , , , , , , h%,+m.g h .+8+J@F.v+o+i%j%k%B$$$O+f+f+Q$l%8+N$P+0$(+I+",
"J@P+8+P+ @[+>#J.8+P+(+E+z+m%n%m#o+a+I+I+j+{+c@o%y.h$n+|%, , , , , , , , , , , , , , , , , , , , , , , , , , , , , , , , , , , , , , , , , , , , , , , , , , , , , , , , , , , , , , , , , p#, , , , , , , , , , , p%O.V.g h F.J@0$8+-+o+!#q%r%s%$$@#<+!+t%Z@P+F.N$8+(+8+",
".@0$0$2%[+o###I.i+{+8+o+|#u%v%w%8+I+j+J@j+J@S+~.y.,+D.x%, , , , , , , , , , , , , , , , , , , , , , , , , , , , , , , , , , , , , , , , , , , , , , , , , , , , , , , , , , , , , , , , , p#, , , , , , , , , , , y%O.V.g h F.{+i+j+I+I+z%q%A$s%N@V+-+a+9+<@0$j+P+I$F. @",
"I.o#A%.@8+2%##P@H#J@J@8+l@B%C%D%J@8+j+j+P+8+V.g E%h$7@x%, , , , , , , , , , , , , , , , , , , , , , , , , , , , , , , , , , , , , , , , , , , , , , , , , , , , , , , , , , , , , , , , , p#, , , , , , , , , , , F%J.h.g G%v+P+i+J@8+I+H%I%J%K%$$Y+o+I+q+<@J@8+P+J@L%{+",
"M%p.P.{+N$o#$@o@i+P+J@8+*+k#N%O%0$P+8+8+8+8+G@g w.n+h.x%, , , , , , , , , , , , , , , , , , , , , , , , , , , , , , , , , , , , , , , , , , , , , , , , , , , , , , , , , , , , , , , , , 4$, , , , , , , , , , , p%J.h.J#*#o+8+[+i+J@8+P%Q%R%L$g+T@[$!+:%D+]%I+j+X#J@i+",
"I.P.P.j+8+S%T%I.}+8+.@F.7+U%V%W%J.T.{+J@P+P+}$~.w.n+n.x%, , , , , , , , , , , , , , , , , , , , , , , , , , , , , , , , , , , , , , , , , , , , , , , , , , , , , , , , , , , , , , , , , p#, , , , , , , , , , , X%,+C.g G%-+P+[+'+j+L%h+Y%Z%`%f+I+I+!+@#(.J.F.j+H#i+{+",
"[+p. &J@i+C+P@T.++j+j+w#w#.&+&S+i+{+P+J@8+{+S+l 8.h$[ x%, , , , , , , , , , , , , , , , , , , , , , , , , , , , , , , , , , , , , , , , , , , , , , , , , , , , , , , , , , , , , , , , , p#, , , , , , , , , , , @&J.o@~.G%o+-+P+}+8+F.O.#&$&J.f+E+P+8+.+R.%&E.J@P.S%i+",
"]%U@c@[+<@Z@E.Q.++T.J@R.W.8.J#&&]%j+8+(+N$j+C.l *&,#[ x%, , , , , , , , , , , , , , , , , , , , , , , , , , , , , , , , , , , , , , , , , , , , , , , , , , , , , , , , , , , , , , , , , 7#, , , , , , , , , , , =&,#/@g h o+N$(+F.<+<+J.e.b.e.w#<+ @(+<+)+i.l%O.G@%&I.",
"I.-&P@Z@f#G$8+F..+w#X#%&6.a.s Y#N$j+(+-+-+8+;&g G%J.D.p#, , , , , , , , , , , , , , , , , , , , , , , , , , , , , , , , , , , , , , , , , , , , , , , , , , , , , , , , , , , , , , , , , 7#, , , , , , , , , , , >&J.p@g Z$F.N$F.o+a+!+t+B.P#6.s 8+8+N$F.v+.+o@C#I.Z.c+",
"q./@a$w@T#i+J@.+w#J.Z@,&o%'&T#{+J@8+J@8+j+J@c@g 9.I.n.L+, , , , , , , , , , , , , , , , , , , , , , , , , , , , , , , , , , , , , , , , , , , , , , , , , , , , , , , , , , , , , , , , , 7#, , , , , , , , , , , )&'+H+b.Z$8+P+o+^@o+I+!+.+].P#!&~&{+T.8+++.+J@m.].o@{&",
"M%S+]&{+J@i+J@F.8+^&5.h s /&[+I.[+j+o#0${+O.c@g (&I._&7#, , , , , , , , , , , , , , , , , , , , , , , , , , , , , , , , , , , , , , , , , , , , , , , , , , , , , , , , , , , , , , , , , L+, , , , , , , , , , , :&E.d+o%Z$Y#0$(+(+I+o+8+T.Y#d.g 6.q.E..+w#-+8+,+c+_.o@",
"U@<&P.8+J@{+J@F.^%[&}&[#h$X#[+i+i+T.J.]%X#V.g a.x#U.m.7#, , , , , , , , , , , , , , , , , , , , , , , , , , , , , , , , , , , , , , , , , , , , , , , , , , , , , , , , , , , , , , , , , L+, , , , , , , , , , , |&E.f#b.*#_.G$I$P+P+-+j+J@J.8+c.z.1&2&I+8+F.3&}+,+w@d.",
"s.{@T#J@[+++#@4&5&6&7&E.R.I.X#P+P+8+8+T.7@x#*#m 8&9&m.7#, , , , , , , , , , , , , , , , , , , , , , , , , , , , , , , , , , , , , , , , , , , , , , , , , , , , , , , , , , , , , , , , , p#, , , , , , , , , , , 0&h$++[#0.Z %&3&(+(+[$I+8+T#Y#.+a&b&c&d&^@.+,+J@T.i+D+",
"G$[+X#O.[+8+e&f&g&h&i&T.,#,+0$J@I$j+j+n+g y.O@m.J.O.m.7#, , , , , , , , , , , , , , , , , , , , , , , , , , , , , , , , , , , , , , , , , , , , , , , , , , , , , , , , , , , , , , , , , p#, , , , , , , , , , , j&h$8+{+'#*#,&H+8+ @(+T@-+J@,#k&E@l&m&n&o&I+J.3&i+0$]%",
".#I.P.X#{+p&q&r&s&t&n$++8+{+[+3&{+J@h$G u&g /@T.T.O.m.7#, , , , , , , , , , , , , , , , , , , , , , , , , , , , , , , , , , , , , , , , , , , , , , , , , , , , , , , , , , , , , , , , , x%, , , , , , , , , , , v&[+T.P+L%*@E%7.P@{+8+N$P+-+j+8+f+w&x&y&z&A&'+J.[+I.]%",
"P.I.I.A%B&C&H$D&E&A+F.j+I$P+{+0$i+X#O@F&G&Z@,#J@J@X#m.7#, , , , , , , , , , , , , , , , , , , , , , , , , , , , , , , , , , , , , , , , , , , , , , , , , , , , , , , , , , , , , , , , , p#, , , , , , , , , , , H&'+j+i+j+J.'#E%y.c@J@8+J@I$N$N$F.f+v#I&J&K&]@[+T#I.[+",
"{@X#X#~+L&M&N&O&a#v+w#8+P+P+o#o#O.B F&a.Z@{+i+[+{+O.m.7#, , , , , , , , , , , , , , , , , , , , , , , , , , , , , , , , , , , , , , , , , , , , , , , , , , , , , , , , , , , , , , , , , p#, , , , , , , , , , , P&{+8+J@P+J@h$B y.8.D.J.0$2%-+o+-+F.u@Q&R&S&T&U&i+O.O.",
"P.X#^%V&W&X&Y&a#J@j+j+P+P+{+,+,+[#6.~@_.]%,+3&{+0$O.m.7#, , , , , , , , , , , , , , , , , , , , , , , , , , , , , , , , , , , , , , , , , , , , , , , , , , , , , , , , , , , , , , , , , p#, , , , , , , , , , , Z&j+F.8+P+{+T.n+e.x.h `&,+,+J@^@o+8+ @o+ *.*+*@*#*{+J.",
"P.^%$*%*&*O&P%P+0$j+I$J@8+{+J.Z.,&b.d.{+ @,+]%P+J@[+/@7#, , , , , , , , , , , , , , , , , , , , , , , , , , , , , , , , , , , , , , , , , , , , , , , , , , , , , , , , , , , , , , , , , 4$, , , , , , , , , , , P&T.w#N$(+J@{+Y#o@J#7.x#**,+X#J@N$P+0$P+o+=*-*;*>*,*i+",
"'*)*!*S$~*{*J@X#0$ @P+J@8+9&C#5.]*^*T.O.i+{+0$J@J@i+^&' , , , , , , , , , , , , , , , , , , , , , , , , , , , , , , , , , , , , , , , , , , , , , , , , , , , , , , , , , , , , , , , , , p#, , , , , , , , , , , /*j+F.8+o+j+i+i+L%h.g 6.g T#3&o#P+P+{+i+.@(*_*:*<*[*}*",
"|*1*2*3*4*.@,+T#0$ @i+J@P+_.5*h q.Y#,+H#i+J@P+j+j+i+Z@' , , , , , , , , , , , , , , , , , , , , , , , , , , , , , , , , , , , , , , , , , , , , , , , , , , , , , , , , , , , , , , , , , p#, , , , , , , , , , , 6*J.L%8+I+P+J@o#O.w#P@a.7*m T#o#o#{+j+0${+i+8*9*0*a*b*",
"c*d*e*f*P+i+X#H#.@J@{+,+H+,&G%v J.i+H#P.X#,+j+8+J@I.t., , , , , , , , , , , , , , , , , , , , , , , , , , , , , , , , , , , , , , , , , , , , , , , , , , , , , , , , , , , , , , , , , , p#, , , , , , , , , , , g*I.8+N$j+ @{+i+H#{+w#h*0.i*D T#.@(+{+J@J@X#J@(*9*j*k*",
"n%l*m*I$,+X#T#o#3&i+o#c+E%8.n*o*]%X#M%p.[+3&T.]%9&V.o ' , , , , , , , , , , , , , , , , , , , , , , , , , , , , , , , , , , , , , , , , , , , , , , , , , , , , , , , , , , , , , , , , , p#, , , , , , , , , , , p*d+J.8+P+P+{+i+i+{+h$Y#_.G%q*v [+N$j+0$P+{+[+[+H%r*&*",
"s*t*5#[+A%I.o#0$0$X#P@G%y.r.++J.X#[+p.H#J@]%]%T#**u*v.v*, , , , , , , , , , , , , , , , , , , , , , , , , , , , , , , , , , , , , , , , , , , , , , , , , , , , , , , , , , , , , , , , , p#, , , , , , , , , , , w*m `&,+J@L%0$X#[+i+T#,+8+s.9.!&t.j+I$i+J@{+i+I.X#H%x*",
"y*O.I.G$S%H#i+ @0$P.C+i m z*O.I.T#X#H#P.0$9&X#,+u.J#A*B*C*, , , , , , , , , , , , , , , , , , , , , , , , , , , , , , , , , , , , , , , , , , , , , , , , , , , , , , , , , , , , , , , , p#, , , , , , , , , , , , D*r.T#J.T.i+X#X#i+X#7@T#R.z.0.s O.Y@[+J@0$X#p.**T#E*",
"F*D.p.G*M%p.X#X#o#I.w@O@b.+@o@p.H#X#o# &J.h$X#j+[@H*I*J*g K*, , , , , , , , , , , , , , , , , , , , , , , , , , , , , , , , , , , , , , , , , , , , , , , , , , , , , , , , , , , , , , , p#, , , , , , , , , , , , ' L*8+P+0$3&X#o#T#T#M%{@8+a.o%m ,+{+[+X#A%P.M%o@7@H+",
"F*i.I.P.p.P.X#X#i+[+%&O@h /@**I.7@S%X#M*T#,+T#P+N*O*P*Q*R*S*, , , , , , , , , , , , , , , , , , , , , , , , , , , , , , , , , , , , , , , , , , , , , , , , , , , , , , , , , , , , , , , x%, , , , , , , , , , , , , T*g+L%]%,+H#X#H#H#p.G@J.U*b.P#E.,+,+P.X#T#p.o@D.B.",
"_.i+i+X#I.P.A%H#X#{+].z.0.&&V*`&p.M%H#T#O.**H#2%W*X*Y*Z*`* =, , , , , , , , , , , , , , , , , , , , , , , , , , , , , , , , , , , , , , , , , , , , , , , , , , , , , , , , , , , , , , , x%, , , , , , , , , , , , , .=+=0$P.O.T#T#T#M%]@{@O.U*J#n U.T#T#I.T#X#p.M%@=Q@",
"#=$=%=&=S%o#i+H#p.,+d.J#0.H+7@H#H#M%p.p.7@u.Q@h+L&*===-=;= =, , , , , , , , , , , , , , , , , , , , , , , , , , , , , , , , , , , , , , , , , , , , , , , , , , , , , , , , , , , , , , , L+, , , , , , , , , , , , , >=,=H#h T#H#P.S%G@G.]@T#*#'=n **X#X#i+,+X#S%)=!=~=",
"{=]=^=/=S%P.[+H#G*O.(.'=0.H+{@P.p.M%I.T#o@q#C+G+L&(=_=:=<= =, , , , , , , , , , , , , , , , , , , , , , , , , , , , , , , , , , , , , , , , , , , , , , , , , , , , , , , , , , , , , , , L+, , , , , , , , , , , , , >=4&X#]#i+T#M%[=]@S+{@T#8.g g `&G$i+i+X#H#B&}=|=1=",
"2=3=4=5=p.p.[+T#p.h$d.z.h f#{@I.I.T#X#[+**u.Z@6=7=8=9=0=a= =, , , , , , , , , , , , , , , , , , , , , , , , , , , , , , , , , , , , , , , , , , , , , , , , , , , , , , , , , , , , , , , p#, , , , , , , , , , , , , >=b=,+~@]%O.p.M%[=M%p.h$E%g n I.h$X#i+,+I.c=d=e=f=",
"2=g=h=@={@ &i+[+H#J._.e.0.f#{@I.I.O.O.,+i.s.<@0$`+i=j=k=;= =, , , , , , , , , , , , , , , , , , , , , , , , , , , , , , , , , , , , , , , , , , , , , , , , , , , , , , , , , , , , , , , p#, , , , , , , , , , , , , l=m=c='=]%T#T#H#~+S%p.,+8.g e.E.,+[+O.{+I.H#n=o=f=",
"p=q=r=~+M%I.i+I.X#,+_.J#8.f#{@I.T#h$,+T#i.Y#X#I$s=t=u=v=w= =, , , , , , , , , , , , , , , , , , , , , , , , , , , , , , , , , , , , , , , , , , , , , , , , , , , , , , , , , , , , , , , p#, , , , , , , , , , , , , l=,*M*I.3&7@T#X#p.M%M%h$8.g P#E.,+I.[+,+X#S%x=y=z=",
"].A=A%p.p.p.[+O..@{+f#m 8.&${@P.T#T#,+T#T#]%3&G+B=C=D=E=F=G=, , , , , , , , , , , , , , , , , , , , , , , , , , , , , , , , , , , , , , , , , , , , , , , , , , , , , , , , , , , , , , , p#, , , , , , , , , , , , , H=I=o#X#X#D.I.O.G${@{@J.*#g o E.X#X#,+o#H#p.p.J=c@",
"d.7@G$p.p.G@T#O.J.,+f#J#h K=7@P.T#O.J.,+O.X#O.J.[@L=M=N=`+K*, , , , , , , , , , , , , , , , , , , , , , , , , , , , , , , , , , , , , , , , , , , , , , , , , , , , , , , , , , , , , , , p#, , , , , , , , , , , , , O={@X#S%X#n+I.,+I.C.7@S.h k o E.{+,+T.[+H#G.{@i.H+",
"_.n.I.]@]@M%H#3&O.I.Z@J#0.B.V.I.G$T#,+I.O.T#J.X#M%f.P=Q= =, , , , , , , , , , , , , , , , , , , , , , , , , , , , , , , , , , , , , , , , , , , , , , , , , , , , , , , , , , , , , , , , x%, , , , , , , , , , , , R=^&h$,+T#,+I.I.J.O.`&I.**h m S=E.{+E.{+,+I.G@7@i.^&",
">#O.I.7@G@p.H#P.I.I.V.`.o%P#S+I.T#H#P.7@T#E.O.P.`&**<&T=, , , , , , , , , , , , , , , , , , , , , , , , , , , , , , , , , , , , , , , , , , , , , , , , , , , , , , , , , , , , , , , , , p#, , , , , , , , , , , U=&&V=G$T#J.O.{@7@,+T#7@`&t *#z.d.E.J.O.i+I.I.7@i.U.}$",
"W=X=S%G@G@P.{@M%M%P.w#Y=B Z=m V.I.G$G$p.I.n+,+T#O.I.f.K+, , , , , , , , , , , , , , , , , , , , , , , , , , , , , , , , , , , , , , , , , , , , , , , , , , , , , , , , , , , , , , , , , x%, , , , , , , , , , , `=c ** -J.,+O.7@7@T#O.C.s.,&~.s.++E.,+H#T#G$D.D.[+,=.-",
"+-@-#-S%G$p.{@p.p.p.T#F.f.g Z r 7@T#G$I.T#,+,+,+T#V.W.$-, , , , , , , , , , , , , , , , , , , , , , , , , , , , , , , , , , , , , , , , , , , , , , , , , , , , , , , , , , , , , , , , , p#, , , , , , , , , , , %-P@G$O.,+X#O.7@`&**n+%&,&&--&R.h$T#[+I.G$p.*-I.b==---",
";->-,-'-~+M%S%S%P.M%M%I.8+<&x#Z u.7@I.T#n+J.O.T#O.7@s.U=, , , , , , , , , , , , , , , , , , , , , , , , , , , , , , , , , , , , , , , , , , , , , , , , , , , , , , , , , , , , , , , , , x%, , , , , , , , , , , )-V.h$,+3&X#[+D.I.i.Z@7.E%O@U.E.O.I.O.O.O.I.P.!-~-{-]-",
"^-/-(-_-:-p.p.H#S%H#p.7@G$]%<-[-F&W.G$**n+E.T#T#I.7@_.}-, , , , , , , , , , , , , , , , , , , , , , , , , , , , , , , , , , , , , , , , , , , , , , , , , , , , , , , , , , , , , , , , , L+, , , , , , , , , , , |-C.I.I.,+,+,+**I.B.w.8.m n.G$G$X#I.O.I.i.G$1-2-3-4-5-",
"6-7-8-9-0-a-Y@i+X#X#H#I.7@`&R.[#8.Z W.m.I.O.I.O.T#P@].b-, , , , , , , , , , , , , , , , , , , , , , , , , , , , , , , , , , , , , , , , , , , , , , , , , , , , , , , , , , , , , , , , , 0 , , , , , , , , , , , c-n.I.I.I.i.i.**Z@y.7.J#+@V.M%T#,+O.I.{@O.2%(%d-e-f-g-",
"{@n$h-i-j-k-l-o#X#X#X#I.I.o@I.h$i$E%Y t V.D.i.T#I.c@].m-, , , , , , , , , , , , , , , , , , , , , , , , , , , , , , , , , , , , , , , , , , , , , , , , , , , , , , , , , , , , , , , , , L+, , , , , , , , , , , n-o@**D.I.T#7@c@G%7.G m.**p@G@I.E.T#T#G$T#o-p-q-r-s-I.",
"7@G$t-u-v-w-x-A%[+I.p.G$p.7@C.n.y-O@,&Y d.o@`&7@7@c@_.m-, , , , , , , , , , , , , , , , , , , , , , , , , , , , , , , , , , , , , , , , , , , , , , , , , , , , , , , , , , , , , , , , , L+, , , , , , , , , , , n-_&G$I.O.T#c@h x.g ^&D.G$S+C.I.X#p.X#X#z-A-B-C-D-X#{@",
"G$7@I.E-F-G-H-I-^%I.7@G$G$I.7@C.****J-7.F&].C.7@`&p@w@m-, , , , , , , , , , , , , , , , , , , , , , , , , , , , , , , , , , , , , , , , , , , , , , , , , , , , , , , , , , , , , , , , , L+, , , , , , , , , , , n-o@7@I.I.V.a.Z=b.l%D.n.{@V.7@G$T#,+.@K-L-M-N-O-i+S+S+",
"`&p.G@`&[$P-Q-R-S-~+`&V.`&I.7@`&D.n.n.B ,&T-f#o@`&/@l%U-, , , , , , , , , , , , , , , , , , , , , , , , , , , , , , , , , , , , , , , , , , , , , , , , , , , , , , , , , , , , , , , , , L+, , , , , , , , , , , V-h.7@7@V.g u&G&f#i.**7@7@7@C.I.,+o#W-X-Y-Z-$$X#S+c@c@",
"c+G@S+p@C.`- ;.;+;@;o#7@****I.I.D._&1++@G #;7.l%7@c@%&m-, , , , , , , , , , , , , , , , , , , , , , , , , , , , , , , , , , , , , , , , , , , , , , , , , , , , , , , , , , , , , , , , , L+, , , , , , , , , , , $;m.V.V.O@6.b._.n+7@`&C.D.7@**T#3&%;&;*;=;-;T#c+c@S+c@",
"W.Q@c@}$p@B&K%!*;;>;:-p.**n.7@7@o@V.o@i.H+g Z y.B.H+].m-, , , , , , , , , , , , , , , , , , , , , , , , , , , , , , , , , , , , , , , , , , , , , , , , , , , , , , , , , , , , , , , , , L+, , , , , , , , , , , $;^&m.e.7*a._.E.o@S+V.7@I.T#I.X#1-D$,;';);0$c@U@c@H+].",
"O@(.p@C.m.P@0$!;~;{;];%#h.D.7@D.7@P@m.m.i.B.b.q*9.B.].m-, , , , , , , , , , , , , , , , , , , , , , , , , , , , , , , , , , , , , , , , , , , , , , , , , , , , , , , , , , , , , , , , , L+, , , , , , , , , , , ^;h.q.T &-/;R.V.p@S+o@o@D.G$7@h.(;_;';:;N$V.c@c@p@_.z.",
"w@m t.p@h.h.{@2%<;[;};*#l%C.{@o@n.o@C.c@/@I.d.Z$Z f.%&m-, , , , , , , , , , , , , , , , , , , , , , , , , , , , , , , , , , , , , , , , , , , , , , , , , , , , , , , , , , , , , , , , , L+, , , , , , , , , , , ^;m.s 4.g R.h.p@P@D.I.G$o@o@V.e.|;1;2;G+o@V.S+H+B.e._.",
"w@%&m d.S+V.S+o@O.**B 4.Z$B./@o@o@o@m.^&^&/@u.8.6.%&d.m-, , , , , , , , , , , , , , , , , , , , , , , , , , , , , , , , , , , , , , , , , , , , , , , , , , , , , , , , , , , , , , , , , L+, , , , , , , , , , , 3;p@ +8.y./@V.P@G@G$T#7@8&P@*@E%z.G@j+T#7@V.H+].B <&B.",
"W.Z@l%O@(.H+p@c@C.}#m.O@y.x#B.V.o@C.S+p@c@^&s E%6.]._.m-, , , , , , , , , , , , , , , , , , , , , , , , , , , , , , , , , , , , , , , , , , , , , , , , , , , , , , , , , , , , , , , , , L+, , , , , , , , , , , 4;/@B 4.Z H+c@c@S+7@I.C.h.s E%g C#{+D.G$7@p@].e.]&f.v ",
"n+n*w@_+g (.H+/@p@C.h$/@g 6.f p@7@`&S+c@P@/@*@E%Z 5;i#6;, , , , , , , , , , , , , , , , , , , , , , , , , , , , , , , , , , , , , , , , , , , , , , , , , , , , , , , , , , , , , , , , , L+, , , , , , , , , , , 7;8;e.4.Z H+S+H+<@V.9;o@s.,&G&_.++I.{@G.}$H+B W.H+B ^&",
"{@o@c@c@s.e.Z@m.f.H+n.S.c+~@6.Z.P@h.S+/@P@V.t 0;T _.d.6;, , , , , , , , , , , , , , , , , , , , , , , , , , , , , , , , , , , , , , , , , , , , , , , , , , , , , , , , , , , , , , , , , L+, , , , , , , , , , , 7;p@O@4.Z c@c@%#%#c@C.H+w.h <#J.i.o@S+/@c@W.u.c@m.Z@^&",
"c@c@%#c@C+<-B /@S+c@V.n.E.G&a;v m.P@a$H+p@p@b;4.U ].<&c;, , , , , , , , , , , , , , , , , , , , , , , , , , , , , , , , , , , , , , , , , , , , , , , , , , , , , , , , , , , , , , , , , L+, , , , , , , , , , , 7;H+g 5.T c+<@<@B.B.V.B.d;o.G$O.I.G@S+V.W.u.C+c@S+C+H+",
"c@c@d+c@f.e;f;l%^&p@^&C.*-g;h;i;/@/@H+B.p@c@[#4.Y _.d.c;, , , , , , , , , , , , , , , , , , , , , , , , , , , , , , , , , , , , , , , , , , , , , , , , , , , , , , , , , , , , , , , , , L+, , , , , , , , , , , 7;H+g x.U B.c+<@c@S+o@G.j;k;l;7@ -{@V.S+m R+%#c@S+d+d+",
"H+c@%#%#D+w@m;<-d+c@c+C.i+n;o;p;q;/@/@c@S+c@C E%U ].(.6;, , , , , , , , , , , , , , , , , , , , , , , , , , , , , , , , , , , , , , , , , , , , , , , , , , , , , , , , , , , , , , , , , 0 , , , , , , , , , , , r;s;g Z=t;Z@c@<@c@G@7@u;v;w;x;I.y;U@S+c@`.]&C+S+P@Z@z;",
"A;c@<@C+B;C;-&u d+f.Z@/@[+D;E;F;c@m.h.m./@/@v E%t;_.c.c;, , , , , , , , , , , , , , , , , , , , , , , , , , , , , , , , , , , , , , , , , , , , , , , , , , , , , , , , , , , , , , , , , 0 , , , , , , , , , , , r;H+m x.U Z@c@H+K@c@V.#*G;H;I;P.G@a$<@<@q#%&d+S+P@C+J;",
"%#c@<@C+C+w@[#(.c+Z@w@S+'+K;L;M;<@q;h.m.C.m.[#E%T _.Z.c;, , , , , , , , , , , , , , , , , , , , , , , , , , , , , , , , , , , , , , , , , , , , , , , , , , , , , , , , , , , , , , , , , 0 , , , , , , , , , , , N;B.g 0;U Z@c@f.<@H+p@#*O;P;I;p.c@<@H+c@B Z@c@G@S+d+w@",
"%#<@<@%#C+w@*@W.Z@d+%#/@[+Q;R;S;Q@^&h.T;V.h.B y.T i#Y.c;, , , , , , , , , , , , , , , , , , , , , , , , , , , , , , , , , , , , , , , , , , , , , , , , , , , , , , , , , , , , , , , , , 0 , , , , , , , , , , , U;B.g 4.U Z@f.d+Z@Z@c@#*V;W;X;M%c@<@%#c+J#%#H+c@p@Z@w@",
"##c@c@a$C+w@'#t w@f.c+Z@*-Y;Z;`;Q@^&m.V.G@V. +4.Y Y.W.c;, , , , , , , , , , , , , , , , , , , , , , , , , , , , , , , , , , , , , , , , , , , , , , , , , , , , , , , , , , , , , , , , , 0 , , , , , , , , , , , U;c@g  >t;l%d+w@Z@d+##.>+>@>X;G*c@<@%#H+m B.f.<@H+w@Z@",
"<@U@c@<@d+J;*@#>$>%#f.%#P.%>&>M;##H+c@C.G@c@*@4.*>c.q.c;, , , , , , , , , , , , , , , , , , , , , , , , , , , , , , , , , , , , , , , , , , , , , , , , , , , , , , , , , , , , , , , , , 0 , , , , , , , , , , , N;H+g u&U w@d+f.%#d+##=>->;>X;>>c@C+>#H+m %#H+Z@w@%&$>",
"H+c+Q@C+w@%&'#Y.B.%#C+H+7@,>'>)>C+c+/@V.S+H+*@!>*>(.W.c;, , , , , , , , , , , , , , , , , , , , , , , , , , , , , , , , , , , , , , , , , , , , , , , , , , , , , , , , , , , , , , , , , L+, , , , , , , , , , , ~>H+m 5.{>l%%#<@c@c@##]>^>W;/>S+%#(><@p@k %#q;%#w@_.].",
"Z@<@%#w@w@].[#c.H+Z@w@p@7@_>:><>(>f.^&P@c@H+<#!>*>i#W.c;, , , , , , , , , , , , , , , , , , , , , , , , , , , , , , , , , , , , , , , , , , , , , , , , , , , , , , , , , , , , , , , , , 0 , , , , , , , , , , , [>s;O@5.}>l%a$H+c@H+>#~=|>1>2>c@H+C+H+H+g l%q;B.].].w@",
"Z@%#Z@d+w@w@ +(.q;B.H+S+3>4>5>6>%&Z@H+^&p@H+<#4.*>i##>c;, , , , , , , , , , , , , , , , , , , , , , , , , , , , , , , , , , , , , , , , , , , , , , , , , , , , , , , , , , , , , , , , , 0 , , , , , , , , , , , 7>B.O@6.8>Z@c@f.A;%#Z@9>0>a>b>C+H+w@d+%#g _.H+B._.].w@",
"f.H+C+d+C+]&q##>B.q;H+H+=@c>d>e>].Z@l%%#<@c+u f>}>d.X.c;, , , , , , , , , , , , , , , , , , , , , , , , , , , , , , , , , , , , , , , , , , , , , , , , , , , , , , , , , , , , , , , , , 0 , , , , , , , , , , , ~>B.O@Z }>H+c@%#H+d+w@g>h>i>j>].B.w@].Z@g _.H+Z@_.].d+",
"C+f.w@w@].R+k>~&l%H+c@G@H%l>m>n>o>Z@l%Z@C+Z@[#4.*>t.W.c;, , , , , , , , , , , , , , , , , , , , , , , , , , , , , , , , , , , , , , , , , , , , , , , , , , , , , , , , , , , , , , , , , 0 , , , , , , , , , , , p>d+m q>8>B.c@c+%#Z@c+r>s>t>u>B&f.%&d+Z@g ].c+Z@].d.w@",
"w@C+J;]&J;R+`.v Z@l%w@f.~+v>w>x>].Z@s;f.f._.B 5.*>_.y>c;, , , , , , , , , , , , , , , , , , , , , , , , , , , , , , , , , , , , , , , , , , , , , , , , , , , , , , , , , , , , , , , , , 0 , , , , , , , , , , , z>F*j 7*8>B.S+c@H+c@c@~%A>B>C>G.w@J;]&l%g l%f.%&R+<&_.",
"w@d+R+R+w@R+`.v Z@w@%&Z@D>E>F>)>w@$>$>l%B.%&O@Z=8>d.W.G>, , , , , , , , , , , , , , , , , , , , , , , , , , , , , , , , , , , , , , , , , , , , , , , , , , , , , , , , , , , , , , , , , 0 , , , , , , , , , , , z>F*g 6.{>B.S+<@H+c+c@H>I>J>I-c@].w@]&Z@g d.].e;w@_+(.",
"(.]&d.J;w@R+O@q.].%&%&Z@K>E>L>F;C+K=s;l%l%_.6#u&}>#>X.G>, , , , , , , , , , , , , , , , , , , , , , , , , , , , , , , , , , , , , , , , , , , , , , , , , , , , , , , , , , , , , , , , , 0 , , , , , , , , , , , z>l%o%6.{>f#<@C+Z@d+<@M>->N>O>Q@].d+%&R+o%s.R+]&d._+d.",
"{.<&_+J;R+<&6#Z.d.].d+d+D>P>Q>R>c@/@H+B.l%d.J#5.}>y>X.G>, , , , , , , , , , , , , , , , , , , , , , , , , , , , , , , , , , , , , , , , , , , , , , , , , , , , , , , , , , , , , , , , , S>, , , , , , , , , , , T>].~@Z }>].l%%&w@].w@z-U>V>/>c@C+f.%#].~@<-(.d.s.d.d.",
"|+(.]&R+_+<&z.#>r+].d+d+S%%>W>R>c@^&s;B.%#].m Z=}>c.c.G>, , , , , , , , , , , , , , , , , , , , , , , , , , , , , , , , , , , , , , , , , , , , , , , , , , , , , , , , , , , , , , , , , S>, , , , , , , , , , , X>].0.T }>_.l%w@R+_+w@Y>U>Z>`>y*%#<@d+l%a.(.(.]&s.].(.",
"t s.d.]&_+d.e.Z._.].].d+S%%> ,.,Q@q;K=l%Z@].e.T-*>d.B#G>, , , , , , , , , , , , , , , , , , , , , , , , , , , , , , , , , , , , , , , , , , , , , , , , , , , , , , , , , , , , , , , , , S>, , , , , , , , , , , X>f#i Z }>_.%&]&_.].e;+,U>Z>@,y*f.Z@%#%#o%d.(._.W.d.(.",
"z.~.B `.z.u B t _.w@].%#S%#,&>F;C+H+H+K=F*_. +!&}>^*#>$,, , , , , , , , , , , , , , , , , , , , , , , , , , , , , , , , , , , , , , , , , , , , , , , , , , , , , , , , , , , , , , , , , S>, , , , , , , , , , , %,].h U &,_.R+d.%&].C+*,=,-,/>K@Z@B.H+%#b.s.g *@D g e.",
"8.;,y.>,4.W.`.u.d.J;_.B.p.,,',),w@s;H+Z@l%].B Z=}>c.X.$,, , , , , , , , , , , , , , , , , , , , , , , , , , , , , , , , , , , , , , , , , , , , , , , , , , , , , , , , , , , , , , , , , S>, , , , , , , , , , , !,F*i Y ~,_.J;d.].%&%&+,->{,],##Z@d+l%Z@b.W.v.9.^,/,(,",
"(&T->,F&(&q#J#u._.R+d.w@y;_,:,<,w@s;B.l%w@%&e.Z=}>W.Z.$,, , , , , , , , , , , , , , , , , , , , , , , , , , , , , , , , , , , , , , , , , , , , , , , , , , , , , , , , , , , , , , , , , S>, , , , , , , , , , , D*_.0.U [,].%&%&Z@Z@d+~=->},],<@l%].].l%b.v 8.|,1,q*/,",
"7.>,i*Z$y.[#J#q.Z@%&]&Z@}$2,3,4,w@B.H+].].<&i$u&}>y>y#$,, , , , , , , , , , , , , , , , , , , , , , , , , , , , , , , , , , , , , , , , , , , , , , , , , , , , , , , , , , , , , , , , , S>, , , , , , , , , , , 5,i#9.7*8>_.].Z@B.B.%#6,7,8,9,H+w@R+_.l%f u 0.G%0,>,T-",
" +O@e.e.z./;s (.B.w@Z@H+c@a,b,c,].Z@B._.].(.J#Z=Y c.s $,, , , , , , , , , , , , , , , , , , , , , , , , , , , , , , , , , , , , , , , , , , , , , , , , , , , , , , , , , , , , , , , , , S>, , , , , , , , , , , d,(.h 6.t;t._.%&l%B.C+e,X&f,g,^&l%R+l%Z@a.f#e.J-`.*@u*",
"~.]*~@0.v.g m f#Z@].B.q;].h,i,j,].l%].d._.(.J#4.s F*~&$,, , , , , , , , , , , , , , , , , , , , , , , , , , , , , , , , , , , , , , , , , , , , , , , , , , , , , , , , , , , , , , , , , S>, , , , , , , , , , , d,Y.t 8.t;Y.]._.d+Z@].W@k,l,m,K=5;_.d+K=J-O@g E%]*a.b.",
"]@y*M%[=n,o,/@F*l%_.H+(.p,+&e>'=(.].d.(.d.<&z.j S+].s $,, , , , , , , , , , , , , , , , , , , , , , , , , , , , , , , , , , , , , , , , , , , , , , , , , , , , , , , , , , , , , , , , , S>, , , , , , , , , , , q,W.l%s 6.<&_.w@%#w@<&f;r,s,t,s l%d+B.Z@w@u,v,w,<@[={@",
"_.{.d.<&<&]._.].l%].H+s.x,y,]*g (.].(.<&<&s.J#i d._.s $,, , , , , , , , , , , , , , , , , , , , , , , , , , , , , , , , , , , , , , , , , , , , , , , , , , , , , , , , , , , , , , , , , S>, , , , , , , , , , , z,d.i#e.Z (.d.]&Z@Z@<&A,B,C,D,e.K=B.B.s;R+].].w@d+w@d.",
"].(.d.(.(.l%B.d._.].l%t  >E,~@m (._.(.<&s.s.J#h <&d.A F,, , , , , , , , , , , , , , , , , , , , , , , , , , , , , , , , , , , , , , , , , , , , , , , , , , , , , , , , , , , , , , , , , S>, , , , , , , , , , , G,(.d.O@U (.(.d.w@Z@<&k> >8. >j ].Z@Z@d+B.l%].].Z@l%(.",
"_.(.(.].Z@B.].d.(.r+_.v H,I,b.m (.].(.W.Y.W.g h s.(.D F,, , , , , , , , , , , , , , , , , , , , , , , , , , , , , , , , , , , , , , , , , , , , , , , , , , , , , , , , , , , , , , , , , S>, , , , , , , , , , , J,(.(.j U s.d.s._.l%(.*@0;*#u&m i#l%].Z@s;K=d+Z@s;l%(.",
"i#r+_.Z@H+l%_._.(.(.(.v u&{>G&G Y.(.(.W.W.K,g 0.t (.o F,, , , , , , , , , , , , , , , , , , , , , , , , , , , , , , , , , , , , , , , , , , , , , , , , , , , , , , , , , , , , , , , , , S>, , , , , , , , , , , L,y>Y.k U s.(.W.c.l%(.r E%*#5.O@d+d+l%5;l%_.q;Z@Z@].d.",
"(.(._.Z@d+]._.r+(.s.c.s 6.E,~@f Z.(.{.t W.W.g 9.u #>j M,, , , , , , , , , , , , , , , , , , , , , , , , , , , , , , , , , , , , , , , , , , , , , , , , , , , , , , , , , , , , , , , , , S>, , , , , , , , , , , L,(.Y.j *>t W.K,s.(.s.r N,8.,&m _.5;5;$>5;%#H+K=_.d.s.",
"Y.(.(.5;5;_.].]._.d.s.[#6.{>a.g u s.t u.u A.g G%u #>j M,, , , , , , , , , , , , , , , , , , , , , , , , , , , , , , , , , , , , , , , , , , , , , , , , , , , , , , , , , , , , , , , , , S>, , , , , , , , , , , L,(.W.g {>t s.W.{.t u.`.E%*#,&g Y.(.(._.r+$>l%F*i#(.d.",
"Y.(.(.d.].]._.(.Y.(.Y.s G%E%m g v #>t v t v b.8.v u j M,, , , , , , , , , , , , , , , , , , , , , , , , , , , , , , , , , , , , , , , , , , , , , , , , , , , , , , , , , , , , , , , , , S>, , , , , , , , , , , O,Z.t g Y q.W.u H.u.u.O@8.f x#m W.W.(.(.r+_.K=l%].(.(.",
"(.(.].(.Y.i#_.Y.#>s.Y.s E%g e.j v P,u u.u *@b.9.s v j M,, , , , , , , , , , , , , , , , , , , , , , , , , , , , , , , , , , , , , , , , , , , , , , , , , , , , , , , , , , , , , , , , , M,, , , , , , , , , , , Q,v v g U u.q.u.H.u.s O@g ~&a.m W.u t W.s.d._.i#l%R,Y.",
"Y.(.(.(.(.i#s.W.u X.J+s *#S,A g s u >+T,u >+a.8.~&v j M,, , , , , , , , , , , , , , , , , , , , , , , , , , , , , , , , , , , , , , , , , , , , , , , , , , , , , , , , , , , , , , , , , M,, , , , , , , , , , , U,v v g U u.t u u.u u.B j j.0.P#8;t t u t s.s.(.d.#>W.",
"v v v u u u u v s ~&y#j y.x#(&[#[#v T,r [#u h w.s v f M,, , , , , , , , , , , , , , , , , , , , , , , , , , , , , , , , , , , , , , , , , , , , , , , , , , , , , , , , , , , , , , , , , M,, , , , , , , , , , , V,~&v a.8>t u u.u u *@[#h G%E%b.y>s *@[#v q.u T,u.s s ",
"8>8>*>}>{>7*!&y.7.T-x.y.b.J#v *@B p e.O@;,A w.W,s v f M,, , , , , , , , , , , , , , , , , , , , , , , , , , , , , , , , , , , , , , , , , , , , , , , , , , , , , , , , , , , , , , , , , M,, , , , , , , , , , , V,v X,f {>W.m g  +r.e.r.s ~.J#8.7.6.6.x.Z=Z U 8>[,Y,}>",
"Z,1.1.1.`,`, '`,`,.'`, '`,.'`,1.+'@'3.1.1.#'$'8.*@r i M,, , , , , , , , , , , , , , , , , , , , , , , , , , , , , , , , , , , , , , , , , , , , , , , , , , , , , , , , , , , , , , , , , M,, , , , , , , , , , , %'r r v.&'*'='1.+'-'+'1.='`,;';';' '`,`,.'1.+'='`,Z,Z,",
"{>` ` ` >'>'U U U U q>q>U U 6.4. >,'q>q>B,'')'!'o%h T-M,, , , , , , , , , , , , , , , , , , , , , , , , , , , , , , , , , , , , , , , , , , , , , , , , , , , , , , , , , , , , , , , , , M,, , , , , , , , , , , ~'Z$i &-{']'^' >6.,'T >'q>,'6.u&!>u&6.` >'q>U U q>>'q>",
"H+/@^&^&/'/'+@n.9@n.9@n.[ n.[ n.n.h./'8;^&p@S+m.h.n._&' , , , , , , , , , , , , , , , , , , , , , , , , , , , , , , , , , , , , , , , , , , , , , , , , , , , , , , , , , , , , , , , , , 0 , , , , , , , , , , , ('_'h.o@**V.m.D.n.c 9@8&o@o@7@o@:'c 9@/'<': /@^&c@^&o@",
"['g*g*g*['g*['}'|'1'|'2'2'2'3'4'4'['g*5'6'g*g*g*7'1'8'K*, , , , , , , , , , , , , , , , , , , , , , , , , , , , , , , , , , , , , , , , , , , , , , , , , , , , , , , , , , , , , , , , , S>, , , , , , , , , , , 9'['7'7'0'0'0'4'}'a'b'4'|'c'0'4'2'd'}'3'e'4'['g*g*g*3'"};
