/* XPM */
static char * so_door16_tex_xpm[] = {
"132 132 1450 2",
"  	c #2D3640",
". 	c #2D3741",
"+ 	c #2D3641",
"@ 	c #2E3841",
"# 	c #2D3842",
"$ 	c #2E3944",
"% 	c #2E3943",
"& 	c #2F3A45",
"* 	c #2E3842",
"= 	c #2F3B46",
"- 	c #2F3944",
"; 	c #2F3A46",
"> 	c #303C46",
", 	c #303B46",
"' 	c #303C47",
") 	c #303A45",
"! 	c #313D4A",
"~ 	c #313E4A",
"{ 	c #323E4A",
"] 	c #323F4A",
"^ 	c #313D48",
"/ 	c #35393C",
"( 	c #393939",
"_ 	c #303B45",
": 	c #323F4B",
"< 	c #313D49",
"[ 	c #303C48",
"} 	c #2E3843",
"| 	c #2E3A45",
"1 	c #2E3A44",
"2 	c #2E3942",
"3 	c #243342",
"4 	c #243443",
"5 	c #253544",
"6 	c #253646",
"7 	c #253645",
"8 	c #243544",
"9 	c #253545",
"0 	c #263746",
"a 	c #273847",
"b 	c #263645",
"c 	c #273645",
"d 	c #283847",
"e 	c #283948",
"f 	c #293A49",
"g 	c #283949",
"h 	c #273848",
"i 	c #293B4A",
"j 	c #293949",
"k 	c #293B4B",
"l 	c #293A4A",
"m 	c #2A3B4B",
"n 	c #2A3B4A",
"o 	c #2B3D4C",
"p 	c #2C3F4F",
"q 	c #2D3F4F",
"r 	c #2C3F50",
"s 	c #2D4151",
"t 	c #2C3D4C",
"u 	c #33393E",
"v 	c #2B3C4B",
"w 	c #2A3C4B",
"x 	c #293C4B",
"y 	c #2D4050",
"z 	c #283848",
"A 	c #283A49",
"B 	c #273948",
"C 	c #273947",
"D 	c #263846",
"E 	c #253746",
"F 	c #18222D",
"G 	c #17222D",
"H 	c #18242D",
"I 	c #18242E",
"J 	c #17242D",
"K 	c #17232D",
"L 	c #192530",
"M 	c #19242F",
"N 	c #1A2630",
"O 	c #1A2732",
"P 	c #1A2631",
"Q 	c #1A2833",
"R 	c #18252F",
"S 	c #1B2833",
"T 	c #1B2834",
"U 	c #1A2733",
"V 	c #1B2934",
"W 	c #1C2934",
"X 	c #1C2A35",
"Y 	c #1C2A36",
"Z 	c #1D2A36",
"` 	c #1D2B38",
" .	c #1E2D39",
"..	c #1F2F3C",
"+.	c #1F2E3B",
"@.	c #1F2E3A",
"#.	c #1F2C39",
"$.	c #313437",
"%.	c #303337",
"&.	c #1F2C38",
"*.	c #1E2C38",
"=.	c #1C2B37",
"-.	c #1D2D3A",
";.	c #1D2B37",
">.	c #1C2935",
",.	c #1B2733",
"'.	c #1B2933",
").	c #1A2632",
"!.	c #1A2731",
"~.	c #192631",
"{.	c #192630",
"].	c #19252F",
"^.	c #070C11",
"/.	c #070D11",
"(.	c #070D12",
"_.	c #070B10",
":.	c #070C10",
"<.	c #080D12",
"[.	c #070D13",
"}.	c #080E12",
"|.	c #080E13",
"1.	c #080F14",
"2.	c #080D13",
"3.	c #080E14",
"4.	c #090E14",
"5.	c #091015",
"6.	c #09131B",
"7.	c #091C2B",
"8.	c #0F1E29",
"9.	c #131F27",
"0.	c #131E27",
"a.	c #131C24",
"b.	c #2F3031",
"c.	c #2E2F31",
"d.	c #131E26",
"e.	c #141F28",
"f.	c #121E27",
"g.	c #091C29",
"h.	c #08151F",
"i.	c #081015",
"j.	c #090F14",
"k.	c #090F15",
"l.	c #0B1319",
"m.	c #0C141A",
"n.	c #0D151B",
"o.	c #0C141B",
"p.	c #0B131A",
"q.	c #0D151C",
"r.	c #0E171E",
"s.	c #0B1218",
"t.	c #0C151B",
"u.	c #0A1117",
"v.	c #0A1116",
"w.	c #0C1319",
"x.	c #0E1821",
"y.	c #0F1E2A",
"z.	c #192733",
"A.	c #20303E",
"B.	c #223341",
"C.	c #303336",
"D.	c #2F3236",
"E.	c #21313F",
"F.	c #223340",
"G.	c #101E28",
"H.	c #0E1A23",
"I.	c #0B151B",
"J.	c #0A1218",
"K.	c #0F161E",
"L.	c #0E161D",
"M.	c #0D161C",
"N.	c #0E171D",
"O.	c #0F181F",
"P.	c #0B141A",
"Q.	c #121C25",
"R.	c #131D26",
"S.	c #121D26",
"T.	c #131D27",
"U.	c #142028",
"V.	c #14202A",
"W.	c #142029",
"X.	c #16212B",
"Y.	c #15222C",
"Z.	c #15212B",
"`.	c #16222B",
" +	c #182530",
".+	c #192732",
"++	c #21313E",
"@+	c #21323F",
"#+	c #1C2B36",
"$+	c #233644",
"%+	c #1E303F",
"&+	c #293C4C",
"*+	c #233340",
"=+	c #313438",
"-+	c #2F3337",
";+	c #263947",
">+	c #283B4A",
",+	c #192834",
"'+	c #263B4B",
")+	c #1F2F3B",
"!+	c #1D2C38",
"~+	c #20313E",
"{+	c #22333F",
"]+	c #1E2E3A",
"^+	c #192731",
"/+	c #16222C",
"(+	c #15212C",
"_+	c #16232D",
":+	c #15202A",
"<+	c #131F28",
"[+	c #121D25",
"}+	c #1B2A35",
"|+	c #1A2934",
"1+	c #182631",
"2+	c #1B2935",
"3+	c #1F303C",
"4+	c #243644",
"5+	c #273949",
"6+	c #283B4B",
"7+	c #2A3E4E",
"8+	c #2C4253",
"9+	c #243847",
"0+	c #1E2E3B",
"a+	c #283C4C",
"b+	c #2A3F4F",
"c+	c #243442",
"d+	c #313538",
"e+	c #303438",
"f+	c #283A4B",
"g+	c #293D4D",
"h+	c #273B4C",
"i+	c #2D4253",
"j+	c #2B4050",
"k+	c #2B3F4F",
"l+	c #2B4051",
"m+	c #2A3E4D",
"n+	c #263948",
"o+	c #20303D",
"p+	c #202F3B",
"q+	c #21303E",
"r+	c #20303C",
"s+	c #1B2A36",
"t+	c #1C2B38",
"u+	c #1D2C39",
"v+	c #192632",
"w+	c #263744",
"x+	c #2C4151",
"y+	c #2C4152",
"z+	c #2A3F4E",
"A+	c #2E4354",
"B+	c #2E4455",
"C+	c #2D4353",
"D+	c #2F4456",
"E+	c #2D4354",
"F+	c #2D4454",
"G+	c #32485A",
"H+	c #324A5C",
"I+	c #32495B",
"J+	c #32495C",
"K+	c #31485B",
"L+	c #31485A",
"M+	c #2C4354",
"N+	c #1E303E",
"O+	c #1E2D3A",
"P+	c #293E4E",
"Q+	c #2A3E4F",
"R+	c #2E4557",
"S+	c #263C4C",
"T+	c #2A3F50",
"U+	c #323639",
"V+	c #303539",
"W+	c #2B4153",
"X+	c #203240",
"Y+	c #2D4355",
"Z+	c #293D4E",
"`+	c #2B3F51",
" @	c #1F2F3D",
".@	c #293D4B",
"+@	c #344B5E",
"@@	c #314658",
"#@	c #314859",
"$@	c #2F4557",
"%@	c #304658",
"&@	c #2D4252",
"*@	c #2B4151",
"=@	c #2B3F50",
"-@	c #2C4051",
";@	c #243746",
">@	c #223442",
",@	c #233342",
"'@	c #233543",
")@	c #1E2C39",
"!@	c #2E4355",
"~@	c #2E4353",
"{@	c #2B4152",
"]@	c #304759",
"^@	c #344C5F",
"/@	c #2D4457",
"(@	c #1E313F",
"_@	c #243745",
":@	c #233443",
"<@	c #2A3D4E",
"[@	c #2E4558",
"}@	c #2E4659",
"|@	c #294052",
"1@	c #293E4F",
"2@	c #2B4052",
"3@	c #273745",
"4@	c #32363A",
"5@	c #30353A",
"6@	c #293D4C",
"7@	c #2C4355",
"8@	c #213443",
"9@	c #2F4558",
"0@	c #223240",
"a@	c #374F62",
"b@	c #2E4456",
"c@	c #2F4457",
"d@	c #2D4455",
"e@	c #2B3E4F",
"f@	c #253846",
"g@	c #223441",
"h@	c #233444",
"i@	c #273A49",
"j@	c #253847",
"k@	c #304558",
"l@	c #2E4457",
"m@	c #2D4152",
"n@	c #30485B",
"o@	c #31495D",
"p@	c #2D4659",
"q@	c #1F3342",
"r@	c #223543",
"s@	c #223542",
"t@	c #2D4557",
"u@	c #30475A",
"v@	c #2B4254",
"w@	c #243645",
"x@	c #2C4254",
"y@	c #273846",
"z@	c #33373B",
"A@	c #30363B",
"B@	c #213343",
"C@	c #2F4659",
"D@	c #2A4052",
"E@	c #2C4153",
"F@	c #213240",
"G@	c #223645",
"H@	c #31485C",
"I@	c #30485A",
"J@	c #31495C",
"K@	c #31475A",
"L@	c #2E4658",
"M@	c #273A4A",
"N@	c #233645",
"O@	c #334A5C",
"P@	c #304557",
"Q@	c #2D4254",
"R@	c #304659",
"S@	c #32495D",
"T@	c #324A5E",
"U@	c #1B2F3D",
"V@	c #2A3F51",
"W@	c #293E50",
"X@	c #30373C",
"Y@	c #203341",
"Z@	c #32495E",
"`@	c #1A2B38",
" #	c #30495C",
".#	c #324A5D",
"+#	c #334B5E",
"@#	c #2F4658",
"##	c #374E62",
"$#	c #253848",
"%#	c #233646",
"&#	c #243646",
"*#	c #344A5D",
"=#	c #304657",
"-#	c #314759",
";#	c #334A5E",
">#	c #344C60",
",#	c #324B5F",
"'#	c #334C61",
")#	c #2E485B",
"!#	c #1D3140",
"~#	c #263A49",
"{#	c #253949",
"]#	c #2D4356",
"^#	c #33373C",
"/#	c #30373D",
"(#	c #1F303F",
"_#	c #1D2E3B",
":#	c #334A5D",
"<#	c #344D61",
"[#	c #375063",
"}#	c #273B4B",
"|#	c #273A4B",
"1#	c #263A4A",
"2#	c #293C4D",
"3#	c #314758",
"4#	c #334B5F",
"5#	c #334C60",
"6#	c #344D62",
"7#	c #314A5F",
"8#	c #1F3241",
"9#	c #2D4357",
"0#	c #34383D",
"a#	c #31383F",
"b#	c #1F303E",
"c#	c #1E2F3D",
"d#	c #324A5F",
"e#	c #30475B",
"f#	c #344D60",
"g#	c #354E61",
"h#	c #354D61",
"i#	c #344E62",
"j#	c #354D62",
"k#	c #385164",
"l#	c #233442",
"m#	c #283D4C",
"n#	c #283A4A",
"o#	c #283B4C",
"p#	c #344C5E",
"q#	c #324C5F",
"r#	c #2F485C",
"s#	c #1F3140",
"t#	c #1A2834",
"u#	c #2E4458",
"v#	c #34393D",
"w#	c #31393F",
"x#	c #1E303D",
"y#	c #2D4558",
"z#	c #2C4052",
"A#	c #314A5E",
"B#	c #344C61",
"C#	c #354E62",
"D#	c #354E63",
"E#	c #385165",
"F#	c #233544",
"G#	c #253948",
"H#	c #263848",
"I#	c #293B4C",
"J#	c #334B5D",
"K#	c #334D61",
"L#	c #2F495D",
"M#	c #203140",
"N#	c #35393D",
"O#	c #313940",
"P#	c #2A4051",
"Q#	c #233746",
"R#	c #3A5368",
"S#	c #2A3D4D",
"T#	c #233341",
"U#	c #2C4252",
"V#	c #334B60",
"W#	c #2F475B",
"X#	c #253947",
"Y#	c #233545",
"Z#	c #1C2B39",
"`#	c #2B4154",
" $	c #2D4456",
".$	c #243846",
"+$	c #395367",
"@$	c #344B60",
"#$	c #1E3140",
"$$	c #253747",
"%$	c #283E4F",
"&$	c #35393E",
"*$	c #313A41",
"=$	c #293D4F",
"-$	c #1B2C39",
";$	c #30465A",
">$	c #375064",
",$	c #273B4A",
"'$	c #33495B",
")$	c #17242E",
"!$	c #203444",
"~$	c #2F475A",
"{$	c #353A3E",
"]$	c #313A42",
"^$	c #182734",
"/$	c #223544",
"($	c #18242F",
"_$	c #283C4B",
":$	c #1D2D39",
"<$	c #1C2C39",
"[$	c #314C60",
"}$	c #2B475C",
"|$	c #213D51",
"1$	c #243E50",
"2$	c #17242F",
"3$	c #1D2E3C",
"4$	c #253B4D",
"5$	c #253E52",
"6$	c #2A465A",
"7$	c #1E2F3B",
"8$	c #1D2E39",
"9$	c #1F303D",
"0$	c #1C2C38",
"a$	c #2E4352",
"b$	c #2B3E4E",
"c$	c #30485C",
"d$	c #37546B",
"e$	c #1F4965",
"f$	c #1A74A2",
"g$	c #2A495E",
"h$	c #2A4153",
"i$	c #1A2935",
"j$	c #323B43",
"k$	c #1A2A36",
"l$	c #1C2D3A",
"m$	c #2C4659",
"n$	c #2A5B7B",
"o$	c #265F82",
"p$	c #305069",
"q$	c #365064",
"r$	c #233542",
"s$	c #22323F",
"t$	c #1F2E39",
"u$	c #1E2D38",
"v$	c #20313D",
"w$	c #20303B",
"x$	c #1D2C37",
"y$	c #355065",
"z$	c #1D4864",
"A$	c #127BB7",
"B$	c #2A4A61",
"C$	c #2C4356",
"D$	c #283E4E",
"E$	c #1B2B38",
"F$	c #2E4A5E",
"G$	c #286388",
"H$	c #246287",
"I$	c #2F4E66",
"J$	c #202F3A",
"K$	c #253745",
"L$	c #1B2A34",
"M$	c #202F3C",
"N$	c #233440",
"O$	c #1D2C36",
"P$	c #21303B",
"Q$	c #21313D",
"R$	c #21333F",
"S$	c #385268",
"T$	c #1E4864",
"U$	c #137BB9",
"V$	c #2B4B61",
"W$	c #273C4C",
"X$	c #303941",
"Y$	c #2F4A5E",
"Z$	c #296489",
"`$	c #236389",
" %	c #2F4F66",
".%	c #30485D",
"+%	c #243543",
"@%	c #233441",
"#%	c #21303D",
"$%	c #1F2D39",
"%%	c #243542",
"&%	c #21303C",
"*%	c #1E4966",
"=%	c #0F7CC1",
"-%	c #2B4A61",
";%	c #283D4D",
">%	c #2B404F",
",%	c #363A3D",
"'%	c #313B43",
")%	c #28658A",
"!%	c #23668D",
"~%	c #2F5067",
"{%	c #2E475A",
"]%	c #334C5F",
"^%	c #233643",
"/%	c #223440",
"(%	c #263745",
"_%	c #2E4253",
":%	c #385368",
"<%	c #1F4966",
"[%	c #0E7DC4",
"}%	c #2C4B62",
"|%	c #36393D",
"1%	c #313A43",
"2%	c #2A6488",
"3%	c #22668F",
"4%	c #2F5069",
"5%	c #2A3E50",
"6%	c #365267",
"7%	c #1E4765",
"8%	c #1279C2",
"9%	c #2D4A61",
"0%	c #303A44",
"a%	c #2A668B",
"b%	c #216690",
"c%	c #2F526B",
"d%	c #2C4456",
"e%	c #32485B",
"f%	c #365167",
"g%	c #1277C2",
"h%	c #2F485D",
"i%	c #2B658A",
"j%	c #206692",
"k%	c #30526B",
"l%	c #31495E",
"m%	c #293F4F",
"n%	c #293F50",
"o%	c #233745",
"p%	c #354F65",
"q%	c #1E4967",
"r%	c #107AC4",
"s%	c #2E4C63",
"t%	c #363A3E",
"u%	c #313B45",
"v%	c #293E4D",
"w%	c #1B2B36",
"x%	c #2F495E",
"y%	c #2B658C",
"z%	c #1F6693",
"A%	c #30536D",
"B%	c #2C4457",
"C%	c #344F64",
"D%	c #0F7BC7",
"E%	c #2D4C63",
"F%	c #2F3A43",
"G%	c #2C658B",
"H%	c #1F6692",
"I%	c #30526C",
"J%	c #2D4458",
"K%	c #283C4D",
"L%	c #26394A",
"M%	c #1E4763",
"N%	c #0F7AC6",
"O%	c #2C4C63",
"P%	c #2F4A5F",
"Q%	c #21668F",
"R%	c #2F5169",
"S%	c #2C4255",
"T%	c #2A4050",
"U%	c #283D4E",
"V%	c #204763",
"W%	c #0F7CC6",
"X%	c #303B44",
"Y%	c #216790",
"Z%	c #2A4152",
"`%	c #1F4763",
" &	c #0E7DC5",
".&	c #2C4D64",
"+&	c #2F3B45",
"@&	c #2B4253",
"#&	c #304A5F",
"$&	c #22658F",
"%&	c #2F4759",
"&&	c #1F4864",
"*&	c #0D7EC7",
"=&	c #2D4E65",
"-&	c #2B6386",
";&	c #23648C",
">&	c #1D445F",
",&	c #127CBC",
"'&	c #2B4B62",
")&	c #18252E",
"!&	c #36393C",
"~&	c #2F3A44",
"{&	c #2E4559",
"]&	c #2D475B",
"^&	c #2B6081",
"/&	c #266083",
"(&	c #2B4A60",
"_&	c #253A4A",
":&	c #2A3F52",
"<&	c #1F3A4E",
"[&	c #2A5875",
"}&	c #253F53",
"|&	c #254A62",
"1&	c #224862",
"2&	c #1C3040",
"3&	c #253A49",
"4&	c #2C4759",
"5&	c #244055",
"6&	c #254F69",
"7&	c #243C4E",
"8&	c #2E3A43",
"9&	c #273E50",
"0&	c #25485E",
"a&	c #254962",
"b&	c #294458",
"c&	c #304758",
"d&	c #1D4561",
"e&	c #1B73A7",
"f&	c #28485F",
"g&	c #37393C",
"h&	c #293F51",
"i&	c #294356",
"j&	c #2A5F80",
"k&	c #255F83",
"l&	c #2C4960",
"m&	c #1D4764",
"n&	c #127BBD",
"o&	c #2A4B62",
"p&	c #2C475B",
"q&	c #236289",
"r&	c #2E4D65",
"s&	c #1E4A67",
"t&	c #107CC4",
"u&	c #2A4A62",
"v&	c #293E4C",
"w&	c #2E3A46",
"x&	c #2C485D",
"y&	c #29668C",
"z&	c #216590",
"A&	c #1E4866",
"B&	c #107BC4",
"C&	c #2D3A44",
"D&	c #29668A",
"E&	c #206792",
"F&	c #2D4F68",
"G&	c #304859",
"H&	c #1E4A68",
"I&	c #107BC3",
"J&	c #2A4961",
"K&	c #37393B",
"L&	c #2D3943",
"M&	c #2B475B",
"N&	c #263949",
"O&	c #1D4966",
"P&	c #1279BD",
"Q&	c #2A485F",
"R&	c #2D3A45",
"S&	c #2B4559",
"T&	c #296386",
"U&	c #236489",
"V&	c #2D4F67",
"W&	c #2B4252",
"X&	c #1579B5",
"Y&	c #29485E",
"Z&	c #2B4558",
"`&	c #296082",
" *	c #256083",
".*	c #2A3D4C",
"+*	c #263B4C",
"@*	c #1D2F3B",
"#*	c #1A384C",
"$*	c #21526E",
"%*	c #253E51",
"&*	c #2C3842",
"**	c #214962",
"=*	c #204962",
"-*	c #2B4457",
";*	c #1A2A37",
">*	c #1A3040",
",*	c #2C3742",
"'*	c #1D303F",
")*	c #1C2E3D",
"!*	c #263845",
"~*	c #17232E",
"{*	c #2C3944",
"]*	c #253A48",
"^*	c #38393B",
"/*	c #2D3B45",
"(*	c #15212A",
"_*	c #37393A",
":*	c #2B3944",
"<*	c #152029",
"[*	c #1F303B",
"}*	c #213442",
"|*	c #213340",
"1*	c #273C4A",
"2*	c #273A48",
"3*	c #38393A",
"4*	c #2C3945",
"5*	c #20313F",
"6*	c #172B39",
"7*	c #182833",
"8*	c #2B3844",
"9*	c #172936",
"0*	c #213647",
"a*	c #253845",
"b*	c #284155",
"c*	c #1B3F56",
"d*	c #255A77",
"e*	c #1F394B",
"f*	c #273B49",
"g*	c #293F4E",
"h*	c #2A3843",
"i*	c #223746",
"j*	c #285773",
"k*	c #1B445D",
"l*	c #223E53",
"m*	c #294357",
"n*	c #1D4159",
"o*	c #1973A8",
"p*	c #24648A",
"q*	c #2B495F",
"r*	c #293642",
"s*	c #275471",
"t*	c #0F7DC0",
"u*	c #1E4964",
"v*	c #264257",
"w*	c #294153",
"x*	c #1D3F56",
"y*	c #1C6F9F",
"z*	c #1E6D9C",
"A*	c #2D536D",
"B*	c #293743",
"C*	c #304D64",
"D*	c #285E81",
"E*	c #0980C9",
"F*	c #1E4863",
"G*	c #264055",
"H*	c #273C4D",
"I*	c #1B3648",
"J*	c #1A72A5",
"K*	c #2D5570",
"L*	c #192833",
"M*	c #2A3844",
"N*	c #24638A",
"O*	c #147AB2",
"P*	c #1C3E54",
"Q*	c #273C4B",
"R*	c #1A3141",
"S*	c #1D3B4F",
"T*	c #285D7C",
"U*	c #2B536D",
"V*	c #293844",
"W*	c #2F4D65",
"X*	c #285A78",
"Y*	c #1F425A",
"Z*	c #1A3346",
"`*	c #253C4E",
" =	c #1B394F",
".=	c #275876",
"+=	c #285A77",
"@=	c #2A4C62",
"#=	c #293845",
"$=	c #2D4A60",
"%=	c #224D68",
"&=	c #206A96",
"*=	c #1C4057",
"==	c #253F52",
"-=	c #253946",
";=	c #263B4A",
">=	c #1D3C53",
",=	c #275777",
"'=	c #127DBD",
")=	c #2C4E65",
"!=	c #1971A8",
"~=	c #216692",
"{=	c #1B3E56",
"]=	c #263E51",
"^=	c #283E51",
"/=	c #1E3D54",
"(=	c #265474",
"_=	c #2D5774",
":=	c #2B465B",
"<=	c #182630",
"[=	c #21323E",
"}=	c #383939",
"|=	c #263641",
"1=	c #2C4559",
"2=	c #2E526D",
"3=	c #1474B3",
"4=	c #236189",
"5=	c #1B3D56",
"6=	c #263C4F",
"7=	c #283F50",
"8=	c #1D3C54",
"9=	c #234E6C",
"0=	c #0782D3",
"a=	c #2B5B7B",
"b=	c #2C485E",
"c=	c #15222A",
"d=	c #263440",
"e=	c #141F27",
"f=	c #2C4458",
"g=	c #2D5470",
"h=	c #0E7ABF",
"i=	c #265B7D",
"j=	c #1A3A4F",
"k=	c #243A4B",
"l=	c #1E3B50",
"m=	c #1F4C6A",
"n=	c #0382DA",
"o=	c #2A5C7E",
"p=	c #2C4A60",
"q=	c #24323F",
"r=	c #233642",
"s=	c #141E26",
"t=	c #0E7CC3",
"u=	c #275676",
"v=	c #193549",
"w=	c #25394B",
"x=	c #243948",
"y=	c #1E3241",
"z=	c #193950",
"A=	c #295F82",
"B=	c #2C4A62",
"C=	c #1E2E39",
"D=	c #1C2933",
"E=	c #151F27",
"F=	c #2B5471",
"G=	c #1A2C3A",
"H=	c #213341",
"I=	c #253A4B",
"J=	c #162936",
"K=	c #1A3447",
"L=	c #2B516C",
"M=	c #2D4B61",
"N=	c #1C2C37",
"O=	c #333537",
"P=	c #282D32",
"Q=	c #284F69",
"R=	c #1E4256",
"S=	c #162733",
"T=	c #162835",
"U=	c #283C4A",
"V=	c #101C25",
"W=	c #141D26",
"X=	c #353738",
"Y=	c #252E35",
"Z=	c #24394A",
"`=	c #1A2D3A",
" -	c #172430",
".-	c #223443",
"+-	c #203340",
"@-	c #16242E",
"#-	c #182732",
"$-	c #152531",
"%-	c #122C3E",
"&-	c #103C55",
"*-	c #383839",
"=-	c #212F3A",
"--	c #213342",
";-	c #2B4354",
">-	c #17252F",
",-	c #273D4C",
"'-	c #1C303D",
")-	c #162C3B",
"!-	c #124361",
"~-	c #11688D",
"{-	c #103447",
"]-	c #35383A",
"^-	c #29343E",
"/-	c #1A2933",
"(-	c #1B3140",
"_-	c #153143",
":-	c #134B6C",
"<-	c #0B729B",
"[-	c #10394F",
"}-	c #35383B",
"|-	c #293640",
"1-	c #2C4558",
"2-	c #273D4E",
"3-	c #213645",
"4-	c #245570",
"5-	c #27455C",
"6-	c #263C4D",
"7-	c #163449",
"8-	c #144D6E",
"9-	c #0A749E",
"0-	c #103B52",
"a-	c #283641",
"b-	c #284255",
"c-	c #263F52",
"d-	c #205371",
"e-	c #233B4D",
"f-	c #233B4C",
"g-	c #127CA8",
"h-	c #274F6C",
"i-	c #263D4F",
"j-	c #153449",
"k-	c #154D6F",
"l-	c #0774A3",
"m-	c #103B53",
"n-	c #29495F",
"o-	c #0E7BAD",
"p-	c #234358",
"q-	c #1B2B37",
"r-	c #243E4F",
"s-	c #0A84B7",
"t-	c #28516F",
"u-	c #273E51",
"v-	c #294051",
"w-	c #1B303F",
"x-	c #153247",
"y-	c #144C6E",
"z-	c #0675A5",
"A-	c #0F3A52",
"B-	c #284256",
"C-	c #283E4D",
"D-	c #2A4B61",
"E-	c #0783B8",
"F-	c #24455B",
"G-	c #0E81B0",
"H-	c #28506C",
"I-	c #153347",
"J-	c #144C6D",
"K-	c #0973A0",
"L-	c #28343F",
"M-	c #274053",
"N-	c #2A495F",
"O-	c #0C7EAC",
"P-	c #283A48",
"Q-	c #233848",
"R-	c #275E7C",
"S-	c #29475D",
"T-	c #1C3141",
"U-	c #153043",
"V-	c #144A6B",
"W-	c #0975A1",
"X-	c #103B51",
"Y-	c #284154",
"Z-	c #275B77",
"`-	c #243C4F",
" ;	c #263F51",
".;	c #1D3241",
"+;	c #152D3D",
"@;	c #144764",
"#;	c #0D7299",
"$;	c #11384D",
"%;	c #35373A",
"&;	c #28323C",
"*;	c #283F51",
"=;	c #273F51",
"-;	c #16222D",
";;	c #15364A",
">;	c #124D69",
",;	c #212F3B",
"';	c #1B2D3A",
");	c #172A3A",
"!;	c #2D373F",
"~;	c #1E2C37",
"{;	c #1C2D39",
"];	c #2F3439",
"^;	c #333639",
"/;	c #1E3749",
"(;	c #27526E",
"_;	c #27455B",
":;	c #2F363C",
"<;	c #204A63",
"[;	c #214A60",
"};	c #1B2E3C",
"|;	c #263847",
"1;	c #2E4759",
"2;	c #224259",
"3;	c #0880D0",
"4;	c #285C7E",
"5;	c #254259",
"6;	c #33363A",
"7;	c #2E343A",
"8;	c #24526F",
"9;	c #088ACD",
"0;	c #254E68",
"a;	c #2A4254",
"b;	c #2F4C62",
"c;	c #285372",
"d;	c #008AE3",
"e;	c #275675",
"f;	c #254156",
"g;	c #2E3439",
"h;	c #283F53",
"i;	c #244E69",
"j;	c #0683D2",
"k;	c #276083",
"l;	c #2F5168",
"m;	c #295979",
"n;	c #0087E2",
"o;	c #265270",
"p;	c #253F54",
"q;	c #17252E",
"r;	c #33373A",
"s;	c #2E353B",
"t;	c #273D4F",
"u;	c #254A63",
"v;	c #0A7ECC",
"w;	c #216997",
"x;	c #294E68",
"y;	c #2B4356",
"z;	c #2B4E66",
"A;	c #266088",
"B;	c #0188DB",
"C;	c #25516E",
"D;	c #263F53",
"E;	c #34373B",
"F;	c #2F353C",
"G;	c #1479B7",
"H;	c #1B71A7",
"I;	c #284E68",
"J;	c #2D475C",
"K;	c #2B4F67",
"L;	c #236692",
"M;	c #117EBB",
"N;	c #234C66",
"O;	c #274052",
"P;	c #34373A",
"Q;	c #2E353C",
"R;	c #26475D",
"S;	c #1D6F9E",
"T;	c #1577B4",
"U;	c #28506B",
"V;	c #2D485D",
"W;	c #213441",
"X;	c #2D485B",
"Y;	c #2B4F68",
"Z;	c #226994",
"`;	c #256487",
" >	c #213E51",
".>	c #2B3F4E",
"+>	c #213A4C",
"@>	c #205571",
"#>	c #137AB1",
"$>	c #274F69",
"%>	c #304D63",
"&>	c #2E495D",
"*>	c #27465C",
"=>	c #224358",
"->	c #224A66",
";>	c #234258",
">>	c #1B2B35",
",>	c #264256",
"'>	c #1E4B64",
")>	c #204157",
"!>	c #24465C",
"~>	c #2E4C61",
"{>	c #244155",
"]>	c #0C7EC5",
"^>	c #23648E",
"/>	c #24435A",
"(>	c #16212A",
"_>	c #34383B",
":>	c #2E363C",
"<>	c #274357",
"[>	c #235572",
"}>	c #0886C7",
"|>	c #23475E",
"1>	c #2F4B60",
"2>	c #26516F",
"3>	c #0083DD",
"4>	c #265C82",
"5>	c #234157",
"6>	c #152129",
"7>	c #2D353C",
"8>	c #264054",
"9>	c #224F6C",
"0>	c #0588D4",
"a>	c #265471",
"b>	c #2F4D63",
"c>	c #0181DA",
"d>	c #255372",
"e>	c #0882CF",
"f>	c #27597A",
"g>	c #2C4C64",
"h>	c #2E516A",
"i>	c #245170",
"j>	c #1774AD",
"k>	c #1E3C51",
"l>	c #2D343B",
"m>	c #1E3546",
"n>	c #206A99",
"o>	c #294D66",
"p>	c #1D2D38",
"q>	c #2A485C",
"r>	c #203E52",
"s>	c #192A38",
"t>	c #172733",
"u>	c #1F3C4F",
"v>	c #28455A",
"w>	c #1F313E",
"x>	c #2C353B",
"y>	c #2C333B",
"z>	c #343739",
"A>	c #2C333A",
"B>	c #15222D",
"C>	c #1D2E3A",
"D>	c #182834",
"E>	c #1E2F3C",
"F>	c #353739",
"G>	c #182632",
"H>	c #162D3D",
"I>	c #17455B",
"J>	c #1D3342",
"K>	c #18384B",
"L>	c #16394E",
"M>	c #23394A",
"N>	c #163E57",
"O>	c #1A7198",
"P>	c #204054",
"Q>	c #2B3239",
"R>	c #253D4F",
"S>	c #255673",
"T>	c #1F5978",
"U>	c #244257",
"V>	c #223342",
"W>	c #17425D",
"X>	c #147AAD",
"Y>	c #204359",
"Z>	c #295D7D",
"`>	c #235E7F",
" ,	c #25455B",
".,	c #184461",
"+,	c #107CB7",
"@,	c #22445B",
"#,	c #2A3239",
"$,	c #2A5E7F",
"%,	c #225F82",
"&,	c #18435F",
"*,	c #107CB8",
"=,	c #21445B",
"-,	c #2A323A",
";,	c #2A5F7F",
">,	c #235F83",
",,	c #24445B",
"',	c #18425E",
"),	c #0F7DBB",
"!,	c #21445C",
"~,	c #14212B",
"{,	c #243F53",
"],	c #295F7F",
"^,	c #236084",
"/,	c #20323F",
"(,	c #17415D",
"_,	c #117CB9",
":,	c #243E52",
"<,	c #2A5F7E",
"[,	c #226084",
"},	c #25394A",
"|,	c #17405B",
"1,	c #147AB1",
"2,	c #204257",
"3,	c #293138",
"4,	c #223C4E",
"5,	c #2A5E7C",
"6,	c #234359",
"7,	c #173D57",
"8,	c #1677AA",
"9,	c #204155",
"0,	c #2A3139",
"a,	c #2A5C79",
"b,	c #255D7D",
"c,	c #214055",
"d,	c #1D2F3D",
"e,	c #17354A",
"f,	c #21607E",
"g,	c #1D394C",
"h,	c #293139",
"i,	c #203646",
"j,	c #204F6A",
"k,	c #1E506B",
"l,	c #1A3345",
"m,	c #182D3B",
"n,	c #1F3E52",
"o,	c #1C2F3D",
"p,	c #1F3340",
"q,	c #1E384B",
"r,	c #1F394D",
"s,	c #1A2B39",
"t,	c #213241",
"u,	c #1A3F57",
"v,	c #1C6A8D",
"w,	c #1D3C4F",
"x,	c #293038",
"y,	c #21394A",
"z,	c #23536F",
"A,	c #1F5471",
"B,	c #27455A",
"C,	c #153F59",
"D,	c #1578A7",
"E,	c #1F4055",
"F,	c #283038",
"G,	c #2A5C7A",
"H,	c #225978",
"I,	c #224258",
"J,	c #263A4B",
"K,	c #16415C",
"L,	c #137AB0",
"M,	c #363739",
"N,	c #233C4E",
"O,	c #2A5E7E",
"P,	c #235A7A",
"Q,	c #253849",
"R,	c #127BB1",
"S,	c #223B4D",
"T,	c #225B7C",
"U,	c #234257",
"V,	c #17425E",
"W,	c #117CB4",
"X,	c #20445A",
"Y,	c #273037",
"Z,	c #2B5F7F",
"`,	c #235D7E",
" '	c #107DB7",
".'	c #272F37",
"+'	c #223A4C",
"@'	c #245C7E",
"#'	c #244359",
"$'	c #107DB9",
"%'	c #20435A",
"&'	c #223C4D",
"*'	c #24445A",
"='	c #192730",
"-'	c #17405C",
";'	c #363738",
">'	c #272F36",
",'	c #111C23",
"''	c #233C4D",
")'	c #2B607F",
"!'	c #235C7F",
"~'	c #163F5B",
"{'	c #127AB7",
"]'	c #204258",
"^'	c #262E35",
"/'	c #111B23",
"('	c #235B7E",
"_'	c #224157",
":'	c #152028",
"<'	c #1B2832",
"['	c #18232C",
"}'	c #153E59",
"|'	c #1379AF",
"1'	c #1E4156",
"2'	c #121C24",
"3'	c #225C7E",
"4'	c #17222B",
"5'	c #17232C",
"6'	c #19252E",
"7'	c #142129",
"8'	c #143D57",
"9'	c #1279A9",
"0'	c #1D4056",
"a'	c #242C33",
"b'	c #223A4B",
"c'	c #2B5E7B",
"d'	c #225B7D",
"e'	c #223F54",
"f'	c #162129",
"g'	c #19262F",
"h'	c #273946",
"i'	c #133A51",
"j'	c #167198",
"k'	c #1C3D51",
"l'	c #232B32",
"m'	c #21384A",
"n'	c #205978",
"o'	c #213C4F",
"p'	c #293B49",
"q'	c #142B3C",
"r'	c #184057",
"s'	c #1B2E3D",
"t'	c #17384E",
"u'	c #294050",
"v'	c #243848",
"w'	c #253C4C",
"x'	c #142430",
"y'	c #232C33",
"z'	c #172835",
"A'	c #1F3749",
"B'	c #182F3E",
"C'	c #263D4E",
"D'	c #263D4D",
"E'	c #233846",
"F'	c #111F2A",
"G'	c #0F1A23",
"H'	c #242C34",
"I'	c #1B2A37",
"J'	c #131F29",
"K'	c #15232D",
"L'	c #12202A",
"M'	c #111C25",
"N'	c #373738",
"O'	c #232B34",
"P'	c #14212A",
"Q'	c #111D25",
"R'	c #232B33",
"S'	c #22313F",
"T'	c #202F3D",
"U'	c #222B33",
"V'	c #373838",
"W'	c #16232E",
"X'	c #233240",
"Y'	c #222A32",
"Z'	c #1F2E3C",
"`'	c #202A32",
" )	c #21303F",
".)	c #23333F",
"+)	c #202931",
"@)	c #1F272E",
"#)	c #111B24",
"$)	c #17222C",
"%)	c #202E3B",
"&)	c #111C24",
"*)	c #0F1820",
"=)	c #0F1920",
"-)	c #101920",
";)	c #101A20",
">)	c #0E181F",
",)	c #0E161C",
"')	c #0F171F",
"))	c #0F1921",
"!)	c #111E28",
"~)	c #1E262D",
"{)	c #121F28",
"])	c #111C26",
"^)	c #0D161E",
"/)	c #101A21",
"()	c #101B23",
"_)	c #101B22",
":)	c #141F29",
"<)	c #131E28",
"[)	c #132029",
"})	c #13222D",
"|)	c #132939",
"1)	c #162530",
"2)	c #1B2229",
"3)	c #142938",
"4)	c #132431",
"5)	c #14222C",
"6)	c #13212A",
"7)	c #132028",
"8)	c #121D27",
"9)	c #25323D",
"0)	c #2B3E4D",
"a)	c #273746",
"b)	c #24313E",
"c)	c #253440",
"d)	c #24333F",
"e)	c #23313D",
"f)	c #23313C",
"g)	c #22303C",
"h)	c #23303C",
"i)	c #23313E",
"j)	c #243440",
"k)	c #283845",
"l)	c #253441",
"m)	c #24313F",
"n)	c #263442",
"o)	c #283744",
"p)	c #273643",
"q)	c #263542",
"r)	c #253542",
"s)	c #263643",
"t)	c #263543",
"u)	c #23323E",
"v)	c #24343F",
"w)	c #25343F",
"x)	c #242F38",
"y)	c #273543",
"z)	c #253541",
"A)	c #243441",
"B)	c #253442",
"C)	c #25333F",
"D)	c #222F3B",
"E)	c #212C39",
"    . + . @ . # $ % $ & * @ % & & & = & - - - ; ; > & , ' > = = & & ; = & = , ' ) ' ' ' ! ~ { { ] ^ / ( ( ( ( ( ( ( ( ( ( ( ( ( ( ( ( ( ( ( ( ( ( ( ( ( ( ( ( ( ( ( / _ ' ' { { { : { ~ < , ' ' [ ' , & & } & ' & & & & ; & & & & = & & | & & 1 % % # 2 % 1 * * % @ *   ",
"3 4 5 5 6 7 5 8 9 7 0 a 0 b c d e e f g e d d g g g 0 h i i g g e g j k l f l m n m n o p q p r s t u ( ( ( ( ( ( ( ( ( ( ( ( ( ( ( ( ( ( ( ( ( ( ( ( ( ( ( ( ( ( ( u v w x r s y q o o i f n w n g e e h a g w l j g e f z z g j i g z A A B C D E 7 7 7 E b 0 0 7 5 9 ",
"F G H H I I J G G K L L M M M L L N O O P P P O Q O R L S T O O U Q S T S V W X Y Z Y `  ...+.@.@.#.$.( ( ( ( ( ( ( ( ( ( ( ( ( ( ( ( ( ( ( ( ( ( ( ( ( ( ( ( ( ( ( %.&.*.=.-. .*.*.;.Y >.S X Z X ,.,.S S S '.V S O O P ).P ,.O S S ,.!.Q Q ~.{.L L M R I R ].L ].I H I ",
"^.^././.(./.^._.:.^.<.<.(.<.<.<.[.}.|.|.<.|.|.|.|.1.[.2.3.1.3.3.3.1.1.3.|.|.|.3.3.4.1.5.6.7.8.9.0.a.b.( ( ( ( ( ( ( ( ( ( ( ( ( ( ( ( ( ( ( ( ( ( ( ( ( ( ( ( ( ( ( c.d.e.f.g.h.i.j.j.j.4.3.4.j.j.3.1.1.1.1.j.k.3.|.3.<.2.|.3.3.4.4.3.|.3.3.|.|.|.|.|.2.(.(.|.|.2.(./.(.",
"l.m.m.m.m.m.m.m.n.o.p.m.o.m.m.q.r.o.s.s.l.p.m.l.m.n.m.l.m.q.n.t.m.o.m.l.u.v.j.k.v.w.m.m.x.y.z.A.B.#.C.( ( ( ( ( ( ( ( ( ( ( ( ( ( ( ( ( ( ( ( ( ( ( ( ( ( ( ( ( ( ( D.E.F. .G.H.I.J.l.l.s.v.v.J.m.q.r.K.L.t.q.L.r.o.m.o.m.o.M.L.q.o.o.o.n.N.O.O.r.L.n.t.m.o.o.m.p.P.m.p.",
"Q.Q.R.R.S.R.d.d.d.0.T.T.T.e.e.U.V.W.W.W.X.Y.Y.Y.Z.Z.W.W.`.K K I  +~..+ +L X ;.@.++@+@.#+$+%+=.B &+*+=+( ( ( ( ( ( ( ( ( ( ( ( ( ( ( ( ( ( ( ( ( ( ( ( ( ( ( ( ( ( ( -+;+>+$+,+'+)+!+~+{+]+ .@..+Q V V S T Q ^+Q G X./+X.Z.(+Y.K _+`.:+W.U.W.W.W.9.<+e.<+e.U.T.S.[+f.T.T.",
"}+|+V V Q U S V S ~.R R R 1+~.Q |+2+Y Y =.Y #+Y 2+2+Q Q Y  . . .@.3+)+]+@.4+B 5+6+&+7+&+8+9+0+a+b+c+d+( ( ( ( ( ( ( ( ( ( ( ( ( ( ( ( ( ( ( ( ( ( ( ( ( ( ( ( ( ( ( e+f+g+h+-.i+j+k+l+m+6+n+>+o+p+o+@+q+r+@. .@.#+s+=.=.t+!+!+u+t+#+2+T Q z.v+z.1+~.v+=.t+=.|+Q |+2+2+2+",
"` !+!+Y T Q T }+w+6+m+x+m+y+z+7+j+A+B+C+D+E+F+E+y+C+y+C+G+H+I+J+K+L+M+N+O+X 5+P+Q+g+y+B+R+S+F.P+T+w+U+( ( ( ( ( ( ( ( ( ( ( ( ( ( ( ( ( ( ( ( ( ( ( ( ( ( ( ( ( ( ( V+6+Q+W+X+E+C+A+Y+Z+`+g+@.+. @.@L++@I+@@#@$@B+C+D+%@D+$@A+B+&@*@j+l+y+=@k+&@&@-@7+m+)+Y =.2+2+|+|+s+",
"7 7 ;@4+>@,@'@>@)@f m+m+6+7+g+b+y+E+E+y+!@E+~@8+y+{@y+y+Y+]@]@]@K+^@/@(@_@:@&+b+<@&+b+[@}@|@4+1@2@3@4@( ( ( ( ( ( ( ( ( ( ( ( ( ( ( ( ( ( ( ( ( ( ( ( ( ( ( ( ( ( ( 5@6@2@7@8@}@R+9@8+7+8+y+0@;+X+&+a@K+%@9@b@c@B+d@$@]@%@R+b@E+y+j+=@=@`+b+e@y+&@l+x r+'@f@_@g@A.X+E.h@",
"5+5+5+i@j@n+B j@A.X -@=@b+l+l+l+y+k@9@D+$@]@$@9@l@Y+E+m@$@L+J+n@n@o@p@q@r@s@a+Q+Q+P+1@t@u@v@w@T+x@y@z@( ( ( ( ( ( ( ( ( ( ( ( ( ( ( ( ( ( ( ( ( ( ( ( ( ( ( ( ( ( ( A@<@8+x@B@C@u@}@D@&+E@2@F@j@G@a+H@C@I@J@%@%@$@b@]@K@]@K+]@L@b@8+x@8+y+{@2@E+E+%@r+~+5+&+M@;@B.>@N@;@",
"6+6+M@6+M@5+6+M@4+..O@P@b+y+y+l+Q@%@K@K+R@S@u@K+u@L@L@9@u@J+T@o@H@T@p@U@W.s@h+{@2@V@W@Y+H@7@w@2@b@C z@( ( ( ( ( ( ( ( ( ( ( ( ( ( ( ( ( ( ( ( ( ( ( ( ( ( ( ( ( ( ( X@`+Q@2@Y@u@Z@R@V@P+R+`+E.u+`@h+ #[@K+T@K+.#K+%@J+K+K@+#T@o@K+%@@#$@c@8+2@Y+D+##o+w@a+b+&+$#;@%#&#E ",
">+6+M@a+&+a+a+M@E E.*#=#y+B+Q@y+d@$@-#;#>#;#S@T@o@K+K+K+K+.#;#;#,#'#)#!#1+~#{#2@x@2@2@]#u@v@f@8+Y+C ^#( ( ( ( ( ( ( ( ( ( ( ( ( ( ( ( ( ( ( ( ( ( ( ( ( ( ( ( ( ( ( /#2@Y+2@(#u@H@$@8+8+R@T+N@X+_#1@T@]@o@Z@T@+#+#:#;#K+K+<#<#>#;#T@.#K+K@$@8+B+$@[#@+;@&+7+}#|#1#~#M@n+",
"M@>+6+6+a+&+2#6+j@0@+@3#E+Y+$@$@%@K+K++#<#;#S@T@4#T@T@S@o@Z@;#4#5#6#7#8#,+M@5+2@[@9@x@Y+n@7@n+9#Y+A 0#( ( ( ( ( ( ( ( ( ( ( ( ( ( ( ( ( ( ( ( ( ( ( ( ( ( ( ( ( ( ( a#2@l@8+b#}@[@R+x@Y+K@y+;@F@c#b+4#d#e#o@4#f#<#g#h#o@K+;#i#j#h#>#>#+#J+9@Q@Y+%@k#l#E m#m#M@6+M@M@6+5+",
"6+6+n#M@M@a+7+Q+o#,@p#L+E+$@K@K+;#^@+#+#;#T@9@K+T@<#,#S@T@,#4#5#4#q#r#s#t#i@E `+[@C@[@L@u@W+E u#l@x v#( ( ( ( ( ( ( ( ( ( ( ( ( ( ( ( ( ( ( ( ( ( ( ( ( ( ( ( ( ( ( w#8+l@2@x#y#/@7@/@C@u@z#9+>@N+P+,#;#n@A#i#B#>#C#D#5#o@,#4#i#j#j#<#<#;#$@Q@B+%@E#F#B &+a+a+G#j@G#n+H#",
"m+&+&+I#5+f+=@l+g+'@J##@Q@E+@#]@.#;#+@;#;#I@l@/@C@;#T@H@;#4#S@d#5#K#L#M#t#G#;@Z+]#R@l@[@[@D@w@/@[@x N#( ( ( ( ( ( ( ( ( ( ( ( ( ( ( ( ( ( ( ( ( ( ( ( ( ( ( ( ( ( ( O#E+L@P#-.7@7@W+[@H@]@l+Q#>@N+b+<#B#o@o@5#>#C#>#j#^@H@H@K++#4#4#5#i#+#[@x@Q@]@R#7 6+7+b+7+g+M@M@M@G#",
"g+=@b+S#&+&+b+b+a+T#I+-#U#2@8+x@[@J+.#.#+#]@b@[@u@T@J+S@,#4#T@,#V#6#W#s#}+X#Y#Z+E@9@n@[@/@1@w@R+]#k v#( ( ( ( ( ( ( ( ( ( ( ( ( ( ( ( ( ( ( ( ( ( ( ( ( ( ( ( ( ( ( a#b@$@T+Z#`#7@ $u@u@l@T+.$r@X+Q+i#i#'#5#4#5#>#K++#;#u@J+u@K+.#T@S@o@S@C@Q@x@]@+$;@&+y+i+=@b+7+m#i@}#",
"g+=@=@b+b+g+}#6+5+,@#@9@y+T+{@{@T+ $K+I+J+K+9@[@]@J+]@H@S@T@@$B#'#5#e##$s+$$E D@E@u@o@K+L@%$'@x@Y+w &$( ( ( ( ( ( ( ( ( ( ( ( ( ( ( ( ( ( ( ( ( ( ( ( ( ( ( ( ( ( ( *$Y+ $=$-$y#/@[@u@L@@#2@%#:@b#Z+4#j#<#>#,#,#T@K+>#^@K@u@I@C@J@K+u@;$K+H@]#Q@[@>$w@&+l+z#y+T+=@&+}#g+",
"g+7+=@b+=@g+}#,$;+l#'$#@T+Z+g+u+/+)$~.~.L R K K I R R ~.V f@H@5#T@4#L#!$F#a+j@2@/@~$I@T@n@P#)$E {@w {$( ( ( ( ( ( ( ( ( ( ( ( ( ( ( ( ( ( ( ( ( ( ( ( ( ( ( ( ( ( ( ]$E@T+Q ^$u@C@C@l@Y+R+2@G#M@/$=@V#<#<#,#l+u+Q z.Q Q R )$)$($~.~.1+ +}+Y+Y+g+Q@>#F#_$T+U#2@b+7+6@g+l+",
"g+`+=@e@=@Q+&+,$5+w@D o+s+s+s+s+]+@.:$=.:$)@:$<$u+@.0++.4++.%@+#,#,#[$}$|$1$h+[@C@u@u@H@n@D@2$R {@S#{$( ( ( ( ( ( ( ( ( ( ( ( ( ( ( ( ( ( ( ( ( ( ( ( ( ( ( ( ( ( ( *$8+w@)$3$ #u@C@]#z#Y+x@4$5$6$T@;#;#4#5#o+F.E.<$7$)+:$:$8$-.<$]+~+9$-.E.+.0$r+n+;@7+2@8+y+T+l+=@=@-@",
"Q+=@j+m+m+b+&+a+5+j@3#6@M@_@@+9$p+a$w@E.r+E.E.]+B.q+A.f@b$k $@K+T@c$4#d$e$f$g$/@C@R@n@R@[@h$i$}+{@m+{$( ( ( ( ( ( ( ( ( ( ( ( ( ( ( ( ( ( ( ( ( ( ( ( ( ( ( ( ( ( ( j$l+a+k$l$n@L@/@]#8+]#m$n$o$p$q$>#o@H@+#r$A+;++.~+E.q+l#+...@+w@-@{+~+;@E 6+k+#@&+P+{@x@U#l+y+l+y+=@",
"S#l+=@=@b+T+&+a+1#>@=#&+|#j@T#F.s$t$>@7 u$v$'.w$x$O s$ .g+M@$@e#e#~$,#y$z$A$B$C$/@[@]#]#7@D$k$}+T+b$N#( ( ( ( ( ( ( ( ( ( ( ( ( ( ( ( ( ( ( ( ( ( ( ( ( ( ( ( ( ( ( ]$T+P+0$E$@#/@7@x@7@[@F$G$H$I$,#u@L@c$+#;@U#)+s${.p+t$'.J$O >@;@r$@+l#K$5+I#k+$@i@7+`+x@y+y+y+y+l+7+",
"7+l+2@`+=@l+Z+a+~#>@#@b+_$w@L$r$F.M$@.K$ .u$N$O$P$Q$W R$T+j@b@u@e#}@ #S$T$U$V$]#b@x@2@Y+2@W$i$Q l+j+N#( ( ( ( ( ( ( ( ( ( ( ( ( ( ( ( ( ( ( ( ( ( ( ( ( ( ( ( ( ( ( X$2@7+0$|+L@y#]#x@C$L@Y$Z$`$ %.%}@}@n@5#w@y+$+L$p+ .J${+'.s$F.l#s$f@f@p++%&+7+%@B g+P#8+{@y+8+y+2@b+",
"Q+g+T+T+2@l+y+T+a+$++@y+a+|#K$p+r$@%#%~+l#q+$%%%p+&%%%!+m#M@d@n@c$}@n@S$*%=%-%7@Y+E@E@x@x@;%i$.+*@>%,%( ( ( ( ( ( ( ( ( ( ( ( ( ( ( ( ( ( ( ( ( ( ( ( ( ( ( ( ( ( ( '%2@7+<$V [@L@[@y#[@[@L#)%!%~%7#{%}@ #]%;@8+]+^%:$o+w+t$/%++;@E.B 6+/%r$g+&+U##@5+P+l+2@2@2@y+U#E+8+",
"g+&+g+g+b+2@2@{@g+;@J#y+a+a+m#K$@.w@(%s$w@o#y+_%A+%@C+g+{@a+d@n@c$~$c$:%<%[%}%]#/@7@W+x@Q@a+i${.j+b$|%( ( ( ( ( ( ( ( ( ( ( ( ( ( ( ( ( ( ( ( ( ( ( ( ( ( ( ( ( ( ( 1%l+g+t+Q t@L@[@ $L@C@Y$2%3%4%7#~$~$n@T@E d@b+{@P#y+i+k+b+o#T#6+a++%4+b+g+g+E+L+5+a+T+2@2@2@2@2@U#l+",
"g+`+l+Q+7+5%1@`+P+;@H+i+Z+g+g+T+f@M@n#H#&#5%x@x@x@R+/@W+W+~#B+o@o@e#r#6%7%8%9%[@C@]#7@7@{@a+i$R =@k+|%( ( ( ( ( ( ( ( ( ( ( ( ( ( ( ( ( ( ( ( ( ( ( ( ( ( ( ( ( ( ( 0%2@g+=.Q t@}@}@/@[@u@L#a%b%c%7#n@~$r#.#>@{@Y+d%7@E+ $Q@2@T+;@g+`+6+2@V@T+`+7@e%j@M@Z+Q+T+P#l+l+b+a+",
"P+`+P#Q+g+g+1@1@g+j@L+E+b+T+T+y+{@m#a+M@$$T+x@Y+Q@E@C$W+{@$#b@u@H@;$c$f%*%g%9%R@]@L@ ${@{@a+|+)$7+e@|%( ( ( ( ( ( ( ( ( ( ( ( ( ( ( ( ( ( ( ( ( ( ( ( ( ( ( ( ( ( ( 0%y+g+=.Q t@/@/@7@/@ #h%i%j%k%,#l%~$C@J@;@7@]#/@7@ $ $l@{@T+E b+P#2@8+2@=${@l@K@5+;%1@T+T+m%P#T+Z+g+",
"Q+P#P#=$;%P+P+;%;%}#6+y+2@W+x@Y+/@{@`+P+M@2@Y+y#@#/@7@n%n%o%y+l@9@@#n@p%q%r%s%I@K+9@[@]#d%m#2+ +7+7+t%( ( ( ( ( ( ( ( ( ( ( ( ( ( ( ( ( ( ( ( ( ( ( ( ( ( ( ( ( ( ( u%M+v%w%S t@]#/@/@u@e#x%y%z%A%,#A#~$~$o@;@7@L@L@[@[@]#]#{@2@j@2@2@2@8+x@P#2@Y+b+~#Z+T+T+1@1@1@P#T+b+",
"Z+;%;%1@T+{@P#W$h+|#g@{@T+2@x@7@7@]#R+T+$#{@x@d%y#B%C$D@V@%#y+]#9#R@n@C%q%D%E%C@H@K+C@L@]#Z+s+R 7+m+|%( ( ( ( ( ( ( ( ( ( ( ( ( ( ( ( ( ( ( ( ( ( ( ( ( ( ( ( ( ( ( F%{@m#s+'.t@[@[@C@~$~$Y$G%H%I%,#.%J%~$.#N@7@L@}@L@t@]#x@8+2@n+{@y+x@Y+Y+2@8+B+'@'+1@K%Q+Z+1@T+T+P#P+",
"Z+a+g+=$V@Q+{@;%1#h+j@8+T+5%{@x@x@/@[@V@L%2@x@x@C$7@C$D@D@F#T+Y+9#u#u@i#M%N%O%}@u@u@]@t@x@g+2+I b+7+|%( ( ( ( ( ( ( ( ( ( ( ( ( ( ( ( ( ( ( ( ( ( ( ( ( ( ( ( ( ( ( F%2@6+2+Q v@d%d%L@~$r#P%G%Q%R%A#}@/@}@.#Y#S%~$~$[@7@7@8+2@T+5+8+x@7@Y+8+P#2@b@G#K%Z+;%=$Z+1@Q+1@n%Z+",
"=$K%1@5%=$W@T%;%1#U%h+8+T+T+{@x@[@9@]@P#1#V@x@7@C$W+W+n%D@%#7+E@Y+Y+C@<#V%W%O%L@]@K@9@ $7@g+2+)$b+b+,%( ( ( ( ( ( ( ( ( ( ( ( ( ( ( ( ( ( ( ( ( ( ( ( ( ( ( ( ( ( ( X%P#}#|+^+8+W+W+[@u@c$x%G%Y%R%A#J%}@C@.#;@]#e#~$L@7@v@{@D@W@n#`+2@7@Y+{@T+T+b@1#;%;%Z+U%U%1@V@V@1@1@",
"Z+;%Z+Z+Z+5%1@m#{#U%h+y+l+P#x@x@ $L@C@{@1#P#x@v@v@v@Z%n%n%;@`+x@W+W+C@<#`% &.&;$K@]@R+/@7@6@2+R b+b+,%( ( ( ( ( ( ( ( ( ( ( ( ( ( ( ( ( ( ( ( ( ( ( ( ( ( ( ( ( ( ( +&2@>+|+{.@&{@2@/@}@n@#&i%$&~%o@/@L@~$T@f@ $C@%&~$J%v@W+D@V@$$1@W+8+]#{@V@{@Y+$#a+Z+P#W@P+1@P+Z+1@P#",
"T+=$1@Z+Z+1@P+P+h+1@;%C+l+P#8+7@Y+R+[@{@{#n%P#n%W+x@W+D@D@%#2@x@V@{@9@5#&&*&=&C@%@9@ $7@@&m#2+R =@b+|%( ( ( ( ( ( ( ( ( ( ( ( ( ( ( ( ( ( ( ( ( ( ( ( ( ( ( ( ( ( ( & l+6+|+~.{@{@D@]#L@u@F$-&;& %c$y#L@u@+#;@ $u@I@L@/@W+D@P#V@G#T+W+W+/@{@W@D@F+~#;%m#T+1@V@P#;%;%T+8+",
"h+1@Z+1@1@1@1@W@Z+;%h+y+T+P#2@8+ $[@[@{@{#Z+D@@&M+x@W+Z%1@N@T+8+{@t@R@}@>&,&'&J%[@l@Y+Y+W+}#2+)&T+m+!&( ( ( ( ( ( ( ( ( ( ( ( ( ( ( ( ( ( ( ( ( ( ( ( ( ( ( ( ( ( ( ~&T+5+}+Q 7@D@V@Y+[@{&]&^&/&(&u@C@[@n@+#w@]#9@C@C@ $v@Z%T+W@E 5%D@{@Y+D@1@W@E+}#;%;%1@W$1@T+1@P+l+{@",
"_&a+1@W@1@T+Z+1@h+a+a+*@U%P+2@7@[@R+R+2@{#T+2@M+x@`#D@:&1@F#P+x@W+ $}@(@<&[&}&v@ $l@Y+M+D@a+2+I b+m+!&( ( ( ( ( ( ( ( ( ( ( ( ( ( ( ( ( ( ( ( ( ( ( ( ( ( ( ( ( ( ( % b+5+s+^+M+{@{@7@7@M+h$|&1&2&P#C@t@C@J+_@ $[@[@L@/@@&@&D@P#w@Z+T+2@7@2@;%T+U#M@1@a+1#1#'+Z+T+T+T+P#",
"'+h+a+Z+T+P#Z+1@h+Z+g+C+P#1@P#[@R+t@t@D@3&@&8+x@/@7@D@V@1@/$P+x@{@7@n@4&5&6&7&2@8+E+8+x@{@i@Q K b+v%!&( ( ( ( ( ( ( ( ( ( ( ( ( ( ( ( ( ( ( ( ( ( ( ( ( ( ( ( ( ( ( 8&T%n+2+R M+M+x@E+8+D@9&0&a&b&}@L@7@}@K+;@ $[@x@/@v@M+M+M+T+4+P+5%V@8+`+Z+P#*@'+Z+a+'+1#}#g+P+P+b+T+",
"a+a+Z+T+P#T+P+P#1@;%g+&@T+a+T+Y+ $ $/@T+{#7@7@v@t@v@D@W@1@F#Q+@&D@x@c&A#d&e&f&Y+B+x@{@{@{@f@Q I P+6@g&( ( ( ( ( ( ( ( ( ( ( ( ( ( ( ( ( ( ( ( ( ( ( ( ( ( ( ( ( ( ( 1 b+;+|+L R+/@ $ $7@h&i&j&k&l&I@[@7@[@J+:@7@/@P#Z%d%x@D@@&T+w@2@{@T+{@T+V@Q+j+1#;%W$K%;%;%m#;%m#o#g+",
"m#T+P#P#T+m%P+P#n%;%a+j+1@a+T%M+]#/@7@m%3&W+/@/@y#7@{@D@n%Q#P+{@{@8+[@5#m&n&o&y#[@Y+l+2@`+E Q K 7+&+g&( ( ( ( ( ( ( ( ( ( ( ( ( ( ( ( ( ( ( ( ( ( ( ( ( ( ( ( ( ( ( | T+;+|+L B+ ${@7@ $@&p&Z$q&r&C@L@ $R+K+F#x@7@n%n%{@v@D@D@P#;@l+x@P#D@T+{@P#y+'+D$W$g+T+1@;%a+a+a+a+",
"1#a+1@Z+'+;%Z+b+n%;%h+k+b+h+D@7@7@d@7@g+G#P#M+M+d%J%7@{@1@F#P+2@{@8+R+i#s&t&u&B%$@b@y+{@Q+;@z.G 7+v&g&( ( ( ( ( ( ( ( ( ( ( ( ( ( ( ( ( ( ( ( ( ( ( ( ( ( ( ( ( ( ( w&P+;+Q R E+{@P#8+d@7@x&y&z&R%{%C@[@[@%&l#{@@&D@n%W+x@W+W+1@F#T+2@2@D@1@V@{@{@M@;%W$m#b+b+Q+Z+g+a+a+",
"3&h+h+;%{#1#m#m#;%;%M@m+v%a+P#7@Y+ $8+a+.$;%T+P#D@{@D@V@Z+/$b+{@D@W+t@o@A&B&B$7@/@x@x@2@T+;@v+/+v%6@g&( ( ( ( ( ( ( ( ( ( ( ( ( ( ( ( ( ( ( ( ( ( ( ( ( ( ( ( ( ( ( C&g+n+Q R 8+P#n%{@M+7@}$D&E&F&{%@#Y+R+G&'@D@8+@&{@W+{@D@P#;%:@l+U#P#1@1@1@{@*@G#a+m#a+6@P+g+b+7+m#M@",
"W$Z+=$1@1#'+a+h+m#a+M@m+b+P+P+{@2@@&P#'+Q#;%Z+W@n%n%h&Z+D$%#a+1@T+{@7@c$H&I&J&{@x@2@P#2@P#j@z./+P+6+K&( ( ( ( ( ( ( ( ( ( ( ( ( ( ( ( ( ( ( ( ( ( ( ( ( ( ( ( ( ( ( L&g+n+Q R 8+T+1@2@x@x@M&D&Q%F&W#I@M+/@]@N@n%2@D@Z%8+V@1@n%;%:@{@{@`+P#Z+;%y+-@N&h+m#;%Z+a+a+g+6@_$}#",
";%T+2@D@Z+Z+Z+W$a+}#M@7+=@T+Z+P+Z+P#b+G#Y#;%;%a+D$U%W@{@h&%#X#W$P#P#{@r#O&P&Q&P#{@2@2@D@{@n+Q _+v%M@K&( ( ( ( ( ( ( ( ( ( ( ( ( ( ( ( ( ( ( ( ( ( ( ( ( ( ( ( ( ( ( R&b+B Q J d@D@1@P#{@x@S&T&U&V&{%L@7@x@9@N@P#{@D@P#W&T+n%1@S+>@`+{@T+1@g+Z+l+z+f@h+U%T+P+M@a+m#a+}#m#",
";%P#2@`+P#1@b+m#a+h+1#7+b+P+P+P+T+8+j+G#N@W$'+1#'+h+T+@&D$Y@i@1@D@P#{@K+z$X&Y&n%D@{@{@{@{@G#Q G 6@B K&( ( ( ( ( ( ( ( ( ( ( ( ( ( ( ( ( ( ( ( ( ( ( ( ( ( ( ( ( ( ( C&b+B |+)$7@{@Z+1@P#{@Z&`& *.&}@ $d%R+c&s@T%x@2@;%P#1@b+1@W$l#l+2@P+P+;%g+g+j+~#g+Q+l+b+o#|#6+a+m#g+",
"a+Z+1@P#T+Z+g+;%h+W$~#.*v%m#m#P+Q+{@l+~#r@W$;%a+h+h+2@{@+*@*a+`+{@W@8+%@#*$*%*b+l+T+P#D@D@$#z.G 6@>+K&( ( ( ( ( ( ( ( ( ( ( ( ( ( ( ( ( ( ( ( ( ( ( ( ( ( ( ( ( ( ( &*P+5+Q J M+D@Z+Q+2@W&|@**=*-*[@x@x@R+@#E.b+8+2@W$1@T+m%g+'+'@=@T+a+Z+;%a+g+*@n+o#a+T+g+}#M@'+a+g+g+",
"1#a+h+P+P+g+Z+g+}#W$G#6@6@a+;%g+b+T%1@G#N@m#Z+Z+'+K%P#1@r@X#l+y+2@2@U#U#;*>*j@1@T+D@P#{@T+j@U K v%k K&( ( ( ( ( ( ( ( ( ( ( ( ( ( ( ( ( ( ( ( ( ( ( ( ( ( ( ( ( ( ( ,*b+i@z.J 7@M+D@`+{@8+g+'*)*b+[@t@D@{@E+j+g@7+P#h++*1@1@1@1@w@b+T+Z+g+Z+a+g+m+;@M@a+7+a+}#m#5+M@a+a+",
"G#M@'+a+T+1@1@;%h+h+$#v&7+a+a+P+P+1@1@~#N@1@1@T%.$;@Z+N@'@7+i+y+l+P#j+o+K |+!*T%2@{@W+@&2@5+U ~*=@k K&( ( ( ( ( ( ( ( ( ( ( ( ( ( ( ( ( ( ( ( ( ( ( ( ( ( ( ( ( ( ( {*=@f@Q R 7@@&W+8+Y+Y+b+#+.+#+U#Y+V@W+Y+B+&+l#g+G#g@a+Z+T+1@4+P+P+P+P+m#h+g+g+j@|#a+m#M@h+h+M@G#~#M@",
"M@'+h+}#Z+T%T%;%;%a+G#6@a+,$a+m#Z+b+1@1#N@D$T+a+8$X#'@r$}#{@8+E+U#;%g@W.~. .*@@&2@W+M+M+{@]*Q J b+6+^*( ( ( ( ( ( ( ( ( ( ( ( ( ( ( ( ( ( ( ( ( ( ( ( ( ( ( ( ( ( ( /*b+E Q )&8+@&8+7@/@R+b@4+L$W. .{@{@@&8+d@E+i@R$a+r+_@P+g+a++%6@;%;%g+;%h+;%b+j@M@Z+m#$#1#{#9+.$9+~#",
"a+'+'+'+P+m%T+Z+a+}#;@}#~#G#3&1#;%g+Z+G#r@;%}#)+f@o%>@m#1@P#E+U#b+'@(*v+u$m#T+P#{@P#{@2@P#;@Q I a+>+_*( ( ( ( ( ( ( ( ( ( ( ( ( ( ( ( ( ( ( ( ( ( ( ( ( ( ( ( ( ( ( :*Q+w@.+)&{@D@7@]#7@x@R+E+B.L$<*$%T+l+{@y+E+P#;+B.i@[*$+M@'+l#g+P+U%a+W$m#a+g+;@M@m#g+~#G#$#Q#;@;@5+",
"a+h+M@'+Z+b+g+a+'+M@j@i@G#;@.$|#;%;%g+~#}*G#]+1#j@|*T+P#1@P#8+{@K$Z.R  .1*Z+a+Z+2@D$n%T+g+;@Q H a+2*3*( ( ( ( ( ( ( ( ( ( ( ( ( ( ( ( ( ( ( ( ( ( ( ( ( ( ( ( ( ( ( 4*7+:@v+)&*@n%W+W+x@7@{@l+*@@+Q W.)+7+E+U#M+{@P+_@F.i@ .g@{#>@g+m#h+'++*'+M@g+;@~#M@m#a+1#G#Q#;@N@M@",
"M@h+}#a+1@P+m#h+'+1#j@i@G#~#1#a+a+a+1@]*>@:$;@.$5*h+{@P#T+P#8+9&6*7*:$v%;%Z+1@1@l+b+T%;%n+Q ~.{.m+;+3*( ( ( ( ( ( ( ( ( ( ( ( ( ( ( ( ( ( ( ( ( ( ( ( ( ( ( ( ( ( ( 8*7+r$.+)$F.}#Z%D@D@M+2@P#b+{@++2+9*0*x@{@8+m%`+P+>@@+a*L$G#l#M@'+W$'+}#~#~#m#N@$#n+W$h+W$'+$#j@o%M@",
"'+o#a+a+g+g+;%h+}#M@9+i@~#a+a+M@'+W$;%n+g@X#;@~+~#m#P#Z+y+Q@b*c*d*e*7+j+a+;%D@D@{@{@l+M@{.)$V f*g*;+3*( ( ( ( ( ( ( ( ( ( ( ( ( ( ( ( ( ( ( ( ( ( ( ( ( ( ( ( ( ( ( h*v%y+:$ +e.g@m%W+W+d%x@{@m#*@E+i*j*k*l*]#E+P+P#l+1@s@g@a*M@@%G#'+W$a+a+|#n+a+r@;@;@1#1#a+h+G#9+Q#1#",
"W$}#}#}#h+a+'+~#1#~#;@,$1#+*a+~#M@M@W$~#;+a*8$}#Z+;%g+Z+{@m*n*o*p*q*l+=@P+n%P#Z%2@2@6@Q /+}+;+b+g+;+3*( ( ( ( ( ( ( ( ( ( ( ( ( ( ( ( ( ( ( ( ( ( ( ( ( ( ( ( ( ( ( r*v%{@T+<$)$(*w@{@V@W+ $M+P#=@~@L#s*t*u*v*x@b+m%1@n%T%~+F.&+g@~#h+'++*'+'+M@_$>@;@%#{#{#+*1#G#9+;@~#",
"a+a+h+M@~#'+{#9+9+G#%#n+~#}#~#j@M@}#~#E.@+)+G#=$a+h+;%T+w*x*y*z*A*B%y+{@T+Z+m%T+P#v%'.V.Q f@l+l+g+;+3*( ( ( ( ( ( ( ( ( ( ( ( ( ( ( ( ( ( ( ( ( ( ( ( ( ( ( ( ( ( ( B*Z+l+D@W&u+_+`.X#T+{@@&D@M+2@{@[@C*D*E*F*G*Q+b+Z+a+T%m#x#/%~+;@'+1#a+a+$#1#M@>@N@N@.$j@1#{#;@;@.$1#",
"|#'+M@1#M@1#1#9+;@G#Y#6+i@}#~#1#,$i@g@D P#D$g+h+a+a+U%H*I*Y%J*K*p@8+2@Z%D@T+n%1@;%}+U.L*'@=@P#P#;%;+3*( ( ( ( ( ( ( ( ( ( ( ( ( ( ( ( ( ( ( ( ( ( ( ( ( ( ( ( ( ( ( M*Q+2@1@2@b+<$_+/+;@P#{@P#Z%@&@&8+[@I$N*O*P*{#Z+m#a+Z+;%m#Z%1*@+j@1#o#h+G#1#Q*F#E j@9+$#$#{#;@;@X#1#",
"1#3&G#X#~#'+h+{#;@j@F#,$Q*a+'+W$~#>@K$a*m#P+a+~#;%;%S+R*S*T*U*m$d@U#{@D@D@D$D$g+=.U.~.'@T+1@Z+T+g+;+3*( ( ( ( ( ( ( ( ( ( ( ( ( ( ( ( ( ( ( ( ( ( ( ( ( ( ( ( ( ( ( V*T+{@P#D@P#v%=./+K 6+b+n%h&M+7@M+8+y#W*X*Y*Z*`*1@g+g+a+;%g+.$R$5*;@}#M@G#X#a+N@G#M@1#j@j@9+j@;@j@M@",
"$#$#G#.$9+$#1#{#9+j@'@B _$M@}#1#'@G#X#}#a+a+h+h+;%9& =.=+=@=m$P#2@2@D@D@T+P+P+:$W.1+F.T%P+m%T+n%g+;+3*( ( ( ( ( ( ( ( ( ( ( ( ( ( ( ( ( ( ( ( ( ( ( ( ( ( ( ( ( ( ( #=2@8+{@D@T+l+6@#+X.R ,$P+P+P#]#7@{@V@7@$=%=&=*===T+b+h+a+a+a+_@;@+.j@M@M@1#6+F#G#M@M@G#$#;@%#;@9+G#",
"9+$#$#G#{#j@G#'+G#G#Y#,$M@1#M@>@-=;@;=W$h+a+;%h+9&>=,='=U*Z&D@n%2@Z%P#{@T+b+r+(*.+@+T+V@P+T%D@P#Z+f@3*( ( ( ( ( ( ( ( ( ( ( ( ( ( ( ( ( ( ( ( ( ( ( ( ( ( ( ( ( ( ( V*l+U#@&W+P#T+*@i@|+`.{._$P+;%P#@&D@n%D@7@)=!=~={=]=1@m#W$i@~#M@'@4+++~#1#1#6@:@N&G#M@~#j@F#F#;@%#N@",
"G#j@3&1#1#G#1#}#3&~#F#a+3&1#3&F#;%Q#1#W$}#g+T+^=/=(=*&_=:=P#;%n%V@D@P#{@g*R$Z.<=[=l+g+1@T+n%P#P#1@K$}=( ( ( ( ( ( ( ( ( ( ( ( ( ( ( ( ( ( ( ( ( ( ( ( ( ( ( ( ( ( ( |=2@8+{@7@2@1@1@W&B Q W.Q m#m%D$D@D@T+1@W@1=2=3=4=5=6=o#;%M@M@M@_@g+>@5+9+1#v%'@;@j@G#M@j@N@Q#Q#.$;@",
"j@G#G#1#$#G#M@|#N&j@b+P+}#'+~#_&W$>@1#}#a+;%7=8=9=0=a=b=W@P+m#n%V@1@P#D@F.c=R )+*@P+W$1@P#D@2@2@1@'@}=( ( ( ( ( ( ( ( ( ( ( ( ( ( ( ( ( ( ( ( ( ( ( ( ( ( ( ( ( ( ( d=b+W&{@x@D@P#D$g+U#X#~.e=V m#D$D$T+2@n%T+1@f=g=h=i=j=k=h+1#M@M@F#g+_@G#;@G#m#m+/$;@;@G#9+$$;@9+;@;@",
"j@j@j@$#9+G#G#N&~#;@m#Q*~#G#G#N@{#o+.$}#|#U%l=m=n=o=p=D@1@;%W$W@P#T+P+w@(*J @.b+1@W$h+;%P+2@{@P#a+{+( ( ( ( ( ( ( ( ( ( ( ( ( ( ( ( ( ( ( ( ( ( ( ( ( ( ( ( ( ( ( ( q=a+{@@&2@V@T+1@W$T+U#r= +s=;.m#W@W+T+P#P#;%P#1=g=t=u=v=w=G#'+~#>@;@F#$#9+9+6+a+X#;@N@;@;@j@E j@9+$$",
"w@;@j@.$$#9+G#G#x=>@$#~#;@]+_@;@N@7$j@~#3&y=z=B&A=B=Z%P+;%m#D$m%1@D$_@_+K C=x+T%;%1#'+Z+m%l+T%g*n+X }=( ( ( ( ( ( ( ( ( ( ( ( ( ( ( ( ( ( ( ( ( ( ( ( ( ( ( ( ( ( ( D=:@b+{@D@D@T+1@1@T+v%*@F.J E=@.Z+@&2@n%D@T+Z+Z+S&F='=**G=.$m#5+g@|*F@}#=./$j@M@'@F#;@N@F#E E ;@f@f@",
"Q#;@9+3&9+Q#.${#{#'@G#G#H=w%n+;@Q#]+j@n+I=J=K=L=M=h$Z+U%a+D$n%n%;%X#J /+!+y+b+;%Z+'+W$P#T%T%m#_$N=^+O=( ( ( ( ( ( ( ( ( ( ( ( ( ( ( ( ( ( ( ( ( ( ( ( ( ( ( ( ( ( ( P=V ,$P+P#W&n%;%Z+1@m#P+{@~+I <*{+2@Z%1@P#T+1@a+;%S&Q=R=S=,$6+M@g@B.B.G#u+8$.$G#4+w@w@;@$+;@;@j@j@~#",
";@;@j@9+Y#/$9+G#$#_@]*1#|*X#,$j@}*v$j@M@{#T=;*x=g+a+}#+*W$1@V@n%h+r@L V U=g+a+m#;%W$h+n%g*;%P+]+|+V=W=X=( ( ( ( ( ( ( ( ( ( ( ( ( ( ( ( ( ( ( ( ( ( ( ( ( ( ( ( ( ( ( Y=!+m#b+l+1@;%;%1@;%M@m#j+2+ + .g+%$Z+P#n%;%'+_$m#Z=`= -M@>+X#H=F@>@M@G#..~#M@_@r@Q#.$F#N@F#;@9+$$",
"H=r@.-H=H=+-r@r@H=j@'+n+a+M@9+F#N@@+~#'+j@@-#-@%6+'+_&1#'+;%;%D$a+>@}+.+C i@'+W$;%D$K%b+v%;%2@_#$-%-&-Q *-( ( ( ( ( ( ( ( ( ( ( ( ( ( ( ( ( ( ( ( ( ( ( ( ( ( ( ( ( ( }==-{@D@n%m%;%D$m#m#1#~#{@~.v+V P+T+Z+;%U%h+1#i@M@w@z._++%i@~#r@F.g@~#3&m#}#,$4+5*>@F#--X+H=>@H=>@",
"x@d@R+d@;-@&P#T%P+W&,$f@3&M@G#'@N@@+~#7+6+>-.+@%&+a+h+'+h+;%;%1@Z+g@}+R f@_$a+M@+*;%,-m#P+m#D@'-)-!-~-{-]-( ( ( ( ( ( ( ( ( ( ( ( ( ( ( ( ( ( ( ( ( ( ( ( ( ( ( ( ( ( ( ^-}@W&T%P+W$;%W$W$'+G#b+($.+L$7+P+P+h+;%m#'+i@6+4+.+Y.@%i@M@F#F.5*~#}#a+a+}#a+{@E+8+M+x@C+y+l+y+",
"a+g+g*P+m#M@'+}#5+g*W$1#3&M@M@4+Q @._$T+_$)$/-F.1@1@;%a+h+U%W$;%T+B.2+ +!*Q*,$'+1#W$m#g+_$W$h&(-_-:-<-[-}-( ( ( ( ( ( ( ( ( ( ( ( ( ( ( ( ( ( ( ( ( ( ( ( ( ( ( ( ( ( ( |-1-n%h+g+m#m#m#1#{#~#g+($|+W m+m#m#a+m#;%'+1#2-Y#v+Y.o+n+o#>@R +.M@}#a+}#6+B g+7+7+7+m+&+6+a+a+",
"~#}#a+W$h+m#m#}#~#g+a+M@}#M@,$$+ +]+a+&+;+_+L*3-4-5-6-+*D$1@W$'+P+@+|+ +w@M@W$W$1#'+'+M@]+Y#|@R*7-8-9-0-}-( ( ( ( ( ( ( ( ( ( ( ( ( ( ( ( ( ( ( ( ( ( ( ( ( ( ( ( ( ( ( a-b-W$R m#W$h++*G#9+{#m#)$/-W _$;%;%1@P+;%+*c-d-e-Q _+M$i@M@F@_+o+M@a+}#a+a+5+m#&+&+g+a+M@a+v%M@",
"n+M@}#a+a+g+b+a+}#a+a+a+'+,$1#>@1+!+n+1#;+)$i$f-g-h-i-+*h+Z+W$_&g+E./- +w@~#h+'+1#a+m#i@0$r@v@R*j-k-l-m-}-( ( ( ( ( ( ( ( ( ( ( ( ( ( ( ( ( ( ( ( ( ( ( ( ( ( ( ( ( ( ( a-b*;%2$1@m#1#3&{#j@~#m#K Q Q ,$}#1@1@;%W$H*n-o-p-s+($E.n+n+5*~.p+M@a+M@}#M@n+}#g+a+m#a+5+M@a+i@",
"G#}#}#}#*@;%}#a+a+,$M@M@~#~#G#g@1+=.E n+B )$q-r-s-t-u-'+'+Z+m#'+v%@+2+R r$~#a+a+m#;%Z+_$]+'@v-w-x-y-z-A-}-( ( ( ( ( ( ( ( ( ( ( ( ( ( ( ( ( ( ( ( ( ( ( ( ( ( ( ( ( ( ( a-B-P+1+T%g+'+1#3&1#'+v%_+Q W a+v%;%1@P+a+C-D-E-F-s+I E.n+n+@+~.)+i@M@}#M@i@w@5+&+m#}#M@G#~#M@;+",
"G#}#v&6+_$~#~#M@5+n+,$a+~#n+n+>@1+u+n+}#;+ +=.r-G-H-2-~#K%1@Z+W$b+F.#+ +r$~#a+a+g+g+P+&+~+N@n%U@I-J-K-0-}-( ( ( ( ( ( ( ( ( ( ( ( ( ( ( ( ( ( ( ( ( ( ( ( ( ( ( ( ( ( ( L-M-C-/-T%m#m#W$S++*'+P+K Q #+7+P+Z+g+T+a+W$N-O-F-s+)$F.5+6+@+ +s$>+M@6+}#5+w@E 5+M@1#j@~#a+B ;+",
"K$P-!*2*>@>@w@g@|*4+,$a+~#n+n+|*1+ .B |#E K s+Q-R-S-S+1#a+1@a+;%P+F.|+K r$~#a+m#v%P+m#&+*@;%Z%T-U-V-W-X-}-( ( ( ( ( ( ( ( ( ( ( ( ( ( ( ( ( ( ( ( ( ( ( ( ( ( ( ( ( ( ( L-]=,-a+m%M@m#;%'+1#1#v%K Q L$7+P+a+Z+P+;%+*Y-Z-`-2+R l#a+6+@+R @+>+}#M@M@5+4++%@+@+l#l#4+(%4+F.",
"=.!+]+=.}+s+}+Q z.r+n+_$~#M@i@'@;@)+n+|#7 _+2+B. ;U%'+'+'+Z+g+W@T+r$V K ^%~#h+m#m#P+m#m#T%m%v@.;+;@;#;$;%;( ( ( ( ( ( ( ( ( ( ( ( ( ( ( ( ( ( ( ( ( ( ( ( ( ( ( ( ( ( ( &;*;D$;%;%6+a+g+}#~#~#b+)$Q X 7+;%;%P+D$W$'+'+=;;@V ($r$6+5+F@E.'@M@M@}#}#n+~+=.|+|+Q Q s+#+=.}+",
"w@'@E w@'@4+'@B.F.@%5+a+M@M@M@F#w@o+n+'+f@-;|+@+M@}#'+'+G#m#g+b+P+r$|+R +%M@h+m#g+b+P+g+;%g+b+_#G=;;>;U@*-( ( ( ( ( ( ( ( ( ( ( ( ( ( ( ( ( ( ( ( ( ( ( ( ( ( ( ( ( ( ( ,;~#;%+*;%6@a+P+a+5+M@k+R T X 7+T+P+l+Z+W$9+~#&+w@Q )&@%6+n+B.E.@+n+M@i@|#i@@+>@;@;@$+>@>@'@'@4+",
"n+j@i@5+;+f@n+;+4++%B }#'@j@~#'@>@o+i@M@w@Y.2+F.>+a+{#{#1#W$m%g+a+'@|+ +4+n+a+}#m#P+a+g+m#b+;%1#$+';);}-( ( ( ( ( ( ( ( ( ( ( ( ( ( ( ( ( ( ( ( ( ( ( ( ( ( ( ( ( ( ( !;K$v%P+m#P+a+a+b+g+,$a+_$R V ~;7+T+7+T+P+a+G#M@&+K$Q _+@%,$6+F.r+~+i@G#E.E n+|*_@~#~#j@j@j@n+j@;@",
"j@j@n+X#E G#~#f@;@l#M@n+R$]+&#F.l#..5+5+K$2${;/$g+a+M@G#'+W$h+a+a+n+s+v+L$j@a+m#W$h+M@m#7+g+h+,$_$5*];( ( ( ( ( ( ( ( ( ( ( ( ( ( ( ( ( ( ( ( ( ( ( ( ( ( ( ( ( ( ( ^;!*.*}#m#b+g+~#M@P+m#M@,$..)$2+@+7+b+g+1@a+a+M@&+m+$#l$2$+%M@i@++r+o+j@o+@.E j@@+$+j@~#j@G#9+n+E _@",
"F#N@j@X#E j@9+;@F#F.a+E f@@+j@F.H=+.B i@&+-$/;(;_;+*G#G#h+~#1#1#h+U#-==.:+V n+a+}#}#'+a+6@P+m#g+a+$+z@( ( ( ( ( ( ( ( ( ( ( ( ( ( ( ( ( ( ( ( ( ( ( ( ( ( ( ( ( ( ( :;x _$|#b+P+g+M@M@m#g+5+~+(*z.~+y+7+P+W$m#}#6+6+Z+b-<;[;};6+B j@o+]+..5+9$j@;@G#@+g@;@j@j@j@G#j@;@F#",
"F#E j@f@n+|;G#E :@@+i@M@;@G#X#g@F#..j@A A 1;2;3;4;5;+*}#'+~#'+'+'+m#8+$+Q e.` M@m#}#a+m#P+P+P+m#n+o+6;( ( ( ( ( ( ( ( ( ( ( ( ( ( ( ( ( ( ( ( ( ( ( ( ( ( ( ( ( ( ( 7;X#}#g+P+;%g+M@,$_$6@g@(*>-8$j+v%m#Z+a+}#'+o#a+B-8;9;0;a;&+K$f@~+~+..X#;@;@;@~#5*H=N@E w@;@;@;@$+F#",
";@E f@n+M@n+5+f@'@@+j@a+j@n+f@>@a+F@B B f@Q+b;c;d;e;f;S+1#+*+*h+1#1#a+{@5*{.e.]+M@a+m#6@b+g+m#g+M@~+^;( ( ( ( ( ( ( ( ( ( ( ( ( ( ( ( ( ( ( ( ( ( ( ( ( ( ( ( ( ( ( g;n+v%P+m%;%Z+6+a+&+'@`._+}+m+7+g+a+g+g+g+a+h+h;i;j;k;J&D@5+4+E 5*f@~+;@;@;@;@G#@+>@F#;@N@N@Y#&#;@;@",
"j@j@j@n+3&j@;@F#}*9$)+M@6+n+w@B.}#B.B B j@B D@l;m;n;o;p;'+'+W$+*W$'+M@}#T%9$q;U.o+}#_$6@7+m#m#a+M@F.r;( ( ( ( ( ( ( ( ( ( ( ( ( ( ( ( ( ( ( ( ( ( ( ( ( ( ( ( ( ( ( s;5+a+a+P+P+P+_$a+4+G K V >+}#}#;%a+g+a+&+}#t;u;v;w;x;m$_$B j@;@5*j@F@;@f@;@j@F.7$H=N@N@r@r@r@N@;@;@",
"j@;@;@j@G#;@;@;@F#F@t+:@5+n+X#r$B 4+f@5+5+;+n+y;z;A;B;C;D;%$1@;%;%W$a+M@,$j+:$K e.o+;+a+g+a+g+m#X#B.E;( ( ( ( ( ( ( ( ( ( ( ( ( ( ( ( ( ( ( ( ( ( ( ( ( ( ( ( ( ( ( F;>+a+a+a+&+&+_$'@/+`.|+C n+1#m#P+g+a+~#g+h&a&G;H;I;J;h+G#i@G#:@@+X#>@G#;@N@_@q-X+F#;@.$F@H=.-F#;@N@",
";@;@F#w@;@N@N@;@F#/$|*F#5+n+n+,$_@X#g@f@5+n+j@~#B%K;L;M;N;O;D$;%;%;%a+a+i@a+v%w%_+d...n+6+&+m#a+;@B.P;( ( ( ( ( ( ( ( ( ( ( ( ( ( ( ( ( ( ( ( ( ( ( ( ( ( ( ( ( ( ( Q;i@_$6+a+m#M@;@J `.'.;+_$E G#a+7+m#m#}#m#R;S;T;U;V;a+$${#M@.$H=X#;@}#~#j@;@N@x#}*N@Q#$+W;H=Y#;@E N@",
":@w@>@;@o%;@$#j@;@;@/$4+j@w@j@i@}#;@K$F.;@~#M@M@}#X;Y;Z;`; >U%Z+a+'+}#'+M@5+>+.>}+(*d.@+i@,$M@M@;@F.P;( ( ( ( ( ( ( ( ( ( ( ( ( ( ( ( ( ( ( ( ( ( ( ( ( ( ( ( ( ( ( Q;2*}#a+g+m#;@R X.Q K$6+}#j@5+a+;%'+;%;%+>@>#>$>%>;%~#w@j@G#>@$+;@G#3&j@;@;@'@5*r@w@F#N@r@F#N@N@Y#/$",
">@>@r@%#/$N@G#$#;@;@/$$+;@N@E ;+n+5+_@r$F.j@M@}#M@a+&>*>=>->;>9&a+M@}#}#a+M@5+_$_$>>`.U.B.5+M@,$E >@P;( ( ( ( ( ( ( ( ( ( ( ( ( ( ( ( ( ( ( ( ( ( ( ( ( ( ( ( ( ( ( Q;i@M@a+a+n+~.:+.+l#6+>+~#n+M@}#m#P+W@,>'>)>!>~>1@j@j@j@;@$+r$g@.$j@;@;@;@N@l#F@F#F#F#Y#N@$+;@F#>@>@",
">@|*:@r@>@Y#j@j@N@/$>@'@;@N@;@j@w@;@M@!*R$F.X#,$'+G#,$d%{>]>^>/>S+,$n+,$a+M@,$6+>+>+=.(*(>r$i@,$f@l#_>( ( ( ( ( ( ( ( ( ( ( ( ( ( ( ( ( ( ( ( ( ( ( ( ( ( ( ( ( ( ( :>B M@M@n+Q V.L*r$&+_$M@M@M@5+a+P+D$<>[>}>|>{%;%j@;@;@;@g@g@3+f@-=$+N@;@Q#N@;@@+$+;@;@Q#;@F#N@>@H=F#",
"|*>@r@>@r@F#w@N@Y#F#>@'@;@N@;@w@'@:@n+_$4+C=o+_@G#j@E 5+1>2>3>4>5>D$M@_$_$a+a+6+2*.@C '.6>`.l#M@;@g@P;( ( ( ( ( ( ( ( ( ( ( ( ( ( ( ( ( ( ( ( ( ( ( ( ( ( ( ( ( ( ( 7>;+n+n+}+W..+F.6@M@,$5+6+M@_$m#m%8>9>0>a>b>m#_@;@j@;@g@t+f@_@f@$+F#_@;@F#F#$+5*'@;@;@9+;@r@>@g@|*$+",
"H=/$N@F#r@G@N@F#F#F#H='@;@E ;@&#w@'@K$l#5*^%#+o+Y#;@$#E H*V&(=c>d>p;'+_$>+M@M@i@n+i@&+w@Q e./+4+w@B.P;( ( ( ( ( ( ( ( ( ( ( ( ( ( ( ( ( ( ( ( ( ( ( ( ( ( ( ( ( ( ( 7>K$;+#+e=~.F.7+i@j@n+M@a+m#a+;%t;V%e>f>g>n%;@.$;@w@B.}+>@F#..l#r@F#j@%#Y#w@F#5*>@F#Q#;@F#>@>@>@H=F#",
"r@/$%#F#F#r@F#F#r@r@5*'@f@E E N@_@4+w@E.7$@+|*}+E.E 5+;+X#n%h>i>j>k>F#B 6+M@6+M@X#;+;+&+4+.+E=I 4+B.P;( ( ( ( ( ( ( ( ( ( ( ( ( ( ( ( ( ( ( ( ( ( ( ( ( ( ( ( ( ( ( l>B )+9.>-v$j+n+E j@i@i@6+}#M@B m>n>f>o>@&n+;@;@E F.2+W;F.H=:$>@F#w@j@;@F#N@l# @F@F#/$;@r@H=r@>@>@F#",
"r@Y#;@F#F#r@r@r@>@}*5*B.;@w@K$F#N@;@E B.+.p>F.>@V {+E B B ~#h&q>r>s>)$l#5+~#i@>+i@5+;@f@a+@+)&e.$+g@P;( ( ( ( ( ( ( ( ( ( ( ( ( ( ( ( ( ( ( ( ( ( ( ( ( ( ( ( ( ( ( l>;+ .Y.Q j+B E X#6+a+}#i@i@n+#+t>u>v>v@i@n+j@w@4+#+F.$+#+|* .>@$+w@N@N@'@w@l#c#H=r@r@o%F#>@r@>@>@F#",
"s@r@>@F@r@>@r@r@H=X+9$@+;@;@j@;@;@w@K$>@w>f*r+>@g@V @+j@n+j@i@g+_$=.Y.)&4+f@i@i@i@;+K$K$f@]+K W.g@@+P;( ( ( ( ( ( ( ( ( ( ( ( ( ( ( ( ( ( ( ( ( ( ( ( ( ( ( ( ( ( ( x>E t+K /+f@n+X#G#}#m#M@f*X#u+_+2+G#2@m#M@n+w@B.=.5*4+8$X#>@:$'@F#F#F#N@F#N@l#c#F@H=s@$+N@F#r@r@@+r@",
"r@>@H=B.r@H=H=H=F@~+..E.:@F#j@j@;@f@;+'@b#;@B o+'@l#}+E.w@E ;@5+b$;+}+/+{.4+n+i@5+j@E ;@K$ ._+W.B.F.P;( ( ( ( ( ( ( ( ( ( ( ( ( ( ( ( ( ( ( ( ( ( ( ( ( ( ( ( ( ( ( y>f@=.Y.e.w@;@;@j@M@a+5+B  ._+Q R$T+6+}#M@E B.#+|*$+@._@w@>@:$l#F#r@F#F#F#:@>@c#F@|*F#N@;@/$F#.-F@--",
":@N@F#F#F#--F@>@H=+-b#~+|*g@F#N@w@;@i@'@..F#X#6@C=>@X+Q E.w@f@E 5+v%f@Q W.O E M@,$j@;@X#f@u+_+e.T#s$z>( ( ( ( ( ( ( ( ( ( ( ( ( ( ( ( ( ( ( ( ( ( ( ( ( ( ( ( ( ( ( A>(%#+Y.e.w@j@w@N@n+I#i@~+(*L*F.y+a+~#9+$#w@=.o+w@=.K$w@$+g@u+>@r@:@w@;@Y#F#>@c#X+H=Q#N@&#Y#N@F#}*.-",
"N@;@;@$+N@F#r@>@>@.-F@@+F#F#w@w@E X#;+F.7$r@;@~#i@;@;@~+#+'@;+$+w@>+k+_@1+W.r+X#B j@f@X#n+..B>9.F.@+z>( ( ( ( ( ( ( ( ( ( ( ( ( ( ( ( ( ( ( ( ( ( ( ( ( ( ( ( ( ( ( A>E }+Y.e.;@;@F#F#;@5+w@G R 7$b+&+i@j@f@;@o+]+;@;+'@K$'@r@H=` >@r@'@F#$+;@>@l#~+F@H=;@N@$+r@N@N@>@>@",
"F#F#N@N@F#'@F#/$r@r@X+X+:@:@_@;@f@E f@F.C>|*r@;@;@F#;@r@9$=.f@j@;@n+>+7+L*D>@.;+X#o%w@E E E>Y.0.B.5*F>( ( ( ( ( ( ( ( ( ( ( ( ( ( ( ( ( ( ( ( ( ( ( ( ( ( ( ( ( ( ( A>w@Q Z.9._@N@N@4+4+n+4+G>,+}#g+a+G#j@n+o+]+r@;@j@r@w@N@>@H=u+>@>@H=F@>@r@X+g@@+>@H=F#F#F#}*r@F#F#r@",
">@:@'@r@r@F#'@F#--F@b#@+:@F#F#4+_@E _@E.u+|*>@;@;@:@;@$+W;{;l#K$E K$5+o#H>I>J>f@f@w@4+E ;@:$Y.d.F.@+F>( ( ( ( ( ( ( ( ( ( ( ( ( ( ( ( ( ( ( ( ( ( ( ( ( ( ( ( ( ( ( A>w@Q X.0.4+_@N@;@j@i@9+K>L>M>M@|#~#n+j@V F@F#;@j@:@:@F#>@>@u+B.:@>@H=>@>@F@B.5*r@F#.->@>@F@H=>@F#r@",
">@F#F#:@F#;@F#r@F@5*b#@+'@F#w@;@_@w@;@F@<$B.r@w@;@F#F#s@>@C>9$:@;@_@5+1@N>O>P>7 f@f@;@j@;@-._+0.B.E.z>( ( ( ( ( ( ( ( ( ( ( ( ( ( ( ( ( ( ( ( ( ( ( ( ( ( ( ( ( ( ( Q>8 Q :+T.'@;@N@;@G#M@R>S>T>U>a+N&.$j@;@s+|*r@j@X#'@V>r@s@g@:$>@:@r@>@H=F@F@F.@+'@F#>@>@r@H=H=r@>@r@",
"8@r@r@'@r@w@'@H=5*X+A.E.'@F#w@w@_@;@;@@+:$>@$+&#;@N@r@--}*8$+.:@$+'@f@Z+W>X>Y>;@;+B ;+f@f@@._+T.F.++F>( ( ( ( ( ( ( ( ( ( ( ( ( ( ( ( ( ( ( ( ( ( ( ( ( ( ( ( ( ( ( Q>w@V X.0.'@;@w@Q#;@n+==Z>`> ,h+G#o%N@N@0$g@:@j@X#r@H=>@>@B.:$F.$+_@_@>@|*F@g@@+F#r@>@>@F#F#F#'@:@l#",
"H=>@B.>@B.r@F#|*5*X+9$++'@F#>@B.B.F#4+~+C>/$F#F#;@N@r@r@>@:$E._@'@>@j@Q+.,+,@,N@7 B ;+5+;+:$_+9.F.r+F>( ( ( ( ( ( ( ( ( ( ( ( ( ( ( ( ( ( ( ( ( ( ( ( ( ( ( ( ( ( ( #,4+Q B>0.'@;@$+N@w@E ==$,%, ,'+;@N@w@;@=.'@;@G#j@:@>@>@>@B.]+F.F#;@E F#>@H=B.@+>@H=H=g@r@F#$+'@:@F#",
"B.:@F.F@B.B.l#|*5*E. @++r$B.>@B.>@'@w@E.:$H=:@F#N@N@F#r@>@u+o+'@:@F#f@Z+&,*,=,Y#K$B |;n+B =./+9.s$q+F>( ( ( ( ( ( ( ( ( ( ( ( ( ( ( ( ( ( ( ( ( ( ( ( ( ( ( ( ( ( ( -,4+Q Y.0.'@$+:@'@'@;@==;,>,,,1#;@N@F#_@|+F#w@;@E '@>@B.'@l#:$>@F#;@E w@F@:@B.5*@+X+F@F@>@B.B.B.'@l#",
">@F#g@F@F@>@g@B.F@E. @o+l#F.H=l#g@F#;@F@0+F@>@%#;@;@o%r@>@<$..>@$+_@'@o#',),!,Y#K$;+n+G#n+t+Y.d.q+o+F>( ( ( ( ( ( ( ( ( ( ( ( ( ( ( ( ( ( ( ( ( ( ( ( ( ( ( ( ( ( ( -,;@Q ~,T.l#:@>@'@:@%#{,],^,,,_&;@N@F#w@V 4+$+N@w@>@'@F#'@B. .F.F#'@_@r@H=$+:@9$w>X+X+W;:@>@B.l#l#B.",
"F#$+g@@+g@>@F.X+/,E. @r+F.F.>@B.F.'@w@@++.B.>@N@.$;@N@:@H=u+M$,@F#$+F#h+(,_,@,%#w@;@5+G#;@u+Y.R.++)+F>( ( ( ( ( ( ( ( ( ( ( ( ( ( ( ( ( ( ( ( ( ( ( ( ( ( ( ( ( ( ( #,w@Q V.0.>@:@$+F#:@%#:,<,[,,,},;@r@/$w@V F#w@'@>@g@,@'@>@|* .B.>@:@>@>@|*>@l#A.5*b#@+'@$+g@F.F.E.F.",
":@>@E.F@>@l#B.E.F@B.o+o+F.l#:@g@l#B.>@5*]+|*'@w@_@Y#r@>@g@<$q+4+F#r@w@M@|,1,2,r@_@f@n+j@w@u+(+R.E.o+F>( ( ( ( ( ( ( ( ( ( ( ( ( ( ( ( ( ( ( ( ( ( ( ( ( ( ( ( ( ( ( 3,w@V Z.S.l#F#N@;@;@%#4,5,>,6,j@F#.-N@E T F#7 F#>@F.B.l#|*E.t+@+l#>@g@g@X+>@l#~+F.F@>@$+F#l#F@E.E.F.",
"F@X+5*5*E.>@g@E.F@X+o+++B.g@'@>@F#>@@+..]+>@$+'@N@F#>@>@B.:$++w@'@>@E M@7,8,9,.-$+K$X#;@w@7$(+R.s$o+F>( ( ( ( ( ( ( ( ( ( ( ( ( ( ( ( ( ( ( ( ( ( ( ( ( ( ( ( ( ( ( 0,8 }+Z.Q.l#o%w@;@w@/$e-a,b,c,;@w@r@w@w@Q l#7 4+B.B.>@F.|*E.=.g@g@F#'@F@w>F.B.~+B.l#>@>@F#l#F@E.B.B.",
"5*@+F.@+E.B.F@E.5*5* @o+F.B.'@F#w@>@@+9$u+>@w@'@F#'@:@>@>@t+E.7 4+w@j@d,e,f,g,g@'@w@K$E w@7$Y.R.s$M$F>( ( ( ( ( ( ( ( ( ( ( ( ( ( ( ( ( ( ( ( ( ( ( ( ( ( ( ( ( ( ( h,4+}+W.[+'@;@$+&#F#'@i,j,k,l,r@w@>@:@F#Q F.w@4+F.B.>@B.|*E.` @+>@$+F#F@5*F.B.o+F.B.l#g@:@B.B.@+F@E.",
"E.|*'@g@>@:@F.E.@+E. @r+F.F.F.>@4+l#>@..t+@+Y#$+w@r@:@r@|*0$M$4+7 w@w@`@m,n,o,B.'@l#F#N@_@+.-;Q.@+p+F>( ( ( ( ( ( ( ( ( ( ( ( ( ( ( ( ( ( ( ( ( ( ( ( ( ( ( ( ( ( ( 3,4+}+e.Q.w@;@F#w@:@>@p,q,r,s,B.4+>@B.'@Q F.w@'@F.B.:@F#>@~+` F@F@>@g@t,A.E.T#..E.E.B.F.F.B.@+@+5*E.",
"~+F@:@B.l#'@:@F.E.5*~+)+@+@+B.>@4+'@'@o+=.5*:@r@$+>@>@B.F@q-$%l#w@;@G#S&u,v,w,t,'@l#'@r@'@:$Y.R.{+o+F>( ( ( ( ( ( ( ( ( ( ( ( ( ( ( ( ( ( ( ( ( ( ( ( ( ( ( ( ( ( ( x,:@V <+[+4+;@_@F#'@_@y,z,A,B,H*$+g@:@'@Q B._@'@B.@+>@F#>@E.u+E.@+E.E.5*9$5*F...E.F@>@F@g@@+|*F.@+5*",
"E.F@>@F.F.:@'@'@B.E.~+o+@+E.g@l#'@:@B.+.s+5*g@>@r@H=|*H=F@s+@.'@l#>@$+S+C,D,E,B.'@8 $+$+F.=.Z.R.F.#%F>( ( ( ( ( ( ( ( ( ( ( ( ( ( ( ( ( ( ( ( ( ( ( ( ( ( ( ( ( ( ( F,@%S e=[+4+j@;@w@;@;@7&G,H,I,9+>@H=|*l#Q l#$+g@F@5*F.:@B.++;.E.E.@+5*5*9$5*F.+.@+B.:@:@>@@+B.F.F@E.",
"|*F@>@B.g@>@l#:@g@@+o+o+@+E.g@>@:@g@@++.s+~+E.>@:@F@F@>@F@s+@.'@>@g@'@J,K,L,2,>@,@,@l#4+g@}+:+[+@+o+M,( ( ( ( ( ( ( ( ( ( ( ( ( ( ( ( ( ( ( ( ( ( ( ( ( ( ( ( ( ( ( F,@%Q W.S.4+j@N@w@_@;@N,O,P,;>;@B.>@|*'@Q @+B.W;>@X+E.B.R$+.V o+5*E.5*~+A.~+{++.E.F.B.l#F.@+F.B.E.B.",
"|*g@B.F.0@B.F.F.B.F. @o+@+E.B.F@E.5*5*]+2+..A.E.|*@+H=>@F@}+)+B.g@g@'@Q,K,R,Y>r@+%8 l#l#F.i$V.Q.M$p+M,( ( ( ( ( ( ( ( ( ( ( ( ( ( ( ( ( ( ( ( ( ( ( ( ( ( ( ( ( ( ( F,l#v+W.S.r$N@r@'@:@N@S,<,T,U,Y#B.:@g@F@v+~+F@|*@+X+@+@+E.-.Q o+~+5*5*~+ @o+@+)+q+E.E.E.E.E.@+B.0@B.",
"5*F.B.F.F.T#|*F.g@@+..r+@+E.E.5*9$ @o+:$2+..5*A.5*X+H=F@5*i$r+@+B.:@:@J,V,W,X,;@f@w@4+l#@+|+Z.Q.#%p+M,( ( ( ( ( ( ( ( ( ( ( ( ( ( ( ( ( ( ( ( ( ( ( ( ( ( ( ( ( ( ( Y,B.1+e.Q.B.l#g@>@B.>@+>Z,`,6,;@r@$+F#B.1+9$E.@+~+@+@+E...u+U ..o+5*5*~+o+~+F.@...o+~+9$....E.0@F.F.",
"A.5*F.@+F.B.@+F.F.E.)++%g@E.A.9$..~+5*]+2+..9$ @E.|*F@X+5*2+M$0@B.:@:@+*(, 'X,;@K$8 4+F#B.V :+Q.++++M,( ( ( ( ( ( ( ( ( ( ( ( ( ( ( ( ( ( ( ( ( ( ( ( ( ( ( ( ( ( ( .'B. +9.Q.F.l#>@F@X+>@+'Z,@'#'x=F#N@:@l#~.E.E.|*~+B.E.5*..:$Q 9$5*~+~+A.o+@+r$v$o+E.E.5*E>7$~+@+E.F.",
"A.E.|*E.F.B.|*B.@+o+@%F.E.o+..]+}+..q+` s+o+5*..~+@+|*X+@+#+r+F.B.B.:@+*(,$'%'Y#7 +%l#'@B.#+(>R.@+Q$M,( ( ( ( ( ( ( ( ( ( ( ( ( ( ( ( ( ( ( ( ( ( ( ( ( ( ( ( ( ( ( .'r$L e.Q.F.g@|*F.B.W;&'Z,@'*'x=$+'@F#F#v+@+E.F.o+@+E.E.A.u+Q 3+o+V ..A.~+~+B.4++.E.E.F@9$7$~+@+++@+",
"~+~+@+|*g@B.>@B.@+u+++@+~++.]+='L$]+)@R 2+V #+2+z.=.s+2++.=...F.>@B.F#+*-'_,Y>r@w@w@+%@%F.t+<*Q.[=M$;'( ( ( ( ( ( ( ( ( ( ( ( ( ( ( ( ( ( ( ( ( ( ( ( ( ( ( ( ( ( ( >'B.R 0.,'F.F@@+g@B.r@'')'!'6,Q#'@4+w@F#.+~+Q u+;.Q #+#+Q s+H !+:$Q R +.A.~+F.r$#+~+@+@+]++.o+5*~+o+",
"o+o+E.F@@+@+B.F@ @s+o+E.o+]+{.'.)+t+R Q )$'.W.K !./+='Y.o+s+]+@+H=F.4+'+~'{']'>@8 w@'@l#B.=.:+Q.++p+;'( ( ( ( ( ( ( ( ( ( ( ( ( ( ( ( ( ( ( ( ( ( ( ( ( ( ( ( ( ( ( ^'@%L d./'F.H=@+B.g@g@&'<,('_'%#'@:@l#'@.+o+^+I :'<'['H N `.Q K =.*.Q R @.A.F.l#V ..E.E...o+E.E.9$o+",
"E.E.@+@+F@5*R$R$]+s+o+~+..=.R  .}+H .+s+Q U.{.H (>='U.H 0$|+]+F.F@@+>@N&}'|'1'>@8 4+l#>@g@#+:+Q.o+r+;'( ( ( ( ( ( ( ( ( ( ( ( ( ( ( ( ( ( ( ( ( ( ( ( ( ( ( ( ( ( ( Y=F. +0.2'B.g@g@'@'@:@e-<,3'_'N@l#B.B.l#.+@.K 4'N E=<')&5'6'~..+K }+!+R =.E.@+T#Q ..E.E.E.~+@+E.3+~+",
"o+o+~+E.5*o+@+@++.s+r+~+]+)+]+#+R {.#+}+7'H J `.='s=)&/+:$|+)+'@g@|*'@$#8'9'0'>@4+w@B.B.5*w%V.Q.#%t$;'( ( ( ( ( ( ( ( ( ( ( ( ( ( ( ( ( ( ( ( ( ( ( ( ( ( ( ( ( ( ( a's$I e=[+F.B.'@4+4+F#b'c'd'e'w@>@F@F.l#O +. +J f'='(>g'J s= +}+=.)&Q =.A...E.T#Q ]+~+E.5*E.@+@+o+E.",
"E.o+....o+..q+E.+.t+s$@+]+t+#+ +O h'@.=.w%!+0$t+}+#+#+2+v$ .E.4+>@'@w@;@i'j'k'B.'@4+F.B.E.|+:+d.++ .;'( ( ( ( ( ( ( ( ( ( ( ( ( ( ( ( ( ( ( ( ( ( ( ( ( ( ( ( ( ( ( l'E.R W.T.{+F.g@l#4+r@m'+=n'o'K$l#F@l#'@~.r$#+>>s+u+N=#+2+V 2+` p'L$K s+:$9$~+'@|+:$o+5*~+o+E.F.E.{+",
"E.o+....o+o+o+o+]+u+~#1@'+~#m#..s+#+z.z.Q .+.+z.<=1+ +^+Q V r$'@B.4+7 B.q'r's'B.l#B.@+F.E.|+Y. .@%$%;'( ( ( ( ( ( ( ( ( ( ( ( ( ( ( ( ( ( ( ( ( ( ( ( ( ( ( ( ( ( ( l'q+..K T.q+B.F.:@'@B.#$z=t'y=+%T#F.:@+%>>}+Q _+<=~..+O .+~.v+.+Q v+=.}#+*;%u'Z%=.u+o+E.E.o+o+s$F.{+",
"..~+~+~+~+E.o+..:$Q p+{+F.F.'@]*S+D$m#W$~#G#x={#x=1#3&v'w'f@@%l#F.w@E.x'>*o,/-E.B.@+E.@+5*2+S j@B. .;'( ( ( ( ( ( ( ( ( ( ( ( ( ( ( ( ( ( ( ( ( ( ( ( ( ( ( ( ( ( ( y'o+l# .W.5*F.>@F#>@5*{;z'A'B' .l#:@4+'@>@C'D'E'N@3&~#]*m#g*v%'+_&+*'+C r$F.:@'@.+u+o+o+ @9$3+++{+++",
"]+..~+E.o+E.~+..8$S p+E.@+F@@+l#$+B.'@w@4+B.F.F.A.@+5*5*B.F.B.l#B.w@~+F'G'<=Q E.B.E.5*5*~+|+L @+F. .;'( ( ( ( ( ( ( ( ( ( ( ( ( ( ( ( ( ( ( ( ( ( ( ( ( ( ( ( ( ( ( H'@+s$#+e.E.@+|*'@'@5*I'J'K'L'#++%4+4+8 F@B.B.>@:@>@@+:@w@'@l#@+@+@+g@F.E.E.@+B. +:$9$..+.+...++E.o+",
":$..~+o+..o+9$9$7$Q M$@%F.@+@+F.l#E.l#w@:@l#B.B.E.@+E.E.l#4+@+F.B.l#..~,M'1+V E.F.E.5*~+~+|+R 5*@+*.N'( ( ( ( ( ( ( ( ( ( ( ( ( ( ( ( ( ( ( ( ( ( ( ( ( ( ( ( ( ( ( O'E.@+}+0.E.E.@+>@'@5*q-~,K ~,S B.'@'@:@4+l#B.B.'@l#E.F.B.l#F.0@@+o+~+@+~+~+F.F. +` ]+7$+.C>..++~+..",
"]+]+o+..o+~+..+.:$Q r+F.@+E.@+E.s$E.B.B.B.s$E.F.E.E.B.'@4+B.@+E.0@F.@.P'Q'.+V E.B.E.o+q+o+Q R ~+E.;.N'( ( ( ( ( ( ( ( ( ( ( ( ( ( ( ( ( ( ( ( ( ( ( ( ( ( ( ( ( ( ( R'E.E.S 0.~+@+~+F.l#E.u+B>)$V.V s$l#B.'@8 +%:@'@8 l#E.F.0@T#E.E.o+..5*@+F.E.g@T#~.t+]+:$u+u++.++E.A.",
":$]+........o+7$:$U #%F.R$~+~+E.o+~+s$S'F.@+s$s$0@F.'@w@l#F.F.E.E.E.@.V.S.L*'.q+E.E.o+o+T'Q  +..E.X N'( ( ( ( ( ( ( ( ( ( ( ( ( ( ( ( ( ( ( ( ( ( ( ( ( ( ( ( ( ( ( U'#%q+T 0.~+E.o+++l#E.` _+)$Z.}+:@:@l#T#l#F.7 '@'@B.@+F.E.F.s$s$o+E.|*@+>@@+F.l# +t+]+:$u+=. .o+++~+",
":$:$+.+.]+C>+.7$8$Q #%F.E.o+o+@+M$o+E.F.l#F.s$E.E.F.'@:@B.F.0@E.~+++ .W.M'1+O r+E.A...o+o+Q I +.M$S V'( ( ( ( ( ( ( ( ( ( ( ( ( ( ( ( ( ( ( ( ( ( ( ( ( ( ( ( ( ( ( U'E.q+S R...o+T'~+E.~+` W'K (*V F.T#T#,@T#F#w@+%F.@+~+F.s$F.s$s$o+A.|*@+E.B.F.l# +=.C>-.u+s+ .o+~+ @",
":$O++.@.C>:$:$+.u+Q p+F.E.~+s$F.o+o+q+B.+%+%s$q+E.E.T#T#F.B.B.F.@+~+:$W.S.~.Q +.~+..]++.3+Q J +.M$S V'( ( ( ( ( ( ( ( ( ( ( ( ( ( ( ( ( ( ( ( ( ( ( ( ( ( ( ( ( ( ( U'E.o+Q S...~+o+A...]+s+_+)$(*Q q+E.E.F.0@,@l#@%s$E.@+F.E.F.s$s$B.E.l#s$@+B.F.+% +=.:$:$t+s+ .)+@.)+",
"u+u++.:$<$<$ .:$u+.+&%E.o+@+B.@+5*E.E.E.X'T#s$q+E.E.@+B.B.F.E.q+E.q+ .J _+V Q @.M$..@...@..+K @.+.S V'( ( ( ( ( ( ( ( ( ( ( ( ( ( ( ( ( ( ( ( ( ( ( ( ( ( ( ( ( ( ( Y'r+..Q d.)+o++.0+]+]+}+K O {.V o+o+E.E.0@F.+%l#B.E.E.F.E.E.E.E.0@s$T#F.F.F.F.7  +s+:$u+u+t+:$+.:$ .",
"=.t+:$t+u+ .u+u+=.Q {+++++E.E.@+~+E.E.s$s$0@E.E.E.B.E.q+s$F.q+M$~+q+ ._+Q #+S @.Z'+.]++.u+.+I  .@.S V'( ( ( ( ( ( ( ( ( ( ( ( ( ( ( ( ( ( ( ( ( ( ( ( ( ( ( ( ( ( ( `'@.@.Q 0.]+)+]+0+]+ .}+Q $%~.V o++...o+~+@+F.s$l# )q+E.~+q+T'A.q+E.0@E.q+E.~+B.V V u+:$t+t+:$ .` ` ",
"}+}+=.=.=.t+t+=.Q {+E.E.o+E.~+E.M$~+E.E.S'q+q+q+E.E.E.E.s$~+o++.p+y@ .)$.)*.Q  .+.O+)@+.O+~.K $%@.S V'( ( ( ( ( ( ( ( ( ( ( ( ( ( ( ( ( ( ( ( ( ( ( ( ( ( ( ( ( ( ( +)@.@.Q 0.]+..+.]++.]+=.S *+ +L$(%....+...~+~+E.@+M$o+M$o+Z'Z'T'A.o+o+q+M$E...o+@+/-#+=.s+2+Y =.=.}+",
"R  +R R R  +~. +@.)+@.@. .+.@.@. .@.+.+.+.+.@.@.@.@.+.+.+.+.@. .$%t$S /+{.H :$:$@.)@` :$+.R G  .@.O V'( ( ( ( ( ( ( ( ( ( ( ( ( ( ( ( ( ( ( ( ( ( ( ( ( ( ( ( ( ( ( @)$%@.~.[+..+.]++.+.u+:$R J _+.+#% .u+:$@.)++.)@]+ . .]+ .)@ .+.@. . . . . .` ;.` .. +<= +>-R  + +)$",
"|+s+w%=.=.=.8$ .Q W.R.2'/'#)2'Q.Q.[+R.Q.Q.[+[+[+[+R.Q.S.e=<*/+`.(>X./+.+|+@.u+=.Y #+}+!.*.G $) .@.O V'( ( ( ( ( ( ( ( ( ( ( ( ( ( ( ( ( ( ( ( ( ( ( ( ( ( ( ( ( ( ( @)@.%)O S.o+V Q t+!+#+!+ .z.|+K `.W.W.X.:+e.0.[+2'&)Q.Q.#)/'2'2'#)&)2'Q.S.Q.Q.[+0. +{;]+7$<$8$8$:$<$",
"*)*)=)-)=)*)=);)=)>)r.>)N.,)L.')O.')*)=)*)=)*)O.r.r.r.*)*)=)*)*)')*)=)*)')*)r.N.M.L.r.r.))!)K u+` L V'( ( ( ( ( ( ( ( ( ( ( ( ( ( ( ( ( ( ( ( ( ( ( ( ( ( ( ( ( ( ( ~)` ` ^+{)])>)r.N.^)N.r.>)*)/)/)/)=)*)*)')r.N.>)*)O.O.*)*)*)*)')N.L.r.>)r.>)r.')*)/)()_)/)*)*)r.>)*)",
"0.0.V.V.:)<+<+<+f.<+W.0.f.S.T.0.0.0.e.V.<+0.f.S.f.f.f.<)<)0.0.0.0.<+<+0.0.W.Y.~,[)<+<+J'})|)1)v+R (>V'( ( ( ( ( ( ( ( ( ( ( ( ( ( ( ( ( ( ( ( ( ( ( ( ( ( ( ( ( ( ( 2))&L >-3)4)5)~,W.[)9.<)<+[)W.V.(+V.W.f.<)<+0.0.<+<)<+:)V.V.W.<+0.f.f.0.f.9.0.f.f.[)V.6)7)f.8)f.f.f.",
"(%K$.*>+E w@7 7 7 (%i P-7 7 (%a a A w .*i A ;+w@f@K$K$D D C >+A >+A >+k >+k >+>+B D (%K$E j@;+B >+2*}=( ( ( ( ( ( ( ( ( ( ( ( ( ( ( ( ( ( ( ( ( ( ( ( ( ( ( ( ( ( ( 9)a*B i@_$n+;+6+>+x A f*i@i@M@i@0)x A D a)e f@K$;@K$i@A A i P-B >+2*2*i@A _$2*f@w@w@K$;+!*+%l#8 +%T#",
"b)b)c)d)e)f)g)h)i)j)k)l)d)m)q=d)l)n)k)o)p)q)n)d)q=q=q=d)q=d)q)r)s)r)t)t)t)c)l)l)d)q=b)u)q=q=q=v)s)w)*-( ( ( ( ( ( ( ( ( ( ( ( ( ( ( ( ( ( ( ( ( ( ( ( ( ( ( ( ( ( ( x)d)v)v)j)j)j)l)q)y)z)l)r)A)j)l)t)B)q)c)C)l)d)q=q=q=c)t)q)q)l)j)l)j)s)B)r)t)l)c)q=q=q=q=e)D)D)e)D)E)"};
