/* XPM */
static char * so_door2_tex_xpm[] = {
"132 132 1593 2",
"  	c #2A3239",
". 	c #2C353D",
"+ 	c #2C363E",
"@ 	c #2D363F",
"# 	c #2C363F",
"$ 	c #2D3640",
"% 	c #2C353E",
"& 	c #2C3640",
"* 	c #2D3741",
"= 	c #2E3841",
"- 	c #2D3641",
"; 	c #2D3842",
"> 	c #2E3944",
", 	c #2E3943",
"' 	c #2F3A45",
") 	c #2E3842",
"! 	c #2F3B46",
"~ 	c #2F3944",
"{ 	c #2F3A46",
"] 	c #303C46",
"^ 	c #303B46",
"/ 	c #303C47",
"( 	c #303A45",
"_ 	c #313D4A",
": 	c #313E4A",
"< 	c #323E4A",
"[ 	c #323F4A",
"} 	c #313D48",
"| 	c #35393C",
"1 	c #393939",
"2 	c #303B45",
"3 	c #323F4B",
"4 	c #313D49",
"5 	c #303C48",
"6 	c #2E3843",
"7 	c #2E3A44",
"8 	c #2E3942",
"9 	c #2E3741",
"0 	c #2C353F",
"a 	c #2B343D",
"b 	c #2A333C",
"c 	c #2B333B",
"d 	c #202D3A",
"e 	c #202D39",
"f 	c #23323F",
"g 	c #22313F",
"h 	c #22303E",
"i 	c #23313F",
"j 	c #233341",
"k 	c #243341",
"l 	c #243342",
"m 	c #233240",
"n 	c #243543",
"o 	c #243443",
"p 	c #253544",
"q 	c #253646",
"r 	c #253645",
"s 	c #243544",
"t 	c #253545",
"u 	c #263746",
"v 	c #273847",
"w 	c #263645",
"x 	c #273645",
"y 	c #283847",
"z 	c #283948",
"A 	c #293A49",
"B 	c #283949",
"C 	c #273848",
"D 	c #293B4A",
"E 	c #293949",
"F 	c #293B4B",
"G 	c #293A4A",
"H 	c #2A3B4B",
"I 	c #2A3B4A",
"J 	c #2B3D4C",
"K 	c #2C3F4F",
"L 	c #2D3F4F",
"M 	c #2C3F50",
"N 	c #2D4151",
"O 	c #2C3D4C",
"P 	c #33393E",
"Q 	c #2B3C4B",
"R 	c #2A3C4B",
"S 	c #293C4B",
"T 	c #2D4050",
"U 	c #283848",
"V 	c #283A49",
"W 	c #273948",
"X 	c #273947",
"Y 	c #263846",
"Z 	c #253746",
"` 	c #253543",
" .	c #233340",
"..	c #1E2B37",
"+.	c #111B23",
"@.	c #16222D",
"#.	c #16202A",
"$.	c #151F29",
"%.	c #162029",
"&.	c #16212A",
"*.	c #17222C",
"=.	c #17222D",
"-.	c #17232D",
";.	c #18222D",
">.	c #18242D",
",.	c #18242E",
"'.	c #17242D",
").	c #192530",
"!.	c #19242F",
"~.	c #1A2630",
"{.	c #1A2732",
"].	c #1A2631",
"^.	c #1A2833",
"/.	c #18252F",
"(.	c #1B2833",
"_.	c #1B2834",
":.	c #1A2733",
"<.	c #1B2934",
"[.	c #1C2934",
"}.	c #1C2A35",
"|.	c #1C2A36",
"1.	c #1D2A36",
"2.	c #1D2B38",
"3.	c #1E2D39",
"4.	c #1F2F3C",
"5.	c #1F2E3B",
"6.	c #1F2E3A",
"7.	c #1F2C39",
"8.	c #313437",
"9.	c #303337",
"0.	c #1F2C38",
"a.	c #1E2C38",
"b.	c #1C2B37",
"c.	c #1D2D3A",
"d.	c #1D2B37",
"e.	c #1C2935",
"f.	c #1B2733",
"g.	c #1B2933",
"h.	c #1A2632",
"i.	c #1A2731",
"j.	c #192631",
"k.	c #192630",
"l.	c #19252F",
"m.	c #18232D",
"n.	c #17232C",
"o.	c #16212C",
"p.	c #121D26",
"q.	c #1B2630",
"r.	c #21303D",
"s.	c #0E171E",
"t.	c #060B10",
"u.	c #060A0F",
"v.	c #060B0E",
"w.	c #060B0F",
"x.	c #060C10",
"y.	c #070C11",
"z.	c #070B10",
"A.	c #070C10",
"B.	c #070D11",
"C.	c #070D12",
"D.	c #080D12",
"E.	c #070D13",
"F.	c #080E12",
"G.	c #080E13",
"H.	c #080F14",
"I.	c #080D13",
"J.	c #080E14",
"K.	c #090E14",
"L.	c #091015",
"M.	c #09131B",
"N.	c #091C2B",
"O.	c #0F1E29",
"P.	c #131F27",
"Q.	c #131E27",
"R.	c #131C24",
"S.	c #2F3031",
"T.	c #2E2F31",
"U.	c #131E26",
"V.	c #141F28",
"W.	c #121E27",
"X.	c #091C29",
"Y.	c #08151F",
"Z.	c #081015",
"`.	c #090F14",
" +	c #090F15",
".+	c #0A1117",
"++	c #24323E",
"@+	c #243442",
"#+	c #121C24",
"$+	c #04080C",
"%+	c #0B1219",
"&+	c #0B141A",
"*+	c #0C1319",
"=+	c #0C141A",
"-+	c #0B1218",
";+	c #0C131A",
">+	c #0B1319",
",+	c #0D151B",
"'+	c #0C141B",
")+	c #0B131A",
"!+	c #0D151C",
"~+	c #0C151B",
"{+	c #0A1116",
"]+	c #0E1821",
"^+	c #0F1E2A",
"/+	c #192733",
"(+	c #20303E",
"_+	c #223341",
":+	c #303336",
"<+	c #2F3236",
"[+	c #21313F",
"}+	c #223340",
"|+	c #101E28",
"1+	c #0E1A23",
"2+	c #0B151B",
"3+	c #0A1218",
"4+	c #0F161E",
"5+	c #0E161D",
"6+	c #0D161C",
"7+	c #0E171D",
"8+	c #0F181F",
"9+	c #0A1217",
"0+	c #050C11",
"a+	c #273642",
"b+	c #263744",
"c+	c #16222C",
"d+	c #0C151C",
"e+	c #111A23",
"f+	c #131D26",
"g+	c #121D25",
"h+	c #121C25",
"i+	c #131D27",
"j+	c #142028",
"k+	c #14202A",
"l+	c #142029",
"m+	c #16212B",
"n+	c #15222C",
"o+	c #15212B",
"p+	c #16222B",
"q+	c #182530",
"r+	c #192732",
"s+	c #21313E",
"t+	c #21323F",
"u+	c #1C2B36",
"v+	c #233644",
"w+	c #1E303F",
"x+	c #293C4C",
"y+	c #313438",
"z+	c #2F3337",
"A+	c #263947",
"B+	c #283B4A",
"C+	c #192834",
"D+	c #263B4B",
"E+	c #1F2F3B",
"F+	c #1D2C38",
"G+	c #20313E",
"H+	c #22333F",
"I+	c #1E2E3A",
"J+	c #192731",
"K+	c #15212C",
"L+	c #16232D",
"M+	c #15202A",
"N+	c #131F28",
"O+	c #111B24",
"P+	c #111C24",
"Q+	c #0F1920",
"R+	c #111A21",
"S+	c #1B2A35",
"T+	c #1B2A36",
"U+	c #1A2934",
"V+	c #182631",
"W+	c #1B2935",
"X+	c #1F303C",
"Y+	c #243644",
"Z+	c #273949",
"`+	c #283B4B",
" @	c #2A3E4E",
".@	c #2C4253",
"+@	c #243847",
"@@	c #1E2E3B",
"#@	c #283C4C",
"$@	c #2A3F4F",
"%@	c #313538",
"&@	c #303438",
"*@	c #283A4B",
"=@	c #293D4D",
"-@	c #273B4C",
";@	c #2D4253",
">@	c #2B4050",
",@	c #2B3F4F",
"'@	c #2B4051",
")@	c #2A3E4D",
"!@	c #263948",
"~@	c #20303D",
"{@	c #202F3B",
"]@	c #21303E",
"^@	c #20303C",
"/@	c #1C2B38",
"(@	c #1D2C39",
"_@	c #192632",
":@	c #131E25",
"<@	c #273743",
"[@	c #22323F",
"}@	c #18242F",
"|@	c #14212A",
"1@	c #1F2D39",
"2@	c #1E2C39",
"3@	c #2C4151",
"4@	c #2C4152",
"5@	c #2A3F4E",
"6@	c #2E4354",
"7@	c #2E4455",
"8@	c #2D4353",
"9@	c #2F4456",
"0@	c #2D4354",
"a@	c #2D4454",
"b@	c #32485A",
"c@	c #324A5C",
"d@	c #32495B",
"e@	c #32495C",
"f@	c #31485B",
"g@	c #31485A",
"h@	c #2C4354",
"i@	c #1E303E",
"j@	c #1E2D3A",
"k@	c #293E4E",
"l@	c #2A3E4F",
"m@	c #2E4557",
"n@	c #263C4C",
"o@	c #2A3F50",
"p@	c #323639",
"q@	c #303539",
"r@	c #2B4153",
"s@	c #203240",
"t@	c #2D4355",
"u@	c #293D4E",
"v@	c #2B3F51",
"w@	c #1F2F3D",
"x@	c #293D4B",
"y@	c #344B5E",
"z@	c #314658",
"A@	c #314859",
"B@	c #2F4557",
"C@	c #304658",
"D@	c #2D4252",
"E@	c #2B4151",
"F@	c #2B3F50",
"G@	c #2C4051",
"H@	c #101920",
"I@	c #162129",
"J@	c #293845",
"K@	c #253745",
"L@	c #253846",
"M@	c #243746",
"N@	c #233544",
"O@	c #233342",
"P@	c #223442",
"Q@	c #233543",
"R@	c #2E4355",
"S@	c #2E4353",
"T@	c #2B4152",
"U@	c #304759",
"V@	c #344C5F",
"W@	c #2D4457",
"X@	c #1E313F",
"Y@	c #243745",
"Z@	c #233443",
"`@	c #2A3D4E",
" #	c #2E4558",
".#	c #2E4659",
"+#	c #294052",
"@#	c #293E4F",
"##	c #2B4052",
"$#	c #273745",
"%#	c #32363A",
"&#	c #30353A",
"*#	c #293D4C",
"=#	c #2C4355",
"-#	c #213443",
";#	c #2F4558",
">#	c #223240",
",#	c #374F62",
"'#	c #2E4456",
")#	c #2F4457",
"!#	c #2D4455",
"~#	c #2B3E4F",
"{#	c #223441",
"]#	c #233444",
"^#	c #243645",
"/#	c #233442",
"(#	c #17222B",
"_#	c #283945",
":#	c #253847",
"<#	c #273A49",
"[#	c #304558",
"}#	c #2E4457",
"|#	c #2D4152",
"1#	c #30485B",
"2#	c #31495D",
"3#	c #2D4659",
"4#	c #1F3342",
"5#	c #223543",
"6#	c #223542",
"7#	c #2D4557",
"8#	c #30475A",
"9#	c #2B4254",
"0#	c #2C4254",
"a#	c #273846",
"b#	c #33373B",
"c#	c #30363B",
"d#	c #213343",
"e#	c #2F4659",
"f#	c #2A4052",
"g#	c #2C4153",
"h#	c #213240",
"i#	c #223645",
"j#	c #31485C",
"k#	c #30485A",
"l#	c #31495C",
"m#	c #31475A",
"n#	c #2E4658",
"o#	c #273A4A",
"p#	c #233645",
"q#	c #0F1820",
"r#	c #293945",
"s#	c #334A5C",
"t#	c #304557",
"u#	c #2D4254",
"v#	c #304659",
"w#	c #32495D",
"x#	c #324A5E",
"y#	c #1B2F3D",
"z#	c #2A3F51",
"A#	c #293E50",
"B#	c #30373C",
"C#	c #203341",
"D#	c #32495E",
"E#	c #1A2B38",
"F#	c #30495C",
"G#	c #324A5D",
"H#	c #334B5E",
"I#	c #2F4658",
"J#	c #374E62",
"K#	c #253848",
"L#	c #233646",
"M#	c #243646",
"N#	c #273A4B",
"O#	c #111A22",
"P#	c #273744",
"Q#	c #0E1820",
"R#	c #344A5D",
"S#	c #304657",
"T#	c #314759",
"U#	c #334A5E",
"V#	c #344C60",
"W#	c #324B5F",
"X#	c #334C61",
"Y#	c #2E485B",
"Z#	c #1D3140",
"`#	c #263A49",
" $	c #253949",
".$	c #2D4356",
"+$	c #33373C",
"@$	c #30373D",
"#$	c #1F303F",
"$$	c #1D2E3B",
"%$	c #334A5D",
"&$	c #344D61",
"*$	c #375063",
"=$	c #273B4B",
"-$	c #263A4A",
";$	c #283B4C",
">$	c #1D2D39",
",$	c #293C4D",
"'$	c #314758",
")$	c #334B5F",
"!$	c #334C60",
"~$	c #344D62",
"{$	c #314A5F",
"]$	c #1F3241",
"^$	c #2D4357",
"/$	c #34383D",
"($	c #31383F",
"_$	c #1F303E",
":$	c #1E2F3D",
"<$	c #324A5F",
"[$	c #30475B",
"}$	c #344D60",
"|$	c #354E61",
"1$	c #354D61",
"2$	c #344E62",
"3$	c #354D62",
"4$	c #385164",
"5$	c #283D4C",
"6$	c #293B4C",
"7$	c #131F26",
"8$	c #263541",
"9$	c #233441",
"0$	c #202F3C",
"a$	c #283A4A",
"b$	c #344C5E",
"c$	c #324C5F",
"d$	c #2F485C",
"e$	c #1F3140",
"f$	c #1A2834",
"g$	c #2E4458",
"h$	c #34393D",
"i$	c #31393F",
"j$	c #1E303D",
"k$	c #2D4558",
"l$	c #2C4052",
"m$	c #314A5E",
"n$	c #344C61",
"o$	c #354E62",
"p$	c #354E63",
"q$	c #385165",
"r$	c #253948",
"s$	c #263848",
"t$	c #101921",
"u$	c #273B4A",
"v$	c #334B5D",
"w$	c #334D61",
"x$	c #2F495D",
"y$	c #203140",
"z$	c #35393D",
"A$	c #313940",
"B$	c #2A4051",
"C$	c #233746",
"D$	c #3A5368",
"E$	c #263847",
"F$	c #253947",
"G$	c #2A3D4D",
"H$	c #2C4252",
"I$	c #334B60",
"J$	c #2F475B",
"K$	c #233545",
"L$	c #1C2B39",
"M$	c #2B4154",
"N$	c #2D4456",
"O$	c #243846",
"P$	c #395367",
"Q$	c #283745",
"R$	c #344B60",
"S$	c #1E3140",
"T$	c #253747",
"U$	c #283E4F",
"V$	c #35393E",
"W$	c #313A41",
"X$	c #293D4F",
"Y$	c #1B2C39",
"Z$	c #30465A",
"`$	c #375064",
" %	c #1C2C39",
".%	c #263643",
"+%	c #33495B",
"@%	c #17242E",
"#%	c #203444",
"$%	c #2F475A",
"%%	c #353A3E",
"&%	c #313A42",
"*%	c #182734",
"=%	c #223544",
"-%	c #283C4B",
";%	c #1E2C37",
">%	c #283845",
",%	c #273A48",
"'%	c #314C60",
")%	c #2B475C",
"!%	c #213D51",
"~%	c #243E50",
"{%	c #17242F",
"]%	c #1D2E3C",
"^%	c #253B4D",
"/%	c #253E52",
"(%	c #2A465A",
"_%	c #1E2F3B",
":%	c #1D2E39",
"<%	c #1F303D",
"[%	c #1C2C38",
"}%	c #293946",
"|%	c #2E4352",
"1%	c #2B3E4E",
"2%	c #30485C",
"3%	c #37546B",
"4%	c #1F4965",
"5%	c #1A74A2",
"6%	c #2A495E",
"7%	c #2A4153",
"8%	c #1A2935",
"9%	c #323B43",
"0%	c #1A2A36",
"a%	c #1C2D3A",
"b%	c #2C4659",
"c%	c #2A5B7B",
"d%	c #265F82",
"e%	c #305069",
"f%	c #365064",
"g%	c #233542",
"h%	c #1F2E39",
"i%	c #2B3C4A",
"j%	c #20313F",
"k%	c #1E2D38",
"l%	c #20313D",
"m%	c #20303B",
"n%	c #1D2C37",
"o%	c #355065",
"p%	c #1D4864",
"q%	c #127BB7",
"r%	c #2A4A61",
"s%	c #2C4356",
"t%	c #283E4E",
"u%	c #1B2B38",
"v%	c #2E4A5E",
"w%	c #286388",
"x%	c #246287",
"y%	c #2F4E66",
"z%	c #202F3A",
"A%	c #2C3D4B",
"B%	c #1B2A34",
"C%	c #233440",
"D%	c #1D2C36",
"E%	c #21303B",
"F%	c #21313D",
"G%	c #21333F",
"H%	c #385268",
"I%	c #1E4864",
"J%	c #137BB9",
"K%	c #2B4B61",
"L%	c #273C4C",
"M%	c #303941",
"N%	c #2F4A5E",
"O%	c #296489",
"P%	c #236389",
"Q%	c #2F4F66",
"R%	c #30485D",
"S%	c #2B3C49",
"T%	c #111B22",
"U%	c #243542",
"V%	c #21303C",
"W%	c #1E4966",
"X%	c #0F7CC1",
"Y%	c #2B4A61",
"Z%	c #283D4D",
"`%	c #2B404F",
" &	c #363A3D",
".&	c #313B43",
"+&	c #28658A",
"@&	c #23668D",
"#&	c #2F5067",
"$&	c #2E475A",
"%&	c #334C5F",
"&&	c #233643",
"*&	c #223440",
"=&	c #0F161D",
"-&	c #162028",
";&	c #192730",
">&	c #2A3A47",
",&	c #15232D",
"'&	c #263745",
")&	c #2E4253",
"!&	c #385368",
"~&	c #1F4966",
"{&	c #0E7DC4",
"]&	c #2C4B62",
"^&	c #36393D",
"/&	c #313A43",
"(&	c #2A6488",
"_&	c #22668F",
":&	c #2F5069",
"<&	c #192833",
"[&	c #2A3E50",
"}&	c #365267",
"|&	c #1E4765",
"1&	c #1279C2",
"2&	c #2D4A61",
"3&	c #303A44",
"4&	c #2A668B",
"5&	c #216690",
"6&	c #2F526B",
"7&	c #2C4456",
"8&	c #32485B",
"9&	c #1D2E3A",
"0&	c #26333F",
"a&	c #365167",
"b&	c #1277C2",
"c&	c #2F485D",
"d&	c #2B658A",
"e&	c #206692",
"f&	c #30526B",
"g&	c #31495E",
"h&	c #293F4F",
"i&	c #273542",
"j&	c #15212A",
"k&	c #293F50",
"l&	c #233745",
"m&	c #354F65",
"n&	c #1E4967",
"o&	c #107AC4",
"p&	c #2E4C63",
"q&	c #363A3E",
"r&	c #313B45",
"s&	c #293E4D",
"t&	c #1B2B36",
"u&	c #2F495E",
"v&	c #2B658C",
"w&	c #1F6693",
"x&	c #30536D",
"y&	c #19252E",
"z&	c #283744",
"A&	c #2C4457",
"B&	c #344F64",
"C&	c #0F7BC7",
"D&	c #2D4C63",
"E&	c #2F3A43",
"F&	c #2C658B",
"G&	c #1F6692",
"H&	c #30526C",
"I&	c #2D4458",
"J&	c #283C4D",
"K&	c #253845",
"L&	c #26394A",
"M&	c #1E4763",
"N&	c #0F7AC6",
"O&	c #2C4C63",
"P&	c #2F4A5F",
"Q&	c #21668F",
"R&	c #2F5169",
"S&	c #2C4255",
"T&	c #2A4050",
"U&	c #283D4E",
"V&	c #204763",
"W&	c #0F7CC6",
"X&	c #303B44",
"Y&	c #216790",
"Z&	c #263845",
"`&	c #2A4152",
" *	c #1F4763",
".*	c #0E7DC5",
"+*	c #2C4D64",
"@*	c #2F3B45",
"#*	c #2B4253",
"$*	c #304A5F",
"%*	c #22658F",
"&*	c #2F4759",
"**	c #1D2A34",
"=*	c #152029",
"-*	c #1F4864",
";*	c #0D7EC7",
">*	c #2D4E65",
",*	c #2B6386",
"'*	c #23648C",
")*	c #1C2B35",
"!*	c #293A47",
"~*	c #1D445F",
"{*	c #127CBC",
"]*	c #2B4B62",
"^*	c #18252E",
"/*	c #36393C",
"(*	c #2F3A44",
"_*	c #2E4559",
":*	c #2D475B",
"<*	c #2B6081",
"[*	c #266083",
"}*	c #2B4A60",
"|*	c #1C2933",
"1*	c #283846",
"2*	c #283A48",
"3*	c #101A22",
"4*	c #253A4A",
"5*	c #2A3F52",
"6*	c #1F3A4E",
"7*	c #2A5875",
"8*	c #253F53",
"9*	c #254A62",
"0*	c #224862",
"a*	c #1C3040",
"b*	c #1C2832",
"c*	c #2A3B49",
"d*	c #263949",
"e*	c #253A49",
"f*	c #2C4759",
"g*	c #244055",
"h*	c #254F69",
"i*	c #243C4E",
"j*	c #2E3A43",
"k*	c #273E50",
"l*	c #25485E",
"m*	c #254962",
"n*	c #294458",
"o*	c #141F27",
"p*	c #293A46",
"q*	c #101A21",
"r*	c #304758",
"s*	c #1D4561",
"t*	c #1B73A7",
"u*	c #28485F",
"v*	c #37393C",
"w*	c #293F51",
"x*	c #294356",
"y*	c #2A5F80",
"z*	c #255F83",
"A*	c #2C4960",
"B*	c #1D4764",
"C*	c #127BBD",
"D*	c #2A4B62",
"E*	c #2E3A45",
"F*	c #2C475B",
"G*	c #236289",
"H*	c #2E4D65",
"I*	c #1C2A34",
"J*	c #1E4A67",
"K*	c #107CC4",
"L*	c #2A4A62",
"M*	c #293E4C",
"N*	c #2E3A46",
"O*	c #2C485D",
"P*	c #29668C",
"Q*	c #216590",
"R*	c #223443",
"S*	c #1E4866",
"T*	c #107BC4",
"U*	c #2D3A44",
"V*	c #29668A",
"W*	c #206792",
"X*	c #2D4F68",
"Y*	c #304859",
"Z*	c #1B2832",
"`*	c #1E4A68",
" =	c #107BC3",
".=	c #2A4961",
"+=	c #37393B",
"@=	c #2D3943",
"#=	c #2B475B",
"$=	c #1D4966",
"%=	c #1279BD",
"&=	c #2A485F",
"*=	c #2D3A45",
"==	c #2B4559",
"-=	c #296386",
";=	c #236489",
">=	c #2D4F67",
",=	c #2B4252",
"'=	c #1579B5",
")=	c #29485E",
"!=	c #2B4558",
"~=	c #296082",
"{=	c #256083",
"]=	c #2A3D4C",
"^=	c #263B4C",
"/=	c #1D2F3B",
"(=	c #1A384C",
"_=	c #21526E",
":=	c #253E51",
"<=	c #2C3842",
"[=	c #214962",
"}=	c #204962",
"|=	c #2B4457",
"1=	c #1A2A37",
"2=	c #1A3040",
"3=	c #2C3742",
"4=	c #1D303F",
"5=	c #1C2E3D",
"6=	c #17232E",
"7=	c #2C3944",
"8=	c #253A48",
"9=	c #38393B",
"0=	c #2D3B45",
"a=	c #37393A",
"b=	c #2B3944",
"c=	c #1F303B",
"d=	c #213341",
"e=	c #273845",
"f=	c #213442",
"g=	c #213340",
"h=	c #273C4A",
"i=	c #38393A",
"j=	c #2C3945",
"k=	c #263542",
"l=	c #172B39",
"m=	c #182833",
"n=	c #2B3844",
"o=	c #172936",
"p=	c #213647",
"q=	c #17212B",
"r=	c #253541",
"s=	c #284155",
"t=	c #1B3F56",
"u=	c #255A77",
"v=	c #1F394B",
"w=	c #273B49",
"x=	c #293F4E",
"y=	c #2A3843",
"z=	c #223746",
"A=	c #285773",
"B=	c #1B445D",
"C=	c #223E53",
"D=	c #294357",
"E=	c #1D4159",
"F=	c #1973A8",
"G=	c #24648A",
"H=	c #2B495F",
"I=	c #293642",
"J=	c #275471",
"K=	c #0F7DC0",
"L=	c #1E4964",
"M=	c #264257",
"N=	c #294153",
"O=	c #1D3F56",
"P=	c #1C6F9F",
"Q=	c #1E6D9C",
"R=	c #2D536D",
"S=	c #293743",
"T=	c #304D64",
"U=	c #285E81",
"V=	c #0980C9",
"W=	c #1E4863",
"X=	c #264055",
"Y=	c #253642",
"Z=	c #273C4D",
"`=	c #1B3648",
" -	c #1A72A5",
".-	c #2D5570",
"+-	c #2A3844",
"@-	c #24638A",
"#-	c #147AB2",
"$-	c #1C3E54",
"%-	c #273C4B",
"&-	c #1A3141",
"*-	c #1D3B4F",
"=-	c #285D7C",
"--	c #2B536D",
";-	c #293844",
">-	c #2F4D65",
",-	c #285A78",
"'-	c #1F425A",
")-	c #1A3346",
"!-	c #253C4E",
"~-	c #1B394F",
"{-	c #275876",
"]-	c #285A77",
"^-	c #2A4C62",
"/-	c #2D4A60",
"(-	c #224D68",
"_-	c #206A96",
":-	c #1C4057",
"<-	c #253F52",
"[-	c #253341",
"}-	c #253946",
"|-	c #263B4A",
"1-	c #1D3C53",
"2-	c #275777",
"3-	c #127DBD",
"4-	c #2C4E65",
"5-	c #1971A8",
"6-	c #216692",
"7-	c #1B3E56",
"8-	c #263E51",
"9-	c #243340",
"0-	c #111C25",
"a-	c #283E51",
"b-	c #1E3D54",
"c-	c #265474",
"d-	c #2D5774",
"e-	c #2B465B",
"f-	c #182630",
"g-	c #21323E",
"h-	c #383939",
"i-	c #263641",
"j-	c #2C4559",
"k-	c #2E526D",
"l-	c #1474B3",
"m-	c #236189",
"n-	c #1B3D56",
"o-	c #263C4F",
"p-	c #24333F",
"q-	c #283F50",
"r-	c #1D3C54",
"s-	c #234E6C",
"t-	c #0782D3",
"u-	c #2B5B7B",
"v-	c #2C485E",
"w-	c #15222A",
"x-	c #263440",
"y-	c #2C4458",
"z-	c #2D5470",
"A-	c #0E7ABF",
"B-	c #265B7D",
"C-	c #1A3A4F",
"D-	c #243A4B",
"E-	c #243948",
"F-	c #22303C",
"G-	c #1E3B50",
"H-	c #1F4C6A",
"I-	c #0382DA",
"J-	c #2A5C7E",
"K-	c #2C4A60",
"L-	c #24323F",
"M-	c #233642",
"N-	c #141E26",
"O-	c #0E7CC3",
"P-	c #275676",
"Q-	c #193549",
"R-	c #25394B",
"S-	c #212E3A",
"T-	c #101B23",
"U-	c #1E3241",
"V-	c #193950",
"W-	c #295F82",
"X-	c #2C4A62",
"Y-	c #1E2E39",
"Z-	c #151F27",
"`-	c #2B5471",
" ;	c #1A2C3A",
".;	c #18232C",
"+;	c #253A4B",
"@;	c #162936",
"#;	c #1A3447",
"$;	c #2B516C",
"%;	c #2D4B61",
"&;	c #1C2C37",
"*;	c #333537",
"=;	c #282D32",
"-;	c #284F69",
";;	c #1E4256",
">;	c #162733",
",;	c #162835",
"';	c #283C4A",
");	c #101C25",
"!;	c #141D26",
"~;	c #353738",
"{;	c #252E35",
"];	c #24394A",
"^;	c #1A2D3A",
"/;	c #172430",
"(;	c #202E3A",
"_;	c #213342",
":;	c #203340",
"<;	c #16242E",
"[;	c #182732",
"};	c #152531",
"|;	c #122C3E",
"1;	c #103C55",
"2;	c #383839",
"3;	c #212F3A",
"4;	c #2E4556",
"5;	c #2B4354",
"6;	c #17252F",
"7;	c #273D4C",
"8;	c #1C303D",
"9;	c #162C3B",
"0;	c #124361",
"a;	c #11688D",
"b;	c #103447",
"c;	c #35383A",
"d;	c #29343E",
"e;	c #324859",
"f;	c #1A2933",
"g;	c #1B3140",
"h;	c #153143",
"i;	c #134B6C",
"j;	c #0B729B",
"k;	c #10394F",
"l;	c #35383B",
"m;	c #293640",
"n;	c #2C4558",
"o;	c #273D4E",
"p;	c #212F3B",
"q;	c #213645",
"r;	c #245570",
"s;	c #27455C",
"t;	c #263C4D",
"u;	c #163449",
"v;	c #144D6E",
"w;	c #0A749E",
"x;	c #103B52",
"y;	c #283641",
"z;	c #284255",
"A;	c #263F52",
"B;	c #205371",
"C;	c #233B4D",
"D;	c #233B4C",
"E;	c #127CA8",
"F;	c #274F6C",
"G;	c #263D4F",
"H;	c #153449",
"I;	c #154D6F",
"J;	c #0774A3",
"K;	c #103B53",
"L;	c #29495F",
"M;	c #0E7BAD",
"N;	c #234358",
"O;	c #22313D",
"P;	c #111C23",
"Q;	c #1B2B37",
"R;	c #243E4F",
"S;	c #0A84B7",
"T;	c #28516F",
"U;	c #273E51",
"V;	c #294051",
"W;	c #1B303F",
"X;	c #153247",
"Y;	c #144C6E",
"Z;	c #0675A5",
"`;	c #0F3A52",
" >	c #284256",
".>	c #283E4D",
"+>	c #2A4B61",
"@>	c #0783B8",
"#>	c #24455B",
"$>	c #222F3B",
"%>	c #0E81B0",
"&>	c #28506C",
"*>	c #153347",
"=>	c #144C6D",
"->	c #0973A0",
";>	c #28343F",
">>	c #274053",
",>	c #2A495F",
"'>	c #0C7EAC",
")>	c #19262F",
"!>	c #233848",
"~>	c #275E7C",
"{>	c #29475D",
"]>	c #1C3141",
"^>	c #153043",
"/>	c #144A6B",
"(>	c #0975A1",
"_>	c #103B51",
":>	c #284154",
"<>	c #275B77",
"[>	c #243C4F",
"}>	c #2A3D4B",
"|>	c #263F51",
"1>	c #1D3241",
"2>	c #152D3D",
"3>	c #144764",
"4>	c #0D7299",
"5>	c #11384D",
"6>	c #35373A",
"7>	c #28323C",
"8>	c #283F51",
"9>	c #273F51",
"0>	c #23323E",
"a>	c #0E171F",
"b>	c #15364A",
"c>	c #124D69",
"d>	c #1B2D3A",
"e>	c #172A3A",
"f>	c #2D373F",
"g>	c #202E39",
"h>	c #0E181F",
"i>	c #1C2D39",
"j>	c #2F3439",
"k>	c #333639",
"l>	c #1E3749",
"m>	c #27526E",
"n>	c #27455B",
"o>	c #2F363C",
"p>	c #204A63",
"q>	c #214A60",
"r>	c #1B2E3C",
"s>	c #2E4759",
"t>	c #224259",
"u>	c #0880D0",
"v>	c #285C7E",
"w>	c #254259",
"x>	c #33363A",
"y>	c #2E343A",
"z>	c #24526F",
"A>	c #088ACD",
"B>	c #254E68",
"C>	c #2A4254",
"D>	c #2F4C62",
"E>	c #285372",
"F>	c #008AE3",
"G>	c #275675",
"H>	c #254156",
"I>	c #2E3439",
"J>	c #283F53",
"K>	c #244E69",
"L>	c #0683D2",
"M>	c #276083",
"N>	c #22313C",
"O>	c #2F5168",
"P>	c #295979",
"Q>	c #0087E2",
"R>	c #265270",
"S>	c #253F54",
"T>	c #17252E",
"U>	c #33373A",
"V>	c #2E353B",
"W>	c #273D4F",
"X>	c #254A63",
"Y>	c #0A7ECC",
"Z>	c #216997",
"`>	c #294E68",
" ,	c #2B4356",
".,	c #2B4E66",
"+,	c #266088",
"@,	c #0188DB",
"#,	c #25516E",
"$,	c #263F53",
"%,	c #34373B",
"&,	c #2F353C",
"*,	c #1479B7",
"=,	c #1B71A7",
"-,	c #284E68",
";,	c #2D475C",
">,	c #21313C",
",,	c #2B4F67",
"',	c #236692",
"),	c #117EBB",
"!,	c #234C66",
"~,	c #274052",
"{,	c #34373A",
"],	c #2E353C",
"^,	c #26475D",
"/,	c #1D6F9E",
"(,	c #1577B4",
"_,	c #28506B",
":,	c #2D485D",
"<,	c #213441",
"[,	c #223342",
"},	c #2D485B",
"|,	c #2B4F68",
"1,	c #226994",
"2,	c #256487",
"3,	c #213E51",
"4,	c #2B3F4E",
"5,	c #213A4C",
"6,	c #205571",
"7,	c #137AB1",
"8,	c #274F69",
"9,	c #304D63",
"0,	c #2E495D",
"a,	c #27465C",
"b,	c #224358",
"c,	c #224A66",
"d,	c #234258",
"e,	c #1B2B35",
"f,	c #264256",
"g,	c #1E4B64",
"h,	c #204157",
"i,	c #24465C",
"j,	c #2E4C61",
"k,	c #244155",
"l,	c #0C7EC5",
"m,	c #23648E",
"n,	c #24435A",
"o,	c #34383B",
"p,	c #2E363C",
"q,	c #274357",
"r,	c #235572",
"s,	c #0886C7",
"t,	c #23475E",
"u,	c #2F4B60",
"v,	c #26516F",
"w,	c #0083DD",
"x,	c #265C82",
"y,	c #234157",
"z,	c #152129",
"A,	c #2D353C",
"B,	c #264054",
"C,	c #224F6C",
"D,	c #0588D4",
"E,	c #265471",
"F,	c #2F4D63",
"G,	c #0181DA",
"H,	c #255372",
"I,	c #0882CF",
"J,	c #27597A",
"K,	c #2C4C64",
"L,	c #2E516A",
"M,	c #245170",
"N,	c #1774AD",
"O,	c #1E3C51",
"P,	c #2D343B",
"Q,	c #1E3546",
"R,	c #206A99",
"S,	c #294D66",
"T,	c #15232C",
"U,	c #1D2D38",
"V,	c #2A485C",
"W,	c #203E52",
"X,	c #192A38",
"Y,	c #172733",
"Z,	c #1F3C4F",
"`,	c #28455A",
" '	c #152027",
".'	c #1F313E",
"+'	c #2C353B",
"@'	c #2C333B",
"#'	c #1F2B37",
"$'	c #213241",
"%'	c #343739",
"&'	c #2C333A",
"*'	c #1E2B35",
"='	c #0E161E",
"-'	c #15222D",
";'	c #1E2C36",
">'	c #182834",
",'	c #1E2F3C",
"''	c #353739",
")'	c #182632",
"!'	c #1E2B36",
"~'	c #0D161D",
"{'	c #162D3D",
"]'	c #17455B",
"^'	c #1D3342",
"/'	c #18384B",
"('	c #16394E",
"_'	c #23394A",
":'	c #1F2E3C",
"<'	c #163E57",
"['	c #1A7198",
"}'	c #204054",
"|'	c #2B3239",
"1'	c #253D4F",
"2'	c #255673",
"3'	c #1F5978",
"4'	c #244257",
"5'	c #1D2933",
"6'	c #17425D",
"7'	c #147AAD",
"8'	c #204359",
"9'	c #295D7D",
"0'	c #235E7F",
"a'	c #25455B",
"b'	c #151F26",
"c'	c #1D2934",
"d'	c #184461",
"e'	c #107CB7",
"f'	c #22445B",
"g'	c #2A5E7F",
"h'	c #225F82",
"i'	c #0D161E",
"j'	c #18435F",
"k'	c #107CB8",
"l'	c #21445B",
"m'	c #2A323A",
"n'	c #2A5F7F",
"o'	c #235F83",
"p'	c #24445B",
"q'	c #101A20",
"r'	c #18425E",
"s'	c #0F7DBB",
"t'	c #21445C",
"u'	c #14212B",
"v'	c #243F53",
"w'	c #295F7F",
"x'	c #236084",
"y'	c #1D2A35",
"z'	c #20323F",
"A'	c #17415D",
"B'	c #117CB9",
"C'	c #243E52",
"D'	c #2A5F7E",
"E'	c #226084",
"F'	c #25394A",
"G'	c #22313E",
"H'	c #17405B",
"I'	c #147AB1",
"J'	c #204257",
"K'	c #293138",
"L'	c #223C4E",
"M'	c #2A5E7C",
"N'	c #234359",
"O'	c #202D38",
"P'	c #0C161D",
"Q'	c #173D57",
"R'	c #1677AA",
"S'	c #204155",
"T'	c #2A3139",
"U'	c #2A5C79",
"V'	c #255D7D",
"W'	c #214055",
"X'	c #1F2D37",
"Y'	c #1D2F3D",
"Z'	c #17354A",
"`'	c #21607E",
" )	c #1D394C",
".)	c #293139",
"+)	c #203646",
"@)	c #204F6A",
"#)	c #1E506B",
"$)	c #1A3345",
"%)	c #182D3B",
"&)	c #1F3E52",
"*)	c #1C2F3D",
"=)	c #1F3340",
"-)	c #1E384B",
";)	c #1F394D",
">)	c #1A2B39",
",)	c #202F3D",
"')	c #1A3F57",
"))	c #1C6A8D",
"!)	c #1D3C4F",
"~)	c #293038",
"{)	c #21394A",
"])	c #23536F",
"^)	c #1F5471",
"/)	c #27455A",
"()	c #153F59",
"_)	c #1578A7",
":)	c #1F4055",
"<)	c #283038",
"[)	c #2A5C7A",
"})	c #225978",
"|)	c #224258",
"1)	c #151E26",
"2)	c #1F2C36",
"3)	c #263A4B",
"4)	c #16415C",
"5)	c #137AB0",
"6)	c #363739",
"7)	c #233C4E",
"8)	c #2A5E7E",
"9)	c #235A7A",
"0)	c #1E2933",
"a)	c #253849",
"b)	c #127BB1",
"c)	c #223B4D",
"d)	c #225B7C",
"e)	c #234257",
"f)	c #131D25",
"g)	c #152028",
"h)	c #17425E",
"i)	c #117CB4",
"j)	c #20445A",
"k)	c #273037",
"l)	c #2B5F7F",
"m)	c #235D7E",
"n)	c #1B2731",
"o)	c #107DB7",
"p)	c #272F37",
"q)	c #223A4C",
"r)	c #245C7E",
"s)	c #244359",
"t)	c #121C23",
"u)	c #107DB9",
"v)	c #20435A",
"w)	c #223C4D",
"x)	c #24445A",
"y)	c #17405C",
"z)	c #363738",
"A)	c #272F36",
"B)	c #233C4D",
"C)	c #2B607F",
"D)	c #235C7F",
"E)	c #163F5B",
"F)	c #127AB7",
"G)	c #204258",
"H)	c #262E35",
"I)	c #235B7E",
"J)	c #224157",
"K)	c #121B23",
"L)	c #153E59",
"M)	c #1379AF",
"N)	c #1E4156",
"O)	c #225C7E",
"P)	c #142129",
"Q)	c #143D57",
"R)	c #1279A9",
"S)	c #1D4056",
"T)	c #242C33",
"U)	c #223A4B",
"V)	c #2B5E7B",
"W)	c #225B7D",
"X)	c #223F54",
"Y)	c #273946",
"Z)	c #133A51",
"`)	c #167198",
" !	c #1C3D51",
".!	c #232B32",
"+!	c #21384A",
"@!	c #205978",
"#!	c #213C4F",
"$!	c #293B49",
"%!	c #142B3C",
"&!	c #184057",
"*!	c #1B2E3D",
"=!	c #17384E",
"-!	c #294050",
";!	c #19232D",
">!	c #243848",
",!	c #253C4C",
"'!	c #142430",
")!	c #232C33",
"!!	c #172835",
"~!	c #1F3749",
"{!	c #182F3E",
"]!	c #263D4E",
"^!	c #263D4D",
"/!	c #233846",
"(!	c #19242C",
"_!	c #111F2A",
":!	c #0F1A23",
"<!	c #242C34",
"[!	c #1B2A37",
"}!	c #131F29",
"|!	c #12202A",
"1!	c #19232C",
"2!	c #373738",
"3!	c #232B34",
"4!	c #18222B",
"5!	c #1B2732",
"6!	c #111D25",
"7!	c #232B33",
"8!	c #0F171F",
"9!	c #10181F",
"0!	c #18222A",
"a!	c #222B33",
"b!	c #0F171E",
"c!	c #18222C",
"d!	c #373838",
"e!	c #16232E",
"f!	c #091115",
"g!	c #0E161C",
"h!	c #101820",
"i!	c #19242D",
"j!	c #222A32",
"k!	c #1A252E",
"l!	c #1A252F",
"m!	c #202A32",
"n!	c #21303F",
"o!	c #0B1419",
"p!	c #23333F",
"q!	c #202931",
"r!	c #0F171D",
"s!	c #19242E",
"t!	c #1F272E",
"u!	c #0E151B",
"v!	c #192832",
"w!	c #202E3B",
"x!	c #0F1921",
"y!	c #111E28",
"z!	c #1E262D",
"A!	c #121F28",
"B!	c #111C26",
"C!	c #101B22",
"D!	c #0D181F",
"E!	c #0C161C",
"F!	c #091117",
"G!	c #141F29",
"H!	c #131E28",
"I!	c #132029",
"J!	c #13222D",
"K!	c #132939",
"L!	c #162530",
"M!	c #1B2229",
"N!	c #142938",
"O!	c #132431",
"P!	c #14222C",
"Q!	c #13212A",
"R!	c #132028",
"S!	c #121D27",
"T!	c #182129",
"U!	c #253644",
"V!	c #25323D",
"W!	c #2B3E4D",
"X!	c #273746",
"Y!	c #1F2B34",
"Z!	c #202C37",
"`!	c #212D38",
" ~	c #222F3A",
".~	c #23303D",
"+~	c #23313D",
"@~	c #24343F",
"#~	c #24313E",
"$~	c #253440",
"%~	c #23313C",
"&~	c #23303C",
"*~	c #23313E",
"=~	c #243440",
"-~	c #253441",
";~	c #24313F",
">~	c #263442",
",~	c #273643",
"'~	c #253542",
")~	c #263543",
"!~	c #25343F",
"~~	c #242F38",
"{~	c #273543",
"]~	c #243441",
"^~	c #253442",
"/~	c #25333F",
"(~	c #212C39",
"_~	c #232F3B",
":~	c #222F39",
"<~	c #23303B",
"[~	c #212E39",
"}~	c #202C36",
"|~	c #1F2933",
"  . + @ @ # $ $ $ % % & * = $ $ * - * = * ; > , > ' ) = , ' ' ' ! ' ~ ~ ~ { { ] ' ^ / ] ! ! ' ' { ! ' ! ^ / ( / / / _ : < < [ } | 1 1 1 | 2 / / < < < 3 < : 4 ^ / / 5 / ^ ' ' 6 ' / ' ' ' ' { ' ' ' ' ! ' ' ' ' ' 7 , , ; 8 , 7 ) ) , = ) $ $ # $ 9 = $ + 0 % . a . b c ",
"d e f g h g i j k j l m n o l o p p q r p s t r u v u w x y z z A B z y y B B B u C D D B B z B E F G A G H I H I J K L K M N O P 1 1 1 P Q R S M N T L J J D A I R I B z z C v B R G E B z A U U B E D B U V V W X Y Z r r r Z w u u r p t o k l o ` ` ` k  .g h h e e ",
"..+.@.#.$.%.&.*.*.=.=.*.-.=.;.=.>.>.,.,.'.=.=.-.).).!.!.!.).).~.{.{.].].].{.^.{./.).(._.{.{.:.^.(._.(.<.[.}.|.1.|.2.3.4.5.6.6.7.8.1 1 1 9.0.a.b.c.3.a.a.d.|.e.(.}.1.}.f.f.(.(.(.g.<.(.{.{.].h.].f.{.(.(.f.i.^.^.j.k.).).!./.,./.l.).l.,.>.,.,.=.m.=.>.>.>.*.n.&.&.o.p.q.",
"r.s.t.t.u.v.v.w.x.y.z.A.y.z.y.y.B.B.C.B.y.z.A.y.D.D.C.D.D.D.E.F.G.G.D.G.G.G.G.H.E.I.J.H.J.J.J.H.H.J.G.G.G.J.J.K.H.L.M.N.O.P.Q.R.S.1 1 1 T.U.V.W.X.Y.Z.`.`.`.K.J.K.`.`.J.H.H.H.H.`. +J.G.J.D.I.G.J.J.K.K.J.G.J.J.G.G.G.G.G.I.C.C.G.G.I.C.B.C.C.y.y.x.A.y.y.x.w.w.t.t..+++",
"@+#+$+H.%+&+*+=+=+%+-+;+=+-+>+=+=+=+=+=+=+=+,+'+)+=+'+=+=+!+s.'+-+-+>+)+=+>+=+,+=+>+=+!+,+~+=+'+=+>+.+{+`. +{+*+=+=+]+^+/+(+_+7.:+1 1 1 <+[+}+3.|+1+2+3+>+>+-+{+{+3+=+!+s.4+5+~+!+5+s.'+=+'+=+'+6+5+!+'+'+'+,+7+8+8+s.5+,+~+=+'+'+=+)+&+=+)+)+>+%+%+.+9+9+.+.+3+3+0+=+a+",
"b+c+J.d+e+f+f+p.p.#++.+.g+h+h+h+f+f+p.f+U.U.U.Q.i+i+i+V.V.j+k+l+l+l+m+n+n+n+o+o+l+l+p+-.-.,.q+j.r+q+).}.d.6.s+t+6.u+v+w+b.W x+ .y+1 1 1 z+A+B+v+C+D+E+F+G+H+I+3.6.r+^.<.<.(._.^.J+^.=.m+c+m+o+K+n+-.L+p+M+l+j+l+l+l+P.N+V.N+V.j+i+p.g+W.i+i+p.p.g+h+O+h+P+g+p.P+Q+{+R+a+",
" .L+%+e+-.^.}.|.b.}.^.^.S+T+S+U+<.<.^.:.(.<.(.j./././.V+j.^.U+W+|.|.b.|.u+|.W+W+^.^.|.3.3.3.6.X+E+I+6.Y+W Z+`+x+ @x+.@+@@@#@$@@+%@1 1 1 &@*@=@-@c.;@>@,@'@)@`+!@B+~@{@~@t+]@^@6.3.6.u+T+b.b./@F+F+(@/@u+W+_.^./+_@/+V+j._@b./@b.U+^.U+W+W+W+U+_.^.^.^.^.^.^.^./.l+s.:@<@",
"[@}@=+|@-.}@<.1@6.3.2@2.2.b.2.F+F+|._.^._.S+b+`+)@3@)@4@5@ @>@6@7@8@9@0@a@0@4@8@4@8@b@c@d@e@f@g@h@i@j@}.Z+k@l@=@4@7@m@n@}+k@o@b+p@1 1 1 q@`+l@r@s@0@8@6@t@u@v@=@6.5.w@x@g@y@d@z@A@B@7@8@9@C@9@B@6@7@D@E@>@'@4@F@,@D@D@G@ @)@E+|.b.W+W+U+U+T+|.b.W+W+<.<.S+^.'.P./.H@I@J@",
"s+q+3+o+j.u+[+K@L@M@Z N@O@s r r M@Y+P@O@Q@P@2@A )@)@`+ @=@$@4@0@0@4@R@0@S@.@4@T@4@4@t@U@U@U@f@V@W@X@Y@Z@x+$@`@x+$@ #.#+#Y+@###$#%#1 1 1 &#*###=#-#.#m@;#.@ @.@4@>#A+s@x+,#f@C@;#'#)#7@!#B@U@C@m@'#0@4@>@F@F@v@$@~#4@D@'@S ^@Q@L@Y@{#(+s@[+]#^#s Y+r Q@Q@/#_+3.=.^.s.(#_#",
" .^.>+o+^.5._+!@!@K@:#L@L@!@Z+Z+Z+<#:#!@W :#(+}.G@F@$@'@'@'@4@[#;#9@B@U@B@;#}#t@0@|#B@g@e@1#1#2#3#4#5#6##@l@l@k@@#7#8#9#^#o@0#a#b#1 1 1 c#`@.@0#d#e#8#.#f#x+g###h#:#i##@j#e#k#l#C@C@B@'#U@m#U@f@U@n#'#.@0#.@4@T@##0@0@C@^@G+Z+x+o#M@_+P@p#M@W !@:#!@!@:#M@M@/#r+<.q#l.r#",
"n _.=+-.W+~@Q@o#`+W W <#<#o#`+`+o#`+o#Z+`+o#Y+4.s#t#$@4@4@'@u#C@m#f@v#w#8#f@8#n#n#;#8#e@x#2#j#x#3#y#l+6#-@T@##z#A#t@j#=#^###'#X b#1 1 1 B#v@u###C#8#D#v#z#k@m@v@[+(@E#-@F# #f@x#f@G#f@C@e@f@m#H#x#2#f@C@I#B@)#.@##t@9@J#~@^##@$@x+K#M@L#M#Z N#Z+Z+Z+!@!@o#Z Y+^.b.O#{.P#",
"n r+Q#).3.[@Z x+*#`+#@x+x+B+B+`+o##@x+#@#@o#Z [+R#S#4@7@u#4@!#B@T#U#V#U#w#x#2#f@f@f@f@G#U#U#W#X#Y#Z#V+`# $##0#####.$8#9#L@.@t@X +$1 1 1 @$##t@###$8#j#B@.@.@v#o@p#s@$$@#x#U@2#D#x#H#H#%$U#f@f@&$&$V#U#x#G#f@m#B@.@7@B@*$t+M@x+ @=$N#-$`#o#!@;$`+`+#@`+o#B+A+^#|.>$U.>.a+",
"/#q+q#j.5./#W B+x+o#o##@x+`+o#B+`+`+#@x+,$`+:#>#y@'$0@t@B@B@C@f@f@H#&$U#w#x#)$x#x#w#2#D#U#)$!$~${$]$C+o#Z+## #;#0#t@1#=#!@^$t@V /$1 1 1 ($##}#.@_$.# #m@0#t@m#4@M@h#:$$@)$<$[$2#)$}$&$|$1$2#f@U#2$3$1$V#V#H#e@;#u#t@C@4$/#Z 5$5$o#`+o#o#`+Z+;$x+`+`+6$#@`+A+r d.E+7$*.8$",
"9$j.Q+j.0$^#W B+#@<#<#o#x+x+`+`+a$o#o##@ @l@;$O@b$g@0@B@m#f@U#V@H#H#U#x#;#f@x#&$W#w#x#W#)$!$)$c$d$e$f$<#Z v@ #e# #n#8#r@Z g$}#S h$1 1 1 i$.@}###j$k$W@=#W@e#8#l$+@P@i@k@W#U#1#m$2$n$V#o$p$!$2#W#)$2$3$3$&$&$U#B@u#7@C@q$N@W x+#@#@r$:#r$!@s$o##@`+*##@`+V W r F+E+P.*.a+",
"n ^.t$U+[+Z K@<#x+Z+<#u$*# @)@x+x+6$Z+*@F@'@=@Q@v$A@u#0@I#U@G#U#y@U#U#k#}#W@e#U#x#j#U#)$w#<$!$w$x$y$f$r$M@u@.$v#}# # #f#^#W@ #S z$1 1 1 A$0@n#B$c.=#=#r@ #j#U@'@C$P@i@$@&$n$2#2#!$V#o$V#3$V@j#j#f@H#)$)$!$2$H# #0#u#U@D$r `+ @$@ @=@o#o#o#r$`##@x+x+x+6$V E$n F+~@N+,.P#",
"r b.+.^.[+F$L@W A+:#:#!@x+ @=@F@$@G$x+x+$@$@#@j d@T#H$##.@0# #e@G#G#H#U@'# #8#x#e@w#W#)$x#W#I$~$J$e$S+F$K$u@g#;#1# #W@@#^#m@.$F h$1 1 1 ($'#B@o@L$M$=#N$8#8#}#o@O$5#s@l@2$2$X#!$)$!$V#f@H#U#8#e@8#f@G#x#w#2#w#e#u#0#U@P$M@x+4@;@F@$@ @5$<#=$#@ @x+x+#@#@Z+!@Q@(@(+l+k.Q$",
"v 5.p.r+~@L@!@:#Z !@:#Z+x+ @=@F@F@$@$@=@=$`+Z+O@A@;#4@o@T@T@o@N$f@d@e@f@;# #U@e@U@j#w#x#R$n$X#!$[$S$T+T$Z f#g#8#2#f@n#U$Q@0#t@R V$1 1 1 W$t@N$X$Y$k$W@ #8#n#I###L#Z@_$u@)$3$&$V#W#W#x#f@V#V@m#8#k#e#l#f@8#Z$f@j#.$u# #`$^#x+'@l$4@o@F@x+=$=@ @$@$@=@=@#@W Z Z@ %~@l+(..%",
"<#w@p.^.t+L@!@Y@:##@`+ @$@=@=@ @F@$@F@=@=$u$A+/#+%A@o@u@=@(@c+@%j.j.)./.-.-.,././.j.<.L@j#!$x#)$x$#%N@#@:###W@$%k#x#1#B$@%Z T@R %%1 1 1 &%g#o@^.*%8#e#e#}#t@m@##r$o#=%F@I$&$&$W#'@(@^./+^.^./.@%@%}@j.j.V+q+S+t@t@=@u#V#N@-%o@H$##$@ @*#=@'@F@'@$@ @ @x+Z+Z Z@/@4.l+;%>%",
",%G+p.r+I+_+K@L@o# @=@'@F@F@=@v@F@~#F@l@x+u$Z+^#Y ~@T+T+T+T+I+6.>$b.>$2@>$ %(@6.@@5.Y+5.C@H#W#W#'%)%!%~%-@ #e#8#8#j#1#f#{%/.T@G$%%1 1 1 W$.@^#@%]%F#8#e#.$l$t@0#^%/%(%x#U#U#)$!$~@}+[+ %_%E+>$>$:%c. %I+G+<%c.[+5.[%^@!@M@ @##.@4@o@'@F@F@G@'@4@F@ @x+#@!@^#_+b.E+j+1@}%",
"W G+W.j.F+G+^#A+`+ @ @=@#@ @l@F@>@)@)@$@x+#@Z+:#'$*#o#Y@t+<%{@|%^#[+^@[+[+I+_+]@(+L@1%F B@f@x#2%)$3%4%5%6%W@e#v#1#v# #7%8%S+T@)@%%1 1 1 9%'@#@0%a%1#n#W@.$.@.$b%c%d%e%f%V#2#j#H#g%6@A+5.G+[+]@/#5.4.t+^#G@H+G+M@Z `+,@A@x+k@T@0#H$'@4@'@4@F@~#~#$@=@x+#@:#Z@}+}.5.V.h%i%",
"V j%W.r+(@~@t+L@`+)@#@#@Z+`+G$'@F@F@$@o@x+#@-$P@S#x+N#:#j }+[@h%P@r k%l%g.m%n%{.[@3.=@o#B@[$[$$%W#o%p%q%r%s%W@ #.$.$=#t%0%S+o@1%z$1 1 1 &%o@k@[%u%I#W@=#0#=# #v%w%x%y%W#8#n#2%H#M@H$E+[@k.{@h%g.z%{.P@M@g%t+/#K@Z+6$,@B@<# @v@0#4@4@4@4@'@ @ @*#x+#@`+;$!@_+E+W+F+N+k%A%",
"x@E+h+n+k.[+H+`#5$5$`+#@u$`+ @'@##v@F@'@u@#@`#P@A@$@-%^#B%g%}+0$6.K@3.k%C%D%E%F%[.G%o@:#'#8#[$.#F#H%I%J%K%.$'#0###t@##L%8%^.'@>@z$1 1 1 M%## @[%U+n#k$.$0#s%n#N%O%P%Q%R%.#.#1#!$^#4@v+B%{@3.z%H+g.[@}+/#[@L@L@{@n x+ @C@W =@B$.@T@4@.@4@##$@G@ @#@o#`+x+Z+}+}+j.p+p.B%S%",
"W u+f++.T%b.6.Z+x+=@=@x+=@x+l@=@o@o@##'@4@o@#@v+y@4@#@N#K@{@g%9$r.G+/#]@1@U%{@V%U%F+5$o#!#1#2%.#1#H%W%X%Y%=#t@g#g#0#0#Z%8%r+E@`% &1 1 1 .&## @ %<. #n# #k$ # #x$+&@&#&{$$&.#F#%&M@.@I+&&>$~@b+h%*&s+M@[+W `+*&g%=@x+H$A@Z+k@'@######4@H$0@.@;@F@*#o#`+$@#@t+5.7$=&-&;&>&",
"v 3.h+/.,&5.3.W x+x+x+ @ @`+=@x+=@=@$@####T@=@M@v$4@#@#@5$K@6.^#'&[@^#;$4@)&6@C@8@=@T@#@!#1#2%$%2%!&~&{&]&.$W@=#r@0#u##@8%k.>@1%^&1 1 1 /&'@=@/@^.7#n# #N$n#e#N%(&_&:&{$$%$%1#x#Z !#$@T@B$4@;@,@$@;$j `+#@n Y+$@=@=@0@g@Z+#@o@##########H$'@7@H$$@=@ @ @x+t+[+-.&.'.l.Q$",
"W I+W.<&c.}+I+A+G$ @l@4@$@`+=@v@'@l@ @[&@#v@k@M@c@;@u@=@=@o@L@o#a$s$M#[&0#0#0#m@W@r@r@`#7@2#2#[$d$}&|&1&2& #e#.$=#=#T@#@8%/.F@,@^&1 1 1 3&##=@b.^.7#.#.#W@ #8#x$4&5&6&{$1#$%d$G#P@T@t@7&=#0@N$u###o@M@=@v@`+##z#o@v@=#8&:#o#u@l@o@B$'@'@$@#@4@v@ @ @$@,@x+_+^#9&T+N+,.0&",
"K@[%h+-.h+c+>$!@#@x+F@T@T@=@k@v@B$l@=@=@@#@#=@:#g@0@$@o@o@4@T@5$#@o#T$o@0#t@u#g#s%r@T@K#'#8#j#Z$2%a&W%b&2&v#U@n#N$T@T@#@U+@% @~#^&1 1 1 3&4@=@b.^.7#W@W@=#W@F#c&d&e&f&W#g&$%e#l#M@=#.$W@=#N$N$}#T@o@Z $@B$##.@##X$T@}#m#Z+Z%@#o@o@h&B$o@u@=@$@o@=@x+$@)@#@}+^.P+'.Q.n.i&",
"K@/@p./.j&q+[+Y@u$-%F@T@H$##l@B$B$X$Z%k@k@Z%Z%=$`+4@##r@0#t@W@T@v@k@o###t@k$I#W@=#k&k&l&4@}#;#I#1#m&n&o&p&k#f@;# #.$7&5$W+q+ @ @q&1 1 1 r&h@s&t&(.7#.$W@W@8#[$u&v&w&x&W#m$$%$%2#M@=#n#n# # #.$.$T@##:#######.@0#B$##t@$@`#u@o@o@@#@#@#B$o@$@o@ @k@ @ @*#=$Q@b.c+y&Q.-.z&",
"K@(@p.V+_@W+}+Y@<#o#=@k@v@T@u@Z%Z%@#o@T@B$L%-@N#{#T@o@##0#=#=#.$m@o@K#T@0#7&k$A&s%f#z#L#4@.$^$v#1#B&n&C&D&e#j#f@e#n#.$u@T+/. @)@^&1 1 1 E&T@5$T+g.7# # #e#$%$%N%F&G&H&W#R%I&$%G#p#=#n#.#n#7#.$0#.@##!@T@4@0#t@t@##.@7@Q@D+@#J&l@u@@#o@o@B$k@k@`+#@#@#@`+<#^#(@B%~.Q.>.>%",
"Y 2.p.q+U+/@K&L@Z K#o#-@Z%@#u@#@=@X$z#l@T@Z%-$-@:#.@o@[&T@0#0#W@ #z#L&##0#0#s%=#s%f#f#N@o@t@^$g$8#2$M&N&O&.#8#8#U@7#0#=@W+,.$@ @^&1 1 1 E&##`+W+^.9#7&7&n#$%d$P&F&Q&R&m$.#W@.#G#K$S&$%$% #=#=#.@##o@Z+.@0#=#t@.@B$##'#r$J&u@Z%X$u@@#l@@#k&u@#@r$!@Z+<#Z+!@Z >$S+i.N+/.Q$",
"Y /@g+j.f$/@W !@:#:#`#D+5$l@X$J&@#[&X$A#T&Z%-$U&-@.@o@o@T@0# #;#U@B$-$z#0#=#s%r@r@k&f#L# @g#t@t@e#&$V&W&O&n#U@m#;#N$=#=@W+@%$@$@ &1 1 1 X&B$=$U+J+.@r@r@ #8#2%u&F&Y&R&m$I&.#e#G#M@.$[$$%n#=#9#T@f#A#a$v@##=#t@T@o@o@'#-$Z%Z%u@U&U&@#z#z#@#@#=$:#F$o#o#W F$K@>$b.[.k+{.>%",
"W F+g+j.^.F+Z&:#:#o#o#-@=@v@u@Z%u@u@u@[&@#5$ $U&-@4@'@B$0#0#N$n#e#T@-$B$0#9#9#9#`&k&k&M@v@0#r@r@e#&$ *.*+*Z$m#U@m@W@=#*#W+/.$@$@ &1 1 1 @*##B+U+k.#*T@##W@.#1#$*d&%*#&2#W@n#$%x#L@N$e#&*$%I&9#r@f#z#T$@#r@.@.$T@z#T@t@K##@u@B$A#k@@#k@u@@#B$#@Z+`+#@`+!@!@Z&5.(@**=*(.>%",
"W 2.h+J+r+[%r :#L@Z+`#o#5$o@o@X$@#u@u@@#k@k@-@@#Z%8@'@B$.@=#t@m@ #T@ $k&B$k&r@0#r@f#f#L###0#z#T@;#!$-*;*>*e#C@;#N$=##*5$W+/.F@$@^&1 1 1 ' '@`+U+j.T@T@f#.$n#8#v%,*'*Q%2%k$n#8#H#M@N$8#k#n#W@r@f#B$z#r$o@r@r@W@T@A#f#a@`#Z%5$o@@#z#B$Z%Z%o@.@=@=$u$`+Z+A+:#K@5.3.)*=*[.!*",
"v |.P+j.r+t&Y+L@Z r$;$#@#@5$-@@#u@@#@#@#@#A#u@Z%-@4@o@B$##.@N$ # #T@ $u@f##*h@0#r@`&@#p#o@.@T@7#v#.#~*{*]*I& #}#t@t@r@=$W+^*o@)@/*1 1 1 (*o@Z+S+^.=#f#z#t@ #_*:*<*[*}*8#e# #1#H#^#.$;#e#e#N$9#`&o@A#Z [&f#T@t@f#@#A#0@=$Z%Z%@#L%@#o@@#k@'@T@k@#@`+Z+Z+!@!@n 3.b.|*l+(.1*",
"2*^.3*@%^.u+n K@Z F$#@5$-@o#4*#@@#A#@#o@u@@#-@#@#@E@U&k@##=# #m@m@## $o@##h@0#M$f#5*@#N@k@0#r@N$.#X@6*7*8*9#N$}#t@h@f##@W+,.$@)@/*1 1 1 , $@Z+T+J+h@T@T@=#=#h@7%9*0*a*B$e#7#e#e@Y@N$ # #n#W@#*#*f#B$^#u@o@##=###Z%o@H$o#@##@-$-$D+u@o@o@o@B$5$#@;$o#Z+F$L@/#>$S+b*l+l.c*",
"W :.3*/./+S+[+^#:#F$r$`#`#d*D+-@#@u@o@B$u@@#-@u@=@8@B$@#B$ #m@7#7#f#e*#*.@0#W@=#f#z#@#=%k@0#T@=#1#f*g*h*i*##.@0@.@0#T@<#^.-.$@s&/*1 1 1 j*T&!@W+/.h@h@0#0@.@f#k*l*m*n*.#n#=#.#f@M@N$ #0#W@9#h@h@h@o@Y+k@[&z#.@v@u@B$E@D+u@#@D+-$=$=@k@k@$@o@Z+!@`#r$`#F$L@/#/@(.g.o*-.p*",
"Y j.q*l.j.^.G+Y@Y@N@Z `#=$#@#@#@u@o@B$o@k@B$@#Z%=@D@o@#@o@t@N$N$W@o@ $=#=#9#7#9#f#A#@#N@l@#*f#0#r*m$s*t*u*t@7@0#T@T@T@L@^.,.k@*#v*1 1 1 7 $@A+U+).m@W@N$N$=#w*x*y*z*A*k# #=# #e@Z@=#W@B$`&7&0#f##*o@^###T@o@T@o@z#l@>@-$Z%L%J&Z%Z%5$Z%5$;$=@o#Z M@:#F$Z+!@Q@b.g.g.o*p+Q$",
"r /.q*).q+^.~@N@^#^#:#o##@#@5$o@B$B$o@h&k@B$k&Z%#@>@@##@T&h@.$W@=#h&e*r@W@W@k$=#T@f#k&C$k@T@T@.@ #!$B*C*D*k$ #t@'@##v@Z ^.-. @x+v*1 1 1 E*o@A+U+).7@N$T@=#N$#*F*O%G*H*e#n#N$m@f@N@0#=#k&k&T@9#f#f#B$M@'@0#B$f#o@T@B$4@D+t%L%=@o@@#Z%#@#@#@#@`#:#Z Z o#o#!@_+3.S+I*j+&.P#",
"Y+@%Q+^*,.^.E+Z@N@M@d*#@Z%=$-$#@@#u@D+Z%u@$@k&Z%-@,@$@-@f#=#=#!#=#=@r$B$h@h@7&I&=#T@@#N@k@##T@.@m@2$J*K*L*A&B@'#4@T@l@M@/+=. @M*v*1 1 1 N*k@A+^./.0@T@B$.@!#=#O*P*Q*R&$&e# # #&*/#T@#*f#k&r@0#r@r@@#N@o@####f#@#z#T@T@o#Z%L%5$$@$@l@u@=@#@#@=$N#M@:#Z+o#!@/#2@u+g.V.*.Q$",
"s -.Q+/.q+W+4.R*5#v+o#@#@#=$e*-@-@Z% $-$5$5$Z%Z%o#)@s&#@B$=#t@N$.@#@O$Z%o@B$f#T@f#z#u@=%$@T@f#r@7#2#S*T*r%=#W@0#0###o@M@_@c+s&*#v*1 1 1 U*=@!@^./..@B$k&T@h@=#)%V*W*X*$&I#t@m@Y*Q@f#.@#*T@r@T@f#B$Z%Z@'@H$B$@#@#@#T@E@r$#@5$#@*#k@=@$@ @5$o#=$-%Z+`#`#:#:#/#F+S+Z*Q.-.!*",
"s }@3*/./.U+_%5#N@M@o#u@Z%=$L%u@X$@#-$D+#@-@5$#@o#)@$@k@k@T@###*B$D+C$Z%u@A#k&k&w*u@t%L##@@#o@T@=#2%`* =.=T@0###B$##B$:#/+c+k@`++=1 1 1 @==@!@^./..@o@@###0#0##=V*Q&X*J$k#h@W@U@p#k&##f#`&.@z#@#k&Z%Z@T@T@v@B$u@Z%4@G@d*-@5$Z%u@#@#@=@*#-%=$5$#@;$o#-$Z K@_+2@T+g.Q.l.}%",
"r j.3*l.q+S+~@Q@p#:#o##@L%L%Z%o@##f#u@u@u@L%#@=$o# @F@o@u@k@u@B$$@r$K$Z%Z%#@t%U&A#T@w*L#F$L%B$B$T@d$$=%=&=B$T@####f#T@!@^.L+s&o#+=1 1 1 *=$@W ^.'.!#f#@#B$T@0#==-=;=>=$&n#=#0#;#p#B$T@f#B$,=o@k&@#n@P@v@T@o@@#=@u@'@5@L@-@U&o@k@o##@5$#@=$5$5$;$#@`+r$:#v+}+F+b.Z*Q.).Q$",
"K@j.+.k.j.S+s+M@M@M@!@N##@u$Z%B$##v@B$@#$@5$#@-@-$ @$@k@k@k@o@.@>@r$p#L%D+-$D+-@o@#*t%C#<#@#f#B$T@f@p%'=)=k&f#T@T@T@T@r$^.=.*#W +=1 1 1 U*$@W U+@%=#T@u@@#B$T@!=~={=+*.#N$7&m@r*6#T&0###Z%B$@#$@@#L%/#'@##k@k@Z%=@=@>@`#=@l@'@$@;$N#`+#@5$=@#@`+5$o#:#M@^#{#F+(@g.U.l.>%",
"^#q+q*,.).S+t+M@M@O$:#r$!@r$#@u@@#B$o@u@=@Z%-@L%`#]=s&5$5$k@l@T@'@`#5#L%Z%#@-@-@##T@^=/=#@v@T@A#.@C@(=_=:=$@'@o@B$f#f#K#/+=.*#B++=1 1 1 <=k@Z+^.'.h@f#u@l@##,=+#[=}=|= #0#0#m@I#[+$@.@##L%@#o@h&=@D+Q@F@o@#@u@Z%#@=@E@!@;$#@o@=@=$o#D+#@=@=@#@#@x+o#!@^#N@t+b.<.{.U.,.!*",
"Y+@%q#=.j.<.s+Y+M@M@p#:#M@M@-$#@-@k@k@=@u@=@=$L%r$*#*##@Z%=@$@T&@#r$p#5$u@u@D+J&B$@#5#F$'@4@####H$H$1=2=:#@#o@f#B$T@o@:#:.-.s&F +=1 1 1 3=$@<#/+'.=#h@f#v@T@.@=@4=5=$@ #7#f#T@0@>@{# @B$-@^=@#@#@#@#^#$@o@u@=@u@#@=@)@M@o##@ @#@=$5$Z+o##@#@`+=$=$o#`#p#N@G+S+S+[.o*,.!*",
"/#-.q#=._@W+s+^#Y@N@P@M@:#r$r$o#D+#@o@@#@#Z%-@-@K#M* @#@#@k@k@@#@#`#p#@#@#T&O$M@u@p#Q@ @;@4@'@B$>@~@-.U+Z&T&##T@r@#*##Z+:.6=F@F +=1 1 1 7=F@L@^./.=##*r@.@t@t@$@u+r+u+H$t@z#r@t@7@x+/#=@r${##@u@o@@#Y+k@k@k@k@5$-@=@=@:#N##@5$o#-@-@o#r$`#o#o#`#`#r$:#N@Q@G+W+^.}.N+*.>%",
"Y+-.q#-.q+<.~@p#M@N@P@p#+@`#o#D+-@=$u@T&T&Z%Z%#@r$*##@u$#@5$u@$@@#-$p#t%o@#@:%F$Q@g%=$T@.@0@H$Z%{#l+j.3.E@#*##r@h@h@T@8=^.'.$@`+9=1 1 1 0=$@Z ^.^*.@#*.@=#W@m@'#Y+B%l+3.T@T@#*.@!#0@<#G%#@^@Y@k@=@#@n *#Z%Z%=@Z%-@Z%$@:#o#u@5$K#-$ $+@O$+@`#o#o#o#:#M@Q@/#4.W+j.I*Q.p+_#",
"n L+q#^*_@W+~@N@^#M#L#O$e*L%#@D+D+D+k@h&o@u@#@=$M@=$`#r$e*-$Z%=@u@r$5#Z%=$E+L@l&P@5$@#B$0@H$$@Q@j&_@k%5$o@B$T@B$T@##B$M@^.,.#@B+a=1 1 1 b=l@^#r+^*T@f#=#.$=#0#m@0@_+B%=*1@o@'@T@4@0@B$A+_+<#c=v+o#D+/#=@k@U&#@L%5$#@=@M@o#5$=@`#r$K#C$M@M@Z+-%#@N#!@Z 5#d=<%U+_@}.i+*.e=",
"/#@.q*q+S+b.E+N@M@M@M@r$o#=$#@-@o#D+u@$@=@#@D+o#:#<#r$M@O$N#Z%Z%=@`#f=r$I+-$:#g=o@B$@#B$.@T@K@o+/.3.h=u@#@u@##t%k&o@=@M@^.>.#@,%i=1 1 1 j= @Z@_@^*E@k&r@r@0#=#T@'@E@t+^.l+E+ @0@H$h@T@k@Y@}+<#3.{# $P@=@5$-@D+^=D+o#=@M@`#o#5$#@-$r$C$M@p#o##@#@`#`#Z Q@{#4.<.<.g.Q.p+k=",
"9$-.e+S+I+G+t+Q@M@M@:#r$-$o#o#-@=$#@@#k@5$-@D+-$:#<#r$`#-$#@#@#@@#8=P@>$M@O$j%-@T@B$o@B$.@k*l=m=>$s&Z%u@@#@#'@$@T&Z%!@^.j.k.)@A+i=1 1 1 n= @g%r+@%}+=$`&f#f#h@##B$$@T@s+W+o=p=0#T@.@h&v@k@P@t+K&B%r$/#o#D+L%D+=$`#`#5$p#K#!@L%-@L%D+K#:#l&o#D+=$M@:#M@M@_+G+I+ %F+j+q=r=",
" ./.O+W+G+Y+}+l&M@Z M@!@o#D+D+;$#@#@=@=@Z%-@=$o#+@<#`##@#@o#D+L%Z%!@{#F$M@G+`#5$B$u@4@u#s=t=u=v= @>@#@Z%f#f#T@T@'@o#k.@%<.w=x=A+i=1 1 1 y=s&4@>$q+V.{#h&r@r@7&0#T@5$E@0@z=A=B=C=.$0@k@B$'@@#6#{#K&o#9$r$D+L%#@#@N#!@#@5#M@M@-$-$#@-@r$+@C$-$-$d*Y@p#5#M@P@G+G+G+>$j&>.r=",
"9$q++.U+t+M@g=Y@:#:#M@r$e*o#L%=$=$=$-@#@D+`#-$`#M@u$-$^=#@`#o#o#L%`#A+K&:%=$u@Z%=@u@T@D=E=F=G=H='@F@k@k&B$`&####*#^.c+S+A+$@=@A+i=1 1 1 I=s&T@o@ %@%j&^#T@z#r@N$h@B$F@S@x$J=K=L=M=0#$@h&@#k&T&G+}+x+{#`#-@D+^=D+D+o#-%P@M@L# $ $^=-$r$+@M@`#e*r$+@M@M@p#P@j%s@j%(@N+>.r=",
"g%j.O+W+h#N@[+M@r$`#M@L@d*D+#@#@-@o#`#D+ $+@+@r$L#!@`#=$`#:#o#=$`#[+t+E+r$X$#@-@Z%o@N=O=P=Q=R=A&4@T@o@u@h&o@B$s&g.k+^.L@'@'@=@A+i=1 1 1 S=u@'@f#,=(@L+p+F$o@T@#*f#h@##T@ #T=U=V=W=X=l@$@u@#@T&5$j$*&G+M@D+-$#@#@K#-$o#P@p#p#O$:#-$ $M@M@O$-$`#`#d*K#p#5#P@[+P@t+b.Q.,.Y=",
"Q@j.O+W+}+Y@G+M@!@o#`#r$D+-$N#D+o#-$o#-$-$+@M@r$K$`+<#=$`#-$u$<#{#Y B$t%=@-@#@#@U&Z=`=Y& -.-3#.@##`&f#o@k&@#Z%S+j+<&Q@F@B$B$Z%A+i=1 1 1 +-l@##@###$@ %L+c+M@B$T@B$`&#*#*.@ #y%@-#-$- $u@5$#@u@Z%5$`&h=t+:#-$;$-@r$-$%-N@Z :#+@K#K# $M@M@F$-$r$r$K#:#L@Y@Q@[+Q@Q@>$Q.l.k=",
"/#q+p.T+P@^#[+M@o#=$=$-$-$r$-$e*r$F$`#D+-@ $M@:#N@u$%-#@D+L%`#P@K@K&5$k@#@`#Z%Z%n@&-*-=---b%!#H$T@f#f#t%t%=@b.j+j.Q@o@@#u@o@=@A+i=1 1 1 ;-o@T@B$f#B$s&b.c+-.`+$@k&w*h@=#h@.@k$>-,-'-)-!-@#=@=@#@Z%=@O$G%j%M@=$o#r$F$#@p#r$o#-$:#:#+@:#M@:#o# $`#`#`#:#L@Y@G%M@Y+I+P.,.Y=",
"Q@{.Q.T+_+N@[+M@o#<#<#`#`#:#K#K#r$O$+@K#-$ $+@:#Q@W -%o#=$-$Q@r$F$=$#@#@-@-@Z%k*~-{-]-^-b%B$####f#f#o@k@k@>$l+V+}+T&k@h&o@k&=@A+i=1 1 1 J@##.@T@f#o@'@*#u+m+/.u$k@k@B$.$=#T@z#=#/-(-_-:-<-o@$@-@#@#@#@Y@M@5.:#o#o#-$`+N@r$o#o#r$K#M@L#M@+@r$K#o#!@r$M@Y@^#}+M@_+(@N+).[-",
"K@^.p.W+>#Q@~@p#`#d*`#!@:#+@+@K#K#r$ $:#r$D+r$r$K$u$o#-$o#P@}-M@|-L%-@#@Z%-@k*1-2-3---!=f#k&##`&B$T@o@$@^@j&r+t+o@z#k@T&f#B$u@L@i=1 1 1 ;-'@H$#*r@B$o@E@<#U+p+k.-%k@Z%B$#*f#k&f#=#4-5-6-7-8-@#5$L%<#`#o#Q@Y+s+`#-$-$*#Z@d*r$o#`#:#N@N@M@L#p#Z r$:#r$:#M@N@[+Q@/#(@N+l.9-",
"U%j.0-^.I+t+G+Q@:#L@!@-$r$:#r$:#e*-$-$r$-$=$e*`#N@#@e*-$e*N@Z%C$-$L%=$=@o@a-b-c-;*d-e-B$Z%k&z#f#B$T@x=G%o+f-g-'@=@@#o@k&B$B$@#K@h-1 1 1 i-##.@T@=###@#@#,=W ^.l+^.5$h&t%f#f#o@@#A#j-k-l-m-n-o-;$Z%o#o#o#Y@=@P@Z++@-$s&Q@M@:#r$o#:#p#C$C$O$M@r$-$`#:#M@p#5#G+t+4.U+Q.!.p-",
"g%/.+.>.f+p+^@g%M@:#r$-$K#:#:#r$r$-$K#r$o#N#d*:#$@k@=$D+`#4*L%P@-$=$#@Z%q-r-s-t-u-v-A#k@5$k&z#@#B$f#}+w-/.E+E@k@L%@#B$f#####@#Q@h-1 1 1 x-$@,=T@0#f#B$t%=@H$F$j.o*<.5$t%t%o@##k&o@@#y-z-A-B-C-D--@-$o#o#N@=@Y@r$M@r$5$)@=%M@M@r$+@T$M@+@M@M@E-`#:#M@Y@p#N@6.n+p.(#p.p+F-",
"Q@r+O#p+M+B%H+/#M@Z+o#`#:#:#:#:#:#K#+@r$r$d*`#M@5$%-`#r$r$p# $~@O$=$N#U&G-H-I-J-K-f#@#Z%L%A#B$o@k@^#j&'.6.$@@#L%-@Z%k@##T@B$#@H+1 1 1 1 L-#@T@#*##z#o@@#L%o@H$M-q+N-d.5$A#r@o@B$B$Z%B$j-z-O-P-Q-R-r$D+`#P@M@N@K#+@+@`+#@F$M@p#M@M@:#Z :#+@T$M@Z ^#v+p#M@p#5.j.l+n.p.l+S-",
"9$^.T-c+-.F+G+9$K@Z+`#Z+r$M@^#M@:#O$K#+@r$r$E-P@K#`#M@I+Y@M@p#_%:#`#e*U-V-T*W-X-`&k@Z%5$t%h&@#t%Y@L+-.Y-3@T&Z%-$D+u@h&'@T&x=!@}.h-1 1 1 |*Z@$@T@f#f#o@@#@#o@s&E@}+'.Z-6.u@#*##k&f#o@u@u@==`-3-[= ;O$5$Z+{#g=h#=$b.=%:#o#Q@N@M@p#N@Z Z M@L@L@M@v+^#M@M@Y@Y@9&U+-..;p.m+V%",
"}+^.3*p+p+}.s+g%Z :#r$Z K#M@C$M@+@e*+@C$O$ $ $Q@r$r$d=t&!@M@C$I+:#!@+;@;#;$;%;7%u@U&#@t%k&k&Z%F$'.c+F+4@$@Z%u@D+L%B$T&T&5$-%&;J+*;1 1 1 =;<.u$k@B$,=k&Z%u@@#5$k@T@G+,.=*H+##`&@#B$o@@##@Z%==-;;;>;u$`+o#{#_+_+r$(@:%O$r$Y+^#^#M@v+M@M@:#:#`#r$M@Y@M@^#M@Y+5.^.=.q=h+p+E%",
"[@_@3*p+l+j. .}+N@M@M@M@M@T$M@M@:#+@K$=%+@r$K#Y@8=-$g=F$u$:#f=l%:#o# $,;1=E-=@#@=$^=L%@#z#k&-@5#).<.';=@#@5$Z%L%-@k&x=Z%k@I+U+);!;~;1 1 1 {;F+5$$@'@@#Z%Z%@#Z%o#5$>@W+q+3.=@U$u@B$k&Z%D+-%5$];^;/;o#B+F$d=h#P@o#r$4.`#o#Y@5#C$O$N@p#N@M@+@T$M@M@Y@p#v+M@K$s+j.k+*.h+p+(;",
"}+<&+.c+'.{.9$G+j%g=t+g=d=_;d=5#R*d=d=:;5#5#d=:#D+!@#@o#+@N@p#t+`#D+:#<;[;9$`+D+4*-$D+Z%Z%t%#@P@S+r+X <#D+L%Z%t%J&$@s&Z%##$$};|;1;^.2;1 1 h-3;T@f#k&h&Z%t%5$5$-$`#T@j._@<.k@o@u@Z%U&-@-$<#o#^#/+L+n <#`#5#}+{#`#e*5$=$u$Y+j%P@N@_;s@d=P@d=P@h#_+h#s@d=[+[+^@j.M+.;h+=*e ",
"9$^.+.c+^.S+[@E@C@4;,='@o@B$0#!#m@!#5;#*B$T&k@,=u$L@e*o#r$Q@p#t+`# @`+6;r+9$x+#@-@D+-@Z%Z%@#u@{#S+/.L@-%#@o#^=Z%7;5$k@5$f#8;9;0;a;b;c;1 1 1 d;.#,=T&k@L%Z%L%L%D+r$$@}@r+B% @k@k@-@Z%5$D+<#`+Y+r+n+9$<#o#N@}+j%`#=$#@#@=$#@T@0@.@h@0#8@4@'@4@;@D@D@G@S@r*e;{@(.c+>.p.p+3;",
"g%W++.p+J+^.3.A+s&x+`+`+=$=$#@=@x=k@5$o#D+=$Z+x=L%-$e*o#o#Y+^.6.-%o@-%@%f;}+@#@#Z%#@-@U&L%Z%o@_+W+q+Z&%-u$D+-$L%5$=@-%L%w*g;h;i;j;k;l;1 1 1 m;n;k&-@=@5$5$5$-$ $`#=@}@U+[.)@5$5$#@5$Z%D+-$o;K$_@n+~@!@;$P@/.5.o#=$#@=$`+W =@ @ @ @)@x+`+#@#@x+x+x+#@*#$@`%k%J+*.n.Q.>.p;",
"g%<.O+p+,.{.b.n <#=$-@=$-%=$`#=$#@L%-@5$5$=$`#=@#@o#=$o#u$v+q+I+#@x+A+L+<&q;r;s;t;^=t%@#L%D+k@t+U+q+^#o#L%L%-$D+D+o#I+K$+#&-u;v;w;x;l;1 1 1 y;z;L%/.5$L%-@^=r$+@ $5$@%f;[.-%Z%Z%@#k@Z%^=A;B;C;^.L+0$<#o#h#L+~@o##@=$#@#@Z+5$x+x+=@#@o##@s&o#!@!@!@<#<#x+]=|.J+&.q=p.>.F-",
"9$<.g+p+,.j.3.K@`+5$#@N##@u$!@o#=$#@#@=@$@#@=$#@#@#@D+u$-$P@V+F+!@-$A+@%8%D;E;F;G;^=-@u@L%4*=@[+f;q+^#`#-@D+-$#@5$<#[%5#9#&-H;I;J;K;l;1 1 1 y;s=Z%{%@#5$-$e* $:#`#5$-.^.^.u$=$@#@#Z%L%Z=L;M;N;T+}@[+!@!@j%j.{@o##@o#=$o#!@=$=@#@5$#@Z+o##@<#Z+K#`#!@!@`+x+2.).=*&.h+,.O;",
"9$^.P;&.-.i.d.&&<#-%u$`+=$=$r$=$=$=$E@Z%=$#@#@u$o#o#`#`#r${#V+b.Z !@W @%Q;R;S;T;U;D+D+u@5$D+s&t+W+/.g%`##@#@5$Z%u@-%I+Q@V;W;X;Y;Z;`;l;1 1 1 y; >k@V+T&=@D+-$e*-$D+s&L+^.[.#@s&Z%@#k@#@.>+>@>#>T+,.[+!@!@t+j.E+<#o#=$o#<#^#Z+x+5$=$o#r$`#o#A+L@Z Z :#F$Z+#@u+@%V.&.f+,.$>",
"j /+O+=*-.i.3.g%,%<#<#B+B+:#r$=$M*`+-%`#`#o#Z+!@u$#@`#!@!@P@V+(@!@=$A+q+b.R;%>&>o;`#J&@#u@L%$@}+u+q+g%`##@#@=@=@k@x+G+p#k&y#*>=>->x;l;1 1 1 ;>>>.>f;T&5$5$L%n@^=D+k@-.^.u+ @k@u@=@o@#@L%,>'>#>T+@%}+Z+`+t+q+[@B+o#`+=$Z+^#Z Z+o#-$:#`##@W A+M@L@:#Z M@K@-%S+-.=**.P.k.3;",
"}+j.3*j+*.)>b.g%V /#/#]=1%v+K@2*Z&,%P@P@^#{#g=Y+u$#@`#!@!@g=V+3.W N#Z -.T+!>~>{>n@-$#@@##@Z%k@}+U+-.g%`##@5$s&k@5$x+E@Z%`&]>^>/>(>_>l;1 1 1 ;>8-7;#@h&o#5$Z%D+-$-$s&-.^.B% @k@#@u@k@Z%^=:><>[>W+/./##@`+t+/.t+B+=$o#o#Z+Y+n t+t+/#/#Y+'&Y+}+[@/#Y+}+n '&}>u+/.j&p+Q.k.V%",
"}+@%q#j+c+,.;%3.3.S+T+|.u+u+b.F+I+b.S+T+S+^./+^@!@-%`#o#<#Q@M@E+!@N#r L+W+_+|>U&D+D+D+u@=@A#o@g%<.-.&&`#-@5$5$k@5$5$T&h&9#1>2>3>4>5>6>1 1 1 7>8>t%Z%Z%`+#@=@=$`#`#$@@%^.}. @Z%Z%k@t%L%D+D+9>M@<.}@g%`+Z+h#[+Q@o#o#=$=$!@G+b.U+U+^.^.T+u+b.S+b.u+W+^.T+u+3.&;/.j&-&p.!.0>",
"}+,&a>j&-.>.{@s+_+P@Y+Z@N@Z ^#Q@Z ^#Q@Y+Q@_+}+9$Z+#@o#o#o#N@^#~@!@D+L@@.U+t+o#=$D+D+r$5$=@$@k@g%U+/.n o#-@5$=@$@k@=@Z%=@$@$$ ;b>c>y#2;1 1 1 p;`#Z%^=Z%*##@k@#@Z+o#,@/._.}. @o@k@'@u@L%+@`#x+^#^.^*9$`+!@_+[+t+!@o#<#N#<#t+P@M@M@v+P@P@Q@Q@Y+Z M@/#P@/#}+g=l%,.l+I@p.>.O;",
"4.l+s.*.L+*.F%G%v+F$!@o#`#r$!@:#<#Z+A+L@!@A+Y+n W =$Q@:#`#Q@P@~@<#o#^#n+W+}+B+#@ $ $-$L%h&=@#@Q@U+q+Y+!@#@=$5$k@#@=@5$$@Z%-$v+d>e>l;1 1 1 f>K@s&k@5$k@#@#@$@=@u$#@-%/.<.;% @o@ @o@k@#@r$o#x+K@^.L+9$u$`+}+^@G+<#r$[+Z !@g=Y@`#`#:#:#:#!@:#M@!@r$Z K@^#N@N@^@J+j&*.h+I@g>",
"_%l+h>p+L+>.^@G%K@r$:#o#`#:#:#:#!@F$Z r$`#L@M@/#o#!@G%I+M#}+/#4.Z+Z+K@{%i>=%=@#@o#r$D+L%-@#@#@!@T+_@B%:##@5$L%-@o#5$ @=@-@u$-%j%j>1 1 1 k>Z&]==$5$$@=@`#o#k@5$o#u$4.@%W+t+ @$@=@@##@#@o#x+)@K#a%{%n o#<#s+^@~@:#~@6.Z :#t+v+:#`#:#r$+@!@Z Y@:#Z F$L@^#v+/#3.^.-.n.g+&.(;",
"G+L+Q+m+o+J+h%t+M@:#F$:#!@M@N@p#:#F$Z :#+@M@N@}+#@Z L@t+:#}+d=5.W <#x+Y$l>m>n>^=r$r$-@`#-$-$-@H$}-b.M+<.!@#@=$=$D+#@*#k@5$=@#@v+b#1 1 1 o>S -%N#$@k@=@o#o#5$=@Z+G+j&/+G+4@ @k@L%5$=$`+`+u@z;p>q>r>`+W :#~@I+4.Z+<%:#M@r$t+{#M@:#:#:#r$:#M@N@Y+L@L@:#^#N@/#6.).=.&.h+p+V%",
"}+@%q*c+L+^.5.j%Q@Y@M@^#Z M@N@Z :#L@!@E$r$Z Z@t+<#o#M@r$F${#N@4.:#V V s>t>u>v>w>^==$D+`#D+D+D+5$.@v+^.V.2.o#5$=$#@5$k@k@k@5$!@~@x>1 1 1 y>F$=$=@k@Z%=@o#u$-%*#{#j&6;:%>@s&5$u@#@=$D+;$#@ >z>A>B>C>x+K@L@G+G+4.F$M@M@M@`#j%d=p#Z ^#M@M@M@v+N@N@L@Z L@L@M@Q@0$/.c+I@g+&.F-",
"Y+V+3*,.c+k.E+}+Z@P@P@v+^#M@M@Z L@!@o#!@Z+L@Q@t+:##@:#!@L@P@#@h#W W L@l@D>E>F>G>H>n@-$^=^=-@-$-$#@T@j%k.V.I+o##@5$*#$@=@5$=@o#G+k>1 1 1 I>!@s&k@h&Z%u@`+#@x+Q@p+L+S+)@ @=@#@=@=@=@#@-@J>K>L>M>.=f#Z+Y+Z j%L@G+M@M@M@M@r$t+P@N@M@p#p#K$M#M@M@M@Z ^#p#M@N@/#4./.c+-.h+&.N>",
"g%^.+.S+>$<%Y+v+P@f=d=5#N@M@:#:#:#!@e*:#M@N@f=<%E+o#`+!@^#_+=$_+W W :#W f#O>P>Q>R>S>D+D+L%^=L%D+o#=$T&<%T>j+~@=$-%*# @5$5$#@o#}+U>1 1 1 V>Z+#@#@k@k@k@-%#@Y+=.-.<.B+=$=$Z%#@=@#@x+=$W>X>Y>Z>`>b%-%W :#M@j%:#h#M@L@M@:#}+_%d=p#p#5#5#5#p#M@M@^#M@K$P@Q@P@_+/#j%I+b.W.m+V%",
"/#^.O+^.4.G%G+g=_+h#P@Q@p#M@:#M@M@:#r$M@M@M@N@h#/@Z@Z+!@F$g%W Y+L@Z+Z+A+!@ ,.,+,@,#,$,U$@#Z%Z%L%#@o#u$>@>$-.V.~@A+#@=@#@=@5$F$_+%,1 1 1 &,B+#@#@#@x+x+-%Q@c+p+U+X !@-$5$k@=@#@`#=@w*m**,=,-,;,-@r$<#r$Z@t+F$P@r$M@p#Y@Q;s@N@M@O$h#d=R*N@M@p#R*5#5#g=P@Z@_+5.t+4.T+p.=.>,",
"[@^.O+r+_%[+~@t+h#P@N@N@^#M@M@M@N@^#M@p#p#M@N@=%g=N@Z+!@!@u$Y@F${#L@Z+!@:#`#A&,,',),!,~,t%Z%Z%Z%#@#@<##@s&t&L+U.4.!@`+x+5$#@M@_+{,1 1 1 ],<#-%`+#@5$o#M@'.p+g.A+-%Z r$#@ @5$5$=$5$^,/,(,_,:,#@T$ $o#O$d=F$M@=$`#:#M@p#j$f=p#C$v+<,d=K$M@Z p#[+[+s@h#_+_+_+5.[+4.T+W.,.(;",
"[+r+T-V+_%h#~@g=P@[,N@N@K$5#Z@^#P@M@l&M@K#:#M@M@=%Y+:#^#:#<#=$M@K@}+M@`#o#o#=$},|,1,2,3,U&u@#@D+=$D+o#Z+B+4,S+j&U.t+<#u$o#o#M@}+{,1 1 1 ],,%=$#@=@5$M@/.m+^.K@`+=$:#Z+#@Z%D+Z%Z%5,6,7,8,9,Z%`#^#:#r$P@v+M@r$e*:#M@M@Q@j%5#^#N@p#5#N@p#p#K$=%h#g=d=d=_+5#d=@@h#(+T+W.^*g>",
"[+j.3*V+4.{#j%t+g=g=P@_+P@5#P@P@5#L#=%p#r$K#M@M@=%v+M@p#Z A+!@Z+Y@g%}+:#o#=$o##@0,a,b,c,d,k*#@o#=$=$#@o#Z+-%-%e,p+j+_+Z+o#u$Z P@{,1 1 1 ],<#o##@#@!@j.M+r+/#`+B+`#!@o#=$5$k@A#f,g,h,i,j,@#:#:#:#M@v+g%{#O$:#M@M@M@p#/#h#N@N@N@K$p#v+M@N@P@P@5#5#5#5#5#Z@_+I+[+j%W+p.-.p;",
"[+q++.V+4.}+G+(+h#t+t+d=P@P@P@g=Z@5#P@K$:#:#p#=%P@Q@M@p#M@:#^#M@o#Z&G%}+F$u$D+r$u$7&k,l,m,n,n@u$!@u$#@o#u$`+B+B+b.j&&.g%<#u$L@/#o,1 1 1 p,W o#o#!@^.k+<&g%x+-%o#o#o#Z+#@k@t%q,r,s,t,$&Z%:#M@M@M@{#{#X+L@}-v+p#M@C$p#M@t+v+M@M@C$M@N@p#P@d=N@M@p#P@h#g=P@_+9&[+G+^.p.-.E%",
"0$/.3*V+5.[+~@(+t+t+d=_+h#d=g=P@5#P@5#N@^#p#K$N@P@Q@M@p#M@^#Q@Z@!@-%Y+Y-~@Y@r$:#Z Z+u,v,w,x,y,t%o#-%-%#@#@`+,%x@X g.z,p+/#o#M@{#{,1 1 1 A,A+!@!@S+l+r+}+*#o#u$Z+`+o#-%5$h&B,C,D,E,F,5$Y@M@:#M@{#/@L@Y@L@v+N@Y@M@N@N@v+j%Q@M@M@+@M@5#P@{#g=v+K$P@d=_$j%_+h#(@j%E+r+h+*.$>",
"~@@%q*q+>$G+4.G+h#d=5#P@d=P@d==%p#N@5#i#p#N@N@N@d=Q@M@Z M@M#^#Q@K@/#j%&&u+~@K$M@K#Z Z=>=c-G,H,S>D+-%B+o#o#<#!@<#x+^#^.V.c+Y+^#_+{,1 1 1 A,K@A+u+o*j.}+ @<#:#!@o##@5$#@Z%W>V&I,J,K,k&M@O$M@^#_+S+P@N@4./#5#N@:#L#K$^#N@j%P@N@C$M@N@P@P@P@d=N@=%h#h#[+s@h#[+(@4.(@_@h+p+3;",
"^@L+Q+L+l+V+I+j%_+d=5#N@P@_;5#=%L#N@N@5#N@N@5#5#j%Q@L@Z Z p#Y@Y+^#[+_%t+g=S+[+Z Z+A+F$k&L,M,N,O,N@W `+o#`+o#F$A+A+x+Y+r+Z-,.Y+_+{,1 1 1 P,W E+P.6;l%>@!@Z :#<#<#`+=$o#W Q,R,J,S,#*!@M@M@Z }+W+<,}+d=>$P@N@^#:#M@N@p#/#w@h#N@=%M@5#d=5#P@P@N@P@h#{#_+h#d=h#:%^.V.m+P+l+e ",
"~@n+q#j&P;T,[%G+_+5#5#N@P@d=5#K$M@N@N@5#5#5#P@f=j%_+M@^#K@N@p#M@Z _+5.U,}+P@<.H+Z W W `#w*V,W,X,@%/#Z+`#<#B+<#Z+M@L@#@t+^*V.v+{#{,1 1 1 P,A+3.n+^.>@W Z F$`+#@=$<#<#!@u+Y,Z,`,9#<#!@:#^#Y+u+}+v+u+g=3.P@v+^#p#p#Q@^#/#:$d=5#5#l&N@P@5#P@P@N@5#6#d=h#h#g=h#[%^*P; 'O+o*g>",
"t+p+q#=*#+T>>$G+t+P@g=d=5#_;6#5#P@h#5#P@5#5#d=s@<%t+M@M@:#M@M@^#K@P@.'w=^@P@{#<.t+:#!@:#<#=@-%b.n+^*Y+L@<#<#<#A+K@K@L@I+-.l+{#t+{,1 1 1 +'Z /@-.c+L@!@F$r$=$5$o#w=F$(@L+W+r$##5$o#!@^#_+b.j%Y+:%F$P@>$Q@N@N@N@p#N@p#/#:$h#d=6#v+p#N@5#5#t+5#d=f=d=h#t+j%[+F+@%g+I@O+U.h%",
"r.M+h>M+h+,.F+G+h#_+t+d=P@d=5#P@d=_+5#d=d=d=h#G+4.[+Z@N@:#:#M@L@A+Q@_$M@W ~@Q@/#S+[+^#Z M@Z+1%A+S+c+k.Y+!@<#Z+:#Z M@K@3.L+l+_+}+{,1 1 1 @'L@b.n+V.^#M@M@:#o##@Z+W 3.L+^.G%o@`+=$o#Z _+u+g=v+6.Y@^#P@>$/#N@5#N@N@N@Z@P@:$h#g=N@p#M@=%N@R*h#_;h#f=h#j%(+_$(+|./.W.(#O+f+#'",
"r.l+s.Q.h+'.b.G+_+{#s@$'_;5#Z@p#N@N@N@_;h#P@d=:;_$G+g={#N@p#^#M@<#Q@4.N@F$*#Y-P@s@^.[+^#L@Z Z+s&L@^.l+{.Z o#u$:#M@F$L@(@L+V.j [@%'1 1 1 &''&u+n+V.^#:#^#p#!@6$<#G+j&<&}+4@#@`#+@K#^#b.~@^#b.K@^#v+{#(@P@5#Z@^#M@K$N@P@:$s@d=C$p#M#K$p#N@f=R*P@d=[+h#j%j%<%b.-.Q.=*+.f+*'",
"r.l+='l+h+'.F+~@g=h#j%j%d=Q@p#M@M@v+p#N@5#P@P@R*h#t+N@N@^#^#Z F$A+}+_%5#M@`#<#M@M@G+u+Q@A+v+^#B+,@Y@V+l+^@F$W :#L@F$!@4.-'P.}+t+%'1 1 1 &'Z S+n+V.M@M@N@N@M@Z+^#=./._%$@x+<#:#L@M@~@I+M@A+Q@K@Q@5#d=2.P@5#Q@N@v+M@P@/#G+h#d=M@p#v+5#p#p#P@P@Z@P@}+d=[+j%j%b./.Q.I@+.o*;'",
"~@k+s.l+#+'.&;4.[+t+j%j%g=Z@N@N@p#p#N@Q@N@=%5#5#s@s@Z@Z@Y@M@L@Z L@}+9&g=5#M@M@N@M@5#<%b.L@:#M@!@B+ @<&>'6.A+F$l&^#Z Z ,'n+Q._+j%''1 1 1 &'^#^.o+P.Y@p#p#Y+Y+!@Y+)'C+=$=@#@r$:#!@~@I+5#M@:#5#^#p#P@d=(@P@P@d=h#P@5#s@{#t+P@d=N@N@N@f=5#N@N@5#P@_+}+g=g=[+(+S+/.W.I@3*V.!'",
"0$l+~'P.P+-.b.E+[+[+s@d=d=5#P@Z@Q@5#5#N@Q@N@_;h#_$t+Z@N@N@Y+Y@Z Y@[+(@g=P@M@M@Z@M@v+<,i>/#K@Z K@Z+;${']'^'L@L@^#Y+Z M@>$n+U.}+t+''1 1 1 &'^#^.m+Q.Y+Y@p#M@:#<#+@/'('_'o#N#`#!@:#<.h#N@M@:#Z@Z@N@P@P@(@_+Z@P@d=P@P@h#_+j%5#N@R*P@P@h#d=P@N@5#d=g=[+[+t+[+<%<.-.i+Z-3*V.**",
"{@M+s.o*#+L+I+:'j%s@s@d=5#P@P@N@N@Z@N@M@N@5#h#j%_$t+Q@N@^#M@Y@^#M@h# %_+5#^#M@N@N@6#P@9&<%Z@M@Y@Z+@#<'['}'r L@L@M@:#M@c.L+Q._+[+%'1 1 1 |'s ^.M+i+Q@M@p#M@r$o#1'2'3'4'#@d*O$:#M@T+g=5#:#F$Q@[,5#6#{#>$P@Z@5#P@d=h#h#}+t+Q@N@P@P@5#d=d=5#P@5#_+_+}+}+}+[+w@|.-.p.U.3*f+5'",
"s+l+~'o*P;n+F+I+[+j%g=5#P@d=-#5#5#Q@5#^#Q@d=j%s@(+[+Q@N@^#^#Y@M@M@t+>$P@v+M#M@p#5#_;f=:%5.Z@v+Q@L@u@6'7'8'M@A+W A+L@L@6.L+i+}+s+''1 1 1 |'^#<.m+Q.Q@M@^#C$M@!@<-9'0'a'-@r$l&p#p#[%{#Z@:#F$5#d=P@P@_+>$}+v+Y@Y@P@g=h#{#t+N@5#P@P@N@N@N@Q@Z@/#g=[+t+g=_+t+4.u+-.Q.b'q*#+c'",
"{@V.~'P.+.c+3.5.j%_$d=_+{#g=d=P@_+P@_+5#N@g=j%s@<%s+Q@N@P@_+_+N@Y+G+9&=%N@N@M@p#5#5#P@>$[+Y@Q@P@:#l@d'e'f'p#r W A+Z+A+>$L+P.}+^@''1 1 1   Y+^.-'Q.Q@M@v+p#^#Z <-g'h'a'D+M@p#^#M@b.Q@M@r$:#Z@P@P@P@_+I+}+N@M@Z N@P@d=_+t+P@d=d={#5#N@v+Q@Z@N@Z@}+t+h#g=G+9&u+=.p.U.q*g+**",
"6.l+i'U.+.p+[%4.(+$$j%h#h#P@_+Z@}+h#_+_+/#g=j%[+w@s+g%_+P@_+P@Q@^#[+>$d=Z@N@p#p#N@5#P@(@~@Q@Z@N@L@u@j'k'l'K$K@W E$!@W b.c+P.[@]@''1 1 1 m'Y+^.n+Q.Q@v+Z@Q@Q@M@<-n'o'p'-$M@p#N@Y@U+N@^#M@Z Q@P@_+Q@/#>$P@N@M@Z ^#h#Z@_+j%t+s@h#h#P@_+_+_+Q@/#/#/#_+{#{#G+I+u+L+Q.N-q'f+**",
"1@j+~'h++.o+b.5.(+,'4.j%_+Z@P@N@{#h#h#P@{#_+h#[+w@~@/#}+d=/#{#N@M@h#@@h#P@L#M@M@l&5#P@ %4.P@v+Y@Q@;$r's't'K$K@A+!@r$!@/@n+U.]@~@''1 1 1 m'M@^.u'i+/#Z@P@Q@Z@L#v'w'x'p'4*M@p#N@^#<.Y+v+p#^#P@Q@N@Q@_+3.}+N@Q@Y@5#d=v+Z@<%.'s@s@<,Z@P@_+/#/#_+_+_+}+P@}+4.b.b.=.Q.Z-q*U.y'",
"{@o*d+f+P+j&F+5.~@4.G+j%_+N@N@v+{#t+{#P@}+s@z'[+w@^@}+}+P@_+}+Q@^#t+5._+P@p#O$M@p#Z@d=(@0$O@N@v+N@-@A'B'f'L#^#M@Z+r$M@(@n+f+s+E+''1 1 1   ^#^.k+Q.P@Z@v+N@Z@L#C'D'E'p'F'M@5#=%^#<.N@^#Q@P@{#O@Q@P@g=3._+P@Z@P@P@g=P@/#(+j%_$t+Q@v+{#}+}+[+}+}+}+{#g=}+4./@S+p+Q.Z-q*U.#'",
"G'o*~+Q.g+c+d.I+~@t+h#[+_+Z@Z@P@[+h#P@/#_+[+h#_+~@~@}+/#Z@{#/#_+P@j%I+g=Q@^#Y@K$5#P@{# %]@Y+N@5#^#o#H'I'J'5#Y@L@!@:#^#(@K+f+[+~@''1 1 1 K'^#<.o+p./#N@p#M@M@L#L'M'o'N':#N@R*p#Z _.N@r N@P@}+_+/#g=[+/@t+/#P@{#{#s@P@/#G+}+h#P@v+N@/#h#[+[+}+t+[+j%t+}+~@(@S+c+h+b'O#U.O'",
"6.p.P'U.#+c+3.5.[+}+t+[+[+h#h#s@j%j%[+P@{#[+h#s@~@s+_+{#Q@P@N@P@t+4.I+P@v+Q@p#N@P@P@_+>$s+^#Q@P@Z o#Q'R'S'R*v+K@F$M@^#_%K+f+[@~@''1 1 1 T's S+o+h+/#l&^#M@^#=%C;U'V'W'M@^#5#^#^#^./#r Y+_+_+P@}+g=[+b.{#{#N@Q@h#.'}+_+G+_+/#P@P@N@/#h#[+_+_+g=t+4.~@4.5.(@S+L+i+I@O#h+X'",
"1@h+~'o*#+-.a.I+G+t+t+t+j%j%j%t+}+t+[+_+h#[+j%j%w@~@}+_+Q@N@^#P@t+<%(@P@^#Q@N@Q@Z@P@P@/@[+r Y+^#:#Y'Z'`' ){#Q@^#K@Z ^#_%n+f+[@0$''1 1 1 .)Y+S+l+g+Q@M@v+M#N@Q@+)@)#)$)5#^#P@Z@N@^.}+^#Y+}+_+P@_+g=[+2.t+P@v+N@h#j%}+_+~@}+_+/#{#Z@_+_+t+h#[+j%t+G+4.9&>$F+b.-.i+I@q*T%;%",
"a.0-~'j+#+L+b.@@~@G+G+[+h#h#[+g=Q@{#P@Z@}+[+t+[+w@^@}+}+}+P@Y+/#P@4./@t+K$v+^#5#Z@5#g=[%0$Y+r ^#^#E#%)&)*)_+Q@/#N@p#Y@5.@.h+t+{@''1 1 1 K'Y+S+V.h+^#M@N@^#Z@P@=)-);)>)_+Y+P@_+Q@^.}+^#Q@}+_+Z@N@P@G+2.h#h#P@{#$'(+[+j 4.[+[+_+}+}+_+t+t+j%[+t+g=t+G+I+9&I+b.,.U.%.q*O#..",
"k%W.5+V.#+o+b.I+,)G+G+[+_+h#G+h#Z@_+/#Q@Z@}+[+j%G+E+t+t+_+P@Y+Q@Q@~@b.j%Z@5#v+P@P@_+h#Q;1@/#^#M@r$==')))!)$'Q@/#Q@5#Q@>$n+f+H+~@''1 1 1 ~)Z@<.N+g+Y+M@Y@N@Q@Y@{)])^)/)Z=v+{#Z@Q@^._+Y@Q@_+t+P@N@P@[+(@[+t+[+[+j%<%j%}+4.[+h#P@h#{#t+g=}+t+j%t+h#[+w@_%4.5.S+-.f+b'Q+O#O'",
"a.l+s.o*h+j&n%3.4.G+[+G+h#h#[+h#P@}+}+Z@Q@Q@_+[+G+~@t+[+{#/#Q@Z@_+5.T+j%{#P@5#d=g=d=h#T+6.Q@/#P@v+n@()_):)_+Q@s v+v+}+b.o+f+}+r.''1 1 1 <)9$(.o*g+Y+:#M@^#M@M@i*[)})|)+@P@d=g=/#^./#v+{#h#j%}+Z@_+s+d.[+[+t+j%j%<%j%}+5.t+_+Z@Z@P@t+_+}+h#[+}+[+[+G+4.4.w@}.-.Q.1)q#R+2)",
";%l+a>Q.#+j&|.>$4.4.(+<%j%s@g=h#P@_+{#P@/#Z@{#t+~@~@t+[+{#P@Z@{#t+5.T+G+[+P@Z@h#h#P@h#T+6.Q@P@{#Q@3)4)5)J'P@O@O@/#Y+{#S+M+g+t+~@6)1 1 1 <)9$^.l+p.Y+:#p#^#Y@M@7)8)9)d,M@_+P@g=Q@^.t+_+<,P@s@[+_+G%5.<.~@j%[+j%G+(+G+H+5.[+}+_+/#}+t+}+_+[+_+}+}+t+G+~@~@4.|.p+p.Z-H@q*0)",
"u+o*s.7$+.l+(.2@4.~@4.4.<%[+g={#_+}+>#_+}+}+_+}+w@~@t+[+_+h#[+j%j%I+W+4.(+[+g=t+d=P@h#S+E+_+{#{#Q@a)4)b)8'5#n s /#/#}+8%k+h+0${@6)1 1 1 <)/#_@l+p.g%p#5#Q@Z@p#c)D'd)e)K$_+Z@{#h#_@G+h#g=t+s@t+t+[+c.^.~@G+j%j%G+w@~@t+E+]@[+[+[+[+[+t+_+>#_+[+G+t+G+[+(+5._.*.f)g)q*R+b*",
"a.P.a>Q.#+j+^.b.5.~@(+w@(+s@j%}+_+}+}+j g=}+{#t+4.^@t+[+[+j%<%w@~@>$W+4.j%(+j%s@d=h#j%8%^@t+_+Z@Z@3)h)i)j)M@L@^#Y+/#t+U+o+h+r.{@6)1 1 1 k)_+V+V.h+_+/#{#P@_+P@5,l)m)N'M@5#v+N@_+V+<%[+t+G+t+t+[+4.(@:.4.~@j%j%G+~@G+}+6.4.~@G+<%4.4.[+>#}+}+t+(+h#t+[+]@6.^.-.g+g)3*T%n)",
"3.j+='f+q*j+^./@5.G+~@4.w@j%(+j%}+t+}+_+t+}+}+[+E+n {#[+(+<%4.G+j%I+W+4.<%w@[+g=h#s@j%W+0$>#_+Z@Z@^=A'o)j)M@K@s Y+N@_+<.M+h+s+s+6)1 1 1 p)_+q+P.h+}+/#P@h#s@P@q)l)r)s)E-N@p#Z@/#j.[+[+g=G+_+[+j%4.>$^.<%j%G+G+(+~@t+g%l%~@[+[+j%,'_%G+t+[+}+[+[+t+t+[+[+0$W+c++.Z-H@t)q.",
"n%=*='n+t&3.<./@5.^@~@(+[+[+(+[+g=[+}+_+g=_+t+~@9$}+[+~@4.I+S+4.]@2.T+~@j%4.G+t+g=s@t+u+^@}+_+_+Z@^=A'u)v)K$r n /#Q@_+u+&.f+t+F%6)1 1 1 p)g%).V.h+}+{#g=}+_+<,w)l)r)x)E-v+Q@N@N@_@t+[+}+~@t+[+[+(+(@^.X+~@<.4.(+G+G+_+Y+5.[+[+h#<%_%G+t+s+t+[+t+G+~@G+~@4.S+9& %r+q*N-b*",
"u+f+,+3*h+^.j.T+9&5.0$]@[+[+G+G+t+g={#_+P@_+t+(@s+t+G+5.I+;&B%I+2@/.W+<.u+W+/+b.T+W+5.b.4.}+P@_+N@^=y)B'8'5#^#^#n 9$}+/@=*h+g-0$z)1 1 1 A)_+/.Q.P;}+h#t+{#_+5#B)C)D)N'C$Q@Y+^#N@r+G+^.(@d.^.u+u+^.T+>.F+>$^./.5.(+G+}+g%u+G+t+t+I+5.~@j%G+~@[+[+~@G+G+5.I+^.S+l+#+H@U.Z*",
"B%+.,+5+T%j+'.T+I+4.~@~@[+[+~@~@[+h#t+t+_+h#w@T+~@[+~@I+k.g.E+/@/.^.@%g.l+-.i.c+;&n+~@T+I+t+d=}+Y+D+E)F)G)P@s ^#Q@/#_+b.M+h+s+{@z)1 1 1 H)9$).U.+.}+d=t+_+{#{#w)D'I)J)L#Q@Z@/#Q@r+~@J+,.g)Z*.;>.~.p+^.-.b.a.^./.6.(+}+/#<.4.[+[+4.~@[+[+<%~@[+G+5.G+0$5.>$:.-.+.O#H@K)(.",
"<.h+6+[%T>r+i.b.c.4.4.(+G+G+[+[+t+t+h#j%G%G%I+T+~@G+4.b./.3.S+>.r+T+^.j+k.>.&.;&j+>.[%U+I+}+h#t+P@d*L)M)N)P@s Y+/#P@{#u+M+h+~@^@z)1 1 1 {;}+q+Q.#+_+{#{#Q@Q@Z@C;D'O)J)p#/#_+_+/#r+6.-.(#~.Z-Z*^*n.y&j.r+-.S+F+/.b.[+t+j ^.4.[+[+[+G+t+[+X+G+~@~@G+(+~@4.(@{.^.-.~@l+f+g.",
"[.P.~+m+-././.b.(@5.5.~@~@]@~@~@G+[+j%~@t+t+5.T+^@G+I+E+I+u+/.k.u+S+P)>.'.p+;&N-^*c+>$U+E+Q@{#g=Q@K#Q)R)S)P@Y+^#_+_+j%t&k+h+r.h%z)1 1 1 T)[@,.o*g+}+_+Q@Y+Y+N@U)V)W)X)^#P@h#}+/#{.5.q+'.I@;&&.)>'.N-q+S+b.^*^.b.(+4.[+j ^.I+G+[+j%[+t+t+~@[+G+t+t+~@0$I+/@^.^*n+/.q*U.Z*",
"d.=*!+l+q+u+<./@>$>$>$4.j%t+[+~@4.4.~@4.]@[+5./@[@t+I+/@u+q+{.Y)6.b.t&F+[%/@S+u+u+W+l%3.[+Y+P@Q@^#M@Z)`) !_+Q@Y+}+_+[+U+M+U.s+3.z)1 1 1 .![+/.l+i+H+}+{#/#Y+5#+!]-@!#!K@/#h#/#Q@j.g%u+e,T+(@&;u+W+<.W+2.$!B%-.T+>$<%G+Q@U+>$~@j%G+~@[+}+[+H+G%}+t+G+I+(@b.S+T+'.^*q'#+q.",
"[.V.!+l+'.W+T+(@(@/@>$4.,)[+[+~@4.4.~@~@~@~@I+(@`#@#D+`#5$4.T+u+/+/+^.r+r+/+f-V+q+J+^.<.g%Q@_+Y+r _+%!&!*!_+/#_+t+}+[+U+n+3.9$1@z)1 1 1 .!]@4.-.i+]@_+}+Z@Q@_+S$V-=!U-n j }+Z@n e,S+^.L+f-j.r+{.r+j._@r+^._@b.=$^=Z%-!`&b.(@~@[+[+~@~@[@}+H+G+[+~@4.I+I+(@T+W+=.j.q*T%;!",
"[.V.~'j&/.W+b./@b.b.(@:'~@4.4.G+G+G+G+[+~@4.>$^.{@H+}+}+Q@8=n@t%5$L%`#r$E- $E--$e*>!,!L@9$/#}+^#[+'!2=*)f;[+_+t+[+t+j%W+(.:#_+3.z)1 1 1 )!~@/#3.l+j%}+P@N@P@j%i>!!~!{!3./#Z@Y+Q@P@]!^!/!p#e*`#8=5$x=s&D+4*^=D+X g%}+Z@Q@r+(@~@~@w@<%X+s+H+s+~@[+s+4.E+I+2.b.S+=.j.H@T%(!",
"|*Z-6+=*>.U+W+S+/@/@(@5.4.I+I+4.G+[+~@[+G+4.:%(.{@[+t+h#t+/#v+_+Q@^#Y+_+}+}+(+t+j%j%_+}+_+/#_+^#G+_!:!f-^.[+_+[+j%j%G+U+).t+}+3.z)1 1 1 <!t+[@u+V.[+t+g=Q@Q@j%[!}!,&|!u+n Y+Y+s h#_+_+P@Z@P@t+Z@^#Q@/#t+t+t+{#}+[+[+t+_+q+>$<%4.5.5.4.s+[+~@4.G+0$4.4.I+F+b.^.c+).q#T%1!",
"(.N-'+U.-.U+b.u+/@b.(@4.5.I+>$4.G+~@4.~@<%<%_%^.0$9$}+t+t+}+/#[+/#^#Z@/#_+_+[+t+[+[+/#Y+t+}+_+/#4.u'0-V+<.[+}+[+j%G+G+U+/.j%t+a.2!1 1 1 3![+t+S+Q.[+[+t+P@Q@j%Q;u'-.u'(._+Q@Q@Z@Y+/#_+_+Q@/#[+}+_+/#}+>#t+~@G+t+G+G+}+}+q+2.I+_%5.9&4.s+G+4.6.^@4.5.3.>$(@b.^.c+,.q#H@4!",
"5!f+=+Q.-.<.b.u+F+2.6.I+4.I+I+I+~@4.~@G+4.5.>$^.^@}+t+[+t+[+[@[+_+_+_+[@[+}+[+[+_+Q@Y+_+t+[+>#}+6.|@6!r+<.[+_+[+~@]@~@^./.G+[+d.2!1 1 1 7![+[+(.Q.G+t+G+}+/#[+(@-'@%k+<.[@/#_+Q@s n Z@Q@s /#[+}+>#j [+[+~@4.j%t+}+[+{#j j./@I+>$(@(@5.s+[+(+I+3.6.,)3.>$2.b.^.K+=.8!9!0!",
"(.h+>+Q.-.^.u+F+3.3.>$>$4.I+>$I+4.4.4.4.~@_%>$:.r.}+G%G+G+[+~@G+[@g }+t+[@[@>#}+Q@^#/#}+}+[+[+[+6.k+p.<&g.]@[+[+~@~@,)^.q+4.[+}.2!1 1 1 a!r.]@_.Q.G+[+~@s+/#[+2.L+@%o+S+Z@Z@/#j /#}+r Q@Q@_+t+}+[+}+[@[@~@[+g=t+P@t+}+/#q+/@I+>$(@b.3.~@s+G+5.I+>$I+(@2@2@|.^.m+-.b!9!c!",
"{.t)>+U.L+f;b.F+>$>$(@>$_%j@>$>$5.5.I+9&5._%:%^.r.}+[+~@~@t+0$~@[+}+/#}+[@[+[+}+Q@Z@_+}+>#[+G+s+3.l+0-V+{.^@[+(+4.~@~@^.,.5.0$(.d!1 1 1 a![+]@(.f+4.~@,)G+[+G+2.e!-.j&<.}+j j O@j N@^#n }+t+G+}+[@}+[@[@~@(+g=t+[+_+}+/#q+b.9&c.(@T+3.~@G+w@>$F+F+(@b.u+F+u+^.m+-.5+8+4!",
"~.O#f!Q.=.^.b.(@>$[%/@ %c.(@>$j@5.6.9&>$>$5.(@^.{@}+[+G+[@}+~@~@]@_+n n [@]@[+[+j j }+_+_+}+t+G+>$l+p.j.^.5.G+4.I+5.X+^.'.5.0$(.d!1 1 1 a![+~@^.p.4.G+~@(+4.I+T+L+@%j&^.]@[+[+}+>#O@/#9$[@[+t+}+[+}+[@[@_+[+/#[@t+_+}+n q+b.>$>$/@T+3.E+6.E+3.2.F+b.b.b.2.b.^.M+c+g!h!i!",
")>R+J.p.m+r+<.b.(@(@F+2.>$(@(@(@5.>$ % %3.>$(@r+V%[+~@t+_+t+j%[+[+[+m j [@]@[+[+t+_+_+}+[+]@[+]@3.'.L+<.^.6.0$4.6.4.6.r+-.6.5.(.d!1 1 1 j!^@4.^.U.E+~@5.@@I+I+S+-.{.k.<.~@~@[+[+>#}+n /#_+[+[+}+[+[+[+[+>#[@j }+}+}+}+r q+T+>$(@(@/@>$5.>$3.(@2.(@2./@/@b.W+r+l+j&=+H@k!",
"l!H@F.#+l+q+^.S+b./@/@2./@/@b./@>$/@(@3.(@(@b.^.H+s+s+[+[+t+G+[+[+[@[@>#[+[+[+_+[+]@[@}+]@0$G+]@3.L+^.u+(.6.:'5.I+5.(@r+,.3.6.(.d!1 1 1 m!6.6.^.Q.I+E+I+@@I+3.S+^.1@j.<.~@5.4.~@G+t+}+[@/#n!]@[+G+]@,)(+]@[+>#[+]@[+G+_+<.<.(@>$/@/@>$3.2.2.b.|.u+/@/@S+<.<.J+V.j&o!9!(!",
"!.q#y.+.j+>.{.^.^.U+W+W+T+T+S+S+b.b.b./@/@b.^.H+[+[+~@[+G+[+0$G+[+[+g ]@]@]@[+[+[+[+[@G+~@5.{@a#3.@%p!a.^.3.5.j@2@5.j@j.-.1@6.(.d!1 1 1 q!6.6.^.Q.I+4.5.I+5.I+b.(. .q+B%'&4.4.5.4.G+G+[+t+0$~@0$~@:':',)(+~@~@]@0$[+4.~@t+f;u+b.T+W+|.b.b.S+W+U+U+^.<.^.:.:.q+h+o*-+r!(!",
"s!b!`.e+o*c+n+L+-.-.@%-.@%@%/.q+/././.q+j.q+6.E+6.6.3.5.6.6.3.6.5.5.5.5.6.6.6.6.5.5.5.5.6.3.1@h%(.c+k.>.>$>$6.2@2.>$5./.=.3.6.{.d!1 1 1 t!1@6.j.g+4.5.I+5.5.(@>$/.'.L+r+r.3.(@>$6.E+5.2@I+3.3.I+3.2@3.5.6.3.3.3.3.3.2.d.2.4.q+f-q+6;/.q+q+@%@%@%-.-.-.L+c+m+z,p.V.,+u!(!",
"i.=&J.8!=.v!f;f;T+Q;>$[%b.S+U+T+t&b.b.b.:%3.^.l+f+#++.O+#+h+h+g+f+h+h+g+g+g+g+f+h+p.o*=*c+p+&.m+c+r+U+6.(@b.|.u+S+i.a.=.*.3.6.{.d!1 1 1 t!6.w!{.p.~@<.^./@F+u+F+3./+U+-.p+l+l+m+M+V.Q.g+#+P+h+h+O++.#+#+O+P+#+h+p.h+h+g+Q.q+i>I+_% %:%:%>$ %>$(@b.t&U+S+f;^.j.@%q*%+*+(!",
"i.,+w.H.>+d+s.s.s.h>q#q#Q+q#q#q#Q+H@Q+q#Q+q'Q+h>s.h>7+g!5+8!8+8!q#Q+q#Q+q#8+s.s.s.q#q#Q+q#q#8!q#Q+q#8!q#s.7+6+5+s.s.x!y!-.(@2.).d!1 1 1 z!2.2.J+A!B!h>s.7+i'7+s.h>q#q*q*q*Q+q#q#8!s.7+h>q#8+8+q#q#q#q#8!7+5+s.h>s.h>s.8!q#q*T-C!q*q#q#s.h>q#q#q#q#D!6+6+E!~+=+)+F!H..+k!",
"i!q*s.Q#Q+3*O+h+h+p.W.W.N+N+Q.Q.k+k+G!N+N+N+W.N+l+Q.W.p.i+Q.Q.Q.V.k+N+Q.W.p.W.W.W.H!H!Q.Q.Q.Q.N+N+Q.Q.l+n+u'I!N+N+}!J!K!L!_@/.&.d!1 1 1 M!^*).6;N!O!P!u'l+I!P.H!N+I!l+k+K+k+l+W.H!N+Q.Q.N+H!N+G!k+k+l+N+Q.W.W.Q.W.P.Q.W.W.I!k+Q!R!W.S!W.W.W.o*N+N+Q.p.h+p.h+e+q#s.s.q'T!",
">,1@6.H+j n s U!p Y Y+K@Y Y '&K@]=B+Z ^#r r r '&D 2*r r '&v v V R ]=D V A+^#L@K@K@Y Y X B+V B+V B+F B+F B+B+W Y '&K@Z :#A+W B+,%h-1 1 1 V!K&W <#-%!@A+`+B+S V w=<#<#o#<#W!S V Y X!z L@K@M@K@<#V V D 2*W B+,%,%<#V -%,%L@^#^#K@A+Z&n /#s n j '&K@K@U!K@b+.%` U%H+[@1@}.3;",
"Y!Z!`! ~$>.~+~+~L-@~@~p-p-@~#~#~$~p-+~%~F-&~*~=~>%-~p-;~L-p--~>~>%z&,~k=>~p-L-L-L-p-L-p-k='~.%'~)~)~)~$~-~-~p-L-#~0>L-L-L-@~.%!~2;1 1 1 ~~p-@~@~=~=~=~-~k={~r=-~'~]~=~-~)~^~k=$~/~-~p-L-L-L-$~)~k=k=-~=~-~=~.%^~'~)~-~$~L-L-L-L-+~$>$>+~$>(~_~&~&~&~L-#~:~<~<~[~`!}~0)|~"};
