/* XPM */
static char * so_door29_tex_xpm[] = {
"132 132 1224 2",
"  	c #2F3A45",
". 	c #303B46",
"+ 	c #303C47",
"@ 	c #303C46",
"# 	c #2F3B46",
"$ 	c #2F3A46",
"% 	c #303A45",
"& 	c #313D4A",
"* 	c #313E4A",
"= 	c #323E4A",
"- 	c #323F4A",
"; 	c #313D48",
"> 	c #35393C",
", 	c #393939",
"' 	c #383939",
") 	c #303B45",
"! 	c #323F4B",
"~ 	c #313D49",
"{ 	c #303C48",
"] 	c #2E3843",
"^ 	c #263746",
"/ 	c #273848",
"( 	c #293B4A",
"_ 	c #283949",
": 	c #283948",
"< 	c #293949",
"[ 	c #293B4B",
"} 	c #293A4A",
"| 	c #293A49",
"1 	c #2A3B4B",
"2 	c #2A3B4A",
"3 	c #2B3D4C",
"4 	c #2C3F4F",
"5 	c #2D3F4F",
"6 	c #2C3F50",
"7 	c #2D4151",
"8 	c #2C3D4C",
"9 	c #33393E",
"0 	c #37383A",
"a 	c #2B3C4B",
"b 	c #2A3C4B",
"c 	c #293C4B",
"d 	c #2D4050",
"e 	c #273847",
"f 	c #18252F",
"g 	c #192530",
"h 	c #1B2833",
"i 	c #1B2834",
"j 	c #1A2732",
"k 	c #1A2733",
"l 	c #1A2833",
"m 	c #1B2934",
"n 	c #1C2934",
"o 	c #1C2A35",
"p 	c #1C2A36",
"q 	c #1D2A36",
"r 	c #1D2B38",
"s 	c #1E2D39",
"t 	c #1F2F3C",
"u 	c #1F2E3B",
"v 	c #1F2E3A",
"w 	c #1F2C39",
"x 	c #313437",
"y 	c #303337",
"z 	c #1F2C38",
"A 	c #1E2C38",
"B 	c #1C2B37",
"C 	c #1D2D3A",
"D 	c #1D2B37",
"E 	c #1C2935",
"F 	c #1B2733",
"G 	c #1B2933",
"H 	c #070D13",
"I 	c #080D13",
"J 	c #080E14",
"K 	c #080F14",
"L 	c #080E13",
"M 	c #090E14",
"N 	c #091015",
"O 	c #09131B",
"P 	c #091C2B",
"Q 	c #0F1E29",
"R 	c #131F27",
"S 	c #131E27",
"T 	c #131C24",
"U 	c #2F3031",
"V 	c #2E2F31",
"W 	c #131E26",
"X 	c #141F28",
"Y 	c #121E27",
"Z 	c #091C29",
"` 	c #08151F",
" .	c #081015",
"..	c #090F14",
"+.	c #090F15",
"@.	c #0C141A",
"#.	c #0B1319",
"$.	c #0D151C",
"%.	c #0D151B",
"&.	c #0C151B",
"*.	c #0C141B",
"=.	c #0A1117",
"-.	c #0A1116",
";.	c #0C1319",
">.	c #0E1821",
",.	c #0F1E2A",
"'.	c #192733",
").	c #20303E",
"!.	c #223341",
"~.	c #303336",
"{.	c #2F3236",
"].	c #21313F",
"^.	c #223340",
"/.	c #101E28",
"(.	c #0E1A23",
"_.	c #0B151B",
":.	c #0A1218",
"<.	c #0B1218",
"[.	c #0E171E",
"}.	c #0F161E",
"|.	c #0E161D",
"1.	c #142029",
"2.	c #16222B",
"3.	c #17232D",
"4.	c #18242E",
"5.	c #182530",
"6.	c #192631",
"7.	c #192732",
"8.	c #21313E",
"9.	c #21323F",
"0.	c #1C2B36",
"a.	c #233644",
"b.	c #1E303F",
"c.	c #273948",
"d.	c #293C4C",
"e.	c #233340",
"f.	c #313438",
"g.	c #2F3337",
"h.	c #263947",
"i.	c #283B4A",
"j.	c #192834",
"k.	c #263B4B",
"l.	c #1F2F3B",
"m.	c #1D2C38",
"n.	c #20313E",
"o.	c #22333F",
"p.	c #1E2E3A",
"q.	c #192731",
"r.	c #17222D",
"s.	c #16212B",
"t.	c #1F303C",
"u.	c #243644",
"v.	c #273949",
"w.	c #283B4B",
"x.	c #2A3E4E",
"y.	c #2C4253",
"z.	c #243847",
"A.	c #1E2E3B",
"B.	c #283C4C",
"C.	c #2A3F4F",
"D.	c #243442",
"E.	c #313538",
"F.	c #303438",
"G.	c #283A4B",
"H.	c #293D4D",
"I.	c #273B4C",
"J.	c #2D4253",
"K.	c #2B4050",
"L.	c #2B3F4F",
"M.	c #2B4051",
"N.	c #2A3E4D",
"O.	c #263948",
"P.	c #20303D",
"Q.	c #202F3B",
"R.	c #21303E",
"S.	c #20303C",
"T.	c #1B2A36",
"U.	c #2C4152",
"V.	c #2D4353",
"W.	c #32485A",
"X.	c #324A5C",
"Y.	c #32495B",
"Z.	c #32495C",
"`.	c #31485B",
" +	c #31485A",
".+	c #2C4354",
"++	c #1E303E",
"@+	c #1E2D3A",
"#+	c #293E4E",
"$+	c #2A3E4F",
"%+	c #2E4455",
"&+	c #2E4557",
"*+	c #263C4C",
"=+	c #2A3F50",
"-+	c #263744",
";+	c #323639",
">+	c #303539",
",+	c #2B4153",
"'+	c #203240",
")+	c #2D4354",
"!+	c #2E4354",
"~+	c #2D4355",
"{+	c #293D4E",
"]+	c #2B3F51",
"^+	c #1F2F3D",
"/+	c #293D4B",
"(+	c #344B5E",
"_+	c #314658",
":+	c #314859",
"<+	c #2F4557",
"[+	c #304759",
"}+	c #344C5F",
"|+	c #2D4457",
"1+	c #1E313F",
"2+	c #243745",
"3+	c #233443",
"4+	c #2A3D4E",
"5+	c #2E4558",
"6+	c #2E4659",
"7+	c #294052",
"8+	c #293E4F",
"9+	c #2B4052",
"0+	c #273745",
"a+	c #32363A",
"b+	c #30353A",
"c+	c #293D4C",
"d+	c #2C4355",
"e+	c #213443",
"f+	c #2F4558",
"g+	c #223240",
"h+	c #374F62",
"i+	c #304658",
"j+	c #2E4456",
"k+	c #2F4457",
"l+	c #2D4455",
"m+	c #2D4152",
"n+	c #30485B",
"o+	c #31495D",
"p+	c #2D4659",
"q+	c #1F3342",
"r+	c #223543",
"s+	c #223542",
"t+	c #2D4557",
"u+	c #30475A",
"v+	c #2B4254",
"w+	c #243645",
"x+	c #2C4254",
"y+	c #273846",
"z+	c #33373B",
"A+	c #37393A",
"B+	c #30363B",
"C+	c #213343",
"D+	c #2F4659",
"E+	c #2A4052",
"F+	c #2C4153",
"G+	c #213240",
"H+	c #253847",
"I+	c #223645",
"J+	c #31485C",
"K+	c #30485A",
"L+	c #31495C",
"M+	c #2E4658",
"N+	c #324A5E",
"O+	c #1B2F3D",
"P+	c #2B4152",
"Q+	c #2A3F51",
"R+	c #293E50",
"S+	c #273947",
"T+	c #30373C",
"U+	c #2D4254",
"V+	c #203341",
"W+	c #32495E",
"X+	c #304659",
"Y+	c #1D2C39",
"Z+	c #1A2B38",
"`+	c #30495C",
" @	c #324A5D",
".@	c #334A5E",
"+@	c #324B5F",
"@@	c #334C61",
"#@	c #2E485B",
"$@	c #1D3140",
"%@	c #182631",
"&@	c #263A49",
"*@	c #253949",
"=@	c #2D4356",
"-@	c #253846",
";@	c #33373C",
">@	c #30373D",
",@	c #1F303F",
"'@	c #233645",
")@	c #1D2E3B",
"!@	c #334B5E",
"~@	c #334A5D",
"{@	c #32495D",
"]@	c #334B5F",
"^@	c #334C60",
"/@	c #344D62",
"(@	c #314A5F",
"_@	c #1F3241",
":@	c #273A4A",
"<@	c #2D4357",
"[@	c #283A49",
"}@	c #34383D",
"|@	c #31383F",
"1@	c #2E4457",
"2@	c #1F303E",
"3@	c #31475A",
"4@	c #243746",
"5@	c #1E2F3D",
"6@	c #324A5F",
"7@	c #30475B",
"8@	c #344D60",
"9@	c #344D61",
"0@	c #354E61",
"a@	c #324C5F",
"b@	c #2F485C",
"c@	c #1F3140",
"d@	c #1A2834",
"e@	c #273A49",
"f@	c #253746",
"g@	c #2E4458",
"h@	c #34393D",
"i@	c #31393F",
"j@	c #1E303D",
"k@	c #2D4558",
"l@	c #2C4052",
"m@	c #223442",
"n@	c #314A5E",
"o@	c #344E62",
"p@	c #344C61",
"q@	c #344C60",
"r@	c #354E62",
"s@	c #334D61",
"t@	c #2F495D",
"u@	c #203140",
"v@	c #253948",
"w@	c #35393D",
"x@	c #313940",
"y@	c #2A4051",
"z@	c #233746",
"A@	c #334B60",
"B@	c #2F475B",
"C@	c #1B2A35",
"D@	c #253947",
"E@	c #233545",
"F@	c #1C2B39",
"G@	c #2B4154",
"H@	c #2D4456",
"I@	c #243846",
"J@	c #344B60",
"K@	c #1E3140",
"L@	c #253747",
"M@	c #283E4F",
"N@	c #233543",
"O@	c #35393E",
"P@	c #313A41",
"Q@	c #293D4F",
"R@	c #1B2C39",
"S@	c #2F4658",
"T@	c #233646",
"U@	c #354D62",
"V@	c #203444",
"W@	c #233544",
"X@	c #2F475A",
"Y@	c #17242E",
"Z@	c #353A3E",
"`@	c #313A42",
" #	c #182734",
".#	c #223544",
"+#	c #2B3F50",
"@#	c #314C60",
"##	c #2B475C",
"$#	c #213D51",
"%#	c #243E50",
"&#	c #17242F",
"*#	c #2A3D4D",
"=#	c #1D2E3C",
"-#	c #253B4D",
";#	c #253E52",
">#	c #2A465A",
",#	c #1C2C39",
"'#	c #2B3E4E",
")#	c #30485C",
"!#	c #37546B",
"~#	c #1F4965",
"{#	c #1A74A2",
"]#	c #2A495E",
"^#	c #2A4153",
"/#	c #1A2935",
"(#	c #38393A",
"_#	c #323B43",
":#	c #1A2A36",
"<#	c #1C2D3A",
"[#	c #2C4659",
"}#	c #2A5B7B",
"|#	c #265F82",
"1#	c #305069",
"2#	c #365064",
"3#	c #233542",
"4#	c #22323F",
"5#	c #355065",
"6#	c #1D4864",
"7#	c #127BB7",
"8#	c #2A4A61",
"9#	c #2C4356",
"0#	c #283E4E",
"a#	c #38393B",
"b#	c #1C2C38",
"c#	c #1B2B38",
"d#	c #2E4A5E",
"e#	c #286388",
"f#	c #246287",
"g#	c #2F4E66",
"h#	c #2C4252",
"i#	c #21333F",
"j#	c #385268",
"k#	c #1E4864",
"l#	c #137BB9",
"m#	c #2B4B61",
"n#	c #273C4C",
"o#	c #303941",
"p#	c #1A2934",
"q#	c #2F4A5E",
"r#	c #296489",
"s#	c #236389",
"t#	c #2F4F66",
"u#	c #30485D",
"v#	c #1B2A34",
"w#	c #243542",
"x#	c #283D4C",
"y#	c #1E4966",
"z#	c #0F7CC1",
"A#	c #2B4A61",
"B#	c #283D4D",
"C#	c #2B4151",
"D#	c #2B404F",
"E#	c #363A3D",
"F#	c #383A3C",
"G#	c #313B43",
"H#	c #28658A",
"I#	c #23668D",
"J#	c #2F5067",
"K#	c #2E475A",
"L#	c #334C5F",
"M#	c #233643",
"N#	c #385368",
"O#	c #1F4966",
"P#	c #0E7DC4",
"Q#	c #2C4B62",
"R#	c #192630",
"S#	c #36393D",
"T#	c #313A43",
"U#	c #1C2B38",
"V#	c #2A6488",
"W#	c #22668F",
"X#	c #2F5069",
"Y#	c #365267",
"Z#	c #1E4765",
"`#	c #1279C2",
" $	c #2D4A61",
".$	c #303A44",
"+$	c #2A668B",
"@$	c #216690",
"#$	c #2F526B",
"$$	c #2C4456",
"%$	c #253848",
"&$	c #30465A",
"*$	c #365167",
"=$	c #1277C2",
"-$	c #2B3E4F",
";$	c #383A3B",
">$	c #2F485D",
",$	c #2B658A",
"'$	c #206692",
")$	c #30526B",
"!$	c #31495E",
"~$	c #293F50",
"{$	c #233745",
"]$	c #354F65",
"^$	c #1E4967",
"/$	c #107AC4",
"($	c #2E4C63",
"_$	c #1B2935",
":$	c #363A3E",
"<$	c #313B45",
"[$	c #293E4D",
"}$	c #1B2B36",
"|$	c #2F495E",
"1$	c #2B658C",
"2$	c #1F6693",
"3$	c #30536D",
"4$	c #344F64",
"5$	c #0F7BC7",
"6$	c #2D4C63",
"7$	c #2F3A43",
"8$	c #2C658B",
"9$	c #1F6692",
"0$	c #30526C",
"a$	c #2D4458",
"b$	c #1E4763",
"c$	c #0F7AC6",
"d$	c #2C4C63",
"e$	c #2F4A5F",
"f$	c #21668F",
"g$	c #2F5169",
"h$	c #2C4255",
"i$	c #204763",
"j$	c #0F7CC6",
"k$	c #303B44",
"l$	c #273B4B",
"m$	c #216790",
"n$	c #2A4152",
"o$	c #1F4763",
"p$	c #0E7DC5",
"q$	c #2C4D64",
"r$	c #2F3B45",
"s$	c #2B4253",
"t$	c #304A5F",
"u$	c #22658F",
"v$	c #2F4759",
"w$	c #1F4864",
"x$	c #0D7EC7",
"y$	c #2D4E65",
"z$	c #2B6386",
"A$	c #23648C",
"B$	c #1D445F",
"C$	c #127CBC",
"D$	c #2B4B62",
"E$	c #18252E",
"F$	c #36393C",
"G$	c #2F3A44",
"H$	c #2E4559",
"I$	c #2D475B",
"J$	c #2B6081",
"K$	c #266083",
"L$	c #2B4A60",
"M$	c #2A3F52",
"N$	c #1F3A4E",
"O$	c #2A5875",
"P$	c #253F53",
"Q$	c #2E3943",
"R$	c #254A62",
"S$	c #224862",
"T$	c #1C3040",
"U$	c #2C4759",
"V$	c #244055",
"W$	c #254F69",
"X$	c #243C4E",
"Y$	c #2E3A43",
"Z$	c #2A4050",
"`$	c #273E50",
" %	c #25485E",
".%	c #254962",
"+%	c #294458",
"@%	c #304758",
"#%	c #1D4561",
"$%	c #1B73A7",
"%%	c #28485F",
"&%	c #37393C",
"*%	c #2E3A44",
"=%	c #293F51",
"-%	c #294356",
";%	c #2A5F80",
">%	c #255F83",
",%	c #2C4960",
"'%	c #1D4764",
")%	c #127BBD",
"!%	c #2A4B62",
"~%	c #2E3A45",
"{%	c #2C475B",
"]%	c #236289",
"^%	c #2E4D65",
"/%	c #1E4A67",
"(%	c #107CC4",
"_%	c #2A4A62",
":%	c #2C4457",
"<%	c #293E4C",
"[%	c #2E3A46",
"}%	c #2C485D",
"|%	c #29668C",
"1%	c #216590",
"2%	c #233442",
"3%	c #1E4866",
"4%	c #107BC4",
"5%	c #192632",
"6%	c #16222C",
"7%	c #2D3A44",
"8%	c #29668A",
"9%	c #206792",
"0%	c #2D4F68",
"a%	c #304859",
"b%	c #1E4A68",
"c%	c #107BC3",
"d%	c #2A4961",
"e%	c #37393B",
"f%	c #2D3943",
"g%	c #2B475B",
"h%	c #1D4966",
"i%	c #1279BD",
"j%	c #2A485F",
"k%	c #16232D",
"l%	c #2D3A45",
"m%	c #17242D",
"n%	c #2B4559",
"o%	c #296386",
"p%	c #236489",
"q%	c #2D4F67",
"r%	c #1579B5",
"s%	c #29485E",
"t%	c #2B4558",
"u%	c #296082",
"v%	c #256083",
"w%	c #263B4C",
"x%	c #1D2F3B",
"y%	c #1A384C",
"z%	c #21526E",
"A%	c #253E51",
"B%	c #2C3842",
"C%	c #2B4252",
"D%	c #214962",
"E%	c #204962",
"F%	c #2B4457",
"G%	c #1A2A37",
"H%	c #1A3040",
"I%	c #2C3742",
"J%	c #1D303F",
"K%	c #1C2E3D",
"L%	c #223441",
"M%	c #263845",
"N%	c #17232E",
"O%	c #2C3944",
"P%	c #253A48",
"Q%	c #2D3B45",
"R%	c #15212A",
"S%	c #1E2D38",
"T%	c #2B3944",
"U%	c #152029",
"V%	c #1F2D39",
"W%	c #253745",
"X%	c #15212B",
"Y%	c #273C4A",
"Z%	c #18242D",
"`%	c #273A48",
" &	c #2C3945",
".&	c #172B39",
"+&	c #182833",
"@&	c #1D2D39",
"#&	c #2B3844",
"$&	c #172936",
"%&	c #213647",
"&&	c #293F4F",
"*&	c #284155",
"=&	c #1B3F56",
"-&	c #255A77",
";&	c #1F394B",
">&	c #273B49",
",&	c #293F4E",
"'&	c #2A3843",
")&	c #223746",
"!&	c #285773",
"~&	c #1B445D",
"{&	c #223E53",
"]&	c #294357",
"^&	c #1D4159",
"/&	c #1973A8",
"(&	c #24648A",
"_&	c #2B495F",
":&	c #293642",
"<&	c #2E4353",
"[&	c #275471",
"}&	c #0F7DC0",
"|&	c #1E4964",
"1&	c #264257",
"2&	c #294153",
"3&	c #1D3F56",
"4&	c #1C6F9F",
"5&	c #1E6D9C",
"6&	c #2D536D",
"7&	c #14202A",
"8&	c #293743",
"9&	c #304D64",
"0&	c #285E81",
"a&	c #0980C9",
"b&	c #1E4863",
"c&	c #264055",
"d&	c #283D4E",
"e&	c #273C4D",
"f&	c #1B3648",
"g&	c #1A72A5",
"h&	c #2D5570",
"i&	c #142028",
"j&	c #192833",
"k&	c #2A3844",
"l&	c #24638A",
"m&	c #147AB2",
"n&	c #1C3E54",
"o&	c #1A3141",
"p&	c #1D3B4F",
"q&	c #285D7C",
"r&	c #2B536D",
"s&	c #293844",
"t&	c #2F4D65",
"u&	c #285A78",
"v&	c #1F425A",
"w&	c #1A3346",
"x&	c #253C4E",
"y&	c #1B394F",
"z&	c #275876",
"A&	c #285A77",
"B&	c #2A4C62",
"C&	c #293845",
"D&	c #273B4A",
"E&	c #2D4A60",
"F&	c #224D68",
"G&	c #206A96",
"H&	c #1C4057",
"I&	c #275777",
"J&	c #127DBD",
"K&	c #283C4B",
"L&	c #2C4E65",
"M&	c #1971A8",
"N&	c #216692",
"O&	c #2D5774",
"P&	c #2B465B",
"Q&	c #182630",
"R&	c #21323E",
"S&	c #263641",
"T&	c #2C4559",
"U&	c #2E526D",
"V&	c #1474B3",
"W&	c #2B5B7B",
"X&	c #2C485E",
"Y&	c #15222A",
"Z&	c #263440",
"`&	c #141F27",
" *	c #2C4458",
".*	c #2D5470",
"+*	c #2C4A60",
"@*	c #24323F",
"#*	c #233642",
"$*	c #141E26",
"%*	c #1E2E39",
"&*	c #2C4151",
"**	c #263A4A",
"=*	c #1C2933",
"-*	c #151F27",
";*	c #1C2C37",
">*	c #333537",
",*	c #282D32",
"'*	c #283C4A",
")*	c #101C25",
"!*	c #141D26",
"~*	c #353738",
"{*	c #252E35",
"]*	c #253A4A",
"^*	c #283C4D",
"/*	c #152531",
"(*	c #122C3E",
"_*	c #103C55",
":*	c #383839",
"<*	c #212F3A",
"[*	c #273D4C",
"}*	c #1C303D",
"|*	c #162C3B",
"1*	c #124361",
"2*	c #11688D",
"3*	c #103447",
"4*	c #35383A",
"5*	c #29343E",
"6*	c #18242F",
"7*	c #273C4B",
"8*	c #1B3140",
"9*	c #153143",
"0*	c #134B6C",
"a*	c #0B729B",
"b*	c #10394F",
"c*	c #35383B",
"d*	c #293640",
"e*	c #2C4558",
"f*	c #263C4D",
"g*	c #163449",
"h*	c #144D6E",
"i*	c #0A749E",
"j*	c #103B52",
"k*	c #283641",
"l*	c #284255",
"m*	c #1A2933",
"n*	c #263D4F",
"o*	c #153449",
"p*	c #154D6F",
"q*	c #0774A3",
"r*	c #103B53",
"s*	c #253A49",
"t*	c #273E51",
"u*	c #294051",
"v*	c #1B303F",
"w*	c #153247",
"x*	c #144C6E",
"y*	c #0675A5",
"z*	c #0F3A52",
"A*	c #284256",
"B*	c #283E4D",
"C*	c #273D4E",
"D*	c #153347",
"E*	c #144C6D",
"F*	c #0973A0",
"G*	c #28343F",
"H*	c #274053",
"I*	c #1C3141",
"J*	c #153043",
"K*	c #144A6B",
"L*	c #0975A1",
"M*	c #103B51",
"N*	c #263E51",
"O*	c #1D3241",
"P*	c #152D3D",
"Q*	c #144764",
"R*	c #0D7299",
"S*	c #11384D",
"T*	c #35373A",
"U*	c #28323C",
"V*	c #283F51",
"W*	c #243543",
"X*	c #1A2C3A",
"Y*	c #15364A",
"Z*	c #124D69",
"`*	c #212F3B",
" =	c #1B2D3A",
".=	c #172A3A",
"+=	c #2D373F",
"@=	c #1E2C37",
"#=	c #20313F",
"$=	c #2F3439",
"%=	c #333639",
"&=	c #2A3D4C",
"*=	c #253946",
"==	c #15202A",
"-=	c #2F363C",
";=	c #273A4B",
">=	c #33363A",
",=	c #2E343A",
"'=	c #17252F",
")=	c #1D2E39",
"!=	c #283B4C",
"~=	c #254156",
"{=	c #2E3439",
"]=	c #283F53",
"^=	c #265270",
"/=	c #253F54",
"(=	c #1F303D",
"_=	c #17252E",
":=	c #33373A",
"<=	c #2E353B",
"[=	c #273D4F",
"}=	c #254A63",
"|=	c #0188DB",
"1=	c #25516E",
"2=	c #263F53",
"3=	c #34373B",
"4=	c #2F353C",
"5=	c #1479B7",
"6=	c #236692",
"7=	c #117EBB",
"8=	c #234C66",
"9=	c #274052",
"0=	c #34373A",
"a=	c #2E353C",
"b=	c #26475D",
"c=	c #1D6F9E",
"d=	c #1577B4",
"e=	c #2B4F68",
"f=	c #226994",
"g=	c #256487",
"h=	c #213E51",
"i=	c #2B3F4E",
"j=	c #213A4C",
"k=	c #205571",
"l=	c #137AB1",
"m=	c #274F69",
"n=	c #2E495D",
"o=	c #27465C",
"p=	c #224358",
"q=	c #224A66",
"r=	c #234258",
"s=	c #1B2B35",
"t=	c #264256",
"u=	c #1E4B64",
"v=	c #204157",
"w=	c #24465C",
"x=	c #2E4C61",
"y=	c #244155",
"z=	c #0C7EC5",
"A=	c #23648E",
"B=	c #24435A",
"C=	c #16212A",
"D=	c #34383B",
"E=	c #2E363C",
"F=	c #274357",
"G=	c #235572",
"H=	c #0886C7",
"I=	c #23475E",
"J=	c #2F4B60",
"K=	c #26516F",
"L=	c #0083DD",
"M=	c #265C82",
"N=	c #234157",
"O=	c #152129",
"P=	c #2D353C",
"Q=	c #264054",
"R=	c #224F6C",
"S=	c #0588D4",
"T=	c #265471",
"U=	c #2F4D63",
"V=	c #265474",
"W=	c #0181DA",
"X=	c #255372",
"Y=	c #0882CF",
"Z=	c #27597A",
"`=	c #2C4C64",
" -	c #2E516A",
".-	c #245170",
"+-	c #1774AD",
"@-	c #1E3C51",
"#-	c #2D343B",
"$-	c #20313D",
"%-	c #1E3546",
"&-	c #206A99",
"*-	c #294D66",
"=-	c #2A485C",
"--	c #203E52",
";-	c #192A38",
">-	c #15222C",
",-	c #172733",
"'-	c #1F3C4F",
")-	c #28455A",
"!-	c #2C353B",
"~-	c #2C333B",
"{-	c #233341",
"]-	c #343739",
"^-	c #2C333A",
"/-	c #263745",
"(-	c #293B4C",
"_-	c #15222D",
":-	c #1E2F3B",
"<-	c #182834",
"[-	c #1E2F3C",
"}-	c #353739",
"|-	c #182632",
"1-	c #213441",
"2-	c #1C2D39",
"3-	c #162D3D",
"4-	c #17455B",
"5-	c #1D3342",
"6-	c #18384B",
"7-	c #16394E",
"8-	c #23394A",
"9-	c #1D2E3A",
"0-	c #163E57",
"a-	c #1A7198",
"b-	c #204054",
"c-	c #253645",
"d-	c #2B3239",
"e-	c #243544",
"f-	c #131D27",
"g-	c #253D4F",
"h-	c #255673",
"i-	c #1F5978",
"j-	c #244257",
"k-	c #263949",
"l-	c #213340",
"m-	c #213342",
"n-	c #213442",
"o-	c #17425D",
"p-	c #147AAD",
"q-	c #204359",
"r-	c #253F52",
"s-	c #295D7D",
"t-	c #235E7F",
"u-	c #25455B",
"v-	c #184461",
"w-	c #107CB7",
"x-	c #22445B",
"y-	c #2A3239",
"z-	c #2A5E7F",
"A-	c #225F82",
"B-	c #18435F",
"C-	c #107CB8",
"D-	c #21445B",
"E-	c #263847",
"F-	c #2A323A",
"G-	c #2A5F7F",
"H-	c #235F83",
"I-	c #24445B",
"J-	c #18425E",
"K-	c #0F7DBB",
"L-	c #21445C",
"M-	c #14212B",
"N-	c #243F53",
"O-	c #295F7F",
"P-	c #236084",
"Q-	c #213341",
"R-	c #202F3C",
"S-	c #233342",
"T-	c #17415D",
"U-	c #117CB9",
"V-	c #131D26",
"W-	c #243E52",
"X-	c #2A5F7E",
"Y-	c #226084",
"Z-	c #25394A",
"`-	c #17405B",
" ;	c #147AB1",
".;	c #204257",
"+;	c #15212C",
"@;	c #293138",
"#;	c #121D26",
"$;	c #223C4E",
"%;	c #2A5E7C",
"&;	c #234359",
"*;	c #223443",
"=;	c #173D57",
"-;	c #1677AA",
";;	c #204155",
">;	c #2A3139",
",;	c #121C25",
"';	c #233B4D",
");	c #2A5C79",
"!;	c #255D7D",
"~;	c #214055",
"{;	c #1D2F3D",
"];	c #17354A",
"^;	c #21607E",
"/;	c #1D394C",
"(;	c #293139",
"_;	c #121D25",
":;	c #243646",
"<;	c #203646",
"[;	c #204F6A",
"};	c #1E506B",
"|;	c #1A3345",
"1;	c #182D3B",
"2;	c #1F3E52",
"3;	c #1C2F3D",
"4;	c #16222D",
"5;	c #1F3340",
"6;	c #1E384B",
"7;	c #1F394D",
"8;	c #1A2B39",
"9;	c #1B2B37",
"0;	c #1A3F57",
"a;	c #1C6A8D",
"b;	c #1D3C4F",
"c;	c #213241",
"d;	c #293038",
"e;	c #131F28",
"f;	c #21394A",
"g;	c #23536F",
"h;	c #1F5471",
"i;	c #27455A",
"j;	c #153F59",
"k;	c #1578A7",
"l;	c #1F4055",
"m;	c #21303D",
"n;	c #283038",
"o;	c #233441",
"p;	c #2A5C7A",
"q;	c #225978",
"r;	c #224258",
"s;	c #263A4B",
"t;	c #16415C",
"u;	c #137AB0",
"v;	c #363739",
"w;	c #233C4E",
"x;	c #2A5E7E",
"y;	c #235A7A",
"z;	c #253849",
"A;	c #127BB1",
"B;	c #223B4D",
"C;	c #225B7C",
"D;	c #234257",
"E;	c #17425E",
"F;	c #117CB4",
"G;	c #20445A",
"H;	c #373839",
"I;	c #273037",
"J;	c #2B5F7F",
"K;	c #235D7E",
"L;	c #107DB7",
"M;	c #272F37",
"N;	c #223A4C",
"O;	c #245C7E",
"P;	c #244359",
"Q;	c #243948",
"R;	c #107DB9",
"S;	c #20435A",
"T;	c #21313D",
"U;	c #223C4D",
"V;	c #24445A",
"W;	c #17405C",
"X;	c #363738",
"Y;	c #272F36",
"Z;	c #111C23",
"`;	c #233C4D",
" >	c #2B607F",
".>	c #235C7F",
"+>	c #192730",
"@>	c #163F5B",
"#>	c #127AB7",
"$>	c #204258",
"%>	c #262E35",
"&>	c #111B23",
"*>	c #235B7E",
"=>	c #224157",
"->	c #153E59",
";>	c #1379AF",
">>	c #1E4156",
",>	c #121C24",
"'>	c #225C7E",
")>	c #17222B",
"!>	c #143D57",
"~>	c #1279A9",
"{>	c #1D4056",
"]>	c #1F2E39",
"^>	c #242C33",
"/>	c #223A4B",
"(>	c #2B5E7B",
"_>	c #225B7D",
":>	c #223F54",
"<>	c #133A51",
"[>	c #167198",
"}>	c #1C3D51",
"|>	c #232B32",
"1>	c #21384A",
"2>	c #205978",
"3>	c #213C4F",
"4>	c #142B3C",
"5>	c #184057",
"6>	c #1B2E3D",
"7>	c #193950",
"8>	c #17384E",
"9>	c #1E3241",
"0>	c #243848",
"a>	c #253C4C",
"b>	c #142430",
"c>	c #232C33",
"d>	c #172835",
"e>	c #1F3749",
"f>	c #182F3E",
"g>	c #263D4E",
"h>	c #263D4D",
"i>	c #233846",
"j>	c #111F2A",
"k>	c #0F1A23",
"l>	c #242C34",
"m>	c #1B2A37",
"n>	c #131F29",
"o>	c #15232D",
"p>	c #12202A",
"q>	c #111C25",
"r>	c #373738",
"s>	c #232B34",
"t>	c #14212A",
"u>	c #111D25",
"v>	c #232B33",
"w>	c #202F3D",
"x>	c #222B33",
"y>	c #373838",
"z>	c #16232E",
"A>	c #222A32",
"B>	c #1F2E3C",
"C>	c #202A32",
"D>	c #23333F",
"E>	c #1E2C39",
"F>	c #202931",
"G>	c #1F272E",
"H>	c #1A2731",
"I>	c #17222C",
"J>	c #202E3B",
"K>	c #0F1820",
"L>	c #0F1920",
"M>	c #0F171F",
"N>	c #0E171D",
"O>	c #0D161C",
"P>	c #0F1921",
"Q>	c #111E28",
"R>	c #1E262D",
"S>	c #121F28",
"T>	c #111C26",
"U>	c #0E181F",
"V>	c #0D161E",
"W>	c #101A21",
"X>	c #131E28",
"Y>	c #132029",
"Z>	c #13222D",
"`>	c #132939",
" ,	c #162530",
".,	c #1B2229",
"+,	c #142938",
"@,	c #132431",
"#,	c #14222C",
"$,	c #263846",
"%,	c #25323D",
"&,	c #253845",
"*,	c #2B3E4D",
"=,	c #273746",
"-,	c #24333F",
";,	c #263542",
">,	c #253542",
",,	c #263643",
"',	c #263543",
"),	c #253440",
"!,	c #253441",
"~,	c #24313E",
"{,	c #23323E",
"],	c #24343F",
"^,	c #25343F",
"/,	c #242F38",
"(,	c #243440",
"_,	c #273543",
":,	c #253541",
"<,	c #243441",
"[,	c #253442",
"},	c #25333F",
"  . + @ # #     $ #   # . + % + + + & * = = - ; > , , , , , , , , , , , , , , , , , , , , , , , , , , , , , , , , , , , , , , , , , , , , , , , , , , , , , , , , , , , , , , , , , ' , , , , , , , , , , , , , , , , , > ) + + = = = ! = * ~ . + + { + .     ]   +     ",
"^ / ( ( _ _ : _ < [ } | } 1 2 1 2 3 4 5 4 6 7 8 9 , , , , , , , , , , , , , , , , , , , , , , , , , , , , , , , , , , , , , , , , , , , , , , , , , , , , , , , , , , , , , , , , , 0 , , , , , , , , , , , , , , , , , 9 a b c 6 7 d 5 3 3 ( | 2 b 2 _ : : / e _ b } < ",
"f g h i j j k l h i h m n o p q p r s t u v v w x , , , , , , , , , , , , , , , , , , , , , , , , , , , , , , , , , , , , , , , , , , , , , , , , , , , , , , , , , , , , , , , , , 0 , , , , , , , , , , , , , , , , , y z A B C s A A D p E h o q o F F h h h G m h j ",
"H I J K J J J K K J L L L J J M K N O P Q R S T U , , , , , , , , , , , , , , , , , , , , , , , , , , , , , , , , , , , , , , , , , , , , , , , , , , , , , , , , , , , , , , , , , 0 , , , , , , , , , , , , , , , , , V W X Y Z `  .......M J M ....J K K K K ..+.J L ",
"@.#.@.$.%.&.@.*.@.#.=.-...+.-.;.@.@.>.,.'.).!.w ~., , , , , , , , , , , , , , , , , , , , , , , , , , , , , , , , , , , , , , , , , , , , , , , , , , , , , , , , , , , , , , , , , 0 , , , , , , , , , , , , , , , , , {.].^.s /.(._.:.#.#.<.-.-.:.@.$.[.}.|.&.$.|.[.*.",
"1.1.2.3.3.4.5.6.7.5.g o D v 8.9.v 0.a.b.B c.d.e.f., , , , , , , , , , , , , , , , , , , , , , , , , , , , , , , , , , , , , , , , , , , , , , , , , , , , , , , , , , , , , , , , , 0 , , , , , , , , , , , , , , , , , g.h.i.a.j.k.l.m.n.o.p.s v 7.l m m h i l q.l r.s.",
"l l p s s s v t.l.p.v u.c.v.w.d.x.d.y.z.A.B.C.D.E., , , , , , , , , , , , , , , , , , , , , , , , , , , , , , , , , , , , , , , , , , , , , , , , , , , , , , , , , , , , , , , , , 0 , , , , , , , , , , , , , , , , , F.G.H.I.C J.K.L.M.N.w.O.i.P.Q.P.9.R.S.v s v 0.T.",
"U.V.W.X.Y.Z.`. +.+++@+o v.#+$+H.U.%+&+*+^.#+=+-+;+, , , , , , , , , , , , , , , , , , , , , , , , , , , , , , , , , , , , , , , , , , , , , , , , , , , , , , , , , , , , , , , , , 0 , , , , , , , , , , , , , , , , , >+w.$+,+'+)+V.!+~+{+]+H.v u ^+/+ +(+Y._+:+<+%+V.",
"U.U.~+[+[+[+`.}+|+1+2+3+d.C.4+d.C.5+6+7+u.8+9+0+a+, , , , , , , , , , , , , , , , , , , , , , , , , , , , , , , , , , , , , , , , , , , , , , , , , , , , , , , , , , , , , , , , , 0 , , , , , , , , , , , , , , , , , b+c+9+d+e+6+&+f+y.x.y.U.g+h.'+d.h+`.i+f+j+k+%+l+",
")+m+<+ +Z.n+n+o+p+q+r+s+B.$+$+#+8+t+u+v+w+=+x+y+z+, , , , , , , , , , , , , , , , , , , , , , , , , , , , , , , , , , , , , , , , , , , , , , , , , , , , , , , , , , , , , , , , , A+, , , , , , , , , , , , , , , , , B+4+y.x+C+D+u+6+E+d.F+9+G+H+I+B.J+D+K+L+i+i+<+j+",
"M+f+u+Z.N+o+J+N+p+O+1.s+I.P+9+Q+R+~+J+d+w+9+j+S+z+, , , , , , , , , , , , , , , , , , , , , , , , , , , , , , , , , , , , , , , , , , , , , , , , , , , , , , , , , , , , , , , , , A+, , , , , , , , , , , , , , , , , T+]+U+9+V+u+W+X+Q+#+&+]+].Y+Z+I.`+5+`.N+`. @`.i+",
"`.`.`. @.@.@+@@@#@$@%@&@*@9+x+9+9+=@u+v+-@y.~+S+;@, , , , , , , , , , , , , , , , , , , , , , , , , , , , , , , , , , , , , , , , , , , , , , , , , , , , , , , , , , , , , , , , , 0 , , , , , , , , , , , , , , , , , >@9+~+9+,@u+J+<+y.y.X+=+'@'+)@8+N+[+o+W+N+!@!@~@",
"N+{@o+W+.@]@^@/@(@_@j.:@v.9+5+f+x+~+n+d+O.<@~+[@}@, , , , , , , , , , , , , , , , , , , , , , , , , , , , , , , , , , , , , , , , , , , , , , , , , , , , , , , , , , , , , , , , , A+, , , , , , , , , , , , , , , , , |@9+1@y.2@6+5+&+x+~+3@U.4@G+5@C.]@6@7@o+]@8@9@0@",
"+@{@N++@]@^@]@a@b@c@d@e@f@]+5+D+5+M+u+,+f@g@1@c h@, , , , , , , , , , , , , , , , , , , , , , , , , , , , , , , , , , , , , , , , , , , , , , , , , , , , , , , , , , , , , , , , , A+, , , , , , , , , , , , , , , , , i@y.1@9+j@k@|+d+|+D+u+l@z.m@++#++@.@n+n@o@p@q@r@",
"N+J+.@]@{@6@^@s@t@u@d@v@4@{+=@X+1@5+5+E+w+|+5+c w@, , , , , , , , , , , , , , , , , , , , , , , , , , , , , , , , , , , , , , , , , , , , , , , , , , , , , , , , , , , , , , , , , A+, , , , , , , , , , , , , , , , , x@)+M+y@C d+d+,+5+J+[+M.z@m@++C.9@p@o+o+^@q@r@q@",
"Z.{@+@]@N++@A@/@B@c@C@D@E@{+F+f+n+5+|+8+w+&+=@[ h@, , , , , , , , , , , , , , , , , , , , , , , , , , , , , , , , , , , , , , , , , , , , , , , , , , , , , , , , , , , , , , , , , A+, , , , , , , , , , , , , , , , , |@j+<+=+F@G@d+H@u+u+1@=+I@r+'+$+o@o@@@^@]@^@q@`.",
"[+J+{@N+J@p@@@^@7@K@T.L@f@E+F+u+o+`.M+M@N@x+~+b O@, , , , , , , , , , , , , , , , , , , , , , , , , , , , , , , , , , , , , , , , , , , , , , , , , , , , , , , , , , , , , , , , , A+, , , , , , , , , , , , , , , , , P@~+H@Q@R@k@|+5+u+M+S@9+T@3+2@{+]@U@9@q@+@+@N+`.",
"f 6.m -@J+^@N+]@t@V@W@B.H+9+|+X@K+N+n+y@Y@f@P+b Z@, , , , , , , , , , , , , , , , , , , , , , , , , , , , , , , , , , , , , , , , , , , , , , , , , , , , , , , , , , , , , , , , , A+, , , , , , , , , , , , , , , , , `@F+=+l  #u+D+D+1@~+&+9+v@:@.#+#A@9@9@+@M.Y+l '.",
"A.u u.u i+!@+@+@@###$#%#I.5+D+u+u+J+n+E+&#f P+*#Z@, , , , , , , , , , , , , , , , , , , , , , , , , , , , , , , , , , , , , , , , , , , , , , , , , , , , , , , , , , , , , , , , , A+, , , , , , , , , , , , , , , , , P@y.w+Y@=#`+u+D+=@l@~+x+-#;#>#N+.@.@]@^@P.^.].,#",
").-@'#[ <+`.N+)#]@!#~#{#]#|+D+X+n+X+5+^#/#C@P+N.Z@, , , , , , , , , , , , , , , , , , , , , , , , , , , , , , , , , , , , , , , , , , , , , , , , , , , , , , , , , , , , , , , , , (#, , , , , , , , , , , , , , , , , _#M.B.:#<#n+M+|+=@y.=@[#}#|#1#2#q@o+J+!@3#!+h.u ",
"4#s H.:@<+7@7@X@+@5#6#7#8#9#|+5+=@=@d+0#:#C@=+'#w@, , , , , , , , , , , , , , , , , , , , , , , , , , , , , , , , , , , , , , , , , , , , , , , , , , , , , , , , , , , , , , , , , a#, , , , , , , , , , , , , , , , , `@=+#+b#c#S@|+d+x+d+5+d#e#f#g#+@u+M+)#!@4@h#l.4#",
"n i#=+H+j+u+7@6+`+j#k#l#m#=@j+x+9+~+9+n#/#l M.K.w@, , , , , , , , , , , , , , , , , , , , , , , , , , , , , , , , , , , , , , , , , , , , , , , , , , , , , , , , , , , , , , , , , a#, , , , , , , , , , , , , , , , , o#9+x.b#p#M+k@=@x+9#M+q#r#s#t#u#6+6+n+^@w+U.a.v#",
"w#m.x#:@l+n+)#6+n+j#y#z#A#d+~+F+F+x+x+B#/#7.C#D#E#, , , , , , , , , , , , , , , , , , , , , , , , , , , , , , , , , , , , , , , , , , , , , , , , , , , , , , , , , , , , , , , , , F#, , , , , , , , , , , , , , , , , G#9+x.,#m 5+M+5+k@5+5+t@H#I#J#(@K#6+`+L#4@y.p.M#",
"V.H.P+B.l+n+)#X@)#N#O#P#Q#=@|+d+,+x+U+B./#R#K.'#S#, , , , , , , , , , , , , , , , , , , , , , , , , , , , , , , , , , , , , , , , , , , , , , , , , , , , , , , , , , , , , , , , , F#, , , , , , , , , , , , , , , , , T#M.H.U#l t+M+5+H@M+D+q#V#W#X#(@X@X@n+N+f@l+C.P+",
"|+,+,+&@%+o+o+7@b@Y#Z#`# $5+D+=@d+d+P+B./#f +#L.S#, , , , , , , , , , , , , , , , , , , , , , , , , , , , , , , , , , , , , , , , , , , , , , , , , , , , , , , , , , , , , , , , , F#, , , , , , , , , , , , , , , , , .$9+H.B l t+6+6+|+5+u+t@+$@$#$(@n+X@b@ @m@P+~+$$",
"9#,+P+%$j+u+J+&$)#*$y#=$ $X+[+M+H@P+P+B.p#Y@x.-$S#, , , , , , , , , , , , , , , , , , , , , , , , , , , , , , , , , , , , , , , , , , , , , , , , , , , , , , , , , , , , , , , , , ;$, , , , , , , , , , , , , , , , , .$U.H.B l t+|+|+d+|+`+>$,$'$)$+@!$X@D+L+4@d+=@|+",
"d+~$~${$U.1@f+S@n+]$^$/$($K+`.f+5+=@$$x#_$5.x.x.:$, , , , , , , , , , , , , , , , , , , , , , , , , , , , , , , , , , , , , , , , , , , , , , , , , , , , , , , , , , , , , , , , , ;$, , , , , , , , , , , , , , , , , <$.+[$}$h t+=@|+|+u+7@|$1$2$3$+@n@X@X@o+4@d+M+M+",
"9#E+Q+T@U.=@<@X+n+4$^$5$6$D+J+`.D+M+=@{+T.f x.N.S#, , , , , , , , , , , , , , , , , , , , , , , , , , , , , , , , , , , , , , , , , , , , , , , , , , , , , , , , , , , , , , , , , F#, , , , , , , , , , , , , , , , , 7$P+x#T.G t+5+5+D+X@X@q#8$9$0$+@u#a$X@ @'@d+M+6+",
"9#E+E+W@=+~+<@g@u+o@b$c$d$6+u+u+[+t+x+H._$4.C.x.S#, , , , , , , , , , , , , , , , , , , , , , , , , , , , , , , , , , , , , , , , , , , , , , , , , , , , , , , , , , , , , , , , , ;$, , , , , , , , , , , , , , , , , 7$9+w._$l v+$$$$M+X@b@e$8$f$g$n@6+|+6+ @E@h$X@X@",
",+~$E+T@x.F+~+~+D+9@i$j$d$M+[+3@f+H@d+H._$Y@C.C.E#, , , , , , , , , , , , , , , , , , , , , , , , , , , , , , , , , , , , , , , , , , , , , , , , , , , , , , , , , , , , , , , , , ;$, , , , , , , , , , , , , , , , , k$y@l$p#q.y.,+,+5+u+)#|$8$m$g$n@a$6+D+ @4@=@7@X@",
"n$~$~$4@]+x+,+,+D+9@o$p$q$&$3@[+&+|+d+c+_$f C.C.E#, , , , , , , , , , , , , , , , , , , , , , , , , , , , , , , , , , , , , , , , , , , , , , , , , , , , , , , , , , , , , , , , , F#, , , , , , , , , , , , , , , , , r$9+i.p#R#s$P+9+|+6+n+t$,$u$J#o+|+M+X@N+-@H@D+v$",
",+E+E+T@9+x+Q+P+f+^@w$x$y$D+i+f+H@d+s$x#_$f +#C.S#, , , , , , , , , , , , , , , , , , , , , , , , , , , , , , , , , , , , , , , , , , , , , , , , , , , , , , , , , , , , , , , , , F#, , , , , , , , , , , , , , , , ,   M.w.p#6.P+P+E+=@M+u+d#z$A$t#)#k@M+u+!@4@H@u+K+",
",+n$8+'@=+y.P+t+X+6+B$C$D$a$5+1@~+~+,+l$_$E$=+N.F$, , , , , , , , , , , , , , , , , , , , , , , , , , , , , , , , , , , , , , , , , , , , , , , , , , , , , , , , , , , , , , , , , F#, , , , , , , , , , , , , , , , , G$=+v.C@l d+E+Q+~+5+H$I$J$K$L$u+D+5+n+!@w+=@f+D+",
"E+M$8+W@#+x+,+H@6+1+N$O$P$v+H@1@~+.+E+B._$4.C.N.F$, , , , , , , , , , , , , , , , , , , , , , , , , , , , , , , , , , , , , , , , , , , , , , , , , , , , , , , , , , , , , , , , , ;$, , , , , , , , , , , , , , , , , Q$C.v.T.q..+P+P+d+d+.+^#R$S$T$y@D+t+D+Z.2+H@5+5+",
"E+Q+8+.##+x+P+d+n+U$V$W$X$9+y.)+y.x+P+e@l 3.C.[$F$, , , , , , , , , , , , , , , , , , , , , , , , , , , , , , , , , , , , , , , , , , , , , , , , , , , , , , , , , , , , , , , , , ;$, , , , , , , , , , , , , , , , , Y$Z$O._$f .+.+x+)+y.E+`$ %.%+%6+M+d+6+`.4@H@5+x+",
"E+R+8+W@$+s$E+x+@%n@#%$%%%~+%+x+P+P+P+-@l 4.#+c+&%, , , , , , , , , , , , , , , , , , , , , , , , , , , , , , , , , , , , , , , , , , , , , , , , , , , , , , , , , , , , , , , , , a#, , , , , , , , , , , , , , , , , *%C.h.p#g &+|+H@H@d+=%-%;%>%,%K+5+d+5+Z.3+d+|+y@",
"P+E+~$z@#+P+P+y.5+^@'%)%!%k@5+~+M.9+]+f@l 3.x.d.&%, , , , , , , , , , , , , , , , , , , , , , , , , , , , , , , , , , , , , , , , , , , , , , , , , , , , , , , , , , , , , , , , , a#, , , , , , , , , , , , , , , , , ~%=+h.p#g %+H@P+d+H@s${%r#]%^%D+M+H@&+`.W@x+d+~$",
"d+P+8+W@#+9+P+y.&+o@/%(%_%:%<+j+U.P+$+4@'.r.x.<%&%, , , , , , , , , , , , , , , , , , , , , , , , , , , , , , , , , , , , , , , , , , , , , , , , , , , , , , , , , , , , , , , , , a#, , , , , , , , , , , , , , , , , [%#+h.l f )+P+y@y.l+d+}%|%1%g$K#D+5+5+v$2%P+s$E+",
"E+Q+{+.#C.P+E+,+t+o+3%4%8#d+|+x+x+9+=+4@5%6%[$c+&%, , , , , , , , , , , , , , , , , , , , , , , , , , , , , , , , , , , , , , , , , , , , , , , , , , , , , , , , , , , , , , , , , a#, , , , , , , , , , , , , , , , , 7%H.O.l f y.y@~$P+.+d+##8%9%0%K#S@~+&+a%N@E+y.s$",
"=%{+0#T@B.8+=+P+d+)#b%c%d%P+x+9+y@9+y@H+'.6%#+w.e%, , , , , , , , , , , , , , , , , , , , , , , , , , , , , , , , , , , , , , , , , , , , , , , , , , , , , , , , , , , , , , , , , a#, , , , , , , , , , , , , , , , , f%H.O.l f y.=+8+9+x+x+g%8%f$0%B@K+.+|+[+'@~$9+E+",
"R+P+=%T@D@n#y@y@P+b@h%i%j%y@P+9+9+E+P+O.l k%[$:@e%, , , , , , , , , , , , , , , , , , , , , , , , , , , , , , , , , , , , , , , , , , , , , , , , , , , , , , , , , , , , , , , , , a#, , , , , , , , , , , , , , , , , l%C.c.l m%l+E+8+y@P+x+n%o%p%q%K#M+d+x+f+'@y@P+E+",
"=+s$0#V+e@8+E+y@P+`.6#r%s%~$E+P+P+P+P+v@l r.c+c.e%, , , , , , , , , , , , , , , , , , , , , , , , , , , , , , , , , , , , , , , , , , , , , , , , , , , , , , , , , , , , , , , , , ;$, , , , , , , , , , , , , , , , , 7%C.c.p#Y@d+P+{+8+y@P+t%u%v%q$6+H@$$&+@%s+Z$x+9+",
"9+P+w%x%B.]+P+R+y.i+y%z%A%C.M.=+y@E+E+%$'.r.c+i.e%, , , , , , , , , , , , , , , , , , , , , , , , , , , , , , , , , , , , , , , , , , , , , , , , , , , , , , , , , , , , , , , , , a#, , , , , , , , , , , , , , , , , B%#+v.l m%.+E+{+$+9+C%7+D%E%F%5+x+x+&+S@].C.y.9+",
"y@8+r+D@M.U.9+9+h#h#G%H%H+8+=+E+y@P+=+H+k 3.[$[ e%, , , , , , , , , , , , , , , , , , , , , , , , , , , , , , , , , , , , , , , , , , , , , , , , , , , , , , , , , , , , , , , , , a#, , , , , , , , , , , , , , , , , I%C.e@'.m%d+.+E+]+P+y.H.J%K%C.5+t+E+P+)+K.L%x.y@",
"{+'@N@x.J.U.M.y@K.P.3.p#M%Z$9+P+,+s$9+v.k N%+#[ e%, , , , , , , , , , , , , , , , , , , , , , , , , , , , , , , , , , , , , , , , , , , , , , , , , , , , , , , , , , , , , , , , , (#, , , , , , , , , , , , , , , , , O%+#-@l f d+s$,+y.~+~+C.0.7.0.h#~+Q+,+~+%+d.2%H.",
"N@3#l$P+y.)+h#B#L%1.6.s C#s$9+,+.+.+P+P%l m%C.w.a#, , , , , , , , , , , , , , , , , , , , , , , , , , , , , , , , , , , , , , , , , , , , , , , , , , , , , , , , , , , , , , , , , (#, , , , , , , , , , , , , , , , , Q%C.f@l E$y.s$y.d+|+&+j+u.v#1.s P+P+s$y.l+)+e@i#",
"m@x#8+y@)+h#C.N@R%5%S%x#=+y@P+y@P+9+y@4@l 4.B.i.A+, , , , , , , , , , , , , , , , , , , , , , , , , , , , , , , , , , , , , , , , , , , , , , , , , , , , , , , , , , , , , , , , , (#, , , , , , , , , , , , , , , , , T%$+w+7.E$P+E+d+=@d+x+&+)+!.v#U%V%=+M.P+U.)+y@h.",
"=+y@8+y@y.P+W%X%f s Y%{+B.{+9+0#~$=+H.4@l Z%B.`%(#, , , , , , , , , , , , , , , , , , , , , , , , , , , , , , , , , , , , , , , , , , , , , , , , , , , , , , , , , , , , , , , , , A+, , , , , , , , , , , , , , , , ,  &x.3+5%E$C#~$,+,+x+d+P+M.C#9.l 1.l.x.)+h#.+P+#+",
"P+y@=+y@y.`$.&+&@&[$B#{+8+8+M.C.Z$B#O.l 6.R#N.h.(#, , , , , , , , , , , , , , , , , , , , , , , , , , , , , , , , , , , , , , , , , , , , , , , , , , , , , , , , , , , , , , , , , A+, , , , , , , , , , , , , , , , , #&x.3#7.Y@^.l$n$E+E+.+9+y@C.P+8._$$&%&x+P+y.&&]+",
"y@{+U.U+*&=&-&;&x.K.B.B#E+E+P+P+M.:@R#Y@m >&,&h.(#, , , , , , , , , , , , , , , , , , , , , , , , , , , , , , , , , , , , , , , , , , , , , , , , , , , , , , , , , , , , , , , , , a#, , , , , , , , , , , , , , , , , '&[$U.@&5.X L%&&,+,+$$x+P+x#C#)+)&!&~&{&=@)+#+y@",
"H.{+P+]&^&/&(&_&M.+##+~$y@n$9+9+c+l 6%C@h.C.H.h.(#, , , , , , , , , , , , , , , , , , , , , , , , , , , , , , , , , , , , , , , , , , , , , , , , , , , , , , , , , , , , , , , , , a#, , , , , , , , , , , , , , , , , :&[$P+=+,#Y@R%w+P+Q+,+H@.+y@+#<&t@[&}&|&1&x+C.&&",
"B#=+2&3&4&5&6&:%U.P+=+{+&&=+y@[$G 7&l -@M.M.H.h.(#, , , , , , , , , , , , , , , , , , , , , , , , , , , , , , , , , , , , , , , , , , , , , , , , , , , , , , , , , , , , , , , , , e%, , , , , , , , , , , , , , , , , 8&{+M.E+C%Y+k%2.D@=+P+s$E+.+9+P+5+9&0&a&b&c&$+C.",
"d&e&f&m$g&h&p+y.9+n$E+=+~$8+B#C@i&j&N@+#y@y@B#h.(#, , , , , , , , , , , , , , , , , , , , , , , , , , , , , , , , , , , , , , , , , , , , , , , , , , , , , , , , , , , , , , , , , a#, , , , , , , , , , , , , , , , , k&$+9+8+9+C.,#k%6%4@y@P+y@n$s$s$y.5+g#l&m&n&*@{+",
"*+o&p&q&r&[#l+h#P+E+E+0#0#H.B i&6.N@=+8+{+=+H.h.(#, , , , , , , , , , , , , , , , , , , , , , , , , , , , , , , , , , , , , , , , , , , , , , , , , , , , , , , , , , , , , , , , , a#, , , , , , , , , , , , , , , , , s&=+P+y@E+y@[$B 6%3.w.C.~$=%.+d+.+y.k@t&u&v&w&x&",
"y&z&A&B&[#y@9+9+E+E+=+#+#+@&1.%@^.Z$#+&&=+~$H.h.(#, , , , , , , , , , , , , , , , , , , , , , , , , , , , , , , , , , , , , , , , , , , , , , , , , , , , , , , , , , , , , , , , , a#, , , , , , , , , , , , , , , , , C&9+y.P+E+=+M.c+0.s.f D&#+#+y@=@d+P+Q+d+E&F&G&H&",
"I&J&r&t%E+~$9+n$y@P+=+C.S.R%7.9.=+Q+#+Z$E+y@{+-@(#, , , , , , , , , , , , , , , , , , , , , , , , , , , , , , , , , , , , , , , , , , , , , , , , , , , , , , , , , , , , , , , , , ;$, , , , , , , , , , , , , , , , , s&M.h#s$,+y@=+C#e@p#2.R#K&#+B#y@s$E+~$E+d+L&M&N&",
"x$O&P&y@B#~$Q+E+y@P+,&i#X%Q&R&M.H.8+=+~$y@y@8+W%' , , , , , , , , , , , , , , , , , , , , , , , , , , , , , , , , , , , , , , , , , , , , , , , , , , , , , , , , , , , , , , , , , a#, , , , , , , , , , , , , , , , , S&9+y.P+d+9+8+8+C%c.l 1.l x#&&0#E+E+=+8+R+T&U&V&",
"W&X&R+#+x#~$Q+8+y@E+^.Y&f l.C##+n#8+y@E+9+9+8+N@' , , , , , , , , , , , , , , , , , , , , , , , , , , , , , , , , , , , , , , , , , , , , , , , , , , , , , , , , , , , , , , , , , a#, , , , , , , , , , , , , , , , , Z&C.C%P+x+E+y@0#H.h#D@6.`&m x#0#0#=+9+~$=+8+ *.*",
"+*E+8+B#n#R+y@=+#+w+R%m%v C.8+n#I.B##+9+P+y@B.o., , , , , , , , , , , , , , , , , , , , , , , , , , , , , , , , , , , , , , , , , , , , , , , , , , , , , , , , , , , , , , , , , , a#, , , , , , , , , , , , , , , , , @*B.P+s$9+Q+=+8+n#=+h##*5.$*D x#R+,+=+y@y@B#y@T&",
"n$#+B#x#0#&&8+0#2+k%3.%*&*Z$B#**k.{+&&M.Z$,&O.o ' , , , , , , , , , , , , , , , , , , , , , , , , , , , , , , , , , , , , , , , , , , , , , , , , , , , , , , , , , , , , , , , , , a#, , , , , , , , , , , , , , , , , =*3+C.P+E+E+=+8+8+=+[$C#^.m%-*v {+s$9+~$E+=+{+{+",
"{+d&B.0#~$~$B#D@m%6%m.U.C.B#{+k.n#y@Z$Z$x#K&;*q.>*, , , , , , , , , , , , , , , , , , , , , , , , , , , , , , , , , , , , , , , , , , , , , , , , , , , , , , , , , , , , , , , , , a#, , , , , , , , , , , , , , , , , ,*m D&#+y@C%~$B#{+8+x##+P+n.4.U%o.9+n$8+y@=+8+B.",
"l$w%n#8+Q+~$I.r+g m '*H.B.x#B#n#I.~$,&B##+p.p#)*!*~*, , , , , , , , , , , , , , , , , , , , , , , , , , , , , , , , , , , , , , , , , , , , , , , , , , , , , , , , , , , , , , , , a#, , , , , , , , , , , , , , , , , , {*m.x#C.M.8+B#B#8+B#:@x#K._$5.s H.M@{+y@~$B#k.",
"]***k.B#B#0#B.m@C@7.S+e@k.n#B#0#^*C.[$B#9+)@/*(*_*l :*, , , , , , , , , , , , , , , , , , , , , , , , , , , , , , , , , , , , , , , , , , , , , , , , , , , , , , , , , , , , , , , a#, , , , , , , , , , , , , , , , , , ' <*P+E+~$&&B#0#x#x#**&@P+6.5%m #+=+{+B#d&I.**",
"I.k.I.B#B#8+{+L%C@f -@K&B.:@w%B#[*x##+x#E+}*|*1*2*3*4*, , , , , , , , , , , , , , , , , , , , , , , , , , , , , , , , , , , , , , , , , , , , , , , , , , , , , , , , , , , , , , , e%, , , , , , , , , , , , , , , , , , , 5*6+C%Z$#+n#B#n#n#k.v@C.6*7.v#x.#+#+I.B#x#k.",
"B#B.I.d&n#B#=+!._$5.M%7*D&k.**n#x#H.K&n#=%8*9*0*a*b*c*, , , , , , , , , , , , , , , , , , , , , , , , , , , , , , , , , , , , , , , , , , , , , , , , , , , , , , , , , , , , , , , e%, , , , , , , , , , , , , , , , , , , d*e*~$I.H.x#x#x#***@&@H.6*p#n N.x#x#B.x#B#k.",
"f*w%0#8+n#k.#+9.p#5.w+:@n#n#**k.k.:@p.E@7+o&g*h*i*j*c*, , , , , , , , , , , , , , , , , , , , , , , , , , , , , , , , , , , , , , , , , , , , , , , , , , , , , , , , , , , , , , , A+, , , , , , , , , , , , , , , , , , , k*l*n#f x#n#I.w%v@z.*@x#Y@m*n K&B#B#8+#+B#w%",
"n*w%I.{+n#]*H.].m*5.w+&@I.k.**B.x#e@b#r+v+o&o*p*q*r*c*, , , , , , , , , , , , , , , , , , , , , , , , , , , , , , , , , , , , , , , , , , , , , , , , , , , , , , , , , , , , , , , A+, , , , , , , , , , , , , , , , , , , k**&B#&#8+x#**s**@H+&@x#3.l l D&l$8+8+B#n#e&",
"t*k.k.{+x#k.[$9._$f 3#&@B.B.x#B#{+K&p.N@u*v*w*x*y*z*c*, , , , , , , , , , , , , , , , , , , , , , , , , , , , , , , , , , , , , , , , , , , , , , , , , , , , , , , , , , , , , , , a#, , , , , , , , , , , , , , , , , , , k*A*#+%@Z$H.k.**s***k.[$k%l n B.[$B#8+#+B.B*",
"C*&@^*8+{+n#C.^.0.5.3#&@B.B.H.H.#+d.n.'@~$O+D*E*F*j*c*, , , , , , , , , , , , , , , , , , , , , , , , , , , , , , , , , , , , , , , , , , , , , , , , , , , , , , , , , , , , , , , a#, , , , , , , , , , , , , , , , , , , G*H*B*m*Z$x#x#n#*+w%k.#+3.l 0.x.#+{+H.=+B.n#",
"*+**B.8+B.B##+^.p#3.3#&@B.x#[$#+x#d.C#B#n$I*J*K*L*M*c*, , , , , , , , , , , , , , , , , , , , , , , , , , , , , , , , , , , , , , , , , , , , , , , , , , , , , , , , , , , , , , , a#, , , , , , , , , , , , , , , , , , , G*N*[*B.&&:@x#B#k.****[$3.l v#x.#+B.{+#+B#w%",
"k.k.k.{+H.R+=+3#m 3.M#&@I.x#x##+x#x#Z$&&v+O*P*Q*R*S*T*, , , , , , , , , , , , , , , , , , , , , , , , , , , , , , , , , , , , , , , , , , , , , , , , , , , , , , , , , , , , , , , a#, , , , , , , , , , , , , , , , , , , U*V*0#B#B#w.B.H.l$&@&@C.Y@l o x.B#B##+0#n#k.",
"k.k.v@x#H.C.#+3#p#f W*:@I.x#H.C.#+H.B#H.C.)@X*Y*Z*O+:*, , , , , , , , , , , , , , , , , , , , , , , , , , , , , , , , , , , , , , , , , , , , , , , , , , , , , , , , , , , , , , , a#, , , , , , , , , , , , , , , , , , , `*&@B#w%B#c+B.#+B.v.:@L.f i o x.=+#+M.{+n#z.",
"*@*@**n#&&H.B.N@p#5.u.O.B.l$x##+B.H.x#C.B#**a. =.=c*, , , , , , , , , , , , , , , , , , , , , , , , , , , , , , , , , , , , , , , , , , , , , , , , , , , , , , , , , , , , , , , , e%, , , , , , , , , , , , , , , , , , +=W%[$#+x##+B.B.C.H.D&B.K&f m @=x.=+x.=+#+B.v@",
":@v@k.n#I.B.B.O.T.5%v#H+B.x#n#I.:@x#x.H.I.D&K&#=$=, , , , , , , , , , , , , , , , , , , , , , , , , , , , , , , , , , , , , , , , , , , , , , , , , , , , , , , , , , , , , , , , , a#, , , , , , , , , , , , , , , , , %=M%&=l$x#C.H.&@:@#+x#:@D&t Y@_$9.x.C.H.8+B.B.:@",
"v@v@I.&@****I.h#*=B ==m O.B.l$l$k.B.c+#+x#H.B.a.z+, , , , , , , , , , , , , , , , , , , , , , , , , , , , , , , , , , , , , , , , , , , , , , , , , , , , , , , , , , , , , , , , , e%, , , , , , , , , , , , , , , , , -=c K&;=C.#+H.:@:@x#H.v.n.R%'.n.U.x.#+n#x#l$w.w.",
"w%l$k.&@k.k.k.x#y.a.l X r :@x#l$B.x##+#+#+x#O.P.>=, , , , , , , , , , , , , , , , , , , , , , , , , , , , , , , , , , , , , , , , , , , , , , , , , , , , , , , , , , , , , , , , , a#, , , , , , , , , , , , , , , , , ,=D@l$H.#+B#H.:@D&K&c+L%R%'=)=K.[$x#{+B.l$k.!=B.",
"~=*+**w%w%I.****B.P+#=R#X p.:@B.x#c+C.H.x#H.:@n.%=, , , , , , , , , , , , , , , , , , , , , , , , , , , , , , , , , , , , , , , , , , , , , , , , , , , , , , , , , , , , , , , , , e%, , , , , , , , , , , , , , , , , {=O.[$#+&&B#{+w.B.d.N@2.k%C@N.x.H.B.H.H.H.B.I.]=",
"^=/=k.k.n#w%n#k.:@l$Z$(=_=i&P.l$K&c+x.x#x#B.:@^.:=, , , , , , , , , , , , , , , , , , , , , , , , , , , , , , , , , , , , , , , , , , , , , , , , , , , , , , , , , , , , , , , , , A+, , , , , , , , , , , , , , , , , <=v.B.B.#+#+#+K&B.u.r.3.m i.l$l$B#B.H.B.d.l$[=}=",
"|=1=2=M@8+B#B#n#B.:@D&K.@&3.X P.h.B.H.B.H.x#D@!.3=, , , , , , , , , , , , , , , , , , , , , , , , , , , , , , , , , , , , , , , , , , , , , , , , , , , , , , , , , , , , , , , , , 0 , , , , , , , , , , , , , , , , , 4=i.B.B.B.d.d.K&N@6%2.p#S+O.**x##+H.B.&@H.=%.%5=",
"6=7=8=9=0#B#B#B#B.B.e@B.[$}$k%W t O.w.d.x#B.4@!.0=, , , , , , , , , , , , , , , , , , , , , , , , , , , , , , , , , , , , , , , , , , , , , , , , , , , , , , , , , , , , , , , , , A+, , , , , , , , , , , , , , , , , a=e@K&w.B.x#:@4@m%2.G h.K&f@v@B.x.x#x#l$x#b=c=d=",
"e=f=g=h=d&{+B.k.l$k.:@v.i.i=C@R%W 9.e@D&:@:@4@^.0=, , , , , , , , , , , , , , , , , , , , , , , , , , , , , , , , , , , , , , , , , , , , , , , , , , , , , , , , , , , , , , , , , A+, , , , , , , , , , , , , , , , , a=`%l$B.H.x#4@f s.l W%w.l$H+v.B.B#k.B#B#j=k=l=m=",
"n=o=p=q=r=`$B.:@l$l$B.:@v.K&K&s=2.i&!.v.:@D&f@m@0=, , , , , , , , , , , , , , , , , , , , , , , , , , , , , , , , , , , , , , , , , , , , , , , , , , , , , , , , , , , , , , , , , A+, , , , , , , , , , , , , , , , , a=e@:@B.B.O.6.==7.2%w.i.&@O.:@l$x##+R+t=u=v=w=x=",
"D&$$y=z=A=B=*+D&O.D&B.:@D&w.i.i.B R%C=3#e@D&-@2%D=, , , , , , , , , , , , , , , , , , , , , , , , , , , , , , , , , , , , , , , , , , , , , , , , , , , , , , , , , , , , , , , , , A+, , , , , , , , , , , , , , , , , E=c.:@:@O.l 7&j&3#d.K&:@:@:@v.B.#+0#F=G=H=I=K#B#",
"f@v.J=K=L=M=N=0#:@K&K&B.B.w.`%/+S+G O=2.2%:@4@L%0=, , , , , , , , , , , , , , , , , , , , , , , , , , , , , , , , , , , , , , , , , , , , , , , , , , , , , , , , , , , , , , , , , A+, , , , , , , , , , , , , , , , , P=h.O.O.C@1.7.^.c+:@D&v.w.:@K&x#&&Q=R=S=T=U=x#2+",
"%$f@e&q%V=W=X=/=k.K&i.:@:@e@O.e@d.w+l X 6%u.w+!.0=, , , , , , , , , , , , , , , , , , , , , , , , , , , , , , , , , , , , , , , , , , , , , , , , , , , , , , , , , , , , , , , , , A+, , , , , , , , , , , , , , , , , P=W%h.0.`&6.^.x.e@H+O.:@B.x#B.B#[=i$Y=Z=`=~$4@I@",
"v.h.D@~$ -.-+-@-W@c.w.:@w.:@D@h.h.d.u.7.-*4.u.!.0=, , , , , , , , , , , , , , , , , , , , , , , , , , , , , , , , , , , , , , , , , , , , , , , , , , , , , , , , , , , , , , , , , A+, , , , , , , , , , , , , , , , , #-c.l.R '=$-K.O.f@H+e@e@w.l$:@c.%-&-Z=*-s$O.4@4@",
"f@c.c.&@=%=---;-Y@2%v.&@e@i.e@v.4@-@B.9.E$X a.L%0=, , , , , , , , , , , , , , , , , , , , , , , , , , , , , , , , , , , , , , , , , , , , , , , , , , , , , , , , , , , , , , , , , A+, , , , , , , , , , , , , , , , , #-h.s >-l K.c.f@D@w.B.l$e@e@O.0.,-'-)-v+e@O.H+w+",
"9.H+O.H+e@H.K&B >-E$u.-@e@e@e@h.W%W%-@p.3.1.L%9.0=, , , , , , , , , , , , , , , , , , , , , , , , , , , , , , , , , , , , , , , , , , , , , , , , , , , , , , , , , , , , , , , , , A+, , , , , , , , , , , , , , , , , !-f@U#3.6%-@O.D@v@l$x#:@>&D@Y+k%_$v@9+x#:@O.w+!.",
"C@].w+f@4@v.'#h.C@6%R#u.O.e@v.H+f@4@W%s k%1.!.^.0=, , , , , , , , , , , , , , , , , , , , , , , , , , , , , , , , , , , , , , , , , , , , , , , , , , , , , , , , , , , , , , , , , A+, , , , , , , , , , , , , , , , , ~--@B >-X w+4@4@H+:@B.v.c.s k%l i#=+w.l$:@f@!.0.",
"'+l ].w+-@f@v.[$-@l 1.j f@:@D&H+4@D@-@Y+k%X {-4#]-, , , , , , , , , , , , , , , , , , , , , , , , , , , , , , , , , , , , , , , , , , , , , , , , , , , , , , , , , , , , , , , , , A+, , , , , , , , , , , , , , , , , ^-/-0.>-X w+H+w+'@O.(-e@n.R%j&^.U.B.&@z.%$w+B P.",
"4@n.0.N@h.a.w+i.L.2+%@1.S.D@c.H+-@D@O.t _-R ^.9.]-, , , , , , , , , , , , , , , , , , , , , , , , , , , , , , , , , , , , , , , , , , , , , , , , , , , , , , , , , , , , , , , , , A+, , , , , , , , , , , , , , , , , ^-f@C@>-X 4@4@W@W@4@v.w+r.f :-C.d.e@H+-@4@P.p.4@",
"4@r+(=B -@H+4@O.i.x.j&<-v h.D@{$w+f@f@[->-S !.#=}-, , , , , , , , , , , , , , , , , , , , , , , , , , , , , , , , , , , , , , , , , , , , , , , , , , , , , , , , , , , , , , , , , A+, , , , , , , , , , , , , , , , , ^-w+l X%R 2+'@'@u.u.O.u.|-j.l$H.B.v@H+O.P.p.r+4@",
"4@a.1-2-2%W%f@W%v.!=3-4-5--@-@w+u.f@4@@&>-W ^.9.}-, , , , , , , , , , , , , , , , , , , , , , , , , , , , , , , , , , , , , , , , , , , , , , , , , , , , , , , , , , , , , , , , , A+, , , , , , , , , , , , , , , , , ^-w+l s.S u.2+'@4@H+e@z.6-7-8-:@;=&@O.H+m G+W@4@",
"W@s+m@9-(=3+4@2+v.8+0-a-b-c--@-@4@H+4@C k%S !.].]-, , , , , , , , , , , , , , , , , , , , , , , , , , , , , , , , , , , , , , , , , , , , , , , , , , , , , , , , , , , , , , , , , 0 , , , , , , , , , , , , , , , , , d-e-l ==f-N@4@'@4@v@:@g-h-i-j-B.k-I@H+4@T.l-r+H+",
"r+m-n-)=u 3+a.N@-@{+o-p-q-4@h.c.h.-@-@v k%f-^.8.}-, , , , , , , , , , , , , , , , , , , , , , , , , , , , , , , , , , , , , , , , , , , , , , , , , , , , , , , , , , , , , , , , , 0 , , , , , , , , , , , , , , , , , d-w+m s.S N@4@w+z@4@O.r-s-t-u-I.v@{$'@'@b#L%3+H+",
"r+r+m@@&].2+N@m@H+$+v-w-x-'@c-c.h.v.h.@&k%R ^.S.}-, , , , , , , , , , , , , , , , , , , , , , , , , , , , , , , , , , , , , , , , , , , , , , , , , , , , , , , , , , , , , , , , , 0 , , , , , , , , , , , , , , , , , y-u.l _-S N@4@a.'@w+f@r-z-A-u-k.4@'@w+4@B N@4@v@",
"W@r+m@Y+P.N@3+W@-@{+B-C-D-E@W%c.E-O.c.B 6%R 4#R.}-, , , , , , , , , , , , , , , , , , , , , , , , , , , , , , , , , , , , , , , , , , , , , , , , , , , , , , , , , , , , , , , , , 0 , , , , , , , , , , , , , , , , , F-u.l >-S N@a.3+N@N@4@r-G-H-I-**4@'@W@2+p#W@w+4@",
"{$r+m@,#t m@a.2+N@!=J-K-L-E@W%h.O.v@O.U#>-W R.P.}-, , , , , , , , , , , , , , , , , , , , , , , , , , , , , , , , , , , , , , , , , , , , , , , , , , , , , , , , , , , , , , , , , 0 , , , , , , , , , , , , , , , , , F-4@l M-f-2%3+m@N@3+T@N-O-P-I-]*4@'@W@w+m u.a.'@",
"'@3+Q-Y+R-S-W@a.W@I.T-U-x-T@w+4@v.v@4@Y+>-V-8.l.}-, , , , , , , , , , , , , , , , , , , , , , , , , , , , , , , , , , , , , , , , , , , , , , , , , , , , , , , , , , , , , , , , , 0 , , , , , , , , , , , , , , , , , y-w+l 7&S m@3+a.W@3+T@W-X-Y-I-Z-4@r+.#w+m W@w+N@",
"r+m@L%,#R.u.W@r+w+:@`- ;.;r+2+-@O.H+w+Y++;V-].P.}-, , , , , , , , , , , , , , , , , , , , , , , , , , , , , , , , , , , , , , , , , , , , , , , , , , , , , , , , , , , , , , , , , A+, , , , , , , , , , , , , , , , , @;w+m X%#;2%W@'@4@4@T@$;%;H-&;H+W@*;'@f@i W@c-W@",
"m@m@!.@&8.w+N@m@f@:@=;-;;;*;a.W%D@4@w+:-+;V-4#P.}-, , , , , , , , , , , , , , , , , , , , , , , , , , , , , , , , , , , , , , , , , , , , , , , , , , , , , , , , , , , , , , , , , 0 , , , , , , , , , , , , , , , , , >;e-C@X%,;2%{$w+4@w+.#';);!;~;4@w+r+w+w+l 2%c-u.",
"3+m@m@U#].c-u.w+H+{;];^;/;L%N@w+W%f@w+:->-V-4#R-}-, , , , , , , , , , , , , , , , , , , , , , , , , , , , , , , , , , , , , , , , , , , , , , , , , , , , , , , , , , , , , , , , , 0 , , , , , , , , , , , , , , , , , (;u.C@1._;N@4@a.:;W@N@<;[;};|;r+w+m@3+W@l ^.w+u.",
"3+r+l-b#R-u.c-w+w+Z+1;2;3;!.N@2%W@'@2+u 4;,;9.Q.}-, , , , , , , , , , , , , , , , , , , , , , , , , , , , , , , , , , , , , , , , , , , , , , , , , , , , , , , , , , , , , , , , , 0 , , , , , , , , , , , , , , , , , @;u.C@X ,;w+4@W@w+3+m@5;6;7;8;!.u.m@!.N@l ^.w+N@",
"m@!.G+9;V%2%w+4@v@n%0;a;b;c;N@2%N@r+N@@&>-V-o.P.}-, , , , , , , , , , , , , , , , , , , , , , , , , , , , , , , , , , , , , , , , , , , , , , , , , , , , , , , , , , , , , , , , , 0 , , , , , , , , , , , , , , , , , d;3+m e;_;u.4@2+W@N@2+f;g;h;i;e&a.L%3+N@l !.2+N@",
"l-Q-G+T.v N@2%m@a.*+j;k;l;!.N@e-a.a.^.B X%V-^.m;}-, , , , , , , , , , , , , , , , , , , , , , , , , , , , , , , , , , , , , , , , , , , , , , , , , , , , , , , , , , , , , , , , , 0 , , , , , , , , , , , , , , , , , n;o;h `&_;u.H+4@w+4@4@X$p;q;r;z.m@Q-l-2%l 2%a.L%",
"G+m@G+T.v N@m@L%N@s;t;u;.;m@S-S-2%u.L%C@==_;9.P.v;, , , , , , , , , , , , , , , , , , , , , , , , , , , , , , , , , , , , , , , , , , , , , , , , , , , , , , , , , , , , , , , , , 0 , , , , , , , , , , , , , , , , , n;o;l 1.#;u.H+'@w+2+4@w;x;y;r=4@!.m@l-N@l 9.!.1-",
"Q-m@G+C@l.!.L%L%N@z;t;A;q-r+W*e-2%2%^./#7&,;R-Q.v;, , , , , , , , , , , , , , , , , , , , , , , , , , , , , , , , , , , , , , , , , , , , , , , , , , , , , , , , , , , , , , , , , 0 , , , , , , , , , , , , , , , , , n;2%5%1.#;3#'@r+N@3+'@B;X-C;D;E@!.3+L%G+5%n.G+l-",
"Q-G+#=/#S.9.!.3+3+s;E;F;G;4@-@w+u.2%9.p#X%,;m;Q.v;, , , , , , , , , , , , , , , , , , , , , , , , , , , , , , , , , , , , , , , , , , , , , , , , , , , , , , , , , , , , , , , , , H;, , , , , , , , , , , , , , , , , I;!.%@X ,;!.2%L%m@!.m@j=J;K;&;4@r+a.W@!.%@(=].9.",
"G+'+#=_$R-g+!.3+3+w%T-L;G;4@W%e-u.W@!.m ==,;8.8.v;, , , , , , , , , , , , , , , , , , , , , , , , , , , , , , , , , , , , , , , , , , , , , , , , , , , , , , , , , , , , , , , , , H;, , , , , , , , , , , , , , , , , M;!.5.R ,;^.2%m@G+'+m@N;J;O;P;Q;W@'@3+2%6.].].l-",
"l-'+9.0.S.^.!.!.3+w%T-R;S;E@c-W*2%N@!.0.C=V-9.T;v;, , , , , , , , , , , , , , , , , , , , , , , , , , , , , , , , , , , , , , , , , , , , , , , , , , , , , , , , , , , , , , , , , H;, , , , , , , , , , , , , , , , , M;3#g X ,;^.L%l-^.!.1-U;J;O;V;Q;a.N@W@W@5%9.].^.",
"T._$u B t ^.m@!.W@w%W;U-q-r+w+w+W*o;^.U#U%,;R&R-X;, , , , , , , , , , , , , , , , , , , , , , , , , , , , , , , , , , , , , , , , , , , , , , , , , , , , , , , , , , , , , , , , , H;, , , , , , , , , , , , , , , , , Y;!.f S Z;^.G+9.L%!.r+`; >.>&;z@N@u.w+W@7.n.l Y+",
"+>>-P.T.p.9.Q-^.u.k.@>#>$>m@e-w+N@2%!.B ==,;8.Q.X;, , , , , , , , , , , , , , , , , , , , , , , , , , , , , , , , , , , , , , , , , , , , , , , , , , , , , , , , , , , , , , , , , H;, , , , , , , , , , , , , , , , , %>o;g W &>^.Q-9.!.L%L%U;X-*>=>T@N@3+2%N@7.P.q.4.",
"i&Z%b#p#p.^.G+9.m@k-->;>>>m@e-u.2%m@L%0.==,;P.S.X;, , , , , , , , , , , , , , , , , , , , , , , , , , , , , , , , , , , , , , , , , , , , , , , , , , , , , , , , , , , , , , , , , H;, , , , , , , , , , , , , , , , , {*^.5.S ,>!.L%L%N@N@3+';X-'>=>'@2%!.!.2%7.v 3.)>",
"E$6%@&p#l.N@L%l-N@%$!>~>{>m@u.w+!.!.#=}$7&,;m;]>X;, , , , , , , , , , , , , , , , , , , , , , , , , , , , , , , , , , , , , , , , , , , , , , , , , , , , , , , , , , , , , , , , , H;, , , , , , , , , , , , , , , , , ^>4#4.`&_;^.!.N@u.u.W@/>(>_>:>w+m@G+^.2%j u 5.m%",
"0._$$-s ].u.m@N@w+4@<>[>}>!.N@u.^.!.].p#==W 8.s X;, , , , , , , , , , , , , , , , , , , , , , , , , , , , , , , , , , , , , , , , , , , , , , , , , , , , , , , , , , , , , , , , , H;, , , , , , , , , , , , , , , , , |>].f 1.f-o.^.L%2%u.r+1>A&2>3>W%2%G+2%N@6.3#0.s=",
"5.q.l m 3#N@!.u.c-!.4>5>6>!.2%!.9.^.].p#>-s o;V%X;, , , , , , , , , , , , , , , , , , , , , , , , , , , , , , , , , , , , , , , , , , , , , , , , , , , , , , , , , , , , , , , , , H;, , , , , , , , , , , , , , , , , |>R.t 3.f-R.!.^.3+N@!.K@7>8>9>W*{-^.3+W*s=C@l k%",
"s*0>a>-@o;2%^.w+].b>H%3;m*].!.9.].9.#=_$h H+!.s X;, , , , , , , , , , , , , , , , , , , , , , , , , , , , , , , , , , , , , , , , , , , , , , , , , , , , , , , , , , , , , , , , , H;, , , , , , , , , , , , , , , , , c>P.2%s 1.#=^.m@W@m@#=2-d>e>f>s 2%3+u.N@m@g>h>i>",
"#=#=!.^.!.2%!.w+n.j>k>Q&l ].!.].#=#=n.p#g 9.^.s X;, , , , , , , , , , , , , , , , , , , , , , , , , , , , , , , , , , , , , , , , , , , , , , , , , , , , , , , , , , , , , , , , , H;, , , , , , , , , , , , , , , , , l>9.4#0.X ].9.l-N@N@#=m>n>o>p>0.W*u.u.e-G+!.!.m@",
"].].2%u.9.^.!.2%t M-q>%@m ].^.].#=n.n.p#f #=9.A r>, , , , , , , , , , , , , , , , , , , , , , , , , , , , , , , , , , , , , , , , , , , , , , , , , , , , , , , , , , , , , , , , , H;, , , , , , , , , , , , , , , , , s>].9.C@S ].].9.m@N@#=9;M-3.M-h !.N@N@3+u.2%!.!.",
"!.N@u.!.9.].g+^.v t>u>7.m ].!.].P.R.P.l f n.].D r>, , , , , , , , , , , , , , , , , , , , , , , , , , , , , , , , , , , , , , , , , , , , , , , , , , , , , , , , , , , , , , , , , H;, , , , , , , , , , , , , , , , , v>].].h S n.9.n.^.2%].Y+_-Y@7&m 4#2%!.N@e-W*3+N@",
"N@w+2%^.^.].].].v 7&#;j&G R.].].P.P.w>l 5.t ].o r>, , , , , , , , , , , , , , , , , , , , , , , , , , , , , , , , , , , , , , , , , , , , , , , , , , , , , , , , , , , , , , , , , H;, , , , , , , , , , , , , , , , , x>m;R.i S n.].P.8.2%].r k%Y@X%C@3+3+2%{-2%^.c-N@",
"N@3+!.^.g+].n.8.s 1.q>%@j S.].).t P.P.l 4.u R-h y>, , , , , , , , , , , , , , , , , , , , , , , , , , , , , , , , , , , , , , , , , , , , , , , , , , , , , , , , , , , , , , , , , H;, , , , , , , , , , , , , , , , , x>].R.h V-t P.w>n.].n.r z>3.R%m ^.{-{-S-{-W@w+W*",
"{-{-^.!.!.^.9.n.@&1.#;6.l u n.t p.u t.l m%u R-h y>, , , , , , , , , , , , , , , , , , , , , , , , , , , , , , , , , , , , , , , , , , , , , , , , , , , , , , , , , , , , , , , , , H;, , , , , , , , , , , , , , , , , x>].P.l #;t n.P.).t p.T.k%Y@R%l R.].].^.g+S-2%o;",
"9.!.!.^.].R.].R.s m%k%m l v R-t v t v 7.3.v u h y>, , , , , , , , , , , , , , , , , , , , , , , , , , , , , , , , , , , , , , , , , , , , , , , , , , , , , , , , , , , , , , , , , H;, , , , , , , , , , , , , , , , , A>S.t l W l.P.u A.p.p.C@3.j R#m P.P.].].g+^.W*2%",
"].R.4#^.R.R-n.R.s k%l 0.h v B>u p.u Y+7.4.s v h y>, , , , , , , , , , , , , , , , , , , , , , , , , , , , , , , , , , , , , , , , , , , , , , , , , , , , , , , , , , , , , , , , , y>, , , , , , , , , , , , , , , , , C>v v l S p.l.p.A.p.s C@l V%6.m P.u t P.n.9.^.4#",
"].].4#n.P.u Q.y+s Y@D>A l s u @+E>u @+6.3.V%v h y>, , , , , , , , , , , , , , , , , , , , , , , , , , , , , , , , , , , , , , , , , , , , , , , , , , , , , , , , , , , , , , , , , y>, , , , , , , , , , , , , , , , , F>v v l S p.t u p.u p.B h e.5.v#/-t t u t n.n.].",
"u u u u v s V%]>h 6%R#Z%@&@&v E>r @&u f r.s v j y>, , , , , , , , , , , , , , , , , , , , , , , , , , , , , , , , , , , , , , , , , , , , , , , , , , , , , , , , , , , , , , , , , y>, , , , , , , , , , , , , , , , , G>V%v 6._;t u p.u u Y+@&f m%k%7.m;s Y+@&v l.u E>",
",;#;`&U%6%2.C=s.6%7.p#v Y+B p 0.C@H>A r.I>s v j y>, , , , , , , , , , , , , , , , , , , , , , , , , , , , , , , , , , , , , , , , , , , , , , , , , , , , , , , , , , , , , , , , , y>, , , , , , , , , , , , , , , , , G>v J>j #;P.m l U#m.0.m.s '.p#3.2.1.1.s.==X S _;",
"[.K>K>L>K>K>M>K>L>K>M>K>[.N>O>|.[.[.P>Q>3.Y+r g y>, , , , , , , , , , , , , , , , , , , , , , , , , , , , , , , , , , , , , , , , , , , , , , , , , , , , , , , , , , , , , , , , , y>, , , , , , , , , , , , , , , , , R>r r q.S>T>U>[.N>V>N>[.U>K>W>W>W>L>K>K>M>[.N>U>",
"Y X>X>S S S S e;e;S S 1.>-M-Y>e;e;n>Z>`> ,5%f C=y>, , , , , , , , , , , , , , , , , , , , , , , , , , , , , , , , , , , , , , , , , , , , , , , , , , , , , , , , , , , , , , , , , y>, , , , , , , , , , , , , , , , , .,E$g '=+,@,#,M-1.Y>R X>e;Y>1.7&+;7&1.Y X>e;S S ",
"W%$,$,S+i.[@i.[@i.[ i.[ i.i.c.$,/-W%f@H+h.c.i.`%' , , , , , , , , , , , , , , , , , , , , , , , , , , , , , , , , , , , , , , , , , , , , , , , , , , , , , , , , , , , , , , , , , 0 , , , , , , , , , , , , , , , , , %,&,c.e@K&O.h.w.i.c [@>&e@e@:@e@*,c [@$,=,: -@W%",
"@*-,@*-,;,>,,,>,',',',),!,!,-,@*~,{,@*@*@*],,,^,:*, , , , , , , , , , , , , , , , , , , , , , , , , , , , , , , , , , , , , , , , , , , , , , , , , , , , , , , , , , , , , , , , , H;, , , , , , , , , , , , , , , , , /,-,],],(,(,(,!,;,_,:,!,>,<,(,!,',[,;,),},!,-,@*"};
