/* XPM */
static char * so_door24_tex_xpm[] = {
"132 132 1396 2",
"  	c #2E3842",
". 	c #2E3841",
"+ 	c #2E3943",
"@ 	c #2F3A45",
"# 	c #2F3B46",
"$ 	c #2F3944",
"% 	c #2F3A46",
"& 	c #303C46",
"* 	c #303B46",
"= 	c #303C47",
"- 	c #303A45",
"; 	c #313D4A",
"> 	c #313E4A",
", 	c #323E4A",
"' 	c #323F4A",
") 	c #313D48",
"! 	c #35393C",
"~ 	c #393939",
"{ 	c #303B45",
"] 	c #323F4B",
"^ 	c #313D49",
"/ 	c #303C48",
"( 	c #2E3843",
"_ 	c #2E3A44",
": 	c #263746",
"< 	c #263645",
"[ 	c #273645",
"} 	c #283847",
"| 	c #283948",
"1 	c #293A49",
"2 	c #283949",
"3 	c #273848",
"4 	c #293B4A",
"5 	c #293949",
"6 	c #293B4B",
"7 	c #293A4A",
"8 	c #2A3B4B",
"9 	c #2A3B4A",
"0 	c #2B3D4C",
"a 	c #2C3F4F",
"b 	c #2D3F4F",
"c 	c #2C3F50",
"d 	c #2D4151",
"e 	c #2C3D4C",
"f 	c #33393E",
"g 	c #2B3C4B",
"h 	c #2A3C4B",
"i 	c #293C4B",
"j 	c #2D4050",
"k 	c #273847",
"l 	c #283848",
"m 	c #283A49",
"n 	c #273948",
"o 	c #273947",
"p 	c #19242F",
"q 	c #192530",
"r 	c #1A2630",
"s 	c #1A2732",
"t 	c #1A2631",
"u 	c #1A2833",
"v 	c #18252F",
"w 	c #1B2833",
"x 	c #1B2834",
"y 	c #1A2733",
"z 	c #1B2934",
"A 	c #1C2934",
"B 	c #1C2A35",
"C 	c #1C2A36",
"D 	c #1D2A36",
"E 	c #1D2B38",
"F 	c #1E2D39",
"G 	c #1F2F3C",
"H 	c #1F2E3B",
"I 	c #1F2E3A",
"J 	c #1F2C39",
"K 	c #313437",
"L 	c #303337",
"M 	c #1F2C38",
"N 	c #1E2C38",
"O 	c #1C2B37",
"P 	c #1D2D3A",
"Q 	c #1D2B37",
"R 	c #1C2935",
"S 	c #1B2733",
"T 	c #1B2933",
"U 	c #1A2632",
"V 	c #1A2731",
"W 	c #192631",
"X 	c #192630",
"Y 	c #070D12",
"Z 	c #080D12",
"` 	c #070D13",
" .	c #080E12",
"..	c #080E13",
"+.	c #080F14",
"@.	c #080D13",
"#.	c #080E14",
"$.	c #090E14",
"%.	c #091015",
"&.	c #09131B",
"*.	c #091C2B",
"=.	c #0F1E29",
"-.	c #131F27",
";.	c #131E27",
">.	c #131C24",
",.	c #2F3031",
"'.	c #2E2F31",
").	c #131E26",
"!.	c #141F28",
"~.	c #121E27",
"{.	c #091C29",
"].	c #08151F",
"^.	c #081015",
"/.	c #090F14",
"(.	c #090F15",
"_.	c #0C141B",
":.	c #0C141A",
"<.	c #0D151C",
"[.	c #0E171E",
"}.	c #0B1218",
"|.	c #0B1319",
"1.	c #0B131A",
"2.	c #0D151B",
"3.	c #0C151B",
"4.	c #0A1117",
"5.	c #0A1116",
"6.	c #0C1319",
"7.	c #0E1821",
"8.	c #0F1E2A",
"9.	c #192733",
"0.	c #20303E",
"a.	c #223341",
"b.	c #303336",
"c.	c #2F3236",
"d.	c #21313F",
"e.	c #223340",
"f.	c #101E28",
"g.	c #0E1A23",
"h.	c #0B151B",
"i.	c #0A1218",
"j.	c #0F161E",
"k.	c #0E161D",
"l.	c #0D161C",
"m.	c #0E171D",
"n.	c #0F181F",
"o.	c #131D27",
"p.	c #142028",
"q.	c #14202A",
"r.	c #142029",
"s.	c #16212B",
"t.	c #15222C",
"u.	c #15212B",
"v.	c #16222B",
"w.	c #17232D",
"x.	c #18242E",
"y.	c #182530",
"z.	c #192732",
"A.	c #21313E",
"B.	c #21323F",
"C.	c #1C2B36",
"D.	c #233644",
"E.	c #1E303F",
"F.	c #293C4C",
"G.	c #233340",
"H.	c #313438",
"I.	c #2F3337",
"J.	c #263947",
"K.	c #283B4A",
"L.	c #192834",
"M.	c #263B4B",
"N.	c #1F2F3B",
"O.	c #1D2C38",
"P.	c #20313E",
"Q.	c #22333F",
"R.	c #1E2E3A",
"S.	c #192731",
"T.	c #17222D",
"U.	c #16222C",
"V.	c #15212C",
"W.	c #16232D",
"X.	c #15202A",
"Y.	c #182631",
"Z.	c #1A2934",
"`.	c #1B2935",
" +	c #1F303C",
".+	c #243644",
"++	c #273949",
"@+	c #283B4B",
"#+	c #2A3E4E",
"$+	c #2C4253",
"%+	c #243847",
"&+	c #1E2E3B",
"*+	c #283C4C",
"=+	c #2A3F4F",
"-+	c #243442",
";+	c #313538",
">+	c #303438",
",+	c #283A4B",
"'+	c #293D4D",
")+	c #273B4C",
"!+	c #2D4253",
"~+	c #2B4050",
"{+	c #2B3F4F",
"]+	c #2B4051",
"^+	c #2A3E4D",
"/+	c #263948",
"(+	c #20303D",
"_+	c #202F3B",
":+	c #21303E",
"<+	c #20303C",
"[+	c #1B2A36",
"}+	c #1C2B38",
"|+	c #1D2C39",
"1+	c #192632",
"2+	c #2C4152",
"3+	c #2A3F4E",
"4+	c #2E4354",
"5+	c #2E4455",
"6+	c #2D4353",
"7+	c #2F4456",
"8+	c #2D4354",
"9+	c #2D4454",
"0+	c #32485A",
"a+	c #324A5C",
"b+	c #32495B",
"c+	c #32495C",
"d+	c #31485B",
"e+	c #31485A",
"f+	c #2C4354",
"g+	c #1E303E",
"h+	c #1E2D3A",
"i+	c #293E4E",
"j+	c #2A3E4F",
"k+	c #2E4557",
"l+	c #263C4C",
"m+	c #2A3F50",
"n+	c #263744",
"o+	c #323639",
"p+	c #303539",
"q+	c #2B4153",
"r+	c #203240",
"s+	c #2D4355",
"t+	c #293D4E",
"u+	c #2B3F51",
"v+	c #1F2F3D",
"w+	c #293D4B",
"x+	c #344B5E",
"y+	c #314658",
"z+	c #314859",
"A+	c #2F4557",
"B+	c #304658",
"C+	c #2D4252",
"D+	c #2B4151",
"E+	c #2B3F50",
"F+	c #2E4355",
"G+	c #2E4353",
"H+	c #2B4152",
"I+	c #304759",
"J+	c #344C5F",
"K+	c #2D4457",
"L+	c #1E313F",
"M+	c #243745",
"N+	c #233443",
"O+	c #2A3D4E",
"P+	c #2E4558",
"Q+	c #2E4659",
"R+	c #294052",
"S+	c #293E4F",
"T+	c #2B4052",
"U+	c #273745",
"V+	c #32363A",
"W+	c #30353A",
"X+	c #293D4C",
"Y+	c #2C4355",
"Z+	c #213443",
"`+	c #2F4558",
" @	c #223240",
".@	c #374F62",
"+@	c #2E4456",
"@@	c #2F4457",
"#@	c #2D4455",
"$@	c #2B3E4F",
"%@	c #304558",
"&@	c #2E4457",
"*@	c #2D4152",
"=@	c #30485B",
"-@	c #31495D",
";@	c #2D4659",
">@	c #1F3342",
",@	c #223543",
"'@	c #223542",
")@	c #2D4557",
"!@	c #30475A",
"~@	c #2B4254",
"{@	c #243645",
"]@	c #2C4254",
"^@	c #273846",
"/@	c #33373B",
"(@	c #30363B",
"_@	c #213343",
":@	c #2F4659",
"<@	c #2A4052",
"[@	c #2C4153",
"}@	c #213240",
"|@	c #253847",
"1@	c #223645",
"2@	c #31485C",
"3@	c #30485A",
"4@	c #31495C",
"5@	c #31475A",
"6@	c #2E4658",
"7@	c #2D4254",
"8@	c #304659",
"9@	c #32495D",
"0@	c #324A5E",
"a@	c #1B2F3D",
"b@	c #2A3F51",
"c@	c #293E50",
"d@	c #30373C",
"e@	c #203341",
"f@	c #32495E",
"g@	c #1A2B38",
"h@	c #30495C",
"i@	c #324A5D",
"j@	c #334B5E",
"k@	c #2F4658",
"l@	c #314759",
"m@	c #334A5E",
"n@	c #344C60",
"o@	c #324B5F",
"p@	c #334C61",
"q@	c #2E485B",
"r@	c #1D3140",
"s@	c #263A49",
"t@	c #253949",
"u@	c #2D4356",
"v@	c #253846",
"w@	c #33373C",
"x@	c #30373D",
"y@	c #1F303F",
"z@	c #233645",
"A@	c #1D2E3B",
"B@	c #334A5D",
"C@	c #344D61",
"D@	c #334B5F",
"E@	c #334C60",
"F@	c #344D62",
"G@	c #314A5F",
"H@	c #1F3241",
"I@	c #273A4A",
"J@	c #2D4357",
"K@	c #34383D",
"L@	c #31383F",
"M@	c #1F303E",
"N@	c #243746",
"O@	c #1E2F3D",
"P@	c #324A5F",
"Q@	c #30475B",
"R@	c #344D60",
"S@	c #354E61",
"T@	c #354D61",
"U@	c #344E62",
"V@	c #354D62",
"W@	c #324C5F",
"X@	c #2F485C",
"Y@	c #1F3140",
"Z@	c #1A2834",
"`@	c #273A49",
" #	c #253746",
".#	c #2E4458",
"+#	c #34393D",
"@#	c #31393F",
"##	c #1E303D",
"$#	c #2D4558",
"%#	c #2C4052",
"&#	c #223442",
"*#	c #314A5E",
"=#	c #344C61",
"-#	c #354E62",
";#	c #354E63",
">#	c #334D61",
",#	c #2F495D",
"'#	c #203140",
")#	c #253948",
"!#	c #35393D",
"~#	c #313940",
"{#	c #2A4051",
"]#	c #233746",
"^#	c #2C4252",
"/#	c #334B60",
"(#	c #2F475B",
"_#	c #1B2A35",
":#	c #253947",
"<#	c #233545",
"[#	c #1C2B39",
"}#	c #2B4154",
"|#	c #2D4456",
"1#	c #243846",
"2#	c #344B60",
"3#	c #1E3140",
"4#	c #253747",
"5#	c #283E4F",
"6#	c #233543",
"7#	c #35393E",
"8#	c #313A41",
"9#	c #293D4F",
"0#	c #1B2C39",
"a#	c #233646",
"b#	c #30465A",
"c#	c #17242E",
"d#	c #203444",
"e#	c #233544",
"f#	c #2F475A",
"g#	c #353A3E",
"h#	c #313A42",
"i#	c #182734",
"j#	c #223544",
"k#	c #18242F",
"l#	c #1D2D39",
"m#	c #1E2C39",
"n#	c #1C2C39",
"o#	c #314C60",
"p#	c #2B475C",
"q#	c #213D51",
"r#	c #243E50",
"s#	c #17242F",
"t#	c #2A3D4D",
"u#	c #1D2E3C",
"v#	c #253B4D",
"w#	c #253E52",
"x#	c #2A465A",
"y#	c #1E2F3B",
"z#	c #1D2E39",
"A#	c #1F303D",
"B#	c #1C2C38",
"C#	c #2E4352",
"D#	c #2B3E4E",
"E#	c #30485C",
"F#	c #37546B",
"G#	c #1F4965",
"H#	c #1A74A2",
"I#	c #2A495E",
"J#	c #2A4153",
"K#	c #1A2935",
"L#	c #323B43",
"M#	c #1A2A36",
"N#	c #1C2D3A",
"O#	c #2C4659",
"P#	c #2A5B7B",
"Q#	c #265F82",
"R#	c #305069",
"S#	c #365064",
"T#	c #233542",
"U#	c #233442",
"V#	c #2C4051",
"W#	c #273A4B",
"X#	c #233341",
"Y#	c #22323F",
"Z#	c #1F2E39",
"`#	c #253645",
" $	c #1E2D38",
".$	c #20313D",
"+$	c #20303B",
"@$	c #1D2C37",
"#$	c #355065",
"$$	c #1D4864",
"%$	c #127BB7",
"&$	c #2A4A61",
"*$	c #2C4356",
"=$	c #283E4E",
"-$	c #1B2B38",
";$	c #2E4A5E",
">$	c #286388",
",$	c #246287",
"'$	c #2F4E66",
")$	c #202F3A",
"!$	c #253745",
"~$	c #293B4C",
"{$	c #283C4B",
"]$	c #1B2A34",
"^$	c #202F3C",
"/$	c #233440",
"($	c #1D2C36",
"_$	c #21303B",
":$	c #21313D",
"<$	c #21333F",
"[$	c #385268",
"}$	c #1E4864",
"|$	c #137BB9",
"1$	c #2B4B61",
"2$	c #273C4C",
"3$	c #303941",
"4$	c #2F4A5E",
"5$	c #296489",
"6$	c #236389",
"7$	c #2F4F66",
"8$	c #30485D",
"9$	c #243543",
"0$	c #233441",
"a$	c #21303D",
"b$	c #1F2D39",
"c$	c #243542",
"d$	c #21303C",
"e$	c #283D4C",
"f$	c #1E4966",
"g$	c #0F7CC1",
"h$	c #2B4A61",
"i$	c #283D4D",
"j$	c #2B404F",
"k$	c #363A3D",
"l$	c #313B43",
"m$	c #28658A",
"n$	c #23668D",
"o$	c #2F5067",
"p$	c #2E475A",
"q$	c #334C5F",
"r$	c #233643",
"s$	c #223440",
"t$	c #263745",
"u$	c #283B4C",
"v$	c #2E4253",
"w$	c #385368",
"x$	c #1F4966",
"y$	c #0E7DC4",
"z$	c #2C4B62",
"A$	c #36393D",
"B$	c #313A43",
"C$	c #2A6488",
"D$	c #22668F",
"E$	c #2F5069",
"F$	c #283A4A",
"G$	c #263848",
"H$	c #243646",
"I$	c #2A3E50",
"J$	c #365267",
"K$	c #1E4765",
"L$	c #1279C2",
"M$	c #2D4A61",
"N$	c #303A44",
"O$	c #2A668B",
"P$	c #216690",
"Q$	c #2F526B",
"R$	c #2C4456",
"S$	c #253848",
"T$	c #365167",
"U$	c #1277C2",
"V$	c #2F485D",
"W$	c #2B658A",
"X$	c #206692",
"Y$	c #30526B",
"Z$	c #31495E",
"`$	c #293F50",
" %	c #233745",
".%	c #354F65",
"+%	c #1E4967",
"@%	c #107AC4",
"#%	c #2E4C63",
"$%	c #363A3E",
"%%	c #313B45",
"&%	c #293E4D",
"*%	c #1B2B36",
"=%	c #2F495E",
"-%	c #2B658C",
";%	c #1F6693",
">%	c #30536D",
",%	c #2C4457",
"'%	c #344F64",
")%	c #0F7BC7",
"!%	c #2D4C63",
"~%	c #2F3A43",
"{%	c #2C658B",
"]%	c #1F6692",
"^%	c #30526C",
"/%	c #2D4458",
"(%	c #26394A",
"_%	c #1E4763",
":%	c #0F7AC6",
"<%	c #2C4C63",
"[%	c #2F4A5F",
"}%	c #21668F",
"|%	c #2F5169",
"1%	c #2C4255",
"2%	c #263A4A",
"3%	c #204763",
"4%	c #0F7CC6",
"5%	c #303B44",
"6%	c #273B4B",
"7%	c #216790",
"8%	c #2A4152",
"9%	c #1F4763",
"0%	c #0E7DC5",
"a%	c #2C4D64",
"b%	c #2F3B45",
"c%	c #2B4253",
"d%	c #304A5F",
"e%	c #22658F",
"f%	c #2F4759",
"g%	c #1F4864",
"h%	c #0D7EC7",
"i%	c #2D4E65",
"j%	c #2B6386",
"k%	c #23648C",
"l%	c #1D445F",
"m%	c #127CBC",
"n%	c #2B4B62",
"o%	c #18252E",
"p%	c #36393C",
"q%	c #2F3A44",
"r%	c #2E4559",
"s%	c #2D475B",
"t%	c #2B6081",
"u%	c #266083",
"v%	c #2B4A60",
"w%	c #283D4E",
"x%	c #2A3F52",
"y%	c #1F3A4E",
"z%	c #2A5875",
"A%	c #253F53",
"B%	c #254A62",
"C%	c #224862",
"D%	c #1C3040",
"E%	c #253A49",
"F%	c #2C4759",
"G%	c #244055",
"H%	c #254F69",
"I%	c #243C4E",
"J%	c #2E3A43",
"K%	c #2A4050",
"L%	c #273E50",
"M%	c #25485E",
"N%	c #254962",
"O%	c #294458",
"P%	c #304758",
"Q%	c #1D4561",
"R%	c #1B73A7",
"S%	c #28485F",
"T%	c #37393C",
"U%	c #293F51",
"V%	c #294356",
"W%	c #2A5F80",
"X%	c #255F83",
"Y%	c #2C4960",
"Z%	c #293F4F",
"`%	c #1D4764",
" &	c #127BBD",
".&	c #2A4B62",
"+&	c #2E3A45",
"@&	c #2C475B",
"#&	c #236289",
"$&	c #2E4D65",
"%&	c #1E4A67",
"&&	c #107CC4",
"*&	c #2A4A62",
"=&	c #293E4C",
"-&	c #2E3A46",
";&	c #2C485D",
">&	c #29668C",
",&	c #216590",
"'&	c #1E4866",
")&	c #107BC4",
"!&	c #2D3A44",
"~&	c #29668A",
"{&	c #206792",
"]&	c #2D4F68",
"^&	c #304859",
"/&	c #1E4A68",
"(&	c #107BC3",
"_&	c #2A4961",
":&	c #37393B",
"<&	c #2D3943",
"[&	c #2B475B",
"}&	c #1D4966",
"|&	c #1279BD",
"1&	c #2A485F",
"2&	c #2D3A45",
"3&	c #17242D",
"4&	c #2B4559",
"5&	c #296386",
"6&	c #236489",
"7&	c #2D4F67",
"8&	c #2B4252",
"9&	c #1579B5",
"0&	c #29485E",
"a&	c #2B4558",
"b&	c #296082",
"c&	c #256083",
"d&	c #263B4C",
"e&	c #1D2F3B",
"f&	c #1A384C",
"g&	c #21526E",
"h&	c #253E51",
"i&	c #2C3842",
"j&	c #214962",
"k&	c #204962",
"l&	c #2B4457",
"m&	c #283C4D",
"n&	c #1A2A37",
"o&	c #1A3040",
"p&	c #2C3742",
"q&	c #1D303F",
"r&	c #1C2E3D",
"s&	c #223441",
"t&	c #263845",
"u&	c #17232E",
"v&	c #2C3944",
"w&	c #273B4A",
"x&	c #253A48",
"y&	c #38393B",
"z&	c #2D3B45",
"A&	c #15212A",
"B&	c #37393A",
"C&	c #2B3944",
"D&	c #152029",
"E&	c #1F303B",
"F&	c #213442",
"G&	c #213340",
"H&	c #273C4A",
"I&	c #18242D",
"J&	c #273A48",
"K&	c #38393A",
"L&	c #2C3945",
"M&	c #20313F",
"N&	c #172B39",
"O&	c #182833",
"P&	c #2B3844",
"Q&	c #172936",
"R&	c #213647",
"S&	c #253845",
"T&	c #284155",
"U&	c #1B3F56",
"V&	c #255A77",
"W&	c #1F394B",
"X&	c #273B49",
"Y&	c #293F4E",
"Z&	c #2A3843",
"`&	c #223746",
" *	c #285773",
".*	c #1B445D",
"+*	c #223E53",
"@*	c #294357",
"#*	c #1D4159",
"$*	c #1973A8",
"%*	c #24648A",
"&*	c #2B495F",
"**	c #293642",
"=*	c #275471",
"-*	c #0F7DC0",
";*	c #1E4964",
">*	c #264257",
",*	c #294153",
"'*	c #1D3F56",
")*	c #1C6F9F",
"!*	c #1E6D9C",
"~*	c #2D536D",
"{*	c #293743",
"]*	c #304D64",
"^*	c #285E81",
"/*	c #0980C9",
"(*	c #1E4863",
"_*	c #264055",
":*	c #263846",
"<*	c #273C4D",
"[*	c #1B3648",
"}*	c #1A72A5",
"|*	c #2D5570",
"1*	c #192833",
"2*	c #2A3844",
"3*	c #24638A",
"4*	c #147AB2",
"5*	c #1C3E54",
"6*	c #273C4B",
"7*	c #1A3141",
"8*	c #1D3B4F",
"9*	c #285D7C",
"0*	c #2B536D",
"a*	c #293844",
"b*	c #2F4D65",
"c*	c #285A78",
"d*	c #1F425A",
"e*	c #1A3346",
"f*	c #253C4E",
"g*	c #1B394F",
"h*	c #275876",
"i*	c #285A77",
"j*	c #2A4C62",
"k*	c #293845",
"l*	c #2D4A60",
"m*	c #224D68",
"n*	c #206A96",
"o*	c #1C4057",
"p*	c #253F52",
"q*	c #253946",
"r*	c #263B4A",
"s*	c #1D3C53",
"t*	c #275777",
"u*	c #127DBD",
"v*	c #2C4E65",
"w*	c #1971A8",
"x*	c #216692",
"y*	c #1B3E56",
"z*	c #263E51",
"A*	c #283E51",
"B*	c #1E3D54",
"C*	c #265474",
"D*	c #2D5774",
"E*	c #2B465B",
"F*	c #182630",
"G*	c #21323E",
"H*	c #383939",
"I*	c #263641",
"J*	c #2C4559",
"K*	c #2E526D",
"L*	c #1474B3",
"M*	c #236189",
"N*	c #1B3D56",
"O*	c #263C4F",
"P*	c #253A4A",
"Q*	c #283F50",
"R*	c #1D3C54",
"S*	c #234E6C",
"T*	c #0782D3",
"U*	c #2B5B7B",
"V*	c #2C485E",
"W*	c #15222A",
"X*	c #263440",
"Y*	c #141F27",
"Z*	c #2C4458",
"`*	c #2D5470",
" =	c #0E7ABF",
".=	c #265B7D",
"+=	c #1A3A4F",
"@=	c #243A4B",
"#=	c #1E3B50",
"$=	c #1F4C6A",
"%=	c #0382DA",
"&=	c #2A5C7E",
"*=	c #2C4A60",
"==	c #24323F",
"-=	c #233642",
";=	c #141E26",
">=	c #0E7CC3",
",=	c #275676",
"'=	c #193549",
")=	c #25394B",
"!=	c #1E3241",
"~=	c #193950",
"{=	c #295F82",
"]=	c #2C4A62",
"^=	c #1E2E39",
"/=	c #2C4151",
"(=	c #1C2933",
"_=	c #151F27",
":=	c #2B5471",
"<=	c #1A2C3A",
"[=	c #213341",
"}=	c #253A4B",
"|=	c #162936",
"1=	c #1A3447",
"2=	c #2B516C",
"3=	c #2D4B61",
"4=	c #1C2C37",
"5=	c #333537",
"6=	c #282D32",
"7=	c #284F69",
"8=	c #1E4256",
"9=	c #162733",
"0=	c #162835",
"a=	c #243948",
"b=	c #283C4A",
"c=	c #101C25",
"d=	c #141D26",
"e=	c #353738",
"f=	c #252E35",
"g=	c #24394A",
"h=	c #1A2D3A",
"i=	c #172430",
"j=	c #16242E",
"k=	c #182732",
"l=	c #152531",
"m=	c #122C3E",
"n=	c #103C55",
"o=	c #383839",
"p=	c #212F3A",
"q=	c #17252F",
"r=	c #273D4C",
"s=	c #1C303D",
"t=	c #162C3B",
"u=	c #124361",
"v=	c #11688D",
"w=	c #103447",
"x=	c #35383A",
"y=	c #29343E",
"z=	c #1A2933",
"A=	c #1B3140",
"B=	c #153143",
"C=	c #134B6C",
"D=	c #0B729B",
"E=	c #10394F",
"F=	c #35383B",
"G=	c #293640",
"H=	c #2C4558",
"I=	c #273D4E",
"J=	c #213645",
"K=	c #245570",
"L=	c #27455C",
"M=	c #263C4D",
"N=	c #163449",
"O=	c #144D6E",
"P=	c #0A749E",
"Q=	c #103B52",
"R=	c #283641",
"S=	c #284255",
"T=	c #263F52",
"U=	c #205371",
"V=	c #233B4D",
"W=	c #233B4C",
"X=	c #127CA8",
"Y=	c #274F6C",
"Z=	c #263D4F",
"`=	c #153449",
" -	c #154D6F",
".-	c #0774A3",
"+-	c #103B53",
"@-	c #29495F",
"#-	c #0E7BAD",
"$-	c #234358",
"%-	c #1B2B37",
"&-	c #243E4F",
"*-	c #0A84B7",
"=-	c #28516F",
"--	c #273E51",
";-	c #294051",
">-	c #1B303F",
",-	c #153247",
"'-	c #144C6E",
")-	c #0675A5",
"!-	c #0F3A52",
"~-	c #284256",
"{-	c #283E4D",
"]-	c #2A4B61",
"^-	c #0783B8",
"/-	c #24455B",
"(-	c #0E81B0",
"_-	c #28506C",
":-	c #153347",
"<-	c #144C6D",
"[-	c #0973A0",
"}-	c #28343F",
"|-	c #274053",
"1-	c #2A495F",
"2-	c #0C7EAC",
"3-	c #233848",
"4-	c #275E7C",
"5-	c #29475D",
"6-	c #1C3141",
"7-	c #153043",
"8-	c #144A6B",
"9-	c #0975A1",
"0-	c #103B51",
"a-	c #284154",
"b-	c #275B77",
"c-	c #243C4F",
"d-	c #263F51",
"e-	c #1D3241",
"f-	c #152D3D",
"g-	c #144764",
"h-	c #0D7299",
"i-	c #11384D",
"j-	c #35373A",
"k-	c #28323C",
"l-	c #283F51",
"m-	c #273F51",
"n-	c #16222D",
"o-	c #15364A",
"p-	c #124D69",
"q-	c #212F3B",
"r-	c #1B2D3A",
"s-	c #172A3A",
"t-	c #2D373F",
"u-	c #1E2C37",
"v-	c #1C2D39",
"w-	c #2F3439",
"x-	c #333639",
"y-	c #2A3D4C",
"z-	c #1E3749",
"A-	c #27526E",
"B-	c #27455B",
"C-	c #2F363C",
"D-	c #204A63",
"E-	c #214A60",
"F-	c #1B2E3C",
"G-	c #2E4759",
"H-	c #224259",
"I-	c #0880D0",
"J-	c #285C7E",
"K-	c #254259",
"L-	c #33363A",
"M-	c #2E343A",
"N-	c #24526F",
"O-	c #088ACD",
"P-	c #254E68",
"Q-	c #2A4254",
"R-	c #2F4C62",
"S-	c #285372",
"T-	c #008AE3",
"U-	c #275675",
"V-	c #254156",
"W-	c #2E3439",
"X-	c #283F53",
"Y-	c #244E69",
"Z-	c #0683D2",
"`-	c #276083",
" ;	c #2F5168",
".;	c #295979",
"+;	c #0087E2",
"@;	c #265270",
"#;	c #253F54",
"$;	c #17252E",
"%;	c #33373A",
"&;	c #2E353B",
"*;	c #273D4F",
"=;	c #254A63",
"-;	c #0A7ECC",
";;	c #216997",
">;	c #294E68",
",;	c #2B4356",
"';	c #2B4E66",
");	c #266088",
"!;	c #0188DB",
"~;	c #25516E",
"{;	c #263F53",
"];	c #34373B",
"^;	c #2F353C",
"/;	c #1479B7",
"(;	c #1B71A7",
"_;	c #284E68",
":;	c #2D475C",
"<;	c #2B4F67",
"[;	c #236692",
"};	c #117EBB",
"|;	c #234C66",
"1;	c #274052",
"2;	c #34373A",
"3;	c #2E353C",
"4;	c #26475D",
"5;	c #1D6F9E",
"6;	c #1577B4",
"7;	c #28506B",
"8;	c #2D485D",
"9;	c #2D485B",
"0;	c #2B4F68",
"a;	c #226994",
"b;	c #256487",
"c;	c #213E51",
"d;	c #2B3F4E",
"e;	c #213A4C",
"f;	c #205571",
"g;	c #137AB1",
"h;	c #274F69",
"i;	c #304D63",
"j;	c #2E495D",
"k;	c #27465C",
"l;	c #224358",
"m;	c #224A66",
"n;	c #234258",
"o;	c #1B2B35",
"p;	c #264256",
"q;	c #1E4B64",
"r;	c #204157",
"s;	c #24465C",
"t;	c #2E4C61",
"u;	c #244155",
"v;	c #0C7EC5",
"w;	c #23648E",
"x;	c #24435A",
"y;	c #16212A",
"z;	c #34383B",
"A;	c #2E363C",
"B;	c #274357",
"C;	c #235572",
"D;	c #0886C7",
"E;	c #23475E",
"F;	c #2F4B60",
"G;	c #26516F",
"H;	c #0083DD",
"I;	c #265C82",
"J;	c #234157",
"K;	c #152129",
"L;	c #2D353C",
"M;	c #264054",
"N;	c #224F6C",
"O;	c #0588D4",
"P;	c #265471",
"Q;	c #2F4D63",
"R;	c #0181DA",
"S;	c #255372",
"T;	c #0882CF",
"U;	c #27597A",
"V;	c #2C4C64",
"W;	c #2E516A",
"X;	c #245170",
"Y;	c #1774AD",
"Z;	c #1E3C51",
"`;	c #2D343B",
" >	c #1E3546",
".>	c #206A99",
"+>	c #294D66",
"@>	c #213441",
"#>	c #1D2D38",
"$>	c #2A485C",
"%>	c #203E52",
"&>	c #192A38",
"*>	c #172733",
"=>	c #1F3C4F",
"->	c #28455A",
";>	c #1F313E",
">>	c #2C353B",
",>	c #2C333B",
"'>	c #343739",
")>	c #2C333A",
"!>	c #15222D",
"~>	c #1D2E3A",
"{>	c #182834",
"]>	c #1E2F3C",
"^>	c #353739",
"/>	c #182632",
"(>	c #162D3D",
"_>	c #17455B",
":>	c #1D3342",
"<>	c #18384B",
"[>	c #16394E",
"}>	c #23394A",
"|>	c #163E57",
"1>	c #1A7198",
"2>	c #204054",
"3>	c #2B3239",
"4>	c #243544",
"5>	c #253D4F",
"6>	c #255673",
"7>	c #1F5978",
"8>	c #244257",
"9>	c #263949",
"0>	c #223342",
"a>	c #213342",
"b>	c #17425D",
"c>	c #147AAD",
"d>	c #204359",
"e>	c #295D7D",
"f>	c #235E7F",
"g>	c #25455B",
"h>	c #184461",
"i>	c #107CB7",
"j>	c #22445B",
"k>	c #2A3239",
"l>	c #2A5E7F",
"m>	c #225F82",
"n>	c #18435F",
"o>	c #107CB8",
"p>	c #21445B",
"q>	c #263847",
"r>	c #2A323A",
"s>	c #2A5F7F",
"t>	c #235F83",
"u>	c #24445B",
"v>	c #18425E",
"w>	c #0F7DBB",
"x>	c #21445C",
"y>	c #14212B",
"z>	c #243F53",
"A>	c #295F7F",
"B>	c #236084",
"C>	c #233342",
"D>	c #17415D",
"E>	c #117CB9",
"F>	c #131D26",
"G>	c #243E52",
"H>	c #2A5F7E",
"I>	c #226084",
"J>	c #25394A",
"K>	c #17405B",
"L>	c #147AB1",
"M>	c #204257",
"N>	c #293138",
"O>	c #121D26",
"P>	c #223C4E",
"Q>	c #2A5E7C",
"R>	c #234359",
"S>	c #223443",
"T>	c #173D57",
"U>	c #1677AA",
"V>	c #204155",
"W>	c #2A3139",
"X>	c #121C25",
"Y>	c #2A5C79",
"Z>	c #255D7D",
"`>	c #214055",
" ,	c #1D2F3D",
".,	c #17354A",
"+,	c #21607E",
"@,	c #1D394C",
"#,	c #293139",
"$,	c #121D25",
"%,	c #203646",
"&,	c #204F6A",
"*,	c #1E506B",
"=,	c #1A3345",
"-,	c #182D3B",
";,	c #1F3E52",
">,	c #1C2F3D",
",,	c #1F3340",
"',	c #1E384B",
"),	c #1F394D",
"!,	c #1A2B39",
"~,	c #213241",
"{,	c #1A3F57",
"],	c #1C6A8D",
"^,	c #1D3C4F",
"/,	c #293038",
"(,	c #131F28",
"_,	c #21394A",
":,	c #23536F",
"<,	c #1F5471",
"[,	c #27455A",
"},	c #153F59",
"|,	c #1578A7",
"1,	c #1F4055",
"2,	c #283038",
"3,	c #2A5C7A",
"4,	c #225978",
"5,	c #224258",
"6,	c #263A4B",
"7,	c #16415C",
"8,	c #137AB0",
"9,	c #363739",
"0,	c #233C4E",
"a,	c #2A5E7E",
"b,	c #235A7A",
"c,	c #253849",
"d,	c #127BB1",
"e,	c #223B4D",
"f,	c #225B7C",
"g,	c #234257",
"h,	c #17425E",
"i,	c #117CB4",
"j,	c #20445A",
"k,	c #273037",
"l,	c #2B5F7F",
"m,	c #235D7E",
"n,	c #107DB7",
"o,	c #272F37",
"p,	c #223A4C",
"q,	c #245C7E",
"r,	c #244359",
"s,	c #107DB9",
"t,	c #20435A",
"u,	c #223C4D",
"v,	c #24445A",
"w,	c #192730",
"x,	c #17405C",
"y,	c #363738",
"z,	c #272F36",
"A,	c #111C23",
"B,	c #233C4D",
"C,	c #2B607F",
"D,	c #235C7F",
"E,	c #163F5B",
"F,	c #127AB7",
"G,	c #204258",
"H,	c #262E35",
"I,	c #111B23",
"J,	c #235B7E",
"K,	c #224157",
"L,	c #152028",
"M,	c #1B2832",
"N,	c #18232C",
"O,	c #153E59",
"P,	c #1379AF",
"Q,	c #1E4156",
"R,	c #121C24",
"S,	c #225C7E",
"T,	c #17222B",
"U,	c #17232C",
"V,	c #19252E",
"W,	c #142129",
"X,	c #143D57",
"Y,	c #1279A9",
"Z,	c #1D4056",
"`,	c #242C33",
" '	c #223A4B",
".'	c #2B5E7B",
"+'	c #225B7D",
"@'	c #223F54",
"#'	c #162129",
"$'	c #19262F",
"%'	c #273946",
"&'	c #133A51",
"*'	c #167198",
"='	c #1C3D51",
"-'	c #232B32",
";'	c #21384A",
">'	c #205978",
",'	c #213C4F",
"''	c #293B49",
")'	c #142B3C",
"!'	c #184057",
"~'	c #1B2E3D",
"{'	c #17384E",
"]'	c #243848",
"^'	c #253C4C",
"/'	c #142430",
"('	c #232C33",
"_'	c #172835",
":'	c #1F3749",
"<'	c #182F3E",
"['	c #263D4E",
"}'	c #263D4D",
"|'	c #233846",
"1'	c #111F2A",
"2'	c #0F1A23",
"3'	c #242C34",
"4'	c #1B2A37",
"5'	c #131F29",
"6'	c #15232D",
"7'	c #12202A",
"8'	c #111C25",
"9'	c #373738",
"0'	c #232B34",
"a'	c #14212A",
"b'	c #111D25",
"c'	c #232B33",
"d'	c #22313F",
"e'	c #202F3D",
"f'	c #222B33",
"g'	c #373838",
"h'	c #16232E",
"i'	c #233240",
"j'	c #222A32",
"k'	c #1F2E3C",
"l'	c #202A32",
"m'	c #21303F",
"n'	c #23333F",
"o'	c #202931",
"p'	c #1F272E",
"q'	c #111B24",
"r'	c #17222C",
"s'	c #202E3B",
"t'	c #111C24",
"u'	c #0E161C",
"v'	c #0F171F",
"w'	c #0F1820",
"x'	c #0F1920",
"y'	c #0F1921",
"z'	c #111E28",
"A'	c #1E262D",
"B'	c #121F28",
"C'	c #111C26",
"D'	c #0E181F",
"E'	c #0D161E",
"F'	c #101A21",
"G'	c #131E28",
"H'	c #132029",
"I'	c #13222D",
"J'	c #132939",
"K'	c #162530",
"L'	c #1B2229",
"M'	c #142938",
"N'	c #132431",
"O'	c #14222C",
"P'	c #141F29",
"Q'	c #25323D",
"R'	c #2B3E4D",
"S'	c #273746",
"T'	c #283A48",
"U'	c #24333F",
"V'	c #24313F",
"W'	c #253441",
"X'	c #263442",
"Y'	c #283845",
"Z'	c #283744",
"`'	c #273643",
" )	c #263542",
".)	c #253542",
"+)	c #263643",
"@)	c #263543",
"#)	c #253440",
"$)	c #24313E",
"%)	c #23323E",
"&)	c #24343F",
"*)	c #25343F",
"=)	c #242F38",
"-)	c #243440",
";)	c #273543",
">)	c #253541",
",)	c #243441",
"')	c #253442",
"))	c #25333F",
"  . + @ @ @ # @ $ $ $ % % & @ * = & # # @ @ % # @ # * = - = = = ; > , , ' ) ! ~ ~ ~ ~ ~ ~ ~ ~ ~ ~ ~ ~ ~ ~ ~ ~ ~ ~ ~ ~ ~ ~ ~ ~ ~ ~ ~ ~ ~ ~ ~ ~ ~ ~ ~ ~ ~ ~ ~ ~ ~ ~ ~ ~ ~ ~ ~ ~ ~ ~ ~ ~ ~ ~ ~ ! { = = , , , ] , > ^ * = = / = * @ @ ( @ = @ @ @ @ % @ @ @ @ # @ @ @ @ @ _ ",
": < [ } | | 1 2 | } } 2 2 2 : 3 4 4 2 2 | 2 5 6 7 1 7 8 9 8 9 0 a b a c d e f ~ ~ ~ ~ ~ ~ ~ ~ ~ ~ ~ ~ ~ ~ ~ ~ ~ ~ ~ ~ ~ ~ ~ ~ ~ ~ ~ ~ ~ ~ ~ ~ ~ ~ ~ ~ ~ ~ ~ ~ ~ ~ ~ ~ ~ ~ ~ ~ ~ ~ ~ ~ ~ ~ ~ f g h i c d j b 0 0 4 1 9 h 9 2 | | 3 k 2 h 7 5 2 | 1 l l 2 5 4 2 l m m n o ",
"p p p q q r s s t t t s u s v q w x s s y u w x w z A B C D C E F G H I I J K ~ ~ ~ ~ ~ ~ ~ ~ ~ ~ ~ ~ ~ ~ ~ ~ ~ ~ ~ ~ ~ ~ ~ ~ ~ ~ ~ ~ ~ ~ ~ ~ ~ ~ ~ ~ ~ ~ ~ ~ ~ ~ ~ ~ ~ ~ ~ ~ ~ ~ ~ ~ ~ ~ ~ L M N O P F N N Q C R w B D B S S w w w T z w s s t U t S s w w S V u u W X ",
"Y Z Z Z `  .....Z ........+.` @.#.+.#.#.#.+.+.#.......#.#.$.+.%.&.*.=.-.;.>.,.~ ~ ~ ~ ~ ~ ~ ~ ~ ~ ~ ~ ~ ~ ~ ~ ~ ~ ~ ~ ~ ~ ~ ~ ~ ~ ~ ~ ~ ~ ~ ~ ~ ~ ~ ~ ~ ~ ~ ~ ~ ~ ~ ~ ~ ~ ~ ~ ~ ~ ~ ~ ~ ~ ~ '.).!.~.{.].^./././.$.#.$././.#.+.+.+.+./.(.#...#.Z @...#.#.$.$.#...#.#.....",
"_.:.:.<.[._.}.}.|.1.:.|.:.2.:.|.:.<.2.3.:._.:.|.4.5./.(.5.6.:.:.7.8.9.0.a.J b.~ ~ ~ ~ ~ ~ ~ ~ ~ ~ ~ ~ ~ ~ ~ ~ ~ ~ ~ ~ ~ ~ ~ ~ ~ ~ ~ ~ ~ ~ ~ ~ ~ ~ ~ ~ ~ ~ ~ ~ ~ ~ ~ ~ ~ ~ ~ ~ ~ ~ ~ ~ ~ ~ ~ c.d.e.F f.g.h.i.|.|.}.5.5.i.:.<.[.j.k.3.<.k.[._.:._.:._.l.k.<._._._.2.m.n.n.",
"o.!.!.p.q.r.r.r.s.t.t.t.u.u.r.r.v.w.w.x.y.W z.y.q B Q I A.B.I C.D.E.O n F.G.H.~ ~ ~ ~ ~ ~ ~ ~ ~ ~ ~ ~ ~ ~ ~ ~ ~ ~ ~ ~ ~ ~ ~ ~ ~ ~ ~ ~ ~ ~ ~ ~ ~ ~ ~ ~ ~ ~ ~ ~ ~ ~ ~ ~ ~ ~ ~ ~ ~ ~ ~ ~ ~ ~ ~ I.J.K.D.L.M.N.O.P.Q.R.F I z.u z z w x u S.u T.s.U.s.u.V.t.w.W.v.X.r.p.r.r.r.",
"v Y.W u Z.`.C C O C C.C `.`.u u C F F F I  +N.R.I .+n ++@+F.#+F.$+%+&+*+=+-+;+~ ~ ~ ~ ~ ~ ~ ~ ~ ~ ~ ~ ~ ~ ~ ~ ~ ~ ~ ~ ~ ~ ~ ~ ~ ~ ~ ~ ~ ~ ~ ~ ~ ~ ~ ~ ~ ~ ~ ~ ~ ~ ~ ~ ~ ~ ~ ~ ~ ~ ~ ~ ~ ~ ~ >+,+'+)+P !+~+{+]+^+@+/+K.(+_+(+B.:+<+I F I C.[+O O }+O.O.|+}+C.`.x u 9.1+9.",
"^+2+3+#+~+4+5+6+7+8+9+8+2+6+2+6+0+a+b+c+d+e+f+g+h+B ++i+j+'+2+5+k+l+e.i+m+n+o+~ ~ ~ ~ ~ ~ ~ ~ ~ ~ ~ ~ ~ ~ ~ ~ ~ ~ ~ ~ ~ ~ ~ ~ ~ ~ ~ ~ ~ ~ ~ ~ ~ ~ ~ ~ ~ ~ ~ ~ ~ ~ ~ ~ ~ ~ ~ ~ ~ ~ ~ ~ ~ ~ ~ p+@+j+q+r+8+6+4+s+t+u+'+I H v+w+e+x+b+y+z+A+5+6+7+B+7+A+4+5+C+D+~+]+2+E+{+C+",
"@+#+'+=+2+8+8+2+F+8+G+$+2+H+2+2+s+I+I+I+d+J+K+L+M+N+F.=+O+F.=+P+Q+R+.+S+T+U+V+~ ~ ~ ~ ~ ~ ~ ~ ~ ~ ~ ~ ~ ~ ~ ~ ~ ~ ~ ~ ~ ~ ~ ~ ~ ~ ~ ~ ~ ~ ~ ~ ~ ~ ~ ~ ~ ~ ~ ~ ~ ~ ~ ~ ~ ~ ~ ~ ~ ~ ~ ~ ~ ~ ~ W+X+T+Y+Z+Q+k+`+$+#+$+2+ @J.r+F..@d+B+`++@@@5+#@A+I+B+k++@8+2+~+E+E+u+=+$@2+",
"=+]+]+]+2+%@`+7+A+I+A+`+&@s+8+*@A+e+c+=@=@-@;@>@,@'@*+j+j+i+S+)@!@~@{@m+]@^@/@~ ~ ~ ~ ~ ~ ~ ~ ~ ~ ~ ~ ~ ~ ~ ~ ~ ~ ~ ~ ~ ~ ~ ~ ~ ~ ~ ~ ~ ~ ~ ~ ~ ~ ~ ~ ~ ~ ~ ~ ~ ~ ~ ~ ~ ~ ~ ~ ~ ~ ~ ~ ~ ~ ~ (@O+$+]@_@:@!@Q+<@F.[@T+}@|@1@*+2@:@3@4@B+B+A++@I+5@I+d+I+6@+@$+]@$+2+H+T+8+",
"=+2+2+]+7@B+5@d+8@9@!@d+!@6@6@`+!@c+0@-@2@0@;@a@r.'@)+H+T+b@c@s+2@Y+{@T++@o /@~ ~ ~ ~ ~ ~ ~ ~ ~ ~ ~ ~ ~ ~ ~ ~ ~ ~ ~ ~ ~ ~ ~ ~ ~ ~ ~ ~ ~ ~ ~ ~ ~ ~ ~ ~ ~ ~ ~ ~ ~ ~ ~ ~ ~ ~ ~ ~ ~ ~ ~ ~ ~ ~ ~ d@u+7@T+e@!@f@8@b@i+k+u+d.|+g@)+h@P+d+0@d+i@d+B+c+d+5@j@0@-@d+B+k@A+@@$+T+s+",
"2+5+7@2+#@A+l@m@n@m@9@0@-@d+d+d+d+i@m@m@o@p@q@r@Y.s@t@T+]@T+T+u@!@~@v@$+s+o w@~ ~ ~ ~ ~ ~ ~ ~ ~ ~ ~ ~ ~ ~ ~ ~ ~ ~ ~ ~ ~ ~ ~ ~ ~ ~ ~ ~ ~ ~ ~ ~ ~ ~ ~ ~ ~ ~ ~ ~ ~ ~ ~ ~ ~ ~ ~ ~ ~ ~ ~ ~ ~ ~ ~ x@T+s+T+y@!@2@A+$+$+8@m+z@r+A@S+0@I+-@f@0@j@j@B@m@d+d+C@C@n@m@0@i@d+5@A+$+5+",
"8+s+A+A+B+d+d+j@C@m@9@0@D@0@0@9@-@f@m@D@E@F@G@H@L.I@++T+P+`+]@s+=@Y+/+J@s+m K@~ ~ ~ ~ ~ ~ ~ ~ ~ ~ ~ ~ ~ ~ ~ ~ ~ ~ ~ ~ ~ ~ ~ ~ ~ ~ ~ ~ ~ ~ ~ ~ ~ ~ ~ ~ ~ ~ ~ ~ ~ ~ ~ ~ ~ ~ ~ ~ ~ ~ ~ ~ ~ ~ ~ L@T+&@$+M@Q+P+k+]@s+5@2+N@}@O@=+D@P@Q@-@D@R@C@S@T@-@d+m@U@V@T@n@n@j@c+`+7@s+",
"8+A+5@d+m@J+j@j@m@0@`+d+0@C@o@9@0@o@D@E@D@W@X@Y@Z@`@ #u+P+:@P+6@!@q+ #.#&@i +#~ ~ ~ ~ ~ ~ ~ ~ ~ ~ ~ ~ ~ ~ ~ ~ ~ ~ ~ ~ ~ ~ ~ ~ ~ ~ ~ ~ ~ ~ ~ ~ ~ ~ ~ ~ ~ ~ ~ ~ ~ ~ ~ ~ ~ ~ ~ ~ ~ ~ ~ ~ ~ ~ ~ @#$+&@T+##$#K+Y+K+:@!@%#%+&#g+i+o@m@=@*#U@=#n@-#;#E@-@o@D@U@V@V@C@C@m@A+7@5+",
"7@8+k@I+i@m@x+m@m@3@&@K+:@m@0@2@m@D@9@P@E@>#,#'#Z@)#N@t+u@8@&@P+P+<@{@K+P+i !#~ ~ ~ ~ ~ ~ ~ ~ ~ ~ ~ ~ ~ ~ ~ ~ ~ ~ ~ ~ ~ ~ ~ ~ ~ ~ ~ ~ ~ ~ ~ ~ ~ ~ ~ ~ ~ ~ ~ ~ ~ ~ ~ ~ ~ ~ ~ ~ ~ ~ ~ ~ ~ ~ ~ ~#8+6@{#P Y+Y+q+P+2@I+]+]#&#g+=+C@=#-@-@E@n@-#n@V@J+2@2@d+j@D@D@E@U@j@P+]@7@",
"^#T+$+]@P+c+i@i@j@I++@P+!@0@c+9@o@D@0@o@/#F@(#Y@_#:#<#t+[@`+=@P+K+S+{@k+u@6 +#~ ~ ~ ~ ~ ~ ~ ~ ~ ~ ~ ~ ~ ~ ~ ~ ~ ~ ~ ~ ~ ~ ~ ~ ~ ~ ~ ~ ~ ~ ~ ~ ~ ~ ~ ~ ~ ~ ~ ~ ~ ~ ~ ~ ~ ~ ~ ~ ~ ~ ~ ~ ~ ~ ~ L@+@A+m+[#}#Y+|#!@!@&@m+1#,@r+j+U@U@p@E@D@E@n@d+j@m@!@c+!@d+i@0@9@-@9@:@7@]@",
"2+m+H+H+m+|#d+b+c+d+`+P+I+c+I+2@9@0@2#=#p@E@Q@3#[+4# #<@[@!@-@d+6@5#6#]@s+h 7#~ ~ ~ ~ ~ ~ ~ ~ ~ ~ ~ ~ ~ ~ ~ ~ ~ ~ ~ ~ ~ ~ ~ ~ ~ ~ ~ ~ ~ ~ ~ ~ ~ ~ ~ ~ ~ ~ ~ ~ ~ ~ ~ ~ ~ ~ ~ ~ ~ ~ ~ ~ ~ ~ ~ 8#s+|#9#0#$#K+P+!@6@k@T+a#N+M@t+D@V@C@n@o@o@0@d+n@J+5@!@3@:@4@d+!@b#d+2@u@7@",
"m+t+'+|+U.c#W W q v w.w.x.v v W z v@2@E@0@D@,#d#e#*+|@T+K+f#3@0@=@{#c# #H+h g#~ ~ ~ ~ ~ ~ ~ ~ ~ ~ ~ ~ ~ ~ ~ ~ ~ ~ ~ ~ ~ ~ ~ ~ ~ ~ ~ ~ ~ ~ ~ ~ ~ ~ ~ ~ ~ ~ ~ ~ ~ ~ ~ ~ ~ ~ ~ ~ ~ ~ ~ ~ ~ ~ ~ h#[@m+u i#!@:@:@&@s+k+T+)#I@j#E+/#C@C@o@]+|+u 9.u u v c#c#k#W W Y.y._#s+s+'+",
"[+[+[+[+R.I l#O l#m#l#n#|+I &+H .+H B+j@o@o@o#p#q#r#)+P+:@!@!@2@=@<@s#v H+t#g#~ ~ ~ ~ ~ ~ ~ ~ ~ ~ ~ ~ ~ ~ ~ ~ ~ ~ ~ ~ ~ ~ ~ ~ ~ ~ ~ ~ ~ ~ ~ ~ ~ ~ ~ ~ ~ ~ ~ ~ ~ ~ ~ ~ ~ ~ ~ ~ ~ ~ ~ ~ ~ ~ ~ 8#$+{@c#u#h@!@:@u@%#s+]@v#w#x#0@m@m@D@E@(+e.d.n#y#N.l#l#z#P n#R.P.A#P d.H B#",
"I@M+B.A#_+C#{@d.<+d.d.R.a.:+0.v@D#6 A+d+0@E#D@F#G#H#I#K+:@8@=@8@P+J#K#_#H+^+g#~ ~ ~ ~ ~ ~ ~ ~ ~ ~ ~ ~ ~ ~ ~ ~ ~ ~ ~ ~ ~ ~ ~ ~ ~ ~ ~ ~ ~ ~ ~ ~ ~ ~ ~ ~ ~ ~ ~ ~ ~ ~ ~ ~ ~ ~ ~ ~ ~ ~ ~ ~ ~ ~ ~ L#]+*+M#N#=@6@K+u@$+u@O#P#Q#R#S#n@-@2@j@T#4+J.H P.d.:+U#H G B.{@V#Q.P.N@ #@+",
"W#|@X#e.Y#Z#&#`# $.$T +$@$s Y#F '+I@A+Q@Q@f#o@#$$$%$&$*$K+P+u@u@Y+=$M#_#m+D#!#~ ~ ~ ~ ~ ~ ~ ~ ~ ~ ~ ~ ~ ~ ~ ~ ~ ~ ~ ~ ~ ~ ~ ~ ~ ~ ~ ~ ~ ~ ~ ~ ~ ~ ~ ~ ~ ~ ~ ~ ~ ~ ~ ~ ~ ~ ~ ~ ~ ~ ~ ~ ~ ~ ~ h#m+i+B#-$k@K+Y+]@Y+P+;$>$,$'$o@!@6@E#j@N@^#N.Y#X _+Z#T )$s &#N@T#B.U#!$++~$",
"{${@]$T#e.^$I !$F  $/$($_$:$A <$m+|@+@!@Q@Q+h@[$}$|$1$u@+@]@T+s+T+2$K#u ]+~+!#~ ~ ~ ~ ~ ~ ~ ~ ~ ~ ~ ~ ~ ~ ~ ~ ~ ~ ~ ~ ~ ~ ~ ~ ~ ~ ~ ~ ~ ~ ~ ~ ~ ~ ~ ~ ~ ~ ~ ~ ~ ~ ~ ~ ~ ~ ~ ~ ~ ~ ~ ~ ~ ~ ~ 3$T+#+B#Z.6@$#u@]@*$6@4$5$6$7$8$Q+Q+=@E@{@2+D.]$_+F )$Q.T Y#e.U#Y#v@v@_+9$F.",
"*+W#!$_+T#0$a$P.U#:+b$c$_+d$c$O.e$I@#@=@E#Q+=@[$f$g$h$Y+s+[@[@]@]@i$K#z.D+j$k$~ ~ ~ ~ ~ ~ ~ ~ ~ ~ ~ ~ ~ ~ ~ ~ ~ ~ ~ ~ ~ ~ ~ ~ ~ ~ ~ ~ ~ ~ ~ ~ ~ ~ ~ ~ ~ ~ ~ ~ ~ ~ ~ ~ ~ ~ ~ ~ ~ ~ ~ ~ ~ ~ ~ l$T+#+n#z P+6@P+$#P+P+,#m$n$o$G@p$Q+h@q$N@$+R.r$l#(+n+Z#s$A.N@d.n @+s$T#'+F.",
"*+*+e$!$I {@t$Y#{@u$2+v$4+B+6+'+H+*+#@=@E#f#E#w$x$y$z$u@K+Y+q+]@7@*+K#X ~+D#A$~ ~ ~ ~ ~ ~ ~ ~ ~ ~ ~ ~ ~ ~ ~ ~ ~ ~ ~ ~ ~ ~ ~ ~ ~ ~ ~ ~ ~ ~ ~ ~ ~ ~ ~ ~ ~ ~ ~ ~ ~ ~ ~ ~ ~ ~ ~ ~ ~ ~ ~ ~ ~ ~ ~ B$]+'+}+u )@6@P+|#6@:@4$C$D$E$G@f#f#=@0@ ##@=+H+{#2+!+{+=+u$X#@+*+9$.+=+'+'+",
"t+'+'+m+v@I@F$G$H$I$]@]@]@k+K+q+q+s@5+-@-@Q@X@J$K$L$M$P+:@u@Y+Y+H+*+K#v E+{+A$~ ~ ~ ~ ~ ~ ~ ~ ~ ~ ~ ~ ~ ~ ~ ~ ~ ~ ~ ~ ~ ~ ~ ~ ~ ~ ~ ~ ~ ~ ~ ~ ~ ~ ~ ~ ~ ~ ~ ~ ~ ~ ~ ~ ~ ~ ~ ~ ~ ~ ~ ~ ~ ~ ~ N$T+'+O u )@Q+Q+K+P+!@,#O$P$Q$G@=@f#X@i@&#H+s+R$Y+8+|#7@T+m+N@'+u+@+T+b@m+u+",
"=+m+m+2+H+e$*+I@4#m+]@s+7@[@*$q+H+S$+@!@2@b#E#T$f$U$M$8@I+6@|#H+H+*+Z.c##+$@A$~ ~ ~ ~ ~ ~ ~ ~ ~ ~ ~ ~ ~ ~ ~ ~ ~ ~ ~ ~ ~ ~ ~ ~ ~ ~ ~ ~ ~ ~ ~ ~ ~ ~ ~ ~ ~ ~ ~ ~ ~ ~ ~ ~ ~ ~ ~ ~ ~ ~ ~ ~ ~ ~ ~ N$2+'+O u )@K+K+Y+K+h@V$W$X$Y$o@Z$f#:@4@N@Y+u@K+Y+|#|#&@H+m+ #=+{#T+$+T+9#H+",
"T+q+]@s+K+H+u+i+I@T+s+$#k@K+Y+`$`$ %2+&@`+k@=@.%+%@%#%3@d+`+P+u@R$e$`.y.#+#+$%~ ~ ~ ~ ~ ~ ~ ~ ~ ~ ~ ~ ~ ~ ~ ~ ~ ~ ~ ~ ~ ~ ~ ~ ~ ~ ~ ~ ~ ~ ~ ~ ~ ~ ~ ~ ~ ~ ~ ~ ~ ~ ~ ~ ~ ~ ~ ~ ~ ~ ~ ~ ~ ~ ~ %%f+&%*%w )@u@K+K+!@Q@=%-%;%>%o@*#f#f#-@N@Y+6@6@P+P+u@u@H+T+|@T+T+T+$+]@{#T+",
"m+T+]@Y+Y+u@k+m+S$H+]@R$$#,%*$<@b@a#2+u@J@8@=@'%+%)%!%:@2@d+:@6@u@t+[+v #+^+A$~ ~ ~ ~ ~ ~ ~ ~ ~ ~ ~ ~ ~ ~ ~ ~ ~ ~ ~ ~ ~ ~ ~ ~ ~ ~ ~ ~ ~ ~ ~ ~ ~ ~ ~ ~ ~ ~ ~ ~ ~ ~ ~ ~ ~ ~ ~ ~ ~ ~ ~ ~ ~ ~ ~ ~%H+e$[+T )@P+P+:@f#f#4${%]%^%o@8$/%f#i@z@Y+6@Q+6@)@u@]@$+T+/+H+2+]@s+s+T+$+",
"m+I$H+]@]@K+P+b@(%T+]@]@*$Y+*$<@<@e#m+s+J@.#!@U@_%:%<%Q+!@!@I+)@]@'+`.x.=+#+A$~ ~ ~ ~ ~ ~ ~ ~ ~ ~ ~ ~ ~ ~ ~ ~ ~ ~ ~ ~ ~ ~ ~ ~ ~ ~ ~ ~ ~ ~ ~ ~ ~ ~ ~ ~ ~ ~ ~ ~ ~ ~ ~ ~ ~ ~ ~ ~ ~ ~ ~ ~ ~ ~ ~ ~%T+@+`.u ~@R$R$6@f#X@[%{%}%|%*#Q+K+Q+i@<#1%f#f#P+Y+Y+$+T+m+++$+]@Y+s+$+{#T+",
"m+m+H+]@P+`+I+{#2%b@]@Y+*$q+q+`$<@a##+[@s+s+:@C@3%4%<%6@I+5@`+|#Y+'+`.c#=+=+k$~ ~ ~ ~ ~ ~ ~ ~ ~ ~ ~ ~ ~ ~ ~ ~ ~ ~ ~ ~ ~ ~ ~ ~ ~ ~ ~ ~ ~ ~ ~ ~ ~ ~ ~ ~ ~ ~ ~ ~ ~ ~ ~ ~ ~ ~ ~ ~ ~ ~ ~ ~ ~ ~ ~ 5%{#6%Z.S.$+q+q+P+!@E#=%{%7%|%*#/%Q+:@i@N@u@Q@f#6@Y+~@H+<@c@F$u+T+Y+s+H+m+m+",
"]+{#]@]@|#6@:@H+2%{#]@~@~@~@8%`$`$N@u+]@q+q+:@C@9%0%a%b#5@I+k+K+Y+X+`.v =+=+k$~ ~ ~ ~ ~ ~ ~ ~ ~ ~ ~ ~ ~ ~ ~ ~ ~ ~ ~ ~ ~ ~ ~ ~ ~ ~ ~ ~ ~ ~ ~ ~ ~ ~ ~ ~ ~ ~ ~ ~ ~ ~ ~ ~ ~ ~ ~ ~ ~ ~ ~ ~ ~ ~ ~ b%T+K.Z.X c%H+T+K+Q+=@d%W$e%o$-@K+6@f#0@v@|#:@f%f#/%~@q+<@b@4#S+q+$+u@H+b@H+",
"]+{#$+Y+s+k+P+H+t@`${#`$q+]@q+<@<@a#T+]@b@H+`+E@g%h%i%:@B+`+|#Y+c%e$`.v E+=+A$~ ~ ~ ~ ~ ~ ~ ~ ~ ~ ~ ~ ~ ~ ~ ~ ~ ~ ~ ~ ~ ~ ~ ~ ~ ~ ~ ~ ~ ~ ~ ~ ~ ~ ~ ~ ~ ~ ~ ~ ~ ~ ~ ~ ~ ~ ~ ~ ~ ~ ~ ~ ~ ~ ~ @ ]+@+Z.W H+H+<@u@6@!@;$j%k%7$E#$#6@!@j@N@|#!@3@6@K+q+<@{#b@)#m+q+q+K+H+c@<@",
"m+{#T+$+|#P+P+H+t@t+<@c%f+]@q+8%S+z@m+$+H+)@8@Q+l%m%n%/%P+&@s+s+q+6%`.o%m+^+p%~ ~ ~ ~ ~ ~ ~ ~ ~ ~ ~ ~ ~ ~ ~ ~ ~ ~ ~ ~ ~ ~ ~ ~ ~ ~ ~ ~ ~ ~ ~ ~ ~ ~ ~ ~ ~ ~ ~ ~ ~ ~ ~ ~ ~ ~ ~ ~ ~ ~ ~ ~ ~ ~ ~ q%m+++_#u Y+<@b@s+P+r%s%t%u%v%!@:@P+=@j@{@u@`+:@:@|#~@8%m+c@ #I$<@H+s+<@S+c@",
"w%i+T+Y+P+k+k+T+t@m+T+f+]@}#<@x%S+e#i+]@q+|#Q+L+y%z%A%~@|#&@s+f+<@*+`.x.=+^+p%~ ~ ~ ~ ~ ~ ~ ~ ~ ~ ~ ~ ~ ~ ~ ~ ~ ~ ~ ~ ~ ~ ~ ~ ~ ~ ~ ~ ~ ~ ~ ~ ~ ~ ~ ~ ~ ~ ~ ~ ~ ~ ~ ~ ~ ~ ~ ~ ~ ~ ~ ~ ~ ~ ~ + =+++[+S.f+H+H+Y+Y+f+J#B%C%D%{#:@)@:@c+M+|#P+P+6@K+c%c%<@{#{@t+m+T+Y+T+i$m+",
"{#S+{#P+k+)@)@<@E%c%$+]@K+Y+<@b@S+j#i+]@H+Y+=@F%G%H%I%T+$+8+$+]@H+`@u w.=+&%p%~ ~ ~ ~ ~ ~ ~ ~ ~ ~ ~ ~ ~ ~ ~ ~ ~ ~ ~ ~ ~ ~ ~ ~ ~ ~ ~ ~ ~ ~ ~ ~ ~ ~ ~ ~ ~ ~ ~ ~ ~ ~ ~ ~ ~ ~ ~ ~ ~ ~ ~ ~ ~ ~ ~ J%K%/+`.v f+f+]@8+$+<@L%M%N%O%Q+6@Y+Q+d+N@|#P+]@K+~@f+f+f+m+.+i+I$b@$+u+t+{#",
"m+*+m+s+|#|#K+m+t@Y+Y+~@)@~@<@c@S+e#j+c%<@]@P%*#Q%R%S%s+5+]@H+H+H+v@u x.i+X+T%~ ~ ~ ~ ~ ~ ~ ~ ~ ~ ~ ~ ~ ~ ~ ~ ~ ~ ~ ~ ~ ~ ~ ~ ~ ~ ~ ~ ~ ~ ~ ~ ~ ~ ~ ~ ~ ~ ~ ~ ~ ~ ~ ~ ~ ~ ~ ~ ~ ~ ~ ~ ~ ~ ~ _ =+J.Z.q k+K+|#|#Y+U%V%W%X%Y%3@P+Y+P+c+N+Y+K+{#8%R$]@<@c%m+{@T+H+m+H+m+b@j+",
"S+*+K%f+u@K+Y+Z%E%q+K+K+$#Y+H+<@`$]#i+H+H+$+P+E@`% &.&$#P+s+]+T+u+ #u w.#+F.T%~ ~ ~ ~ ~ ~ ~ ~ ~ ~ ~ ~ ~ ~ ~ ~ ~ ~ ~ ~ ~ ~ ~ ~ ~ ~ ~ ~ ~ ~ ~ ~ ~ ~ ~ ~ ~ ~ ~ ~ ~ ~ ~ ~ ~ ~ ~ ~ ~ ~ ~ ~ ~ ~ ~ +&m+J.Z.q 5+|#H+Y+|#c%@&5$#&$&:@6@|#k+d+e#]@Y+`$`$H+~@<@<@{#N@]+]@{#<@m+H+{#",
"=+)+<@Y+Y+#@Y+'+)#{#f+f+R$/%Y+H+S+e#i+T+H+$+k+U@%&&&*&,%A++@2+H+j+N@9.T.#+=&T%~ ~ ~ ~ ~ ~ ~ ~ ~ ~ ~ ~ ~ ~ ~ ~ ~ ~ ~ ~ ~ ~ ~ ~ ~ ~ ~ ~ ~ ~ ~ ~ ~ ~ ~ ~ ~ ~ ~ ~ ~ ~ ~ ~ ~ ~ ~ ~ ~ ~ ~ ~ ~ ~ ~ -&i+J.u v 8+H+{#$+#@Y+;&>&,&|%p$:@P+P+f%U#H+c%<@`$q+]@q+q+S+e#m+T+T+<@S+b@H+",
"&%*+{#Y+s+|#$+*+1#i$m+{#<@H+<@b@t+j#=+H+<@q+)@-@'&)&&$Y+K+]@]@T+m+N@1+U.&%X+T%~ ~ ~ ~ ~ ~ ~ ~ ~ ~ ~ ~ ~ ~ ~ ~ ~ ~ ~ ~ ~ ~ ~ ~ ~ ~ ~ ~ ~ ~ ~ ~ ~ ~ ~ ~ ~ ~ ~ ~ ~ ~ ~ ~ ~ ~ ~ ~ ~ ~ ~ ~ ~ ~ ~ !&'+/+u v $+{#`$H+f+Y+p#~&{&]&p$k@s+k+^&6#<@$+c%H+q+H+<@{#i$N+]+^#{#S+S+S+H+",
"=+i+i+H+T+c%{#M.]#i$t+c@`$`$U%t+=$a#*+S+m+H+Y+E#/&(&_&H+]@T+{#T+{#|@9.U.i+@+:&~ ~ ~ ~ ~ ~ ~ ~ ~ ~ ~ ~ ~ ~ ~ ~ ~ ~ ~ ~ ~ ~ ~ ~ ~ ~ ~ ~ ~ ~ ~ ~ ~ ~ ~ ~ ~ ~ ~ ~ ~ ~ ~ ~ ~ ~ ~ ~ ~ ~ ~ ~ ~ ~ ~ <&'+/+u v $+m+S+T+]@]@[&~&}%]&(#3@f+K+I+z@`$T+<@8%$+b@S+`$i$N+H+H+u+{#t+i$2+",
"E+m+t+i+t+{#=+)#<#i$i$*+=$w%c@H+U%a#:#2${#{#H+X@}&|&1&{#H+T+T+<@H+/+u W.&%I@:&~ ~ ~ ~ ~ ~ ~ ~ ~ ~ ~ ~ ~ ~ ~ ~ ~ ~ ~ ~ ~ ~ ~ ~ ~ ~ ~ ~ ~ ~ ~ ~ ~ ~ ~ ~ ~ ~ ~ ~ ~ ~ ~ ~ ~ ~ ~ ~ ~ ~ ~ ~ ~ ~ ~ 2&=+n u 3&#@<@S+{#H+]@4&5&6&7&p$6@Y+]@`+z@{#H+<@{#8&m+`$S+l+&#u+H+m+S+'+t+]+",
"=+i+i+i+m+$+~+)#z@2$M.2%M.)+m+c%=$e@`@S+<@{#H+d+$$9&0&`$<@H+H+H+H+)#u T.X+n :&~ ~ ~ ~ ~ ~ ~ ~ ~ ~ ~ ~ ~ ~ ~ ~ ~ ~ ~ ~ ~ ~ ~ ~ ~ ~ ~ ~ ~ ~ ~ ~ ~ ~ ~ ~ ~ ~ ~ ~ ~ ~ ~ ~ ~ ~ ~ ~ ~ ~ ~ ~ ~ ~ ~ !&=+n Z.c#Y+H+t+S+{#H+a&b&c&a%Q+|#R$k+P%'@K%]@T+i${#S+=+S+2$U#]+T+i+i+i$'+'+",
"&%e$e$i+j+H+]+s@,@2$i$*+)+)+T+H+d&e&*+u+H+c@$+B+f&g&h&=+]+m+{#<@<@S$9.T.X+K.:&~ ~ ~ ~ ~ ~ ~ ~ ~ ~ ~ ~ ~ ~ ~ ~ ~ ~ ~ ~ ~ ~ ~ ~ ~ ~ ~ ~ ~ ~ ~ ~ ~ ~ ~ ~ ~ ~ ~ ~ ~ ~ ~ ~ ~ ~ ~ ~ ~ ~ ~ ~ ~ ~ ~ i&i+++u 3&f+<@t+j+T+8&R+j&k&l&P+]@]@k+k@d.=+$+T+2$S+m+Z%'+M.6#E+m+*+t+i$*+'+",
"X+*+i$'+=+K%S+)#z@e$t+t+M.m&{#S+,@:#]+2+T+T+^#^#n&o&|@S+m+<@{#H+m+|@y w.&%6 :&~ ~ ~ ~ ~ ~ ~ ~ ~ ~ ~ ~ ~ ~ ~ ~ ~ ~ ~ ~ ~ ~ ~ ~ ~ ~ ~ ~ ~ ~ ~ ~ ~ ~ ~ ~ ~ ~ ~ ~ ~ ~ ~ ~ ~ ~ ~ ~ ~ ~ ~ ~ ~ ~ ~ p&=+`@9.3&Y+f+<@u+H+$+'+q&r&=+P+)@<@H+8+~+s&#+{#)+d&S+S+S+S+{@=+m+t+'+t+*+'+",
"#+*+*+i+i+S+S+s@z@S+S+K%1#N@t+z@6##+!+2+]+{#~+(+w.Z.t&K%T+H+q+c%T+++y u&E+6 :&~ ~ ~ ~ ~ ~ ~ ~ ~ ~ ~ ~ ~ ~ ~ ~ ~ ~ ~ ~ ~ ~ ~ ~ ~ ~ ~ ~ ~ ~ ~ ~ ~ ~ ~ ~ ~ ~ ~ ~ ~ ~ ~ ~ ~ ~ ~ ~ ~ ~ ~ ~ ~ ~ ~ v&E+v@u v Y+c%q+$+s+s+=+C.z.C.^#s+b@q+s+5+F.U#'+)#s&*+t+m+S+.+i+i+i+i+e$)+'+",
"*+w&*+e$t+=+S+2%z@=$m+*+z#:#6#T#6%H+$+8+^#i$s&r.W F D+c%T+q+f+f+H+x&u 3&=+@+y&~ ~ ~ ~ ~ ~ ~ ~ ~ ~ ~ ~ ~ ~ ~ ~ ~ ~ ~ ~ ~ ~ ~ ~ ~ ~ ~ ~ ~ ~ ~ ~ ~ ~ ~ ~ ~ ~ ~ ~ ~ ~ ~ ~ ~ ~ ~ ~ ~ ~ ~ ~ ~ ~ ~ z&=+ #u o%$+c%$+Y+K+k++@.+]$r.F H+H+c%$+#@8+`@<$*+<+M+i+'+*+9$X+i$i$'+i$)+i$",
"s@)#E%2%i$'+t+)#,@i$6%N.v@ %&#e$S+{#8+^#=+6#A&1+ $e$m+{#H+{#H+T+{#N@u x.*+K.B&~ ~ ~ ~ ~ ~ ~ ~ ~ ~ ~ ~ ~ ~ ~ ~ ~ ~ ~ ~ ~ ~ ~ ~ ~ ~ ~ ~ ~ ~ ~ ~ ~ ~ ~ ~ ~ ~ ~ ~ ~ ~ ~ ~ ~ ~ ~ ~ ~ ~ ~ ~ ~ ~ ~ C&j+{@z.o%H+<@Y+u@Y+]@k+8+a.]$D&b$m+]+H+2+8+{#J.a.`@E&D.I@M.U#'+i+w%*+2$e$*+",
")#N@1#W#i$i$'+s@F&)#R.2%|@G&m+{#S+{#$+H+!$u.v F H&t+*+t+T+=$`$m+'+N@u I&*+J&K&~ ~ ~ ~ ~ ~ ~ ~ ~ ~ ~ ~ ~ ~ ~ ~ ~ ~ ~ ~ ~ ~ ~ ~ ~ ~ ~ ~ ~ ~ ~ ~ ~ ~ ~ ~ ~ ~ ~ ~ ~ ~ ~ ~ ~ ~ ~ ~ ~ ~ ~ ~ ~ ~ ~ L&#+N+1+o%D+`$q+q+]@Y+H+]+D+B.u r.N.#+8+^#f+H+i+M+e.`@F s&t@&#'+e$)+M.d&M.I@",
")#s@2%*+*+*+S+x&&#l#N@1#M&)+H+{#m+{#$+L%N&O&l#&%i$t+S+S+]+=+K%i$/+u W X ^+J.K&~ ~ ~ ~ ~ ~ ~ ~ ~ ~ ~ ~ ~ ~ ~ ~ ~ ~ ~ ~ ~ ~ ~ ~ ~ ~ ~ ~ ~ ~ ~ ~ ~ ~ ~ ~ ~ ~ ~ ~ ~ ~ ~ ~ ~ ~ ~ ~ ~ ~ ~ ~ ~ ~ ~ P&#+T#z.c#e.6%8%<@<@f+T+{#=+H+A.`.Q&R&]@H+$+Z%u+i+&#B.S&]$)#U#I@M.2$M.6%s@s@",
"s@*+*+I@M.2$i$/+s&:#N@P.s@e${#t+2+7@T&U&V&W&#+~+*+i$<@<@H+H+]+I@X c#z X&Y&J.K&~ ~ ~ ~ ~ ~ ~ ~ ~ ~ ~ ~ ~ ~ ~ ~ ~ ~ ~ ~ ~ ~ ~ ~ ~ ~ ~ ~ ~ ~ ~ ~ ~ ~ ~ ~ ~ ~ ~ ~ ~ ~ ~ ~ ~ ~ ~ ~ ~ ~ ~ ~ ~ ~ ~ Z&&%2+l#y.!.s&Z%q+q+R$]@H+e$D+8+`& *.*+*u@8+i+{#]+S+'@s&S&I@0$)#M.2$*+*+W#/+",
"2%d&*+s@I@I@2$s@J.S&z#6%t+i$'+t+H+@*#*$*%*&*]+E+i+`${#8%T+T+X+u U._#J.=+'+J.K&~ ~ ~ ~ ~ ~ ~ ~ ~ ~ ~ ~ ~ ~ ~ ~ ~ ~ ~ ~ ~ ~ ~ ~ ~ ~ ~ ~ ~ ~ ~ ~ ~ ~ ~ ~ ~ ~ ~ ~ ~ ~ ~ ~ ~ ~ ~ ~ ~ ~ ~ ~ ~ ~ ~ **&%H+m+n#c#A&{@H+b@q+|#f+{#E+G+,#=*-*;*>*]@=+Z%S+`$K%P.e.F.s&s@)+M.d&M.M.I@",
"s@6%s@|@I@6%s@d.B.N.)#9#*+)+i$m+,*'*)*!*~*,%2+H+m+t+Z%m+{#&%T q.u v@]+]+'+J.K&~ ~ ~ ~ ~ ~ ~ ~ ~ ~ ~ ~ ~ ~ ~ ~ ~ ~ ~ ~ ~ ~ ~ ~ ~ ~ ~ ~ ~ ~ ~ ~ ~ ~ ~ ~ ~ ~ ~ ~ ~ ~ ~ ~ ~ ~ ~ ~ ~ ~ ~ ~ ~ ~ ~ {*t+]+<@8&|+W.v.:#m+H+c%<@f+T+H+P+]*^*/*(*_*j+=+t+*+K%e$##s$P.N@M.2%*+*+S$2%",
"`@6%s@2%w&`@s&:*{#=$'+)+*+*+w%<*[*7%}*|*;@$+T+8%<@m+`$S+i$_#p.1*6#E+{#{#i$J.K&~ ~ ~ ~ ~ ~ ~ ~ ~ ~ ~ ~ ~ ~ ~ ~ ~ ~ ~ ~ ~ ~ ~ ~ ~ ~ ~ ~ ~ ~ ~ ~ ~ ~ ~ ~ ~ ~ ~ ~ ~ ~ ~ ~ ~ ~ ~ ~ ~ ~ ~ ~ ~ ~ ~ 2*j+T+S+T+=+n#W.U.N@{#H+{#8%c%c%$+P+'$3*4*5*t@t+e$*+t+i$e$8%H&B.|@2%u$)+)#2%",
"6**+M.2$s@&#!$S&e$i+*+s@i$i$l+7*8*9*0*O##@^#H+<@<@=$=$'+O p.W 6#m+S+t+m+'+J.K&~ ~ ~ ~ ~ ~ ~ ~ ~ ~ ~ ~ ~ ~ ~ ~ ~ ~ ~ ~ ~ ~ ~ ~ ~ ~ ~ ~ ~ ~ ~ ~ ~ ~ ~ ~ ~ ~ ~ ~ ~ ~ ~ ~ ~ ~ ~ ~ ~ ~ ~ ~ ~ ~ ~ a*m+H+{#<@{#&%O U.w.@+=+`$U%f+Y+f+$+$#b*c*d*e*f*S+'+'+*+i$'+1#<$M&N@6%I@)#:#",
"{$I@6%2%6#)#:#6%*+*+)+)+i$L%g*h*i*j*O#{#T+T+<@<@m+i+i+l#r.Y.e.K%i+Z%m+`$'+J.K&~ ~ ~ ~ ~ ~ ~ ~ ~ ~ ~ ~ ~ ~ ~ ~ ~ ~ ~ ~ ~ ~ ~ ~ ~ ~ ~ ~ ~ ~ ~ ~ ~ ~ ~ ~ ~ ~ ~ ~ ~ ~ ~ ~ ~ ~ ~ ~ ~ ~ ~ ~ ~ ~ ~ k*T+$+H+<@m+]+X+C.s.v w&i+i+{#u@Y+H+b@Y+l*m*n*o*p*m+=+)+*+*+*+M+N@H |@I@I@2%",
"I@2%I@&#q*N@r*2$)+*+i$)+L%s*t*u*0*a&<@`$T+8%{#H+m+=+<+A&z.B.m+b@i+K%<@{#t+v@K&~ ~ ~ ~ ~ ~ ~ ~ ~ ~ ~ ~ ~ ~ ~ ~ ~ ~ ~ ~ ~ ~ ~ ~ ~ ~ ~ ~ ~ ~ ~ ~ ~ ~ ~ ~ ~ ~ ~ ~ ~ ~ ~ ~ ~ ~ ~ ~ ~ ~ ~ ~ ~ ~ ~ a*]+^#c%q+{#m+D+`@Z.v.X {$i+i${#c%<@`$<@Y+v*w*x*y*z*S+e$2$`@s@I@6#.+A.s@2%2%",
"E%2%E%e#i$]#2%2$6%'+m+A*B*C*h%D*E*{#i$`$b@<@{#H+Y&<$u.F*G*]+'+S+m+`${#{#S+!$H*~ ~ ~ ~ ~ ~ ~ ~ ~ ~ ~ ~ ~ ~ ~ ~ ~ ~ ~ ~ ~ ~ ~ ~ ~ ~ ~ ~ ~ ~ ~ ~ ~ ~ ~ ~ ~ ~ ~ ~ ~ ~ ~ ~ ~ ~ ~ ~ ~ ~ ~ ~ ~ ~ ~ I*T+$+H+Y+T+S+S+8&n u r.u e$Z%=$<@<@m+S+c@J*K*L*M*N*O*u$i$I@I@I@M+'+&#++%+2%",
"6%M.s@P*2$&#2%6%*+i$Q*R*S*T*U*V*c@i+e$`$b@S+{#<@e.W*v N.D+i+2$S+{#<@T+T+S+6#H*~ ~ ~ ~ ~ ~ ~ ~ ~ ~ ~ ~ ~ ~ ~ ~ ~ ~ ~ ~ ~ ~ ~ ~ ~ ~ ~ ~ ~ ~ ~ ~ ~ ~ ~ ~ ~ ~ ~ ~ ~ ~ ~ ~ ~ ~ ~ ~ ~ ~ ~ ~ ~ ~ ~ X*=+8&H+]@<@{#=$'+^#:#W Y*z e$=$=$m+T+`$m+S+Z*`* =.=+=@=)+2%I@I@e#'+M+)#N@)#",
"s@)#)#z@t@(+1#6%W#w%#=$=%=&=*=<@S+i$2$c@{#m+i+{@A&3&I =+S+2$)+i$i+T+H+{#*+Q.~ ~ ~ ~ ~ ~ ~ ~ ~ ~ ~ ~ ~ ~ ~ ~ ~ ~ ~ ~ ~ ~ ~ ~ ~ ~ ~ ~ ~ ~ ~ ~ ~ ~ ~ ~ ~ ~ ~ ~ ~ ~ ~ ~ ~ ~ ~ ~ ~ ~ ~ ~ ~ ~ ~ ~ ==*+H+c%T+b@m+S+2$m+^#-=y.;=Q e$c@q+m+{#{#i${#J*`*>=,='=)=)#M.s@&#N@e#S$%+%+",
"N@R.M+N@z@y#|@s@E%!=~=)&{=]=8%i+i$e$=$Z%S+=$M+W.w.^=/=K%i$2%M.t+Z%]+K%Y&/+B H*~ ~ ~ ~ ~ ~ ~ ~ ~ ~ ~ ~ ~ ~ ~ ~ ~ ~ ~ ~ ~ ~ ~ ~ ~ ~ ~ ~ ~ ~ ~ ~ ~ ~ ~ ~ ~ ~ ~ ~ ~ ~ ~ ~ ~ ~ ~ ~ ~ ~ ~ ~ ~ ~ ~ (=N+=+H+<@<@m+S+S+m+&%D+e.3&_=I t+c%T+`$<@m+t+t+4&:=u*j&<=1#e$++s&G&}@6%O j#",
"[=*%/+N@]#R.|@/+}=|=1=2=3=J#t+w%*+=$`$`$i$:#3&U.O.2+=+i$t+M.2${#K%K%e${$4=S.5=~ ~ ~ ~ ~ ~ ~ ~ ~ ~ ~ ~ ~ ~ ~ ~ ~ ~ ~ ~ ~ ~ ~ ~ ~ ~ ~ ~ ~ ~ ~ ~ ~ ~ ~ ~ ~ ~ ~ ~ ~ ~ ~ ~ ~ ~ ~ ~ ~ ~ ~ ~ ~ ~ ~ 6=z w&i+{#8&`$i$t+S+e$i+H+P.x.D&Q.T+8%S+{#m+S+*+i$4&7=8=9=w&@+I@s&a.a.)#|+z#",
"G&:#w&|@F&.$|@I@t@0=n&a='+*+6%d&2$S+b@`$)+,@q z b='+*+e$i$2$)+`$Y&i$i+R.Z.c=d=e=~ ~ ~ ~ ~ ~ ~ ~ ~ ~ ~ ~ ~ ~ ~ ~ ~ ~ ~ ~ ~ ~ ~ ~ ~ ~ ~ ~ ~ ~ ~ ~ ~ ~ ~ ~ ~ ~ ~ ~ ~ ~ ~ ~ ~ ~ ~ ~ ~ ~ ~ ~ ~ ~ ~ f=O.e$=+]+S+i$i$S+i$I@e$~+`.y.F '+5#t+{#`$i$M.{$e$g=h=i=I@K.:#[=}@&#I@)#G ",
"*+I@%+e#z@B.s@M.|@j=k=0$@+M.P*2%M.i$i$=$*+&#_#z.o `@M.2$i$=$m&=+&%i$T+A@l=m=n=u o=~ ~ ~ ~ ~ ~ ~ ~ ~ ~ ~ ~ ~ ~ ~ ~ ~ ~ ~ ~ ~ ~ ~ ~ ~ ~ ~ ~ ~ ~ ~ ~ ~ ~ ~ ~ ~ ~ ~ ~ ~ ~ ~ ~ ~ ~ ~ ~ ~ ~ ~ ~ ~ ~ H*p=H+<@`$Z%i$=$e$e$2%s@H+W 1+z i+m+t+i$w%)+2%`@I@{@9.W.9$`@s@,@e.s&s@E%e$",
"E%I@)#6#z@B.s@#+@+q=z.0$F.*+)+M.)+i$i$S+t+s&_#v v@{$*+I@d&i$r=e$i+e$<@s=t=u=v=w=x=~ ~ ~ ~ ~ ~ ~ ~ ~ ~ ~ ~ ~ ~ ~ ~ ~ ~ ~ ~ ~ ~ ~ ~ ~ ~ ~ ~ ~ ~ ~ ~ ~ ~ ~ ~ ~ ~ ~ ~ ~ ~ ~ ~ ~ ~ ~ ~ ~ ~ ~ ~ ~ ~ ~ y=Q+8&K%i+2$i$2$2$M.)#=+k#z.]$#+i+i+)+i$e$M.`@@+.+z.t.0$`@I@e#e.M&s@6%*+",
"E%I@I@.+u I {$m+{$c#z=e.S+S+i$*+)+w%2$i$m+a.`.y.t&6*w&M.2%2$e$'+{$2$U%A=B=C=D=E=F=~ ~ ~ ~ ~ ~ ~ ~ ~ ~ ~ ~ ~ ~ ~ ~ ~ ~ ~ ~ ~ ~ ~ ~ ~ ~ ~ ~ ~ ~ ~ ~ ~ ~ ~ ~ ~ ~ ~ ~ ~ ~ ~ ~ ~ ~ ~ ~ ~ ~ ~ ~ ~ ~ ~ G=H=`$)+'+e$e$e$2%t@s@'+k#Z.A ^+e$e$*+e$i$M.2%I=<#1+t.(+/+u$&#v H I@6%*+",
"6%I@w&D.y.R.*+F.J.W.1*J=K=L=M=d&=$S+2$M.i+B.Z.y.{@I@2$2$2%M.M.I@R.<#R+7*N=O=P=Q=F=~ ~ ~ ~ ~ ~ ~ ~ ~ ~ ~ ~ ~ ~ ~ ~ ~ ~ ~ ~ ~ ~ ~ ~ ~ ~ ~ ~ ~ ~ ~ ~ ~ ~ ~ ~ ~ ~ ~ ~ ~ ~ ~ ~ ~ ~ ~ ~ ~ ~ ~ ~ ~ ~ ~ R=S=2$v e$2$)+d&)#%+t@e$c#z=A {$i$i$S+i+i$d&T=U=V=u W.^$`@I@}@W.(+I@*+6%",
"M.w&2%&#Y.O./+2%J.c#K#W=X=Y=Z=d&)+t+2$P*'+d.z=y.{@s@)+M.2%*+e$`@B#,@~@7*`= -.-+-F=~ ~ ~ ~ ~ ~ ~ ~ ~ ~ ~ ~ ~ ~ ~ ~ ~ ~ ~ ~ ~ ~ ~ ~ ~ ~ ~ ~ ~ ~ ~ ~ ~ ~ ~ ~ ~ ~ ~ ~ ~ ~ ~ ~ ~ ~ ~ ~ ~ ~ ~ ~ ~ ~ ~ R=T&i$s#S+e$2%E%t@|@s@e$w.u u w&6%S+S+i$2$<*@-#-$-[+k#d./+/+M&W _+I@*+I@",
"s@s@)#s&Y.O  #/+n c#%-&-*-=---M.M.t+e$M.&%B.`.v T#s@*+*+e$i$t+{$R.6#;->-,-'-)-!-F=~ ~ ~ ~ ~ ~ ~ ~ ~ ~ ~ ~ ~ ~ ~ ~ ~ ~ ~ ~ ~ ~ ~ ~ ~ ~ ~ ~ ~ ~ ~ ~ ~ ~ ~ ~ ~ ~ ~ ~ ~ ~ ~ ~ ~ ~ ~ ~ ~ ~ ~ ~ ~ ~ ~ R=~-i+Y.K%'+M.2%E%2%M.&%W.u A *+&%i$S+i+*+{-]-^-/-[+x.d./+/+B.W N.`@I@6%",
"s@/+/+&#Y.|+/+6%J.y.O &-(-_-I=s@m&S+t+2$=+e.C.y.T#s@*+*+'+'+i+F.P.z@`$a@:-<-[-Q=F=~ ~ ~ ~ ~ ~ ~ ~ ~ ~ ~ ~ ~ ~ ~ ~ ~ ~ ~ ~ ~ ~ ~ ~ ~ ~ ~ ~ ~ ~ ~ ~ ~ ~ ~ ~ ~ ~ ~ ~ ~ ~ ~ ~ ~ ~ ~ ~ ~ ~ ~ ~ ~ ~ ~ }-|-{-z=K%e$e$2$l+d&M.i+w.u C.#+i+t+'+m+*+2$1-2-/-[+c#e.++@+B.y.Y#K.I@@+",
"s@/+/+G&Y.F n W# #w.[+3-4-5-l+2%*+S+*+i$i+e.Z.w.T#s@*+e$&%i+e$F.D+i$8%6-7-8-9-0-F=~ ~ ~ ~ ~ ~ ~ ~ ~ ~ ~ ~ ~ ~ ~ ~ ~ ~ ~ ~ ~ ~ ~ ~ ~ ~ ~ ~ ~ ~ ~ ~ ~ ~ ~ ~ ~ ~ ~ ~ ~ ~ ~ ~ ~ ~ ~ ~ ~ ~ ~ ~ ~ ~ ~ }-z*r=*+Z%I@e$i$M.2%2%&%w.u ]$#+i+*+t+i+i$d&a-b-c-`.v U#*+@+B.v B.K.6%I@",
"s@I@`@6#N@N./+W#`#W.`.a.d-w%M.M.M.t+'+c@m+T#z w.r$s@)+e$e$i+e$e$K%Z%~@e-f-g-h-i-j-~ ~ ~ ~ ~ ~ ~ ~ ~ ~ ~ ~ ~ ~ ~ ~ ~ ~ ~ ~ ~ ~ ~ ~ ~ ~ ~ ~ ~ ~ ~ ~ ~ ~ ~ ~ ~ ~ ~ ~ ~ ~ ~ ~ ~ ~ ~ ~ ~ ~ ~ ~ ~ ~ ~ k-l-=$i$i$@+*+'+6%s@s@=+c#u B #+i$i$i+=$2$M.M.m-N@z k#T#@+++}@d.6#I@I@6%",
"I@I@I@e#{@(+/+M.v@n-Z.B.I@6%M.M.)#e$'+=+i+T#Z.v 9$I@)+e$'+=+i+'+i$'+=+A@<=o-p-a@o=~ ~ ~ ~ ~ ~ ~ ~ ~ ~ ~ ~ ~ ~ ~ ~ ~ ~ ~ ~ ~ ~ ~ ~ ~ ~ ~ ~ ~ ~ ~ ~ ~ ~ ~ ~ ~ ~ ~ ~ ~ ~ ~ ~ ~ ~ ~ ~ ~ ~ ~ ~ ~ ~ ~ q-s@i$d&i$X+*+i+*+++I@{+v x B #+m+i+]+t+2$%+s@F.{@u o%0$@+/+a.d.B./+I@`@",
"6#|@s@6#&#(+`@I@{@t.`.e.K.*+t@t@2%2$Z%'+*+6#Z.y..+/+*+6%e$i+*+'+e$=+i$2%D.r-s-F=~ ~ ~ ~ ~ ~ ~ ~ ~ ~ ~ ~ ~ ~ ~ ~ ~ ~ ~ ~ ~ ~ ~ ~ ~ ~ ~ ~ ~ ~ ~ ~ ~ ~ ~ ~ ~ ~ ~ ~ ~ ~ ~ ~ ~ ~ ~ ~ ~ ~ ~ ~ ~ ~ ~ t-!$&%i+e$i+*+*+=+'+w&*+{$v z u-#+m+#+m+i+*+)#I@F.!$u W.0$w&@+e.<+P.`@)#d.",
"<$R.H$e.U#G ++++!$s#v-j#'+*+I@)#M.2$)+*+*+/+[+1+]$|@*+e$2$)+I@e$#+'+)+w&{$M&w-~ ~ ~ ~ ~ ~ ~ ~ ~ ~ ~ ~ ~ ~ ~ ~ ~ ~ ~ ~ ~ ~ ~ ~ ~ ~ ~ ~ ~ ~ ~ ~ ~ ~ ~ ~ ~ ~ ~ ~ ~ ~ ~ ~ ~ ~ ~ ~ ~ ~ ~ ~ ~ ~ ~ x-t&y-6%e$=+'+s@I@i+e$I@w&G c#`.B.#+=+'+S+*+*+I@F.^+S$N#s#9$I@`@A.<+(+|@(+I ",
"v@B.|@e.[=H n `@F.0#z-A-B-d&)#)#)+s@2%2%)+^#q*O X.z /+*+6%6%M.*+X+i+e$'+*+D./@~ ~ ~ ~ ~ ~ ~ ~ ~ ~ ~ ~ ~ ~ ~ ~ ~ ~ ~ ~ ~ ~ ~ ~ ~ ~ ~ ~ ~ ~ ~ ~ ~ ~ ~ ~ ~ ~ ~ ~ ~ ~ ~ ~ ~ ~ ~ ~ ~ ~ ~ ~ ~ ~ ~ C-i {$W#=+i+'+I@I@e$'+++P.A&9.P.2+#+i+2$e$6%@+@+t+S=D-E-F-@+n |@(+R.G ++A#|@",
"N@)#:#s&e#G |@m m G-H-I-J-K-d&6%M.s@M.M.M.e$$+D.u !.E I@e$6%*+e$i+i+i+e$/+(+L-~ ~ ~ ~ ~ ~ ~ ~ ~ ~ ~ ~ ~ ~ ~ ~ ~ ~ ~ ~ ~ ~ ~ ~ ~ ~ ~ ~ ~ ~ ~ ~ ~ ~ ~ ~ ~ ~ ~ ~ ~ ~ ~ ~ ~ ~ ~ ~ ~ ~ ~ ~ ~ ~ ~ M-:#6%'+i+i$'+I@w&{$X+s&A&q=z#~+&%e$t+*+6%M.u$*+~-N-O-P-Q-F.!$v@P.P.G :#N@N@",
"|@/+v@&#*+}@n n v@j+R-S-T-U-V-l+2%d&d&)+2%2%*+H+M&X !.R.I@*+e$X+=+'+e$'+I@P.x-~ ~ ~ ~ ~ ~ ~ ~ ~ ~ ~ ~ ~ ~ ~ ~ ~ ~ ~ ~ ~ ~ ~ ~ ~ ~ ~ ~ ~ ~ ~ ~ ~ ~ ~ ~ ~ ~ ~ ~ ~ ~ ~ ~ ~ ~ ~ ~ ~ ~ ~ ~ ~ ~ ~ W-/+&%i+Z%i$t+@+*+F.6#v.W._#^+#+'+*+'+'+'+*+)+X-Y-Z-`-_&<@++.+ #M&v@P.N@N@N@",
"@+/+{@a.6%a.n n |@n <@ ;.;+;@;#;M.M.2$d&2$M.I@6%K%A#$;p.(+6%{$X+#+e$e$*+I@e.%;~ ~ ~ ~ ~ ~ ~ ~ ~ ~ ~ ~ ~ ~ ~ ~ ~ ~ ~ ~ ~ ~ ~ ~ ~ ~ ~ ~ ~ ~ ~ ~ ~ ~ ~ ~ ~ ~ ~ ~ ~ ~ ~ ~ ~ ~ ~ ~ ~ ~ ~ ~ ~ ~ ~ &;++*+*+i+i+i+{$*+.+T.w.z K.6%6%i$*+'+*+F.6%*;=;-;;;>;O#{$n |@N@M&|@}@N@v@N@",
"++/+:#T#n .+v@++++J./+,;';);!;~;{;5#S+i$i$2$*+I@w&~+l#w.!.(+J.*+'+*+'+e$:#a.];~ ~ ~ ~ ~ ~ ~ ~ ~ ~ ~ ~ ~ ~ ~ ~ ~ ~ ~ ~ ~ ~ ~ ~ ~ ~ ~ ~ ~ ~ ~ ~ ~ ~ ~ ~ ~ ~ ~ ~ ~ ~ ~ ~ ~ ~ ~ ~ ~ ~ ~ ~ ~ ~ ~ ^;K.*+*+*+F.F.{$6#U.v.Z.o /+2%e$i+'+*+s@'+U%N%/;(;_;:;)+)#`@)#N+B.:#&#)#N@z@",
"++/+/+w&M+:#s&v@++/+|@s@,%<;[;};|;1;=$i$i$i$*+*+`@*+&%*%W.).G /+@+F.e$*+N@a.2;~ ~ ~ ~ ~ ~ ~ ~ ~ ~ ~ ~ ~ ~ ~ ~ ~ ~ ~ ~ ~ ~ ~ ~ ~ ~ ~ ~ ~ ~ ~ ~ ~ ~ ~ ~ ~ ~ ~ ~ ~ ~ ~ ~ ~ ~ ~ ~ ~ ~ ~ ~ ~ ~ ~ 3;`@{$@+*+e$I@N@3&v.T J.{$ #)#*+#+e$e$6%e$4;5;6;7;8;*+4#t@I@1#[=:#N@6%s@|@N@",
"|@{@|@`@6%N@!$e.N@s@I@I@6%9;0;a;b;c;w%t+*+M.6%M.I@++K.d;_#A&).B.`@w&I@I@N@e.2;~ ~ ~ ~ ~ ~ ~ ~ ~ ~ ~ ~ ~ ~ ~ ~ ~ ~ ~ ~ ~ ~ ~ ~ ~ ~ ~ ~ ~ ~ ~ ~ ~ ~ ~ ~ ~ ~ ~ ~ ~ ~ ~ ~ ~ ~ ~ ~ ~ ~ ~ ~ ~ ~ ~ 3;J&6%*+'+e$N@v s.u !$@+6%|@++*+i$M.i$i$e;f;g;h;i;i$s@{@|@)#&#D.N@)#E%|@N@N@",
"N@z@ #J./+++M+T#e.|@I@6%I@*+j;k;l;m;n;L%*+I@6%6%*+I@++{${$o;v.p.a.++I@w& #&#2;~ ~ ~ ~ ~ ~ ~ ~ ~ ~ ~ ~ ~ ~ ~ ~ ~ ~ ~ ~ ~ ~ ~ ~ ~ ~ ~ ~ ~ ~ ~ ~ ~ ~ ~ ~ ~ ~ ~ ~ ~ ~ ~ ~ ~ ~ ~ ~ ~ ~ ~ ~ ~ ~ ~ 3;`@I@*+*+/+W X.z.U#@+K.s@/+I@6%e$i+c@p;q;r;s;t;S+|@|@|@N@D.T#s&1#|@N@N@N@z@",
"N@z@N@|@{@N@I@t&<$e.:#w&M.)#w&R$u;v;w;x;l+w&/+w&*+I@w&@+K.K.O A&y;T#`@w&v@U#z;~ ~ ~ ~ ~ ~ ~ ~ ~ ~ ~ ~ ~ ~ ~ ~ ~ ~ ~ ~ ~ ~ ~ ~ ~ ~ ~ ~ ~ ~ ~ ~ ~ ~ ~ ~ ~ ~ ~ ~ ~ ~ ~ ~ ~ ~ ~ ~ ~ ~ ~ ~ ~ ~ ~ A;n I@I@/+u q.1*T#F.{$I@I@I@++*+i+=$B;C;D;E;p$i$|@N@N@N@s&s& +v@q*D.z@N@]#z@",
"N@z@N@{@6#N+/+{$.+^=(+M+)#|@ #++F;G;H;I;J;=$I@{${$*+*+@+J&w+o T K;v.U#I@N@s&2;~ ~ ~ ~ ~ ~ ~ ~ ~ ~ ~ ~ ~ ~ ~ ~ ~ ~ ~ ~ ~ ~ ~ ~ ~ ~ ~ ~ ~ ~ ~ ~ ~ ~ ~ ~ ~ ~ ~ ~ ~ ~ ~ ~ ~ ~ ~ ~ ~ ~ ~ ~ ~ ~ ~ L;J./+/+_#r.z.e.X+I@w&++@+I@{$e$Z%M;N;O;P;Q;e$M+N@|@N@s&}+v@M+v@D.e#M+N@e#e#",
"N@ #N@H${@6#!$U#M&r$C.(+<#N@S$ #<*7&C*R;S;#;M.{$K.I@I@`@/+`@F.{@u !.U..+{@a.2;~ ~ ~ ~ ~ ~ ~ ~ ~ ~ ~ ~ ~ ~ ~ ~ ~ ~ ~ ~ ~ ~ ~ ~ ~ ~ ~ ~ ~ ~ ~ ~ ~ ~ ~ ~ ~ ~ ~ ~ ~ ~ ~ ~ ~ ~ ~ ~ ~ ~ ~ ~ ~ ~ ~ L;!$J.C.Y*W e.#+`@|@/+I@*+e$*+i$*;3%T;U;V;`$N@1#N@{@a._#&#e#G U#,@e#|@a#<#{@",
"v@ # #z@M+.+{@d.y#B.G&_#d. #++J.:#`$W;X;Y;Z;e#n @+I@@+I@:#J.J.F..+z._=x..+a.2;~ ~ ~ ~ ~ ~ ~ ~ ~ ~ ~ ~ ~ ~ ~ ~ ~ ~ ~ ~ ~ ~ ~ ~ ~ ~ ~ ~ ~ ~ ~ ~ ~ ~ ~ ~ ~ ~ ~ ~ ~ ~ ~ ~ ~ ~ ~ ~ ~ ~ ~ ~ ~ ~ ~ `;n N.-.q=.$~+/+ #|@`@`@@+6%I@n  >.>U;+>c%/+N@N@ #e.`.@>e.[=l#&#e#{@|@N@e#z@",
"N@{@!$e#z@N@ #a.H #>e.&#z Q. #n n s@U%$>%>&>c#U#++s@`@K.`@++N@v@*+B.o%!.D.s&2;~ ~ ~ ~ ~ ~ ~ ~ ~ ~ ~ ~ ~ ~ ~ ~ ~ ~ ~ ~ ~ ~ ~ ~ ~ ~ ~ ~ ~ ~ ~ ~ ~ ~ ~ ~ ~ ~ ~ ~ ~ ~ ~ ~ ~ ~ ~ ~ ~ ~ ~ ~ ~ ~ ~ `;J.F t.u ~+n  #:#@+*+6%`@`@/+C.*>=>->~@`@/+|@{@.+C.e.D.C.G&F &#D.{@z@z@6#{@",
"N@N@|@N@N@{@!$&#;>X&<+&#s&z B.|@/+|@`@'+{$O t.o%.+v@`@`@`@J.!$!$v@R.w.r.s&B.2;~ ~ ~ ~ ~ ~ ~ ~ ~ ~ ~ ~ ~ ~ ~ ~ ~ ~ ~ ~ ~ ~ ~ ~ ~ ~ ~ ~ ~ ~ ~ ~ ~ ~ ~ ~ ~ ~ ~ ~ ~ ~ ~ ~ ~ ~ ~ ~ ~ ~ ~ ~ ~ ~ ~ >> #}+w.U.v@/+:#)#6%e$I@X&:#|+W.`.)#T+e$I@/+{@a.O M&.+z#:#&#l#6#e#e#e#z@e#z@",
"N+e#|@|@N@v@J.6#M@N@n (+6#U#_#d.{@ #N@++D#J._#U.X .+/+`@++|@ #N@!$F W.r.a.e.2;~ ~ ~ ~ ~ ~ ~ ~ ~ ~ ~ ~ ~ ~ ~ ~ ~ ~ ~ ~ ~ ~ ~ ~ ~ ~ ~ ~ ~ ~ ~ ~ ~ ~ ~ ~ ~ ~ ~ ~ ~ ~ ~ ~ ~ ~ ~ ~ ~ ~ ~ ~ ~ ~ ~ ,>v@O t.!.{@N@N@|@I@*+++n F W.u <$m+@+6%I@ #a.C.G&D.I M+{@&#l#U#e#,@e#e#e#N+",
"G&s&e#z@{@N@`@6#G e#:#X+^=&#r+u d.{@v@ #++&%v@u r.s  #I@w&|@N@:#v@|+W.!.X#Y#'>~ ~ ~ ~ ~ ~ ~ ~ ~ ~ ~ ~ ~ ~ ~ ~ ~ ~ ~ ~ ~ ~ ~ ~ ~ ~ ~ ~ ~ ~ ~ ~ ~ ~ ~ ~ ~ ~ ~ ~ ~ ~ ~ ~ ~ ~ ~ ~ ~ ~ ~ ~ ~ ~ ~ )>t$C.t.!.{@|@{@z@/+~$`@P.A&1*e.2+*+s@%+S${@O (+{@O !${@D.s&|+&#,@N+{@N@<#e#",
"e#e#{@{@ #:#J.e.y#,@N@s@`@N@N@P.C.6#J.D.{@K.{+M+Y.r.<+:#n |@v@:#/+G !>-.e.B.'>~ ~ ~ ~ ~ ~ ~ ~ ~ ~ ~ ~ ~ ~ ~ ~ ~ ~ ~ ~ ~ ~ ~ ~ ~ ~ ~ ~ ~ ~ ~ ~ ~ ~ ~ ~ ~ ~ ~ ~ ~ ~ ~ ~ ~ ~ ~ ~ ~ ~ ~ ~ ~ ~ ~ )> #_#t.!.N@N@e#e#N@++{@T.v y#=+F.`@|@v@N@(+R.N@J.6#!$6#,@[=E &#,@6#e#D.N@&#",
"N+N+M+N@v@ #v@e.~>G&,@N@N@e#N@,@A#O v@|@N@/+K.#+1*{>I J.:# %{@ # #]>t.;.a.M&^>~ ~ ~ ~ ~ ~ ~ ~ ~ ~ ~ ~ ~ ~ ~ ~ ~ ~ ~ ~ ~ ~ ~ ~ ~ ~ ~ ~ ~ ~ ~ ~ ~ ~ ~ ~ ~ ~ ~ ~ ~ ~ ~ ~ ~ ~ ~ ~ ~ ~ ~ ~ ~ ~ ~ )>{@u u.-.M+z@z@.+.+/+.+/>L.6%'+*+)#|@/+(+R.,@N@|@,@{@z@&#[=|+&#&#[=}@&#,@r+",
"N+e#e#.+M+ #M+d.|+G&&#N@N@N+N@D.@>v-U#!$ #!$++u$(>_>:>v@v@{@.+ #N@l#t.).e.B.^>~ ~ ~ ~ ~ ~ ~ ~ ~ ~ ~ ~ ~ ~ ~ ~ ~ ~ ~ ~ ~ ~ ~ ~ ~ ~ ~ ~ ~ ~ ~ ~ ~ ~ ~ ~ ~ ~ ~ ~ ~ ~ ~ ~ ~ ~ ~ ~ ~ ~ ~ ~ ~ ~ ~ )>{@u s.;..+M+z@N@|@`@%+<>[>}>I@W#s@/+|@z }@e#N@|@N+N+e#&#&#|+a.N+&#[=&#&#}@",
"6#e#{@N@M+{@N@}@n#a.,@{@N@e#e#'@&#~>A#N+N@M+++S+|>1>2>`#v@v@N@|@N@P W.;.a.d.'>~ ~ ~ ~ ~ ~ ~ ~ ~ ~ ~ ~ ~ ~ ~ ~ ~ ~ ~ ~ ~ ~ ~ ~ ~ ~ ~ ~ ~ ~ ~ ~ ~ ~ ~ ~ ~ ~ ~ ~ ~ ~ ~ ~ ~ ~ ~ ~ ~ ~ ~ ~ ~ ~ ~ 3>4>u X.o.6#N@z@N@)#I@5>6>7>8>*+9>1#|@N@[+G&,@|@:#6#0>,@'@s&l#&#N+,@&#[=}@}@",
"6#e#{@{@M+N@N@B.l#&#D.H$N@z@,@a>F&z#H N+D.6#v@t+b>c>d>N@J.n J.v@v@I W.o.e.A.^>~ ~ ~ ~ ~ ~ ~ ~ ~ ~ ~ ~ ~ ~ ~ ~ ~ ~ ~ ~ ~ ~ ~ ~ ~ ~ ~ ~ ~ ~ ~ ~ ~ ~ ~ ~ ~ ~ ~ ~ ~ ~ ~ ~ ~ ~ ~ ~ ~ ~ ~ ~ ~ ~ ~ 3>{@z s.;.6#N@{@]#N@/+p*e>f>g>)+)# %z@z@B#s&N+|@:#,@[=&#&#a.l#e.D.M+M+&#G&}@",
"6#e#&#a.a.e#.+P.~>j#e#e#N@z@,@,@&#l#d.M+6#&#|@j+h>i>j>z@`#n J.++J.l#W.-.e.<+^>~ ~ ~ ~ ~ ~ ~ ~ ~ ~ ~ ~ ~ ~ ~ ~ ~ ~ ~ ~ ~ ~ ~ ~ ~ ~ ~ ~ ~ ~ ~ ~ ~ ~ ~ ~ ~ ~ ~ ~ ~ ~ ~ ~ ~ ~ ~ ~ ~ ~ ~ ~ ~ ~ ~ k>.+u !>;.6#N@D.z@{@ #p*l>m>g>M.N@z@{@N@O 6#N@)#|@N+&#&#&#a.R.e.e#N@ #e#&#[=",
"T#a.&#a.&#6#{@d.l#[=N+e#z@z@e#,@&#|+(+6#N+e#v@t+n>o>p><#!$n q>/+n O U.-.Y#:+^>~ ~ ~ ~ ~ ~ ~ ~ ~ ~ ~ ~ ~ ~ ~ ~ ~ ~ ~ ~ ~ ~ ~ ~ ~ ~ ~ ~ ~ ~ ~ ~ ~ ~ ~ ~ ~ ~ ~ ~ ~ ~ ~ ~ ~ ~ ~ ~ ~ ~ ~ ~ ~ ~ ~ r>.+u t.;.6#D.N+6#6#N@p*s>t>u>2%N@z@e#M+Z.e#{@N@ #6#&#a.6#U#l#&#e#N@ #{@}@N+",
"U#e.[=U#s&e#N@}@&+}@&#a#N@N@ %,@&#n#G &#D.M+6#u$v>w>x><#!$J./+)#/+}+t.).:+(+^>~ ~ ~ ~ ~ ~ ~ ~ ~ ~ ~ ~ ~ ~ ~ ~ ~ ~ ~ ~ ~ ~ ~ ~ ~ ~ ~ ~ ~ ~ ~ ~ ~ ~ ~ ~ ~ ~ ~ ~ ~ ~ ~ ~ ~ ~ ~ ~ ~ ~ ~ ~ ~ ~ ~ r>N@u y>o.U#N+&#6#N+a#z>A>B>u>P*N@z@e#{@z .+D.z@{@&#6#e#6#a.F e.e#6#M+,@[=D.",
"e.e.&#a.e.6#{@B.H a.&#z@1#N@z@N+[=|+^$C>e#D.e#)+D>E>j>a#{@N@++)#N@|+t.F>A.N.^>~ ~ ~ ~ ~ ~ ~ ~ ~ ~ ~ ~ ~ ~ ~ ~ ~ ~ ~ ~ ~ ~ ~ ~ ~ ~ ~ ~ ~ ~ ~ ~ ~ ~ ~ ~ ~ ~ ~ ~ ~ ~ ~ ~ ~ ~ ~ ~ ~ ~ ~ ~ ~ ~ ~ k>{@u q.;.&#N+D.e#N+a#G>H>I>u>J>N@,@j#{@z e#{@6#&#s&C>6#&#G&F a.&#N+&#&#G&&#",
"e.U#N+s&U#a.&#M&R.G&6#{@M+<#,@&#s&n#:+.+e#,@{@I@K>L>M>,@M+v@/+|@{@|+V.F>d.(+^>~ ~ ~ ~ ~ ~ ~ ~ ~ ~ ~ ~ ~ ~ ~ ~ ~ ~ ~ ~ ~ ~ ~ ~ ~ ~ ~ ~ ~ ~ ~ ~ ~ ~ ~ ~ ~ ~ ~ ~ ~ ~ ~ ~ ~ ~ ~ ~ ~ ~ ~ ~ ~ ~ ~ N>{@z u.O>U#e#z@N@N@a#P>Q>t>R>|@e#S>z@ #x e#`#e#&#e.a.U#G&d.}+B.U#&#s&s&r+&#",
"a.s&6#&#e#&#B.G R.&#D.6#z@e#&#&#a.l#A.{@6#&# #I@T>U>V>S>D.!$:#N@{@y#V.F>Y#(+^>~ ~ ~ ~ ~ ~ ~ ~ ~ ~ ~ ~ ~ ~ ~ ~ ~ ~ ~ ~ ~ ~ ~ ~ ~ ~ ~ ~ ~ ~ ~ ~ ~ ~ ~ ~ ~ ~ ~ ~ ~ ~ ~ ~ ~ ~ ~ ~ ~ ~ ~ ~ ~ ~ ~ W>4>_#u.X>U# %{@N@{@j#V=Y>Z>`>N@{@,@{@{@u U#`#.+a.a.&#e.G&d.O s&s&e#6#}@;>e.",
"e.a.6#e#{@&#B.A#|+&#{@6#e#6#N+&#&#}+d.`#.+{@|@ ,.,+,@,s&6#{@!$ #{@y#t.F>Y#^$^>~ ~ ~ ~ ~ ~ ~ ~ ~ ~ ~ ~ ~ ~ ~ ~ ~ ~ ~ ~ ~ ~ ~ ~ ~ ~ ~ ~ ~ ~ ~ ~ ~ ~ ~ ~ ~ ~ ~ ~ ~ ~ ~ ~ ~ ~ ~ ~ ~ ~ ~ ~ ~ ~ ~ #,.+_#r.$,6#N@D.H$e#6#%,&,*,=,,@{@&#N+e#u e.{@.+e.a.&#a.G&d.E B.&#D.e#}@M&e.",
"e.e.e.&#.+U#&#G }+B.<#D.{@,@N+,@G&B#^$.+`#{@{@g@-,;,>,a.6#U#e#z@M+H n-X>B._+^>~ ~ ~ ~ ~ ~ ~ ~ ~ ~ ~ ~ ~ ~ ~ ~ ~ ~ ~ ~ ~ ~ ~ ~ ~ ~ ~ ~ ~ ~ ~ ~ ~ ~ ~ ~ ~ ~ ~ ~ ~ ~ ~ ~ ~ ~ ~ ~ ~ ~ ~ ~ ~ ~ ~ N>.+_#!.X>{@N@e#{@N+&#,,',),!,a..+&#a.6#u e.{@6#e.a.N+e#&#P.E }@}@&#s&~,0.d.",
"B.B.a.&#.+6#6#(+O M&N+,@D.&#&#a.}@%-b$U#{@N@)#4&{,],^,~,6#U#6#,@6#l#t.F>Q.(+^>~ ~ ~ ~ ~ ~ ~ ~ ~ ~ ~ ~ ~ ~ ~ ~ ~ ~ ~ ~ ~ ~ ~ ~ ~ ~ ~ ~ ~ ~ ~ ~ ~ ~ ~ ~ ~ ~ ~ ~ ~ ~ ~ ~ ~ ~ ~ ~ ~ ~ ~ ~ ~ ~ ~ /,N+z (,$,.+N@M+e#6#M+_,:,<,[,<*D.s&N+6#u a.M+6#a.B.&#e#&#d.|+d.B.d.d.M&A#M&",
"B.d.s&U#6#N+a.H [+M&s&&#,@[=G&[=}@[+I 6#U#&#D.l+},|,1,a.6#4>D.D.e.O u.F>e.a$^>~ ~ ~ ~ ~ ~ ~ ~ ~ ~ ~ ~ ~ ~ ~ ~ ~ ~ ~ ~ ~ ~ ~ ~ ~ ~ ~ ~ ~ ~ ~ ~ ~ ~ ~ ~ ~ ~ ~ ~ ~ ~ ~ ~ ~ ~ ~ ~ ~ ~ ~ ~ ~ ~ ~ 2,0$w Y*$,.+|@N@{@N@N@I%3,4,5,%+&#[=G&U#u U#D.s&}@M&e.N+a.A.Q d.d.B.M&M&A#M&",
"B.d.s&&#N+s&B.H [+P.d.&#N+}@}@&#}@[+I 6#&#s&6#6,7,8,M>&#C>C>U#.+s&_#X.$,B.(+9,~ ~ ~ ~ ~ ~ ~ ~ ~ ~ ~ ~ ~ ~ ~ ~ ~ ~ ~ ~ ~ ~ ~ ~ ~ ~ ~ ~ ~ ~ ~ ~ ~ ~ ~ ~ ~ ~ ~ ~ ~ ~ ~ ~ ~ ~ ~ ~ ~ ~ ~ ~ ~ ~ ~ 2,0$u r.O>.+|@z@{@M+N@0,a,b,n;N@a.&#G&6#u B.a.@>&#r+d.a.<$H z (+M&d.M&P.0.P.",
"B.d.a.}@d.M&M&R.`.G 0.d.G&B.[=&#}@_#N.a.s&s&6#c,7,d,d>,@9$4>U#U#e.K#q.X>^$_+9,~ ~ ~ ~ ~ ~ ~ ~ ~ ~ ~ ~ ~ ~ ~ ~ ~ ~ ~ ~ ~ ~ ~ ~ ~ ~ ~ ~ ~ ~ ~ ~ ~ ~ ~ ~ ~ ~ ~ ~ ~ ~ ~ ~ ~ ~ ~ ~ ~ ~ ~ ~ ~ ~ ~ 2,U#1+r.O>T#z@,@6#N+z@e,H>f,g,<#a.N+s&}@1+P.}@G&B.r+B.B.d.P u (+P.M&M&P.v+(+",
"B.d.d.M&A#v+(+l#`.G M&0.M&r+[=}@M&K#<+B.a.N+N+6,h,i,j,N@v@{@.+U#B.Z.u.X>a$_+9,~ ~ ~ ~ ~ ~ ~ ~ ~ ~ ~ ~ ~ ~ ~ ~ ~ ~ ~ ~ ~ ~ ~ ~ ~ ~ ~ ~ ~ ~ ~ ~ ~ ~ ~ ~ ~ ~ ~ ~ ~ ~ ~ ~ ~ ~ ~ ~ ~ ~ ~ ~ ~ ~ ~ k,a.Y.!.X>a.U#s&&#a.&#e;l,m,R>N@,@D.e#a.Y.A#d.B.P.B.B.d.G |+y G (+M&M&P.(+P.",
"s&d.0.A#G P.M&R.`.G A#v+d.G&}@r+M&`.^$ @a.N+N+d&D>n,j,N@!$4>.+e#a.z X.X>A.A.9,~ ~ ~ ~ ~ ~ ~ ~ ~ ~ ~ ~ ~ ~ ~ ~ ~ ~ ~ ~ ~ ~ ~ ~ ~ ~ ~ ~ ~ ~ ~ ~ ~ ~ ~ ~ ~ ~ ~ ~ ~ ~ ~ ~ ~ ~ ~ ~ ~ ~ ~ ~ ~ ~ ~ o,a.y.-.X>e.U#&#}@r+&#p,l,q,r,a=e#z@N+U#W d.d.G&P.a.d.M&G l#u A#M&P.P.0.(+B.",
"d.(+G R._#G :+E [+(+M&G P.B.G&r+B.C.<+e.a.a.N+d&D>s,t,<#`#9$U#6#a.C.y;F>B.:$9,~ ~ ~ ~ ~ ~ ~ ~ ~ ~ ~ ~ ~ ~ ~ ~ ~ ~ ~ ~ ~ ~ ~ ~ ~ ~ ~ ~ ~ ~ ~ ~ ~ ~ ~ ~ ~ ~ ~ ~ ~ ~ ~ ~ ~ ~ ~ ~ ~ ~ ~ ~ ~ ~ ~ o,T#q !.X>e.s&G&e.a.@>u,l,q,v,a=D.6#e#e#1+B.d.e.(+B.d.d.0.|+u  +(+z G 0.P.P.",
"P.H R.w,]$R.m#v `.z C.`.9.O [+`.H O G e.&#a.e#d&x,E>d>,@{@{@9$0$e.}+D&X>G*^$y,~ ~ ~ ~ ~ ~ ~ ~ ~ ~ ~ ~ ~ ~ ~ ~ ~ ~ ~ ~ ~ ~ ~ ~ ~ ~ ~ ~ ~ ~ ~ ~ ~ ~ ~ ~ ~ ~ ~ ~ ~ ~ ~ ~ ~ ~ ~ ~ ~ ~ ~ ~ ~ ~ ~ z,a.v ;.A,e.}@B.s&a.,@B,C,D,R>]#6#.+{@e#z.P.u |+Q u C.C.u [+I&O.l#u v H 0.P.",
"(+R.X T N.}+v u c#T r.w.V U.w,t.(+[+R.B.[=e..+M.E,F,G,&#4>{@6#U#a.O X.X>A._+y,~ ~ ~ ~ ~ ~ ~ ~ ~ ~ ~ ~ ~ ~ ~ ~ ~ ~ ~ ~ ~ ~ ~ ~ ~ ~ ~ ~ ~ ~ ~ ~ ~ ~ ~ ~ ~ ~ ~ ~ ~ ~ ~ ~ ~ ~ ~ ~ ~ ~ ~ ~ ~ ~ ~ H,0$q ).I,e.[=B.a.s&s&u,H>J,K,a#6#N+U#6#z.(+S.x.L,M,N,I&r v.u w.O N u v I 0.",
"G O v F _#I&z.[+u p.X I&y;w,p.I&B#Z.R.e.}@B.&#9>O,P,Q,&#4>.+U#&#s&C.X.X>(+<+y,~ ~ ~ ~ ~ ~ ~ ~ ~ ~ ~ ~ ~ ~ ~ ~ ~ ~ ~ ~ ~ ~ ~ ~ ~ ~ ~ ~ ~ ~ ~ ~ ~ ~ ~ ~ ~ ~ ~ ~ ~ ~ ~ ~ ~ ~ ~ ~ ~ ~ ~ ~ ~ ~ ~ f=e.y.;.R,a.s&s&6#6#N+V=H>S,K,z@U#a.a.U#z.I w.T,r _=M,o%U,V,W z.w._#O.v O d.",
"R.N.R.C.v X C._#W,I&3&v.w,;=o%U.l#Z.N.6#s&G&6#S$X,Y,Z,&#.+{@a.a.M&*%q.X>a$Z#y,~ ~ ~ ~ ~ ~ ~ ~ ~ ~ ~ ~ ~ ~ ~ ~ ~ ~ ~ ~ ~ ~ ~ ~ ~ ~ ~ ~ ~ ~ ~ ~ ~ ~ ~ ~ ~ ~ ~ ~ ~ ~ ~ ~ ~ ~ ~ ~ ~ ~ ~ ~ ~ ~ ~ `,Y#x.Y*$,e.a.6#.+.+e# '.'+'@'{@&#}@e.U#s H y.3&#'w,y;$'3&;=y._#O o%u O 0.G ",
"R.}+C.y.s %'I O *%O.B#}+_#C.C.`..$F d..+&#6#{@N@&'*'='a.6#.+e.a.d.Z.X.).A.F y,~ ~ ~ ~ ~ ~ ~ ~ ~ ~ ~ ~ ~ ~ ~ ~ ~ ~ ~ ~ ~ ~ ~ ~ ~ ~ ~ ~ ~ ~ ~ ~ ~ ~ ~ ~ ~ ~ ~ ~ ~ ~ ~ ~ ~ ~ ~ ~ ~ ~ ~ ~ ~ ~ ~ -'d.v r.o.Q.e.s&U#.+,@;'i*>','!$U#}@U#6#W T#C.o;[+|+4=C.`.z `.E '']$w.[+l#A#",
"M.s@e$G [+C.9.9.u z.z.9.F*Y.y.S.u z T#6#a..+`#a.)'!'~'a.U#a.B.e.d.Z.t.F 0$b$y,~ ~ ~ ~ ~ ~ ~ ~ ~ ~ ~ ~ ~ ~ ~ ~ ~ ~ ~ ~ ~ ~ ~ ~ ~ ~ ~ ~ ~ ~ ~ ~ ~ ~ ~ ~ ~ ~ ~ ~ ~ ~ ~ ~ ~ ~ ~ ~ ~ ~ ~ ~ ~ ~ ~ -':+G w.o.:+a.e.N+6#a.3#~={'!=9$X#e.N+9$o;_#u W.F*W z.s z.W 1+z.u 1+O 6%d&i$",
"e.e.6#x&l+=$e$2$s@)#a=t@a=2%E%]'^'v@0$U#e.{@d./'o&>,z=d.a.B.d.B.M&`.w |@a.F y,~ ~ ~ ~ ~ ~ ~ ~ ~ ~ ~ ~ ~ ~ ~ ~ ~ ~ ~ ~ ~ ~ ~ ~ ~ ~ ~ ~ ~ ~ ~ ~ ~ ~ ~ ~ ~ ~ ~ ~ ~ ~ ~ ~ ~ ~ ~ ~ ~ ~ ~ ~ ~ ~ ~ ('(+U#F r.M&e.&#e#&#M&v-_':'<'F U#N+.+6#&#['}'|'z@E%s@x&e$Y&&%M.P*d&M.o T#e.",
"B.}@B.U#D.a.6#{@.+a.e.e.0.B.M&M&a.e.a.U#a.{@P.1'2'F*u d.a.d.M&M&P.Z.q B.e.F y,~ ~ ~ ~ ~ ~ ~ ~ ~ ~ ~ ~ ~ ~ ~ ~ ~ ~ ~ ~ ~ ~ ~ ~ ~ ~ ~ ~ ~ ~ ~ ~ ~ ~ ~ ~ ~ ~ ~ ~ ~ ~ ~ ~ ~ ~ ~ ~ ~ ~ ~ ~ ~ ~ ~ 3'B.Y#C.!.d.B.G&6#6#M&4'5'6'7'C.9$.+.+4>}@a.a.&#N+&#B.N+{@6#U#B.B.B.s&e.d.d.",
"e.B.B.e.U#d.U#{@N+U#a.a.d.B.d.d.U#.+B.e.a.U#G y>8'Y.z d.e.d.M&P.P.Z.v M&B.N 9'~ ~ ~ ~ ~ ~ ~ ~ ~ ~ ~ ~ ~ ~ ~ ~ ~ ~ ~ ~ ~ ~ ~ ~ ~ ~ ~ ~ ~ ~ ~ ~ ~ ~ ~ ~ ~ ~ ~ ~ ~ ~ ~ ~ ~ ~ ~ ~ ~ ~ ~ ~ ~ ~ ~ 0'd.B._#;.d.d.B.&#6#M&%-y>w.y>w a.6#6#N+.+U#a.a.6#U#d.e.a.U#e. @B.(+P.B.P.P.",
"B.d.B.d.Y#d.a.a.a.Y#d.e.d.d.a.6#.+a.B.d. @e.I a'b'z.z d.a.d.(+:+(+u v P.d.Q 9'~ ~ ~ ~ ~ ~ ~ ~ ~ ~ ~ ~ ~ ~ ~ ~ ~ ~ ~ ~ ~ ~ ~ ~ ~ ~ ~ ~ ~ ~ ~ ~ ~ ~ ~ ~ ~ ~ ~ ~ ~ ~ ~ ~ ~ ~ ~ ~ ~ ~ ~ ~ ~ ~ ~ c'd.d.w ;.P.B.P.e.U#d.|+!>c#q.z Y#U#a.6#4>9$N+6#4>U#d.e. @X#d.d.(+G M&B.e.d.",
"<$P.P.d.(+P.Y#d'e.B.Y#Y# @e.6#{@U#e.e.d.d.d.I q.O>1*T :+d.d.(+(+e'u y.G d.B 9'~ ~ ~ ~ ~ ~ ~ ~ ~ ~ ~ ~ ~ ~ ~ ~ ~ ~ ~ ~ ~ ~ ~ ~ ~ ~ ~ ~ ~ ~ ~ ~ ~ ~ ~ ~ ~ ~ ~ ~ ~ ~ ~ ~ ~ ~ ~ ~ ~ ~ ~ ~ ~ ~ ~ f'a$:+x ;.P.d.(+A.U#d.E W.c#u._#N+N+U#X#U#e.`#6#6#a.B.e.d.e.Y#Y#(+d.G&B.&#B.",
"d.(+(+B.^$(+d.e.U#e.Y#d.d.e.6#N+a.e. @d.P.A.F r.8'Y.s <+d.0.G (+(+u x.H ^$w g'~ ~ ~ ~ ~ ~ ~ ~ ~ ~ ~ ~ ~ ~ ~ ~ ~ ~ ~ ~ ~ ~ ~ ~ ~ ~ ~ ~ ~ ~ ~ ~ ~ ~ ~ ~ ~ ~ ~ ~ ~ ~ ~ ~ ~ ~ ~ ~ ~ ~ ~ ~ ~ ~ ~ f'd.:+w F>G (+e'P.d.P.E h'w.A&z e.X#X#C>X#e#{@9$e.B.P.e.Y#e.Y#Y#(+0.G&B.d.a.",
"d.P.Y#e.(+(+:+a.9$9$Y#:+d.d.X#X#e.a.a.e.B.P.l#r.O>W u H P.G R.H  +u 3&H ^$w g'~ ~ ~ ~ ~ ~ ~ ~ ~ ~ ~ ~ ~ ~ ~ ~ ~ ~ ~ ~ ~ ~ ~ ~ ~ ~ ~ ~ ~ ~ ~ ~ ~ ~ ~ ~ ~ ~ ~ ~ ~ ~ ~ ~ ~ ~ ~ ~ ~ ~ ~ ~ ~ ~ ~ f'd.(+u O>G P.(+0.G R.[+W.c#A&u :+d.d.e. @C>U#0$Y#d.B.e.d.e.Y#Y#a.d.U#Y#B.a.",
"(+B.a.B.M&d.d.d.i'X#Y#:+d.d.B.a.a.e.d.:+d.:+F 3&W.z u I ^$G I G I z.w.I H w g'~ ~ ~ ~ ~ ~ ~ ~ ~ ~ ~ ~ ~ ~ ~ ~ ~ ~ ~ ~ ~ ~ ~ ~ ~ ~ ~ ~ ~ ~ ~ ~ ~ ~ ~ ~ ~ ~ ~ ~ ~ ~ ~ ~ ~ ~ ~ ~ ~ ~ ~ ~ ~ ~ ~ j'<+G u ).N.(+H &+R.R._#w.s X z (+(+d.d. @e.9$U#a.d.d.e.d.d.d.d. @Y#X#e.e.e.",
"A.d.d.B.P.d.d.Y#Y# @d.d.d.a.d.:+Y#e.:+^$P.:+F W.u C.w I k'H R.H |+z.x.F I w g'~ ~ ~ ~ ~ ~ ~ ~ ~ ~ ~ ~ ~ ~ ~ ~ ~ ~ ~ ~ ~ ~ ~ ~ ~ ~ ~ ~ ~ ~ ~ ~ ~ ~ ~ ~ ~ ~ ~ ~ ~ ~ ~ ~ ~ ~ ~ ~ ~ ~ ~ ~ ~ ~ ~ l'I I u ;.R.N.R.&+R.F _#u b$W z (+H G (+P.B.e.Y#U#m':+d.P.:+e'0.:+d. @d.:+d.",
"(+d.P.d.^$P.d.d.d':+:+:+d.d.d.d.Y#P.(+H _+^@F c#n'N u F H h+m#H h+W w.b$I w g'~ ~ ~ ~ ~ ~ ~ ~ ~ ~ ~ ~ ~ ~ ~ ~ ~ ~ ~ ~ ~ ~ ~ ~ ~ ~ ~ ~ ~ ~ ~ ~ ~ ~ ~ ~ ~ ~ ~ ~ ~ ~ ~ ~ ~ ~ ~ ~ ~ ~ ~ ~ ~ ~ ~ o'I I u ;.R.G H R.H R.O w G.y.]$t$G G H G P.P.d.B.^$(+^$(+k'k'e'0.(+(+:+^$d.",
"F H I I F I H H H H I I I I H H H H I F b$Z#w U.X I&l#l#I m#E l#H v T.F I s g'~ ~ ~ ~ ~ ~ ~ ~ ~ ~ ~ ~ ~ ~ ~ ~ ~ ~ ~ ~ ~ ~ ~ ~ ~ ~ ~ ~ ~ ~ ~ ~ ~ ~ ~ ~ ~ ~ ~ ~ ~ ~ ~ ~ ~ ~ ~ ~ ~ ~ ~ ~ ~ ~ ~ p'b$I W $,G H R.H H |+l#v 3&W.z.a$F |+l#I N.H m#R.F F R.F m#F H I F F F F F ",
"I,q'R,X>X>$,F>X>X>$,$,$,$,F>X>O>Y*D&U.v.y;s.U.z.Z.I |+O C C._#V N T.r'F I s g'~ ~ ~ ~ ~ ~ ~ ~ ~ ~ ~ ~ ~ ~ ~ ~ ~ ~ ~ ~ ~ ~ ~ ~ ~ ~ ~ ~ ~ ~ ~ ~ ~ ~ ~ ~ ~ ~ ~ ~ ~ ~ ~ ~ ~ ~ ~ ~ ~ ~ ~ ~ ~ ~ ~ p'I s's O>(+z u }+O.C.O.F 9.Z.w.v.r.r.s.X.!.;.$,R,t'X>X>q'I,R,R,q't'R,X>O>X>",
"m.u'k.v'n.v'w'x'w'x'w'n.[.[.[.w'w'x'w'w'v'w'x'w'v'w'[.m.l.k.[.[.y'z'w.|+E q g'~ ~ ~ ~ ~ ~ ~ ~ ~ ~ ~ ~ ~ ~ ~ ~ ~ ~ ~ ~ ~ ~ ~ ~ ~ ~ ~ ~ ~ ~ ~ ~ ~ ~ ~ ~ ~ ~ ~ ~ ~ ~ ~ ~ ~ ~ ~ ~ ~ ~ ~ ~ ~ ~ ~ A'E E S.B'C'D'[.m.E'm.[.D'w'F'F'F'x'w'w'v'[.m.D'w'n.n.w'w'w'w'v'm.k.[.D'[.D'",
"~.O>o.;.;.;.!.q.(,;.~.O>~.~.~.G'G';.;.;.;.(,(,;.;.r.t.y>H'(,(,5'I'J'K'1+v y;g'~ ~ ~ ~ ~ ~ ~ ~ ~ ~ ~ ~ ~ ~ ~ ~ ~ ~ ~ ~ ~ ~ ~ ~ ~ ~ ~ ~ ~ ~ ~ ~ ~ ~ ~ ~ ~ ~ ~ ~ ~ ~ ~ ~ ~ ~ ~ ~ ~ ~ ~ ~ ~ ~ ~ L'o%q q=M'N'O'y>r.H'-.G'(,H'r.q.V.q.r.~.G'(,;.;.(,G'(,P'q.q.r.(,;.~.~.;.~.-.",
"`#`#t$k k m h y-4 m J.{@v@!$!$:*:*o K.m K.m K.6 K.6 K.K.n :*t$!$ #|@J.n K.J&H*~ ~ ~ ~ ~ ~ ~ ~ ~ ~ ~ ~ ~ ~ ~ ~ ~ ~ ~ ~ ~ ~ ~ ~ ~ ~ ~ ~ ~ ~ ~ ~ ~ ~ ~ ~ ~ ~ ~ ~ ~ ~ ~ ~ ~ ~ ~ ~ ~ ~ ~ ~ ~ ~ ~ Q'S&n `@{$/+J.@+K.i m X&`@`@I@`@R'i m :*S'| v@!$N@!$`@m m 4 T'n K.J&J&`@m {$",
"U'V'==U'W'X'Y'Z'`' )X'U'======U'==U' ).)+).)@)@)@)#)W'W'U'==$)%)======&)+)*)o=~ ~ ~ ~ ~ ~ ~ ~ ~ ~ ~ ~ ~ ~ ~ ~ ~ ~ ~ ~ ~ ~ ~ ~ ~ ~ ~ ~ ~ ~ ~ ~ ~ ~ ~ ~ ~ ~ ~ ~ ~ ~ ~ ~ ~ ~ ~ ~ ~ ~ ~ ~ ~ ~ ~ =)U'&)&)-)-)-)W' );)>)W'.),)-)W'@)') )#)))W'U'======#)@) ) )W'-)W'-)+)').)@)"};
