/* XPM */
static char * so_door3_tex_xpm[] = {
"132 132 1534 2",
"  	c #2C353D",
". 	c #2C363E",
"+ 	c #2D363F",
"@ 	c #2C363F",
"# 	c #2D3640",
"$ 	c #2C353E",
"% 	c #2C3640",
"& 	c #2D3741",
"* 	c #2E3841",
"= 	c #2D3641",
"- 	c #2D3842",
"; 	c #2E3944",
"> 	c #2E3943",
", 	c #2F3A45",
"' 	c #2E3842",
") 	c #2F3B46",
"! 	c #2F3944",
"~ 	c #2F3A46",
"{ 	c #303C46",
"] 	c #303B46",
"^ 	c #303C47",
"/ 	c #303A45",
"( 	c #313D4A",
"_ 	c #313E4A",
": 	c #323E4A",
"< 	c #323F4A",
"[ 	c #313D48",
"} 	c #35393C",
"| 	c #393939",
"1 	c #303B45",
"2 	c #323F4B",
"3 	c #313D49",
"4 	c #303C48",
"5 	c #2E3843",
"6 	c #2E3A44",
"7 	c #2E3942",
"8 	c #2E3741",
"9 	c #2C353F",
"0 	c #2A343D",
"a 	c #2B333C",
"b 	c #202D39",
"c 	c #23323F",
"d 	c #22313F",
"e 	c #22303E",
"f 	c #23313F",
"g 	c #233341",
"h 	c #243341",
"i 	c #243342",
"j 	c #233240",
"k 	c #243543",
"l 	c #243443",
"m 	c #253544",
"n 	c #253646",
"o 	c #253645",
"p 	c #243544",
"q 	c #253545",
"r 	c #263746",
"s 	c #273847",
"t 	c #263645",
"u 	c #273645",
"v 	c #283847",
"w 	c #283948",
"x 	c #293A49",
"y 	c #283949",
"z 	c #273848",
"A 	c #293B4A",
"B 	c #293949",
"C 	c #293B4B",
"D 	c #293A4A",
"E 	c #2A3B4B",
"F 	c #2A3B4A",
"G 	c #2B3D4C",
"H 	c #2C3F4F",
"I 	c #2D3F4F",
"J 	c #2C3F50",
"K 	c #2D4151",
"L 	c #2C3D4C",
"M 	c #33393E",
"N 	c #2B3C4B",
"O 	c #2A3C4B",
"P 	c #293C4B",
"Q 	c #2D4050",
"R 	c #283848",
"S 	c #283A49",
"T 	c #273948",
"U 	c #273947",
"V 	c #263846",
"W 	c #253746",
"X 	c #253543",
"Y 	c #233340",
"Z 	c #111B23",
"` 	c #16222D",
" .	c #16202A",
"..	c #151F29",
"+.	c #162029",
"@.	c #16212A",
"#.	c #17222C",
"$.	c #17222D",
"%.	c #17232D",
"&.	c #18222D",
"*.	c #18242D",
"=.	c #18242E",
"-.	c #17242D",
";.	c #192530",
">.	c #19242F",
",.	c #1A2630",
"'.	c #1A2732",
").	c #1A2631",
"!.	c #1A2833",
"~.	c #18252F",
"{.	c #1B2833",
"].	c #1B2834",
"^.	c #1A2733",
"/.	c #1B2934",
"(.	c #1C2934",
"_.	c #1C2A35",
":.	c #1C2A36",
"<.	c #1D2A36",
"[.	c #1D2B38",
"}.	c #1E2D39",
"|.	c #1F2F3C",
"1.	c #1F2E3B",
"2.	c #1F2E3A",
"3.	c #1F2C39",
"4.	c #313437",
"5.	c #303337",
"6.	c #1F2C38",
"7.	c #1E2C38",
"8.	c #1C2B37",
"9.	c #1D2D3A",
"0.	c #1D2B37",
"a.	c #1C2935",
"b.	c #1B2733",
"c.	c #1B2933",
"d.	c #1A2632",
"e.	c #1A2731",
"f.	c #192631",
"g.	c #192630",
"h.	c #19252F",
"i.	c #18232D",
"j.	c #17232C",
"k.	c #16212C",
"l.	c #121D26",
"m.	c #0E171E",
"n.	c #060B10",
"o.	c #060A0F",
"p.	c #060B0E",
"q.	c #060B0F",
"r.	c #060C10",
"s.	c #070C11",
"t.	c #070B10",
"u.	c #070C10",
"v.	c #070D11",
"w.	c #070D12",
"x.	c #080D12",
"y.	c #070D13",
"z.	c #080E12",
"A.	c #080E13",
"B.	c #080F14",
"C.	c #080D13",
"D.	c #080E14",
"E.	c #090E14",
"F.	c #091015",
"G.	c #09131B",
"H.	c #091C2B",
"I.	c #0F1E29",
"J.	c #131F27",
"K.	c #131E27",
"L.	c #131C24",
"M.	c #2F3031",
"N.	c #2E2F31",
"O.	c #131E26",
"P.	c #141F28",
"Q.	c #121E27",
"R.	c #091C29",
"S.	c #08151F",
"T.	c #081015",
"U.	c #090F14",
"V.	c #090F15",
"W.	c #0A1117",
"X.	c #121C24",
"Y.	c #04080C",
"Z.	c #0B1219",
"`.	c #0B141A",
" +	c #0C1319",
".+	c #0C141A",
"++	c #0B1218",
"@+	c #0C131A",
"#+	c #0B1319",
"$+	c #0D151B",
"%+	c #0C141B",
"&+	c #0B131A",
"*+	c #0D151C",
"=+	c #0C151B",
"-+	c #0A1116",
";+	c #0E1821",
">+	c #0F1E2A",
",+	c #192733",
"'+	c #20303E",
")+	c #223341",
"!+	c #303336",
"~+	c #2F3236",
"{+	c #21313F",
"]+	c #223340",
"^+	c #101E28",
"/+	c #0E1A23",
"(+	c #0B151B",
"_+	c #0A1218",
":+	c #0F161E",
"<+	c #0E161D",
"[+	c #0D161C",
"}+	c #0E171D",
"|+	c #0F181F",
"1+	c #0A1217",
"2+	c #050C11",
"3+	c #16222C",
"4+	c #0C151C",
"5+	c #111A23",
"6+	c #131D26",
"7+	c #121D25",
"8+	c #121C25",
"9+	c #131D27",
"0+	c #142028",
"a+	c #14202A",
"b+	c #142029",
"c+	c #16212B",
"d+	c #15222C",
"e+	c #15212B",
"f+	c #16222B",
"g+	c #182530",
"h+	c #192732",
"i+	c #21313E",
"j+	c #21323F",
"k+	c #1C2B36",
"l+	c #233644",
"m+	c #1E303F",
"n+	c #293C4C",
"o+	c #313438",
"p+	c #2F3337",
"q+	c #263947",
"r+	c #283B4A",
"s+	c #192834",
"t+	c #263B4B",
"u+	c #1F2F3B",
"v+	c #1D2C38",
"w+	c #20313E",
"x+	c #22333F",
"y+	c #1E2E3A",
"z+	c #192731",
"A+	c #15212C",
"B+	c #16232D",
"C+	c #15202A",
"D+	c #131F28",
"E+	c #111B24",
"F+	c #111C24",
"G+	c #0F1920",
"H+	c #111A21",
"I+	c #1B2A35",
"J+	c #1B2A36",
"K+	c #1A2934",
"L+	c #182631",
"M+	c #1B2935",
"N+	c #1F303C",
"O+	c #243644",
"P+	c #273949",
"Q+	c #283B4B",
"R+	c #2A3E4E",
"S+	c #2C4253",
"T+	c #243847",
"U+	c #1E2E3B",
"V+	c #283C4C",
"W+	c #2A3F4F",
"X+	c #243442",
"Y+	c #313538",
"Z+	c #303438",
"`+	c #283A4B",
" @	c #293D4D",
".@	c #273B4C",
"+@	c #2D4253",
"@@	c #2B4050",
"#@	c #2B3F4F",
"$@	c #2B4051",
"%@	c #2A3E4D",
"&@	c #263948",
"*@	c #20303D",
"=@	c #202F3B",
"-@	c #21303E",
";@	c #20303C",
">@	c #1C2B38",
",@	c #1D2C39",
"'@	c #192632",
")@	c #131E25",
"!@	c #18242F",
"~@	c #14212A",
"{@	c #1F2D39",
"]@	c #1E2C39",
"^@	c #263744",
"/@	c #2C4151",
"(@	c #2C4152",
"_@	c #2A3F4E",
":@	c #2E4354",
"<@	c #2E4455",
"[@	c #2D4353",
"}@	c #2F4456",
"|@	c #2D4354",
"1@	c #2D4454",
"2@	c #32485A",
"3@	c #324A5C",
"4@	c #32495B",
"5@	c #32495C",
"6@	c #31485B",
"7@	c #31485A",
"8@	c #2C4354",
"9@	c #1E303E",
"0@	c #1E2D3A",
"a@	c #293E4E",
"b@	c #2A3E4F",
"c@	c #2E4557",
"d@	c #263C4C",
"e@	c #2A3F50",
"f@	c #323639",
"g@	c #303539",
"h@	c #2B4153",
"i@	c #203240",
"j@	c #2D4355",
"k@	c #293D4E",
"l@	c #2B3F51",
"m@	c #1F2F3D",
"n@	c #293D4B",
"o@	c #344B5E",
"p@	c #314658",
"q@	c #314859",
"r@	c #2F4557",
"s@	c #304658",
"t@	c #2D4252",
"u@	c #2B4151",
"v@	c #2B3F50",
"w@	c #2C4051",
"x@	c #101920",
"y@	c #162129",
"z@	c #253745",
"A@	c #253846",
"B@	c #243746",
"C@	c #233544",
"D@	c #233342",
"E@	c #223442",
"F@	c #233543",
"G@	c #2E4355",
"H@	c #2E4353",
"I@	c #2B4152",
"J@	c #304759",
"K@	c #344C5F",
"L@	c #2D4457",
"M@	c #1E313F",
"N@	c #243745",
"O@	c #233443",
"P@	c #2A3D4E",
"Q@	c #2E4558",
"R@	c #2E4659",
"S@	c #294052",
"T@	c #293E4F",
"U@	c #2B4052",
"V@	c #273745",
"W@	c #32363A",
"X@	c #30353A",
"Y@	c #293D4C",
"Z@	c #2C4355",
"`@	c #213443",
" #	c #2F4558",
".#	c #223240",
"+#	c #374F62",
"@#	c #2E4456",
"##	c #2F4457",
"$#	c #2D4455",
"%#	c #2B3E4F",
"&#	c #223441",
"*#	c #233444",
"=#	c #243645",
"-#	c #233442",
";#	c #17222B",
">#	c #253847",
",#	c #273A49",
"'#	c #304558",
")#	c #2E4457",
"!#	c #2D4152",
"~#	c #30485B",
"{#	c #31495D",
"]#	c #2D4659",
"^#	c #1F3342",
"/#	c #223543",
"(#	c #223542",
"_#	c #2D4557",
":#	c #30475A",
"<#	c #2B4254",
"[#	c #2C4254",
"}#	c #273846",
"|#	c #33373B",
"1#	c #30363B",
"2#	c #213343",
"3#	c #2F4659",
"4#	c #2A4052",
"5#	c #2C4153",
"6#	c #213240",
"7#	c #223645",
"8#	c #31485C",
"9#	c #30485A",
"0#	c #31495C",
"a#	c #31475A",
"b#	c #2E4658",
"c#	c #273A4A",
"d#	c #233645",
"e#	c #0F1820",
"f#	c #334A5C",
"g#	c #304557",
"h#	c #2D4254",
"i#	c #304659",
"j#	c #32495D",
"k#	c #324A5E",
"l#	c #1B2F3D",
"m#	c #2A3F51",
"n#	c #293E50",
"o#	c #30373C",
"p#	c #203341",
"q#	c #32495E",
"r#	c #1A2B38",
"s#	c #30495C",
"t#	c #324A5D",
"u#	c #334B5E",
"v#	c #2F4658",
"w#	c #374E62",
"x#	c #253848",
"y#	c #233646",
"z#	c #243646",
"A#	c #273A4B",
"B#	c #111A22",
"C#	c #0E1820",
"D#	c #22323F",
"E#	c #344A5D",
"F#	c #304657",
"G#	c #314759",
"H#	c #334A5E",
"I#	c #344C60",
"J#	c #324B5F",
"K#	c #334C61",
"L#	c #2E485B",
"M#	c #1D3140",
"N#	c #263A49",
"O#	c #253949",
"P#	c #2D4356",
"Q#	c #33373C",
"R#	c #30373D",
"S#	c #1F303F",
"T#	c #1D2E3B",
"U#	c #334A5D",
"V#	c #344D61",
"W#	c #375063",
"X#	c #273B4B",
"Y#	c #263A4A",
"Z#	c #283B4C",
"`#	c #1D2D39",
" $	c #293C4D",
".$	c #314758",
"+$	c #334B5F",
"@$	c #334C60",
"#$	c #344D62",
"$$	c #314A5F",
"%$	c #1F3241",
"&$	c #2D4357",
"*$	c #34383D",
"=$	c #31383F",
"-$	c #1F303E",
";$	c #1E2F3D",
">$	c #324A5F",
",$	c #30475B",
"'$	c #344D60",
")$	c #354E61",
"!$	c #354D61",
"~$	c #344E62",
"{$	c #354D62",
"]$	c #385164",
"^$	c #283D4C",
"/$	c #293B4C",
"($	c #131F26",
"_$	c #202F3C",
":$	c #283A4A",
"<$	c #344C5E",
"[$	c #324C5F",
"}$	c #2F485C",
"|$	c #1F3140",
"1$	c #1A2834",
"2$	c #2E4458",
"3$	c #34393D",
"4$	c #31393F",
"5$	c #1E303D",
"6$	c #2D4558",
"7$	c #2C4052",
"8$	c #314A5E",
"9$	c #344C61",
"0$	c #354E62",
"a$	c #354E63",
"b$	c #385165",
"c$	c #253948",
"d$	c #263848",
"e$	c #101921",
"f$	c #273B4A",
"g$	c #334B5D",
"h$	c #334D61",
"i$	c #2F495D",
"j$	c #203140",
"k$	c #35393D",
"l$	c #313940",
"m$	c #2A4051",
"n$	c #233746",
"o$	c #3A5368",
"p$	c #263847",
"q$	c #253947",
"r$	c #2A3D4D",
"s$	c #2C4252",
"t$	c #334B60",
"u$	c #2F475B",
"v$	c #233545",
"w$	c #1C2B39",
"x$	c #2B4154",
"y$	c #2D4456",
"z$	c #243846",
"A$	c #395367",
"B$	c #344B60",
"C$	c #1E3140",
"D$	c #253747",
"E$	c #283E4F",
"F$	c #35393E",
"G$	c #313A41",
"H$	c #293D4F",
"I$	c #1B2C39",
"J$	c #30465A",
"K$	c #375064",
"L$	c #1C2C39",
"M$	c #33495B",
"N$	c #17242E",
"O$	c #203444",
"P$	c #2F475A",
"Q$	c #353A3E",
"R$	c #313A42",
"S$	c #182734",
"T$	c #223544",
"U$	c #283C4B",
"V$	c #1E2C37",
"W$	c #314C60",
"X$	c #2B475C",
"Y$	c #213D51",
"Z$	c #243E50",
"`$	c #17242F",
" %	c #1D2E3C",
".%	c #253B4D",
"+%	c #253E52",
"@%	c #2A465A",
"#%	c #1E2F3B",
"$%	c #1D2E39",
"%%	c #1F303D",
"&%	c #1C2C38",
"*%	c #2E4352",
"=%	c #2B3E4E",
"-%	c #30485C",
";%	c #37546B",
">%	c #1F4965",
",%	c #1A74A2",
"'%	c #2A495E",
")%	c #2A4153",
"!%	c #1A2935",
"~%	c #323B43",
"{%	c #1A2A36",
"]%	c #1C2D3A",
"^%	c #2C4659",
"/%	c #2A5B7B",
"(%	c #265F82",
"_%	c #305069",
":%	c #365064",
"<%	c #233542",
"[%	c #1F2E39",
"}%	c #20313F",
"|%	c #1E2D38",
"1%	c #20313D",
"2%	c #20303B",
"3%	c #1D2C37",
"4%	c #355065",
"5%	c #1D4864",
"6%	c #127BB7",
"7%	c #2A4A61",
"8%	c #2C4356",
"9%	c #283E4E",
"0%	c #1B2B38",
"a%	c #2E4A5E",
"b%	c #286388",
"c%	c #246287",
"d%	c #2F4E66",
"e%	c #202F3A",
"f%	c #1B2A34",
"g%	c #233440",
"h%	c #1D2C36",
"i%	c #21303B",
"j%	c #21313D",
"k%	c #21333F",
"l%	c #385268",
"m%	c #1E4864",
"n%	c #137BB9",
"o%	c #2B4B61",
"p%	c #273C4C",
"q%	c #303941",
"r%	c #2F4A5E",
"s%	c #296489",
"t%	c #236389",
"u%	c #2F4F66",
"v%	c #30485D",
"w%	c #111B22",
"x%	c #233441",
"y%	c #21303D",
"z%	c #243542",
"A%	c #21303C",
"B%	c #1E4966",
"C%	c #0F7CC1",
"D%	c #2B4A61",
"E%	c #283D4D",
"F%	c #2B404F",
"G%	c #363A3D",
"H%	c #313B43",
"I%	c #28658A",
"J%	c #23668D",
"K%	c #2F5067",
"L%	c #2E475A",
"M%	c #334C5F",
"N%	c #233643",
"O%	c #223440",
"P%	c #0F161D",
"Q%	c #162028",
"R%	c #192730",
"S%	c #15232D",
"T%	c #263745",
"U%	c #2E4253",
"V%	c #385368",
"W%	c #1F4966",
"X%	c #0E7DC4",
"Y%	c #2C4B62",
"Z%	c #36393D",
"`%	c #313A43",
" &	c #2A6488",
".&	c #22668F",
"+&	c #2F5069",
"@&	c #192833",
"#&	c #2A3E50",
"$&	c #365267",
"%&	c #1E4765",
"&&	c #1279C2",
"*&	c #2D4A61",
"=&	c #303A44",
"-&	c #2A668B",
";&	c #216690",
">&	c #2F526B",
",&	c #2C4456",
"'&	c #32485B",
")&	c #1D2E3A",
"!&	c #365167",
"~&	c #1277C2",
"{&	c #2F485D",
"]&	c #2B658A",
"^&	c #206692",
"/&	c #30526B",
"(&	c #31495E",
"_&	c #293F4F",
":&	c #15212A",
"<&	c #293F50",
"[&	c #233745",
"}&	c #354F65",
"|&	c #1E4967",
"1&	c #107AC4",
"2&	c #2E4C63",
"3&	c #363A3E",
"4&	c #313B45",
"5&	c #293E4D",
"6&	c #1B2B36",
"7&	c #2F495E",
"8&	c #2B658C",
"9&	c #1F6693",
"0&	c #30536D",
"a&	c #19252E",
"b&	c #2C4457",
"c&	c #344F64",
"d&	c #0F7BC7",
"e&	c #2D4C63",
"f&	c #2F3A43",
"g&	c #2C658B",
"h&	c #1F6692",
"i&	c #30526C",
"j&	c #2D4458",
"k&	c #283C4D",
"l&	c #253845",
"m&	c #26394A",
"n&	c #1E4763",
"o&	c #0F7AC6",
"p&	c #2C4C63",
"q&	c #2F4A5F",
"r&	c #21668F",
"s&	c #2F5169",
"t&	c #2C4255",
"u&	c #2A4050",
"v&	c #283D4E",
"w&	c #204763",
"x&	c #0F7CC6",
"y&	c #303B44",
"z&	c #216790",
"A&	c #263845",
"B&	c #2A4152",
"C&	c #1F4763",
"D&	c #0E7DC5",
"E&	c #2C4D64",
"F&	c #2F3B45",
"G&	c #2B4253",
"H&	c #304A5F",
"I&	c #22658F",
"J&	c #2F4759",
"K&	c #1D2A34",
"L&	c #152029",
"M&	c #1F4864",
"N&	c #0D7EC7",
"O&	c #2D4E65",
"P&	c #2B6386",
"Q&	c #23648C",
"R&	c #1C2B35",
"S&	c #1D445F",
"T&	c #127CBC",
"U&	c #2B4B62",
"V&	c #18252E",
"W&	c #36393C",
"X&	c #2F3A44",
"Y&	c #2E4559",
"Z&	c #2D475B",
"`&	c #2B6081",
" *	c #266083",
".*	c #2B4A60",
"+*	c #1C2933",
"@*	c #101A22",
"#*	c #253A4A",
"$*	c #2A3F52",
"%*	c #1F3A4E",
"&*	c #2A5875",
"**	c #253F53",
"=*	c #254A62",
"-*	c #224862",
";*	c #1C3040",
">*	c #1C2832",
",*	c #263949",
"'*	c #253A49",
")*	c #2C4759",
"!*	c #244055",
"~*	c #254F69",
"{*	c #243C4E",
"]*	c #2E3A43",
"^*	c #273E50",
"/*	c #25485E",
"(*	c #254962",
"_*	c #294458",
":*	c #141F27",
"<*	c #101A21",
"[*	c #304758",
"}*	c #1D4561",
"|*	c #1B73A7",
"1*	c #28485F",
"2*	c #37393C",
"3*	c #293F51",
"4*	c #294356",
"5*	c #2A5F80",
"6*	c #255F83",
"7*	c #2C4960",
"8*	c #1D4764",
"9*	c #127BBD",
"0*	c #2A4B62",
"a*	c #2E3A45",
"b*	c #2C475B",
"c*	c #236289",
"d*	c #2E4D65",
"e*	c #1C2A34",
"f*	c #1E4A67",
"g*	c #107CC4",
"h*	c #2A4A62",
"i*	c #293E4C",
"j*	c #2E3A46",
"k*	c #2C485D",
"l*	c #29668C",
"m*	c #216590",
"n*	c #223443",
"o*	c #1E4866",
"p*	c #107BC4",
"q*	c #2D3A44",
"r*	c #29668A",
"s*	c #206792",
"t*	c #2D4F68",
"u*	c #304859",
"v*	c #1B2832",
"w*	c #1E4A68",
"x*	c #107BC3",
"y*	c #2A4961",
"z*	c #37393B",
"A*	c #2D3943",
"B*	c #2B475B",
"C*	c #1D4966",
"D*	c #1279BD",
"E*	c #2A485F",
"F*	c #2D3A45",
"G*	c #2B4559",
"H*	c #296386",
"I*	c #236489",
"J*	c #2D4F67",
"K*	c #2B4252",
"L*	c #1579B5",
"M*	c #29485E",
"N*	c #2B4558",
"O*	c #296082",
"P*	c #256083",
"Q*	c #2A3D4C",
"R*	c #263B4C",
"S*	c #1D2F3B",
"T*	c #1A384C",
"U*	c #21526E",
"V*	c #253E51",
"W*	c #2C3842",
"X*	c #214962",
"Y*	c #204962",
"Z*	c #2B4457",
"`*	c #1A2A37",
" =	c #1A3040",
".=	c #2C3742",
"+=	c #1D303F",
"@=	c #1C2E3D",
"#=	c #17232E",
"$=	c #2C3944",
"%=	c #253A48",
"&=	c #38393B",
"*=	c #2D3B45",
"==	c #37393A",
"-=	c #2B3944",
";=	c #1F303B",
">=	c #213341",
",=	c #213442",
"'=	c #213340",
")=	c #273C4A",
"!=	c #273A48",
"~=	c #38393A",
"{=	c #2C3945",
"]=	c #172B39",
"^=	c #182833",
"/=	c #2B3844",
"(=	c #172936",
"_=	c #213647",
":=	c #17212B",
"<=	c #284155",
"[=	c #1B3F56",
"}=	c #255A77",
"|=	c #1F394B",
"1=	c #273B49",
"2=	c #293F4E",
"3=	c #2A3843",
"4=	c #223746",
"5=	c #285773",
"6=	c #1B445D",
"7=	c #223E53",
"8=	c #294357",
"9=	c #1D4159",
"0=	c #1973A8",
"a=	c #24648A",
"b=	c #2B495F",
"c=	c #293642",
"d=	c #275471",
"e=	c #0F7DC0",
"f=	c #1E4964",
"g=	c #264257",
"h=	c #294153",
"i=	c #1D3F56",
"j=	c #1C6F9F",
"k=	c #1E6D9C",
"l=	c #2D536D",
"m=	c #293743",
"n=	c #304D64",
"o=	c #285E81",
"p=	c #0980C9",
"q=	c #1E4863",
"r=	c #264055",
"s=	c #273C4D",
"t=	c #1B3648",
"u=	c #1A72A5",
"v=	c #2D5570",
"w=	c #2A3844",
"x=	c #24638A",
"y=	c #147AB2",
"z=	c #1C3E54",
"A=	c #273C4B",
"B=	c #1A3141",
"C=	c #1D3B4F",
"D=	c #285D7C",
"E=	c #2B536D",
"F=	c #293844",
"G=	c #2F4D65",
"H=	c #285A78",
"I=	c #1F425A",
"J=	c #1A3346",
"K=	c #253C4E",
"L=	c #1B394F",
"M=	c #275876",
"N=	c #285A77",
"O=	c #2A4C62",
"P=	c #293845",
"Q=	c #2D4A60",
"R=	c #224D68",
"S=	c #206A96",
"T=	c #1C4057",
"U=	c #253F52",
"V=	c #253946",
"W=	c #263B4A",
"X=	c #1D3C53",
"Y=	c #275777",
"Z=	c #127DBD",
"`=	c #2C4E65",
" -	c #1971A8",
".-	c #216692",
"+-	c #1B3E56",
"@-	c #263E51",
"#-	c #111C25",
"$-	c #283E51",
"%-	c #1E3D54",
"&-	c #265474",
"*-	c #2D5774",
"=-	c #2B465B",
"--	c #182630",
";-	c #21323E",
">-	c #383939",
",-	c #263641",
"'-	c #2C4559",
")-	c #2E526D",
"!-	c #1474B3",
"~-	c #236189",
"{-	c #1B3D56",
"]-	c #263C4F",
"^-	c #283F50",
"/-	c #1D3C54",
"(-	c #234E6C",
"_-	c #0782D3",
":-	c #2B5B7B",
"<-	c #2C485E",
"[-	c #15222A",
"}-	c #263440",
"|-	c #2C4458",
"1-	c #2D5470",
"2-	c #0E7ABF",
"3-	c #265B7D",
"4-	c #1A3A4F",
"5-	c #243A4B",
"6-	c #243948",
"7-	c #1E3B50",
"8-	c #1F4C6A",
"9-	c #0382DA",
"0-	c #2A5C7E",
"a-	c #2C4A60",
"b-	c #24323F",
"c-	c #233642",
"d-	c #141E26",
"e-	c #0E7CC3",
"f-	c #275676",
"g-	c #193549",
"h-	c #25394B",
"i-	c #101B23",
"j-	c #1E3241",
"k-	c #193950",
"l-	c #295F82",
"m-	c #2C4A62",
"n-	c #1E2E39",
"o-	c #151F27",
"p-	c #2B5471",
"q-	c #1A2C3A",
"r-	c #18232C",
"s-	c #253A4B",
"t-	c #162936",
"u-	c #1A3447",
"v-	c #2B516C",
"w-	c #2D4B61",
"x-	c #1C2C37",
"y-	c #333537",
"z-	c #282D32",
"A-	c #284F69",
"B-	c #1E4256",
"C-	c #162733",
"D-	c #162835",
"E-	c #283C4A",
"F-	c #101C25",
"G-	c #141D26",
"H-	c #353738",
"I-	c #252E35",
"J-	c #24394A",
"K-	c #1A2D3A",
"L-	c #172430",
"M-	c #213342",
"N-	c #203340",
"O-	c #16242E",
"P-	c #182732",
"Q-	c #152531",
"R-	c #122C3E",
"S-	c #103C55",
"T-	c #383839",
"U-	c #212F3A",
"V-	c #2E4556",
"W-	c #2B4354",
"X-	c #17252F",
"Y-	c #273D4C",
"Z-	c #1C303D",
"`-	c #162C3B",
" ;	c #124361",
".;	c #11688D",
"+;	c #103447",
"@;	c #35383A",
"#;	c #29343E",
"$;	c #324859",
"%;	c #1A2933",
"&;	c #1B3140",
"*;	c #153143",
"=;	c #134B6C",
"-;	c #0B729B",
";;	c #10394F",
">;	c #35383B",
",;	c #293640",
"';	c #2C4558",
");	c #273D4E",
"!;	c #213645",
"~;	c #245570",
"{;	c #27455C",
"];	c #263C4D",
"^;	c #163449",
"/;	c #144D6E",
"(;	c #0A749E",
"_;	c #103B52",
":;	c #283641",
"<;	c #284255",
"[;	c #263F52",
"};	c #205371",
"|;	c #233B4D",
"1;	c #233B4C",
"2;	c #127CA8",
"3;	c #274F6C",
"4;	c #263D4F",
"5;	c #153449",
"6;	c #154D6F",
"7;	c #0774A3",
"8;	c #103B53",
"9;	c #29495F",
"0;	c #0E7BAD",
"a;	c #234358",
"b;	c #111C23",
"c;	c #1B2B37",
"d;	c #243E4F",
"e;	c #0A84B7",
"f;	c #28516F",
"g;	c #273E51",
"h;	c #294051",
"i;	c #1B303F",
"j;	c #153247",
"k;	c #144C6E",
"l;	c #0675A5",
"m;	c #0F3A52",
"n;	c #284256",
"o;	c #283E4D",
"p;	c #2A4B61",
"q;	c #0783B8",
"r;	c #24455B",
"s;	c #0E81B0",
"t;	c #28506C",
"u;	c #153347",
"v;	c #144C6D",
"w;	c #0973A0",
"x;	c #28343F",
"y;	c #274053",
"z;	c #2A495F",
"A;	c #0C7EAC",
"B;	c #19262F",
"C;	c #283A48",
"D;	c #233848",
"E;	c #275E7C",
"F;	c #29475D",
"G;	c #1C3141",
"H;	c #153043",
"I;	c #144A6B",
"J;	c #0975A1",
"K;	c #103B51",
"L;	c #284154",
"M;	c #275B77",
"N;	c #243C4F",
"O;	c #2A3D4B",
"P;	c #263F51",
"Q;	c #1D3241",
"R;	c #152D3D",
"S;	c #144764",
"T;	c #0D7299",
"U;	c #11384D",
"V;	c #35373A",
"W;	c #28323C",
"X;	c #283F51",
"Y;	c #273F51",
"Z;	c #0E171F",
"`;	c #15364A",
" >	c #124D69",
".>	c #212F3B",
"+>	c #1B2D3A",
"@>	c #172A3A",
"#>	c #2D373F",
"$>	c #0E181F",
"%>	c #1C2D39",
"&>	c #2F3439",
"*>	c #333639",
"=>	c #1E3749",
"->	c #27526E",
";>	c #27455B",
">>	c #2F363C",
",>	c #204A63",
"'>	c #214A60",
")>	c #1B2E3C",
"!>	c #2E4759",
"~>	c #224259",
"{>	c #0880D0",
"]>	c #285C7E",
"^>	c #254259",
"/>	c #33363A",
"(>	c #2E343A",
"_>	c #24526F",
":>	c #088ACD",
"<>	c #254E68",
"[>	c #2A4254",
"}>	c #2F4C62",
"|>	c #285372",
"1>	c #008AE3",
"2>	c #275675",
"3>	c #254156",
"4>	c #2E3439",
"5>	c #283F53",
"6>	c #244E69",
"7>	c #0683D2",
"8>	c #276083",
"9>	c #2F5168",
"0>	c #295979",
"a>	c #0087E2",
"b>	c #265270",
"c>	c #253F54",
"d>	c #17252E",
"e>	c #33373A",
"f>	c #2E353B",
"g>	c #273D4F",
"h>	c #254A63",
"i>	c #0A7ECC",
"j>	c #216997",
"k>	c #294E68",
"l>	c #2B4356",
"m>	c #2B4E66",
"n>	c #266088",
"o>	c #0188DB",
"p>	c #25516E",
"q>	c #263F53",
"r>	c #34373B",
"s>	c #2F353C",
"t>	c #1479B7",
"u>	c #1B71A7",
"v>	c #284E68",
"w>	c #2D475C",
"x>	c #2B4F67",
"y>	c #236692",
"z>	c #117EBB",
"A>	c #234C66",
"B>	c #274052",
"C>	c #34373A",
"D>	c #2E353C",
"E>	c #26475D",
"F>	c #1D6F9E",
"G>	c #1577B4",
"H>	c #28506B",
"I>	c #2D485D",
"J>	c #213441",
"K>	c #223342",
"L>	c #2D485B",
"M>	c #2B4F68",
"N>	c #226994",
"O>	c #256487",
"P>	c #213E51",
"Q>	c #2B3F4E",
"R>	c #213A4C",
"S>	c #205571",
"T>	c #137AB1",
"U>	c #274F69",
"V>	c #304D63",
"W>	c #2E495D",
"X>	c #27465C",
"Y>	c #224358",
"Z>	c #224A66",
"`>	c #234258",
" ,	c #1B2B35",
".,	c #264256",
"+,	c #1E4B64",
"@,	c #204157",
"#,	c #24465C",
"$,	c #2E4C61",
"%,	c #244155",
"&,	c #0C7EC5",
"*,	c #23648E",
"=,	c #24435A",
"-,	c #34383B",
";,	c #2E363C",
">,	c #274357",
",,	c #235572",
"',	c #0886C7",
"),	c #23475E",
"!,	c #2F4B60",
"~,	c #26516F",
"{,	c #0083DD",
"],	c #265C82",
"^,	c #234157",
"/,	c #152129",
"(,	c #2D353C",
"_,	c #264054",
":,	c #224F6C",
"<,	c #0588D4",
"[,	c #265471",
"},	c #2F4D63",
"|,	c #0181DA",
"1,	c #255372",
"2,	c #0882CF",
"3,	c #27597A",
"4,	c #2C4C64",
"5,	c #2E516A",
"6,	c #245170",
"7,	c #1774AD",
"8,	c #1E3C51",
"9,	c #2D343B",
"0,	c #1E3546",
"a,	c #206A99",
"b,	c #294D66",
"c,	c #15232C",
"d,	c #1D2D38",
"e,	c #2A485C",
"f,	c #203E52",
"g,	c #192A38",
"h,	c #172733",
"i,	c #1F3C4F",
"j,	c #28455A",
"k,	c #152027",
"l,	c #1F313E",
"m,	c #2C353B",
"n,	c #2C333B",
"o,	c #213241",
"p,	c #343739",
"q,	c #2C333A",
"r,	c #0E161E",
"s,	c #15222D",
"t,	c #182834",
"u,	c #1E2F3C",
"v,	c #353739",
"w,	c #182632",
"x,	c #0D161D",
"y,	c #162D3D",
"z,	c #17455B",
"A,	c #1D3342",
"B,	c #18384B",
"C,	c #16394E",
"D,	c #23394A",
"E,	c #1F2E3C",
"F,	c #163E57",
"G,	c #1A7198",
"H,	c #204054",
"I,	c #2B3239",
"J,	c #253D4F",
"K,	c #255673",
"L,	c #1F5978",
"M,	c #244257",
"N,	c #17425D",
"O,	c #147AAD",
"P,	c #204359",
"Q,	c #295D7D",
"R,	c #235E7F",
"S,	c #25455B",
"T,	c #151F26",
"U,	c #184461",
"V,	c #107CB7",
"W,	c #22445B",
"X,	c #2A3239",
"Y,	c #2A5E7F",
"Z,	c #225F82",
"`,	c #0D161E",
" '	c #18435F",
".'	c #107CB8",
"+'	c #21445B",
"@'	c #2A323A",
"#'	c #2A5F7F",
"$'	c #235F83",
"%'	c #24445B",
"&'	c #101A20",
"*'	c #18425E",
"='	c #0F7DBB",
"-'	c #21445C",
";'	c #14212B",
">'	c #243F53",
",'	c #295F7F",
"''	c #236084",
")'	c #20323F",
"!'	c #17415D",
"~'	c #117CB9",
"{'	c #243E52",
"]'	c #2A5F7E",
"^'	c #226084",
"/'	c #25394A",
"('	c #17405B",
"_'	c #147AB1",
":'	c #204257",
"<'	c #293138",
"['	c #223C4E",
"}'	c #2A5E7C",
"|'	c #234359",
"1'	c #0C161D",
"2'	c #173D57",
"3'	c #1677AA",
"4'	c #204155",
"5'	c #2A3139",
"6'	c #2A5C79",
"7'	c #255D7D",
"8'	c #214055",
"9'	c #1D2F3D",
"0'	c #17354A",
"a'	c #21607E",
"b'	c #1D394C",
"c'	c #293139",
"d'	c #203646",
"e'	c #204F6A",
"f'	c #1E506B",
"g'	c #1A3345",
"h'	c #182D3B",
"i'	c #1F3E52",
"j'	c #1C2F3D",
"k'	c #1F3340",
"l'	c #1E384B",
"m'	c #1F394D",
"n'	c #1A2B39",
"o'	c #202F3D",
"p'	c #1A3F57",
"q'	c #1C6A8D",
"r'	c #1D3C4F",
"s'	c #293038",
"t'	c #21394A",
"u'	c #23536F",
"v'	c #1F5471",
"w'	c #27455A",
"x'	c #153F59",
"y'	c #1578A7",
"z'	c #1F4055",
"A'	c #283038",
"B'	c #2A5C7A",
"C'	c #225978",
"D'	c #224258",
"E'	c #151E26",
"F'	c #263A4B",
"G'	c #16415C",
"H'	c #137AB0",
"I'	c #363739",
"J'	c #233C4E",
"K'	c #2A5E7E",
"L'	c #235A7A",
"M'	c #253849",
"N'	c #127BB1",
"O'	c #223B4D",
"P'	c #225B7C",
"Q'	c #234257",
"R'	c #131D25",
"S'	c #152028",
"T'	c #17425E",
"U'	c #117CB4",
"V'	c #20445A",
"W'	c #273037",
"X'	c #2B5F7F",
"Y'	c #235D7E",
"Z'	c #107DB7",
"`'	c #272F37",
" )	c #223A4C",
".)	c #245C7E",
"+)	c #244359",
"@)	c #121C23",
"#)	c #107DB9",
"$)	c #20435A",
"%)	c #223C4D",
"&)	c #24445A",
"*)	c #17405C",
"=)	c #363738",
"-)	c #272F36",
";)	c #233C4D",
">)	c #2B607F",
",)	c #235C7F",
"')	c #163F5B",
"))	c #127AB7",
"!)	c #204258",
"~)	c #262E35",
"{)	c #235B7E",
"])	c #224157",
"^)	c #121B23",
"/)	c #153E59",
"()	c #1379AF",
"_)	c #1E4156",
":)	c #225C7E",
"<)	c #142129",
"[)	c #143D57",
"})	c #1279A9",
"|)	c #1D4056",
"1)	c #242C33",
"2)	c #223A4B",
"3)	c #2B5E7B",
"4)	c #225B7D",
"5)	c #223F54",
"6)	c #273946",
"7)	c #133A51",
"8)	c #167198",
"9)	c #1C3D51",
"0)	c #232B32",
"a)	c #21384A",
"b)	c #205978",
"c)	c #213C4F",
"d)	c #293B49",
"e)	c #142B3C",
"f)	c #184057",
"g)	c #1B2E3D",
"h)	c #17384E",
"i)	c #294050",
"j)	c #243848",
"k)	c #253C4C",
"l)	c #142430",
"m)	c #232C33",
"n)	c #172835",
"o)	c #1F3749",
"p)	c #182F3E",
"q)	c #263D4E",
"r)	c #263D4D",
"s)	c #233846",
"t)	c #111F2A",
"u)	c #0F1A23",
"v)	c #242C34",
"w)	c #1B2A37",
"x)	c #131F29",
"y)	c #12202A",
"z)	c #373738",
"A)	c #232B34",
"B)	c #111D25",
"C)	c #232B33",
"D)	c #0F171F",
"E)	c #10181F",
"F)	c #222B33",
"G)	c #0F171E",
"H)	c #373838",
"I)	c #16232E",
"J)	c #091115",
"K)	c #0E161C",
"L)	c #101820",
"M)	c #222A32",
"N)	c #202A32",
"O)	c #21303F",
"P)	c #0B1419",
"Q)	c #23333F",
"R)	c #202931",
"S)	c #0F171D",
"T)	c #1F272E",
"U)	c #0E151B",
"V)	c #192832",
"W)	c #202E3B",
"X)	c #0F1921",
"Y)	c #111E28",
"Z)	c #1E262D",
"`)	c #121F28",
" !	c #111C26",
".!	c #101B22",
"+!	c #0D181F",
"@!	c #0C161C",
"#!	c #091117",
"$!	c #141F29",
"%!	c #131E28",
"&!	c #132029",
"*!	c #13222D",
"=!	c #132939",
"-!	c #162530",
";!	c #1B2229",
">!	c #142938",
",!	c #132431",
"'!	c #14222C",
")!	c #13212A",
"!!	c #132028",
"~!	c #121D27",
"{!	c #253644",
"]!	c #25323D",
"^!	c #2B3E4D",
"/!	c #273746",
"(!	c #263643",
"_!	c #202C37",
":!	c #212D38",
"<!	c #222F3A",
"[!	c #222F3B",
"}!	c #23303D",
"|!	c #23313D",
"1!	c #24343F",
"2!	c #24333F",
"3!	c #24313E",
"4!	c #253440",
"5!	c #23313C",
"6!	c #22303C",
"7!	c #23303C",
"8!	c #23313E",
"9!	c #243440",
"0!	c #283845",
"a!	c #253441",
"b!	c #24313F",
"c!	c #263442",
"d!	c #283744",
"e!	c #273643",
"f!	c #263542",
"g!	c #253542",
"h!	c #263543",
"i!	c #23323E",
"j!	c #25343F",
"k!	c #242F38",
"l!	c #273543",
"m!	c #253541",
"n!	c #243441",
"o!	c #253442",
"p!	c #25333F",
"q!	c #212C39",
"r!	c #232F3B",
"s!	c #222F39",
"t!	c #23303B",
"u!	c #212E39",
"v!	c #202C36",
"w!	c #1E2933",
"  . + + @ # # # $ $ % & * # # & = & * & - ; > ; , ' * > , , , ) , ! ! ! ~ ~ { , ] ^ { ) ) , , ~ ) , ) ] ^ / ^ ^ ^ ( _ : : < [ } | | | | | } 1 ^ ^ : : : 2 : _ 3 ] ^ ^ 4 ^ ] , , 5 , ^ , , , , ~ , , , , ) , , , , , 6 > > - 7 > 6 ' ' > * ' # # @ # 8 * # . 9 $   0   a ",
"b c d e d f g h g i j k l i l m m n o m p q o r s r t u v w w x y w v v y y y r z A A y y w y B C D x D E F E F G H I H J K L M | | | | | M N O P J K Q I G G A x F O F y w w z s y O D B y w x R R y B A y R S S T U V W o o o W t r r o m q l h i l X X X h Y d e e b ",
"Z `  ...+.@.#.#.$.$.#.%.$.&.$.*.*.=.=.-.$.$.%.;.;.>.>.>.;.;.,.'.'.).).).'.!.'.~.;.{.].'.'.^.!.{.].{./.(._.:.<.:.[.}.|.1.2.2.3.4.| | | | | 5.6.7.8.9.}.7.7.0.:.a.{._.<._.b.b.{.{.{.c./.{.'.'.).d.).b.'.{.{.b.e.!.!.f.g.;.;.>.~.=.~.h.;.h.=.*.=.=.$.i.$.*.*.*.#.j.@.@.k.l.",
"m.n.n.o.p.p.q.r.s.t.u.s.t.s.s.v.v.w.v.s.t.u.s.x.x.w.x.x.x.y.z.A.A.x.A.A.A.A.B.y.C.D.B.D.D.D.B.B.D.A.A.A.D.D.E.B.F.G.H.I.J.K.L.M.| | | | | N.O.P.Q.R.S.T.U.U.U.E.D.E.U.U.D.B.B.B.B.U.V.D.A.D.x.C.A.D.D.E.E.D.A.D.D.A.A.A.A.A.C.w.w.A.A.C.w.v.w.w.s.s.r.u.s.s.r.q.q.n.n.W.",
"X.Y.B.Z.`. +.+.+Z.++@+.+++#+.+.+.+.+.+.+.+$+%+&+.+%+.+.+*+m.%+++++#+&+.+#+.+$+.+#+.+*+$+=+.+%+.+#+W.-+U.V.-+ +.+.+;+>+,+'+)+3.!+| | | | | ~+{+]+}.^+/+(+_+#+#+++-+-+_+.+*+m.:+<+=+*+<+m.%+.+%+.+%+[+<+*+%+%+%+$+}+|+|+m.<+$+=+.+%+%+.+&+`..+&+&+#+Z.Z.W.1+1+W.W._+_+2+.+",
"3+D.4+5+6+6+l.l.X.Z Z 7+8+8+8+6+6+l.6+O.O.O.K.9+9+9+P.P.0+a+b+b+b+c+d+d+d+e+e+b+b+f+%.%.=.g+f.h+g+;._.0.2.i+j+2.k+l+m+8.T n+Y o+| | | | | p+q+r+l+s+t+u+v+w+x+y+}.2.h+!././.{.].!.z+!.$.c+3+c+e+A+d+%.B+f+C+b+0+b+b+b+J.D+P.D+P.0+9+l.7+Q.9+9+l.l.7+8+E+8+F+7+l.F+G+-+H+",
"B+Z.5+%.!._.:.8._.!.!.I+J+I+K+/./.!.^.{./.{.f.~.~.~.L+f.!.K+M+:.:.8.:.k+:.M+M+!.!.:.}.}.}.2.N+u+y+2.O+T P+Q+n+R+n+S+T+U+V+W+X+Y+| | | | | Z+`+ @.@9.+@@@#@$@%@Q+&@r+*@=@*@j+-@;@2.}.2.k+J+8.8.>@v+v+,@>@k+M+].!.,+'@,+L+f.'@8.>@8.K+!.K+M+M+M+K+].!.!.!.!.!.!.!.~.b+m.)@",
"!@.+~@%.!@/.{@2.}.]@[.[.8.[.v+v+:.].!.].I+^@Q+%@/@%@(@_@R+@@:@<@[@}@|@1@|@(@[@(@[@2@3@4@5@6@7@8@9@0@_.P+a@b@ @(@<@c@d@]+a@e@^@f@| | | | | g@Q+b@h@i@|@[@:@j@k@l@ @2.1.m@n@7@o@4@p@q@r@<@[@}@s@}@r@:@<@t@u@@@$@(@v@#@t@t@w@R+%@u+:.8.M+M+K+K+J+:.8.M+M+/./.I+!.-.J.~.x@y@",
"g+_+e+f.k+{+z@A@B@W C@D@p o o B@O+E@D@F@E@]@x %@%@Q+R+ @W+(@|@|@(@G@|@H@S+(@I@(@(@j@J@J@J@6@K@L@M@N@O@n+W+P@n+W+Q@R@S@O+T@U@V@W@| | | | | X@Y@U@Z@`@R@c@ #S+R+S+(@.#q+i@n++#6@s@ #@###<@$#r@J@s@c@@#|@(@@@v@v@l@W+%#(@t@$@P ;@F@A@N@&#'+i@{+*#=#p O+o F@F@-#)+}.$.!.m.;#",
"!.#+e+!.1.)+&@&@z@>#A@A@&@P+P+P+,#>#&@T >#'+_.w@v@W+$@$@$@(@'# #}@r@J@r@ #)#j@|@!#r@7@5@~#~#{#]#^#/#(#V+b@b@a@T@_#:#<#=#e@[#}#|#| | | | | 1#P@S+[#2#3#:#R@4#n+5#U@6#>#7#V+8#3#9#0#s@s@r@@#J@a#J@6@J@b#@#S+[#S+(@I@U@|@|@s@;@w+P+n+c#B@)+E@d#B@T &@>#&@&@>#B@B@-#h+/.e#h.",
"]..+%.M+*@F@c#Q+T T ,#,#c#Q+Q+c#Q+c#P+Q+c#O+|.f#g#W+(@(@$@h#s@a#6@i#j#:#6@:#b#b# #:#5@k#{#8#k#]#l#b+(#.@I@U@m#n#j@8#Z@=#U@@#U |#| | | | | o#l@h#U@p#:#q#i#m#a@c@l@{+,@r#.@s#Q@6@k#6@t#6@s@5@6@a#u#k#{#6@s@v#r@##S+U@j@}@w#*@=#V+W+n+x#B@y#z#W A#P+P+P+&@&@c#W O+!.8.B#'.",
"h+C#;.}.D#W n+Y@Q+V+n+n+r+r+Q+c#V+n+V+V+c#W {+E#F#(@<@h#(@$#r@G#H#I#H#j#k#{#6@6@6@6@t#H#H#J#K#L#M#L+N#O#U@[#U@U@P#:#<#A@S+j@U Q#| | | | | R#U@j@U@S#:#8#r@S+S+i#e@d#i@T#T@k#J@{#q#k#u#u#U#H#6@6@V#V#I#H#k#t#6@a#r@S+<@r@W#j+B@n+R+X#A#Y#N#c#&@Z#Q+Q+V+Q+c#r+q+=#:.`#O.*.",
"g+e#f.1.-#T r+n+c#c#V+n+Q+c#r+Q+Q+V+n+ $Q+>#.#o@.$|@j@r@r@s@6@6@u#V#H#j#k#+$k#k#j#{#q#H#+$@$#$$$%$s+c#P+U@Q@ #[#j@~#Z@&@&$j@S *$| | | | | =$U@)#S+-$R@Q@c@[#j@a#(@B@6#;$W++$>$,${#+$'$V#)$!${#6@H#~${$!$I#I#u#5@ #h#j@s@]$-#W ^$^$c#Q+c#c#Q+P+Z#n+Q+Q+/$V+Q+q+o 0.u+($#.",
"f.G+f._$=#T r+V+,#,#c#n+n+Q+Q+:$c#c#V+R+b@Z#D@<$7@|@r@a#6@H#K@u#u#H#k# #6@k#V#J#j#k#J#+$@$+$[$}$|$1$,#W l@Q@3#Q@b#:#h@W 2$)#P 3$| | | | | 4$S+)#U@5$6$L@Z@L@3#:#7$T+E@9@a@J#H#~#8$~$9$I#0$a$@${#J#+$~${${$V#V#H#r@h#<@s@b$C@T n+V+V+c$>#c$&@d$c#V+Q+Y@V+Q+S T o v+u+J.#.",
"!.e$K+{+W z@,#n+P+,#f$Y@R+%@n+n+/$P+`+v@$@ @F@g$q@h#|@v#J@t#H#o@H#H#9#)#L@3#H#k#8#H#+$j#>$@$h$i$j$1$c$B@k@P#i#)#Q@Q@4#=#L@Q@P k$| | | | | l$|@b#m$9.Z@Z@h@Q@8#J@$@n$E@9@W+V#9${#{#@$I#0$I#{$K@8#8#6@u#+$+$@$~$u#Q@[#h#J@o$o Q+R+W+R+ @c#c#c#c$N#V+n+n+n+/$S p$k v+*@D+=.",
"8.Z !.{+q$A@T q+>#>#&@n+R+ @v@W+r$n+n+W+W+V+g 4@G#s$U@S+[#Q@5@t#t#u#J@@#Q@:#k#5@j#J#+$k#J#t$#$u$|$I+q$v$k@5# #~#Q@L@T@=#c@P#C 3$| | | | | =$@#r@e@w$x$Z@y$:#:#)#e@z$/#i@b@~$~$K#@$+$@$I#6@u#H#:#5@:#6@t#k#j#{#j#3#h#[#J@A$B@n+(@+@v@W+R+^$,#X#V+R+n+n+V+V+P+&@F@,@'+b+g.",
"1.l.h+*@A@&@>#W &@>#P+n+R+ @v@v@W+W+ @X#Q+P+D@q@ #(@e@I@I@e@y$6@4@5@6@ #Q@J@5@J@8#j#k#B$9$K#@$,$C$J+D$W 4#5#:#{#6@b#E$F@[#j@O F$| | | | | G$j@y$H$I$6$L@Q@:#b#v#U@y#O@-$k@+${$V#I#J#J#k#6@I#K@a#:#9#3#0#6@:#J$6@8#P#h#Q@K$=#n+$@7$(@e@v@n+X# @R+W+W+ @ @V+T W O@L$*@b+{.",
"m@l.!.j+A@&@N@>#V+Q+R+W+ @ @R+v@W+v@ @X#f$q+-#M$q@e@k@ @,@3+N$f.f.;.~.%.%.=.~.~.f./.A@8#@$k#+$i$O$C@V+>#U@L@P$9#k#~#m$N$W I@O Q$| | | | | R$5#e@!.S$:#3#3#)#j@c@U@c$c#T$v@t$V#V#J#$@,@!.,+!.!.~.N$N$!@f.f.L+g+I+j@j@ @h#I#C@U$e@s$U@W+R+Y@ @$@v@$@W+R+R+n+P+W O@>@|.b+V$",
"w+l.h+y+)+z@A@c#R+ @$@v@v@ @l@v@%#v@b@n+f$P+=#V *@J+J+J+J+y+2.`#8.`#]@`#L$,@2.U+1.O+1.s@u#J#J#W$X$Y$Z$.@Q@3#:#:#8#~#4#`$~.I@r$Q$| | | | | G$S+=#N$ %s#:#3#P#7$j@[#.%+%@%k#H#H#+$@$*@]+{+L$#%u+`#`#$%9.L$y+w+%%9.{+1.&%;@&@B@R+U@S+(@e@$@v@v@w@$@(@v@R+n+V+&@=#)+8.u+0+{@",
"w+Q.f.v+w+=#q+Q+R+R+ @V+R+b@v@@@%@%@W+n+V+P+>#.$Y@c#N@j+%%=@*%=#{+;@{+{+y+)+-@'+A@=%C r@6@k#-%+$;%>%,%'%L@3#i#~#i#Q@)%!%I+I@%@Q$| | | | | ~%$@V+{%]%~#b#L@P#S+P#^%/%(%_%:%I#{#8#u#<%:@q+1.w+{+-@-#1.|.j+=#w@x+w+B@W Q+#@q@n+a@I@[#s$$@(@$@(@v@%#%#W+ @n+V+>#O@]+_.1.P.[%",
"}%Q.h+,@*@j+A@Q+%@V+V+P+Q+r$$@v@v@W+e@n+V+Y#E@F#n+A#>#g ]+D#[%E@o |%1%c.2%3%'.D#}. @c#r@,$,$P$J#4%5%6%7%8%L@Q@P#P#Z@9%{%I+e@=%k$| | | | | R$e@a@&%0%v#L@Z@[#Z@Q@a%b%c%d%J#:#b#-%u#B@s$u+D#g.=@[%c.e%'.E@B@<%j+-#z@P+/$#@r@,#R+l@[#(@(@(@(@$@R+R+Y@n+V+Q+Z#&@)+u+M+v+D+|%",
"u+8+d+g.{+x+N#^$^$Q+V+f$Q+R+$@U@l@v@$@k@V+N#E@q@W+U$=#f%<%]+_$2.z@}.|%g%h%i%j%(.k%e@>#@#:#,$R@s#l%m%n%o%P#@#[#U@j@U@p%!%!.$@@@k$| | | | | q%U@R+&%K+b#6$P#[#8%b#r%s%t%u%v%R@R@~#@$=#(@l+f%=@}.e%x+c.D#]+-#D#A@A@=@k n+R+s@T  @m$S+I@(@S+(@U@W+w@R+V+c#Q+n+P+]+]+f.f+l.f%",
"k+6+Z w%8.2.P+n+ @ @n+ @n+b@ @e@e@U@$@(@e@V+l+o@(@V+A#z@=@<%x%y%w+-#-@{@z%=@A%z%v+^$c#$#~#-%R@~#l%B%C%D%Z@j@5#5#[#[#E%!%h+u@F%G%| | | | | H%U@R+L$/.Q@b#Q@6$Q@Q@i$I%J%K%$$L%R@s#M%B@S+y+N%`#*@^@[%O%i+B@{+T Q+O%<% @n+s$q@P+a@$@U@U@U@(@s$|@S++@v@Y@c#Q+W+V+j+1.($P%Q%R%",
"}.8+~.S%1.}.T n+n+n+R+R+Q+ @n+ @ @W+U@U@I@ @B@g$(@V+V+^$z@2.=#T%D#=#Z#(@U%:@s@[@ @I@V+$#~#-%P$-%V%W%X%Y%P#L@Z@h@[#h#V+!%g.@@=%Z%| | | | | `%$@ @>@!._#b#Q@y$b#3#r% &.&+&$$P$P$~#k#W $#W+I@m$(@+@#@W+Z#g Q+V+k O+W+ @ @|@7@P+V+e@U@U@U@U@U@s$$@<@s$W+ @R+R+n+j+{+%.@.-.h.",
"y+Q.@&9.]+y+q+r$R+b@(@W+Q+ @l@$@b@R+#&T@l@a@B@3@+@k@ @ @e@A@c#:$d$z##&[#[#[#c@L@h@h@N#<@{#{#,$}$$&%&&&*&Q@3#P#Z@Z@I@V+!%~.v@#@Z%| | | | | =&U@ @8.!._#R@R@L@Q@:#i$-&;&>&$$~#P$}$t#E@I@j@,&Z@|@y$h#U@e@B@ @l@Q+U@m#e@l@Z@'&>#c#k@b@e@m$$@$@W+V+(@l@R+R+W+#@n+)+=#)&J+D+=.",
"&%8+%.8+3+`#&@V+n+v@I@I@ @a@l@m$b@ @ @T@T@ @>#7@|@W+e@e@(@I@^$V+c#D$e@[#j@h#5#8%h@I@x#@#:#8#J$-%!&B%~&*&i#J@b#y$I@I@V+K+N$R+%#Z%| | | | | =&(@ @8.!._#L@L@Z@L@s#{&]&^&/&J#(&P$3#0#B@Z@P#L@Z@y$y$)#I@e@W W+m$U@S+U@H$I@)#a#P+E%T@e@e@_&m$e@k@ @W+e@ @n+W+%@V+]+!.F+-.K.j.",
">@l.~.:&g+{+N@f$U$v@I@s$U@b@m$m$H$E%a@a@E%E%X#Q+(@U@h@[#j@L@I@l@a@c#U@j@6$v#L@Z@<&<&[&(@)# #v#~#}&|&1&2&9#6@ #Q@P#,&^$M+g+R+R+3&| | | | | 4&8@5&6&{._#P#L@L@:#,$7&8&9&0&J#8$P$P${#B@Z@b#b#Q@Q@P#P#I@U@>#U@U@U@S+[#m$U@j@W+N#k@e@e@T@T@T@m$e@W+e@R+a@R+R+Y@X#F@8.3+a&K.%.",
",@l.L+'@M+]+N@,#c# @a@l@I@k@E%E%T@e@I@m$p%.@A#&#I@e@U@[#Z@Z@P#c@e@x#I@[#,&6$b&8%4#m#y#(@P#&$i#~#c&|&d&e&3#8#6@3#b#P#k@J+~.R+%@Z%| | | | | f&I@^$J+c._#Q@Q@3#P$P$r%g&h&i&J#v%j&P$t#d#Z@b#R@b#_#P#[#S+U@&@I@(@[#j@j@U@S+<@F@t+T@k&b@k@T@e@e@m$a@a@Q+V+V+V+Q+,#=#,@f%,.K.*.",
"[.l.g+K+>@l&A@W x#c#.@E%T@k@V+ @H$m#b@I@E%Y#.@>#S+e@#&I@[#[#L@Q@m#m&U@[#[#8%Z@8%4#4#C@e@j@&$2$:#~$n&o&p&R@:#:#J@_#[# @M+=.W+R+Z%| | | | | f&U@Q+M+!.<#,&,&b#P$}$q&g&r&s&8$R@L@R@t#v$t&P$P$Q@Z@Z@S+U@e@P+S+[#Z@j@S+m$U@@#c$k&k@E%H$k@T@b@T@<&k@V+c$&@P+,#P+&@W `#I+e.D+~.",
">@7+f.1$>@T &@>#>#N#t+^$b@H$k&T@#&H$n#u&E%Y#v&.@S+e@e@I@[#Q@ #J@m$Y#m#[#Z@8%h@h@<&4#y#R+5#j@j@3#V#w&x&p&b#J@a# #y$Z@ @M+N$W+W+G%| | | | | y&m$X#K+z+S+h@h@Q@:#-%7&g&z&s&8$j&R@3#t#B@P#,$P$b#Z@<#I@4#n#:$l@U@Z@j@I@e@e@@#Y#E%E%k@v&v&T@m#m#T@T@X#>#q$c#c#T q$z@`#8.(.a+'.",
"v+7+f.!.v+A&>#>#c#c#.@ @l@k@E%k@k@k@#&T@^$O#v&.@(@$@m$[#[#y$b#3#I@Y#m$[#<#<#<#B&<&<&B@l@[#h@h@3#V#C&D&E&J$a#J@c@L@Z@Y@M+~.W+W+G%| | | | | F&U@r+K+g.G&I@U@L@R@~#H&]&I&K%{#L@b#P$k#A@y$3#J&P$j&<#h@4#m#D$T@h@S+P#I@m#I@j@x#V+k@m$n#a@T@a@k@T@m$V+P+Q+V+Q+&@&@A&1.,@K&L&{.",
"[.8+z+h+&%o >#A@P+N#c#^$e@e@H$T@k@k@T@a@a@.@T@E%[@$@m$S+Z@j@c@Q@I@O#<&m$<&h@[#h@4#4#y#U@[#m#I@ #@$M&N&O&3#s@ #y$Z@G&^$M+~.v@W+Z%| | | | | , $@Q+K+f.I@I@4#P#b#:#a%P&Q&u%-%6$b#:#u#B@y$:#9#b#L@h@4#m$m#c$e@h@h@L@I@n#4#1@N#E%^$e@T@m#m$E%E%e@S+ @X#f$Q+P+q+>#z@1.}.R&L&(.",
":.F+f.h+6&O+A@W c$Z#V+V+^$.@T@k@T@T@T@T@n#k@E%.@(@e@m$U@S+y$Q@Q@I@O#k@4#G&8@[#h@B&T@d#e@S+I@_#i#R@S&T&U&j&Q@)#j@j@h@X#M+V&e@%@W&| | | | | X&e@P+I+!.Z@4#m#j@Q@Y&Z&`& *.*:#3#Q@~#u#=#P# #3#3#y$<#B&e@n#W #&4#I@j@4#T@n#|@X#E%E%T@p%T@e@T@a@$@I@a@V+Q+P+P+&@&@k }.8.+*b+{.",
"!.@*N$!.k+k z@W q$V+^$.@c##*V+T@n#T@e@k@T@.@V+V+u@v&a@U@Z@Q@c@c@U@O#e@U@8@[#x$4#$*T@C@a@[#h@y$R@M@%*&***<#y$)#j@8@4#V+M+=.W+%@W&| | | | | > W+P+J+z+8@I@I@Z@Z@8@)%=*-*;*m$3#_#3#5@N@y$Q@Q@b#L@G&G&4#m$=#k@e@U@Z@U@E%e@s$c#T@V+Y#Y#t+k@e@e@e@m$^$V+Z#c#P+q$A@-#`#I+>*b+h.",
"^.@*~.,+I+{+=#>#q$c$N#N#,*t+.@V+k@e@m$k@T@.@k@ @[@m$T@m$Q@c@_#_#4#'*G&S+[#L@Z@4#m#T@T$a@[#I@Z@~#)*!*~*{*U@S+|@S+[#I@,#!.%.W+5&W&| | | | | ]*u&&@M+~.8@8@[#|@S+4#^*/*(*_*R@b#Z@R@6@B@y$Q@[#L@<#8@8@8@e@O+a@#&m#S+l@k@m$u@t+k@V+t+Y#X# @a@a@W+e@P+&@N#c$N#q$A@-#>@{.c.:*%.",
"f.<*h.f.!.w+N@N@C@W N#X#V+V+V+k@e@m$e@a@m$T@E% @t@e@V+e@j@y$y$L@e@O#Z@Z@<#_#<#4#n#T@C@b@G&4#[#[*8$}*|*1*j@<@[#I@I@I@A@!.=.a@Y@2*| | | | | 6 W+q+K+;.c@L@y$y$Z@3*4*5*6*7*9#Q@Z@Q@5@O@Z@L@m$B&,&[#4#G&e@=#U@I@e@I@e@m#b@@@Y#E%p%k&E%E%^$E%^$Z# @c#W B@>#q$P+&@F@8.c.c.:*f+",
"~.<*;.g+!.*@C@=#=#>#c#V+V+^$e@m$m$e@_&a@m$<&E%V+@@T@V+u&8@P#L@Z@_&'*h@L@L@6$Z@I@4#<&n$a@I@I@S+Q@@$8*9*0*6$Q@j@$@U@l@W !.%.R+n+2*| | | | | a*e@q+K+;.<@y$I@Z@y$G&b*s%c*d*3#b#y$c@6@C@[#Z@<&<&I@<#4#4#m$B@$@[#m$4#e@I@m$(@t+9%p% @e@T@E%V+V+V+V+N#>#W W c#c#&@)+}.I+e*0+@.",
"N$G+V&=.!.u+O@C@B@,*V+E%X#Y#V+T@k@t+E%k@W+<&E%.@#@W+.@4#Z@Z@$#Z@ @c$m$8@8@,&j&Z@I@T@C@a@U@I@S+c@~$f*g*h*b&r@@#(@I@b@B@,+$.R+i*2*| | | | | j*a@q+!.~.|@I@m$S+$#Z@k*l*m*s&L%3#Q@Q@J&-#I@G&4#<&h@[#h@h@T@C@e@U@U@4#T@m#I@I@c#E%p%^$W+W+b@k@ @V+V+X#A#B@>#P+c#&@-#]@k+c.P.#.",
"%.G+~.g+M+|.n*/#l+c#T@T@X#'*.@.@E%O#Y#^$^$E%E%c#%@5&V+m$Z@j@y$S+V+z$E%e@m$4#I@4#m#k@T$W+I@4#h@_#{#o*p*7%Z@L@[#[#U@e@B@'@3+5&Y@2*| | | | | q* @&@!.~.S+m$<&I@8@Z@X$r*s*t*L%v#j@c@u*F@4#S+G&I@h@I@4#m$E%O@$@s$m$T@T@T@I@u@c$V+^$V+Y@a@ @W+R+^$c#X#U$P+N#N#>#>#-#v+I+v*K.%.",
"!@@*~.~.K+#%/#C@B@c#k@E%X#p%k@H$T@Y#t+V+.@^$V+c#%@W+a@a@I@U@G&m$t+n$E%k@n#<&<&3*k@9%y#V+T@e@I@Z@-%w*x*y*I@[#U@m$U@m$>#,+3+a@Q+z*| | | | | A* @&@!.~.S+e@T@U@[#[#B*r*r&t*u$9#8@L@J@d#<&U@4#B&S+m#T@<&E%O@I@I@l@m$k@E%(@w@,*.@^$E%k@V+V+ @Y@U$X#^$V+Z#c#Y#W z@)+]@J+c.K.h.",
"f.@*h.g+I+*@F@d#>#c#V+p%p%E%e@U@4#k@k@k@p%V+X#c#R+v@e@k@a@k@m$W+c$v$E%E%V+9%v&n#I@3*y#q$p%m$m$I@}$C*D*E*m$I@U@U@4#I@&@!.B+5&c#z*| | | | | F*W+T !.-.$#4#T@m$I@[#G*H*I*J*L%b#Z@[# #d#m$I@4#m$K*e@<&T@d@E@l@I@e@T@ @k@$@_@A@.@v&e@a@c#V+^$V+X#^$^$Z#V+Q+c$>#l+]+v+8.v*K.;.",
"f.Z g.f.I+i+B@B@B@&@A#V+f$E%m$U@l@m$T@W+^$V+.@Y#R+W+a@a@a@e@S+@@c$d#p%t+Y#t+.@e@G&9%p#,#T@4#m$I@6@5%L*M*<&4#I@I@I@I@c$!.$.Y@T z*| | | | | q*W+T K+N$Z@I@k@T@m$I@N*O*P*E&R@y$,&c@[*(#u&[#U@E%m$T@W+T@p%-#$@U@a@a@E% @ @@@N# @b@$@W+Z#A#Q+V+^$ @V+Q+^$c#>#B@=#&#v+,@c.O.h.",
"g+<*=.;.I+j+B@B@z$>#c$&@c$V+k@T@m$e@k@ @E%.@p%N#Q*5&^$^$a@b@I@$@N#/#p%E%V+.@.@U@I@R*S*V+l@I@n#S+s@T*U*V*W+$@e@m$4#4#x#,+$.Y@r+z*| | | | | W*a@P+!.-.8@4#k@b@U@K*S@X*Y*Z*Q@[#[#c@v#{+W+S+U@p%T@e@_& @t+F@v@e@V+k@E%V+ @u@&@Z#V+e@ @X#c#t+V+ @ @V+V+n+c#&@=#C@j+8./.'.O.=.",
"N$e#$.f./.i+O+B@B@d#>#B@B@Y#V+.@a@a@ @k@ @X#p%c$Y@Y@V+E% @W+u&T@c$d#^$k@k@t+k&m$T@/#q$$@(@U@U@s$s$`* =>#T@e@4#m$I@e@>#^.%.5&C z*| | | | | .=W+,#,+-.Z@8@4#l@I@S+ @+=@=W+Q@_#4#I@|@@@&#R+m$.@R*T@T@T@T@=#W+e@k@ @k@V+ @%@B@c#V+R+V+X#^$P+c#V+V+Q+X#X#c#N#d#C@w+I+I+(.:*=.",
"%.e#$.'@M+i+=#N@C@E@B@>#c$c$c#t+V+e@T@T@E%.@.@x#i*R+V+V+a@a@T@T@N#d#T@T@u&z$B@k@d#F@R++@(@$@m$@@*@%.K+A&u&U@I@h@G&U@P+^.#=v@C z*| | | | | $=v@A@!.~.Z@G&h@S+j@j@W+k+h+k+s$j@m#h@j@<@n+-# @c$&#V+k@e@T@O+a@a@a@a@^$.@ @ @>#A#V+^$c#.@.@c#c$N#c#c#N#N#c$>#C@F@w+M+!._.D+#.",
"%.e#%.g+/.*@d#B@C@E@d#T+N#c#t+.@X#k@u&u&E%E%V+c$Y@V+f$V+^$k@W+T@Y#d#9%e@V+$%q$F@<%X#I@S+|@s$E%&#b+f.}.u@G&U@h@8@8@I@%=!.-.W+Q+&=| | | | | *=W+W !.V&S+G&S+Z@L@c@@#O+f%b+}.I@I@G&S+$#|@,#k%V+;@N@a@ @V+k Y@E%E% @E%.@E%W+>#c#k@^$x#Y#O#T+z$T+N#c#c#c#>#B@F@-#|.M+f.e*K.f+",
"B+e#V&'@M+*@C@=#z#y#z$'*p%V+t+t+t+a@_&e@k@V+X#B@X#N#c$'*Y#E% @k@c$/#E%X#u+A@[&E@^$T@m$|@s$W+F@:&'@|%^$e@m$I@m$I@U@m$B@!.=.V+r+==| | | | | -=b@=#h+V&I@4#Z@P#Z@[#c@|@)+f%L&{@e@$@I@(@|@m$q+)+,#;=l+c#t+-# @a@v&V+p%^$V+ @B@c#^$ @N#c$x#n$B@B@P+U$V+A#&@W /#>=%%K+'@_.9+#.",
"` <*g+I+8.u+C@B@B@B@c$c#X#V+.@c#t+k@W+ @V+t+c#>#,#c$B@z$A#E%E% @N#,=c$y+Y#>#'=e@m$T@m$S+I@z@e+~.}.)=k@V+k@U@9%<&e@ @B@!.*.V+!=~=| | | | | {=R+O@'@V&u@<&h@h@[#Z@I@$@u@j+!.b+u+R+|@s$8@I@a@N@]+,#}.&#O#E@ @^$.@t+R*t+c# @B@N#c#^$V+Y#c$n$B@d#c#V+V+N#N#W F@&#|././.c.K.f+",
"%.5+I+y+w+j+F@B@B@>#c$Y#c#c#.@X#V+T@a@^$.@t+Y#>#,#c$N#Y#V+V+V+T@%=E@`#B@z$}%.@I@m$e@m$S+^*]=^=`#5&E%k@T@T@$@W+u&E%&@!.f.g.%@q+~=| | | | | /=R+<%h+N$]+X#B&4#4#8@U@m$W+I@i+M+(=_=[#I@S+_&l@a@E@j+l&f%c$-#c#t+p%t+X#N#N#^$d#x#&@p%.@p%t+x#>#[&c#t+X#B@>#B@B@)+w+y+L$v+0+:=",
"~.E+M+w+O+]+[&B@W B@&@c#t+t+Z#V+V+ @ @E%.@X#c#T+,#N#V+V+c#t+p%E%&@&#q$B@w+N#^$m$k@(@h#<=[=}=|=R+@@V+E%4#4#I@I@$@c#g.N$/.1=2=q+~=| | | | | 3=5&(@`#g+P.&#_&h@h@,&[#I@^$u@|@4=5=6=7=P#|@a@m$$@T@(#&#l&c#x%c$t+p%V+V+A#&@V+/#B@B@Y#Y#V+.@c$T+n$Y#Y#,*N@d#/#B@E@w+w+w+`#:&*.",
"g+Z K+j+B@'=N@>#>#B@c$'*c#p%X#X#X#.@V+t+N#Y#N#B@f$Y#R*V+N#c#c#p%N#q+l&$%X#k@E% @k@I@8=9=0=a=b=$@v@a@<&m$B&U@U@Y@!.3+I+q+W+ @q+~=| | | | | c=5&I@e@L$N$:&=#I@m#h@y$8@m$v@H@i$d=e=f=g=[#W+_&T@<&u&w+]+n+&#N#.@t+R*t+t+c#U$E@B@y#O#O#R*Y#c$T+B@N#'*c$T+B@B@d#E@}%i@}%,@D+*.",
"f.E+M+6#C@{+B@c$N#B@A@,*t+V+V+.@c#N#t+O#T+T+c$y#&@N#X#N#>#c#X#N#{+j+u+c$H$V+.@E%e@h=i=j=k=l=b&(@I@e@k@_&e@m$5&c.a+!.A@$@$@ @q+~=| | | | | m=k@$@4#K*,@B+f+q$e@I@G&4#8@U@I@Q@n=o=p=q=r=b@W+k@V+u&^$5$O%w+B@t+Y#V+V+x#Y#c#E@d#d#z$>#Y#O#B@B@z$Y#N#N#,*x#d#/#E@{+E@j+8.K.=.",
"f.E+M+]+N@w+B@&@c#N#c$t+Y#A#t+c#Y#c#Y#Y#T+B@c$v$Q+,#X#N#Y#f$,#&#V m$9% @.@V+V+v&s=t=z&u=v=]#S+U@B&4#e@<&T@E%I+0+@&F@v@m$m$E%q+~=| | | | | w=b@U@T@U@W+L$B+3+B@m$I@m$B&G&G&S+Q@d%x=y=z=O#k@^$V+k@E%^$B&)=j+>#Y#Z#.@c$Y#A=C@W >#T+x#x#O#B@B@q$Y#c$c$x#>#A@N@F@{+F@F@`#K.h.",
"g+l.J+E@=#{+B@c#X#X#Y#Y#c$Y#'*c$q$N#t+.@O#B@>#C@f$A=V+t+p%N#E@z@l&^$a@V+N#E%E%d@B=C=D=E=^%$#s$I@4#4#9%9% @8.0+f.F@e@T@k@e@ @q+~=| | | | | F=e@I@m$4#m$5&8.3+%.Q+W+<&3*8@Z@8@S+6$G=H=I=J=K=T@ @ @V+E% @z$k%}%B@X#c#c$q$V+d#c$c#Y#>#>#T+>#B@>#c#O#N#N#N#>#A@N@k%B@O+y+J.=.",
"'.K.J+)+C@{+B@c#,#,#N#N#>#x#x#c$z$T+x#Y#O#T+>#F@T U$c#X#Y#F@c$q$X#V+V+.@.@E%^*L=M=N=O=^%m$U@U@4#4#e@a@a@`#b+L+]+u&a@_&e@<& @q+~=| | | | | P=U@S+I@4#e@$@Y@k+c+~.f$a@a@m$P#Z@I@m#Z@Q=R=S=T=U=e@W+.@V+V+V+N@B@1.>#c#c#Y#Q+C@c$c#c#c$x#B@y#B@T+c$x#c#&@c$B@N@=#]+B@)+,@D+;.",
"!.l.M+.#F@*@d#N#,*N#&@>#T+T+x#x#c$O#>#c$t+c$c$v$f$c#Y#c#E@V=B@W=p%.@V+E%.@^*X=Y=Z=E=N*4#<&U@B&m$I@e@W+;@:&h+j+e@m#a@u&4#m$k@A@~=| | | | | F=$@s$G&h@m$e@u@,#K+f+g.U$a@E%m$G&4#<&4#Z@`= -.-+-@-T@^$p%,#N#c#F@O+i+N#Y#Y#Y@O@,*c$c#N#>#C@C@B@y#d#W c$>#c$>#B@C@{+F@-#,@D+h.",
"f.#-!.y+j+w+F@>#A@&@Y#c$>#c$>#'*Y#Y#c$Y#X#'*N#C@V+'*Y#'*C@E%n$Y#p%X# @e@$-%-&-N&*-=-m$E%<&m#4#m$I@2=k%e+--;-$@ @T@e@<&m$m$T@z@>-| | | | | ,-U@S+I@Z@U@T@T@K*T !.b+!.^$_&9%4#4#e@T@n#'-)-!-~-{-]-Z#E%c#c#c#N@ @E@P+T+Y#5&F@B@>#c$c#>#d#n$n$z$B@c$Y#N#>#B@d#/#w+j+|.K+K.>.",
"~.Z *.6+f+;@<%B@>#c$Y#x#>#>#c$c$Y#x#c$c#A#,*>#W+a@X#t+N##*p%E@Y#X#V+E%^-/-(-_-:-<-n#a@^$<&m#T@m$4#]+[-~.u+u@a@p%T@m$4#U@U@T@F@>-| | | | | }-W+K*I@[#4#m$9% @s$q$f.:*/.^$9%9%e@U@<&e@T@|-1-2-3-4-5-.@Y#c#c#C@ @N@c$B@c$^$%@T$B@B@c$T+D$B@T+B@B@6-N#>#B@N@d#C@2.d+l.;#l.f+",
"h+B#f+C+f%x+-#B@P+c#N#>#>#>#>#>#x#T+c$c$,*N#B@^$A=N#c$c$d#O#*@z$X#A#v&7-8-9-0-a-4#T@E%p%n#m$e@a@=#:&-.2.W+T@p%.@E%a@U@I@m$V+x+| | | | | | b-V+I@G&U@m#e@T@p%e@s$c-g+d-0.^$n#h@e@m$m$E%m$'-1-e-f-g-h-c$t+N#E@B@C@x#T+T+Q+V+q$B@d#B@B@>#W >#T+D$B@W =#l+d#B@d#1.f.b+j.l.b+",
"!.i-3+%.v+w+x%z@P+N#P+c$B@=#B@>#z$x#T+c$c$6-E@x#N#B@y+N@B@d##%>#N#'*j-k-p*l-m-B&a@E%^$9%_&T@9%N@B+%.n-/@u&E%Y#t+k@_&$@u&2=&@_.>-| | | | | +*O@W+I@4#4#e@T@T@e@5&u@]+-.o-2.k@G&U@<&4#e@k@k@G*p-Z=X*q-z$^$P+&#'=6#X#8.T$>#c#F@C@B@d#C@W W B@A@A@B@l+=#B@B@N@N@)&K+%.r-l.c+",
"!.@*f+f+_.i+<%W >#c$W x#B@n$B@T+'*T+n$z$O#O#F@c$c$>=6&&@B@n$y+>#&@s-t-u-v-w-)%k@v&V+9%<&<&E%q$-.3+v+(@W+E%k@t+p%m$u&u&^$U$x-z+y-| | | | | z-/.f$a@m$K*<&E%k@T@^$a@I@w+=.L&x+U@B&T@m$e@T@V+E%G*A-B-C-f$Q+c#&#)+)+c$,@$%z$c$O+=#=#B@l+B@B@>#>#N#c$B@N@B@=#B@O+1.!.$.:=8+f+",
"'@@*f+b+f.Y ]+C@B@B@B@B@D$B@B@>#T+v$T$T+c$x#N@%=Y#'=q$f$>#,=1%>#c#O#D-`*6- @V+X#R*p%T@m#<&.@/#;./.E- @V+^$E%p%.@<&2=E%a@y+K+F-G-H-| | | | | I-v+^$W+$@T@E%E%T@E%c#^$@@M+g+}. @E$k@m$<&E%t+U$^$J-K-L-c#r+q$>=6#E@c#c$|.N#c#N@/#n$z$C@d#C@B@T+D$B@B@N@d#l+B@v$i+f.a+#.8+f+",
"@&Z 3+-.'.x%w+}%'=j+'=>=M->=/#n*>=>=N-/#/#>=>#t+&@V+c#T+C@d#j+N#t+>#O-P-x%Q+t+#*Y#t+E%E%9%V+E@I+h+U ,#t+p%E%9%k&W+5&E%U@T#Q-R-S-!.T-| | | | >-U-I@4#<&_&E%9%^$^$Y#N#I@f.'@/.a@e@k@E%v&.@Y#,#c#=#,+B+k ,#N#/#]+&#N#'*^$X#f$O+}%E@C@M-i@>=E@>=E@6#)+6#i@>={+{+;@f.C+r-8+L&",
"!.Z 3+!.I+D#u@s@V-K*$@e@m$[#$#c@$#W-G&m$u&a@K*f$A@'*c#c$F@d#j+N#R+Q+X-h+x%n+V+.@t+.@E%E%T@k@&#I+~.A@U$V+c#R*E%Y-^$a@^$4#Z-`- ;.;+;@;| | | | | #;R@K*u&a@p%E%p%p%t+c$W+!@h+f%R+a@a@.@E%^$t+,#Q+O+h+d+x%,#c#C@]+}%N#X#V+V+X#V+I@|@S+8@[#[@(@$@(@+@t@t@w@H@[*$;=@{.3+*.l.f+",
"M+Z f+z+!.}.q+5&n+Q+Q+X#X#V+ @2=a@^$c#t+X#P+2=p%Y#'*c#c#O+!.2.U$e@U$N$%;]+T@T@E%V+.@v&p%E%e@)+M+g+A&A=f$t+Y#p%^$ @U$p%3*&;*;=;-;;;>;| | | | | ,;';<&.@ @^$^$^$Y#O#N# @!@K+(.%@^$^$V+^$E%t+Y#);v$'@d+*@&@Z#E@~.1.c#X#V+X#Q+T  @R+R+R+%@n+Q+V+V+n+n+n+V+Y@W+F%|%z+#.j.K.*.",
"/.E+f+=.'.8.k ,#X#.@X#U$X#N#X#V+p%.@^$^$X#N# @V+c#X#c#f$l+g+y+V+n+q+B+@&!;~;{;];R*9%T@p%t+a@j+K+g+=#c#p%p%Y#t+t+c#y+v$S@B=^;/;(;_;>;| | | | | :;<;p%~.^$p%.@R*c$T+O#^$N$%;(.U$E%E%T@a@E%R*[;};|;!.B+_$,#c#6#B+*@c#V+X#V+V+P+^$n+n+ @V+c#V+5&c#&@&@&@,#,#n+Q*:.z+@.:=l.*.",
"/.7+f+=.f.}.z@Q+^$V+A#V+f$&@c#X#V+V+ @W+V+X#V+V+V+t+f$Y#E@L+v+&@Y#q+N$!%1;2;3;4;R*.@k@p%#* @{+%;g+=#N#.@t+Y#V+^$,#&%/#<#B=5;6;7;8;>;| | | | | :;<=E%`$T@^$Y#'*O#>#N#^$%.!.!.f$X#T@T@E%p%s=9;0;a;J+!@{+&@&@}%f.=@c#V+c#X#c#&@X# @V+^$V+P+c#V+,#P+x#N#&@&@Q+n+[.;.L&@.8+=.",
"!.b;@.%.e.0.N%,#U$f$Q+X#X#c$X#X#X#u@E%X#V+V+f$c#c#N#N#c$&#L+8.W &@T N$c;d;e;f;g;t+t+k@^$t+5&j+M+~.<%N#V+V+^$E%k@U$y+F@h;i;j;k;l;m;>;| | | | | :;n;a@L+u& @t+Y#'*Y#t+5&B+!.(.V+5&E%T@a@V+o;p;q;r;J+=.{+&@&@j+f.u+,#c#X#c#,#=#P+n+^$X#c#c$N#c#q+A@W W >#q$P+V+k+N$P.@.6+=.",
",+E+L&%.e.}.<%!=,#,#r+r+>#c$X#i*Q+U$N#N#c#P+&@f$V+N#&@&@E@L+,@&@X#q+g+8.d;s;t;);N#k&T@k@p%W+]+k+g+<%N#V+V+ @ @a@n+w+d#<&l#u;v;w;_;>;| | | | | x;y;o;%;u&^$^$p%d@R*t+a@%.!.k+R+a@k@ @e@V+p%z;A;r;J+N$]+P+Q+j+g+D#r+c#Q+X#P+=#W P+c#Y#>#N#V+T q+B@A@>#W B@z@U$I+%.L&#.J.g.",
"f.@*0+#.B;8.<%S -#-#Q*=%l+z@C;A&!=E@E@=#&#'=O+f$V+N#&@&@'=L+}.T A#W %.J+D;E;F;d@Y#V+T@V+E%a@]+K+%.<%N#V+^$5&a@^$n+u@E%B&G;H;I;J;K;>;| | | | | x;@-Y-V+_&c#^$E%t+Y#Y#5&%.!.f%R+a@V+k@a@E%R*L;M;N;M+~.-#V+Q+j+~.j+r+X#c#c#P+O+k j+j+-#-#O+T%O+]+D#-#O+]+k T%O;k+~.:&f+K.g.",
"N$e#0+3+=.V$}.}.I+J+:.k+k+8.v+y+8.I+J+I+!.,+;@&@U$N#c#,#F@B@u+&@A#o B+M+)+P;v&t+t+t+k@ @n#e@<%/.%.N%N#.@^$^$a@^$^$u&_&<#Q;R;S;T;U;V;| | | | | W;X;9%E%E%Q+V+ @X#N#N#W+N$!._.R+E%E%a@9%p%t+t+Y;B@/.!@<%Q+P+6#{+F@c#c#X#X#&@w+8.K+K+!.!.J+k+8.I+8.k+M+!.J+k+}.x-~.:&Q%l.>.",
"S%Z;:&%.*.=@i+)+E@O+O@C@W =#F@W =#F@O+F@)+]+x%P+V+c#c#c#C@=#*@&@t+A@` K+j+c#X#t+t+c$^$ @W+a@<%K+~.k c#.@^$ @W+a@ @E% @W+T#q-`; >l#T-| | | | | .>N#E%R*E%Y@V+a@V+P+c##@~.]._.R+e@a@$@k@p%T+N#n+=#!.V&x%Q+&@)+{+j+&@c#,#A#,#j+E@B@B@l+E@E@F@F@O+W B@-#E@-#]+'=1%=.b+y@l.*.",
"b+m.#.B+#.j%k%l+q$&@c#N#c$&@>#,#P+q+A@&@q+O+k T X#F@>#N#F@E@*@,#c#=#d+M+]+r+V+O#O#Y#p%_& @V+F@K+g+O+&@V+X#^$a@V+ @^$W+E%Y#l++>@>>;| | | | | #>z@5&a@^$a@V+V+W+ @f$V+U$~./.V$R+e@R+e@a@V+c$c#n+z@!.B+x%f$Q+]+;@w+,#c${+W &@'=N@N#N#>#>#>#&@>#B@&@c$W z@=#C@C@;@z+:&#.8+y@",
"b+$>f+B+*.;@k%z@c$>#c#N#>#>#>#&@q$W c$N#A@B@-#c#&@k%y+z#]+-#|.P+P+z@`$%>T$ @V+c#c$t+p%.@V+V+&@J+'@f%>#V+^$p%.@c#^$R+ @.@f$U$}%&>| | | | | *>A&Q*X#^$W+ @N#c#a@^$c#f$|.N$M+j+R+W+ @T@V+V+c#n+%@x#]%`$k c#,#i+;@*@>#*@2.W >#j+l+>#N#>#c$T+&@W N@>#W q$A@=#l+-#}.!.%.j.7+@.",
"B+G+c+e+z+[%j+B@>#q$>#&@B@C@d#>#q$W >#T+B@C@]+V+W A@j+>#]+>=1.T ,#n+I$=>->;>R*c$c$.@N#Y#Y#.@s$V=8.C+/.&@V+X#X#t+V+Y@a@^$ @V+l+|#| | | | | >>P U$A#W+a@ @c#c#^$ @P+w+:&,+w+(@R+a@p%^$X#Q+Q+k@<;,>'>)>Q+T >#*@y+|.P+%%>#B@c$j+&#B@>#>#>#c$>#B@C@O+A@A@>#=#C@-#2.;.$.@.8+f+",
"N$<*3+B+!.1.}%F@N@B@=#W B@C@W >#A@&@p$c$W O@j+,#c#B@c$q$&#C@|.>#S S !>~>{>]>^>R*X#t+N#t+t+t+^$S+l+!.P.[.c#^$X#V+^$a@a@a@^$&@*@/>| | | | | (>q$X# @a@E% @c#f$U$Y@&#:&X-$%@@5&^$k@V+X#t+Z#V+n;_>:><>[>n+z@A@w+w+|.q$B@B@B@N#}%>=d#W =#B@B@B@l+C@C@A@W A@A@B@F@_$~.3+y@7+@.",
"L+@*=.3+g.u+]+O@E@E@l+=#B@B@W A@&@c#&@P+A@F@j+>#V+>#&@A@E@V+6#T T A@b@}>|>1>2>3>d@Y#R*R*.@Y#Y#V+I@}%g.P.y+c#V+^$Y@W+ @^$ @c#w+*>| | | | | 4>&@5&a@_&E%k@Q+V+n+F@f+B+I+%@R+ @V+ @ @ @V+.@5>6>7>8>y*4#P+O+W }%A@w+B@B@B@B@c$j+E@C@B@d#d#v$z#B@B@B@W =#d#B@C@-#|.~.3+%.8+@.",
"!.Z I+`#%%O+l+E@,=>=/#C@B@>#>#>#&@'*>#B@C@,=%%u+c#Q+&@=#)+X#)+T T >#T 4#9>0>a>b>c>t+t+p%R*p%t+c#X#u&%%d>0+*@X#U$Y@R+^$^$V+c#]+e>| | | | | f>P+V+V+a@a@a@U$V+O+$.%./.r+X#X#E%V+ @V+n+X#g>h>i>j>k>^%U$T >#B@}%>#6#B@A@B@>#]+#%>=d#d#/#/#/#d#B@B@=#B@v$E@F@E@)+-#}%y+8.Q.c+",
"!.E+!.|.k%w+'=)+6#E@F@d#B@>#B@B@>#c$B@B@B@C@6#>@O@P+&@q$<%T O+A@P+P+q+&@l>m>n>o>p>q>E$T@E%E%p%V+c#f$@@`#%.P.*@q+V+ @V+ @^$q$)+r>| | | | | s>r+V+V+V+n+n+U$F@3+f+K+U &@Y#^$a@ @V+N# @3*(*t>u>v>w>.@c$,#c$O@j+q$E@c$B@d#N@c;i@C@B@z$6#>=n*C@B@d#n*/#/#'=E@O@)+1.j+|.J+l.$.",
"!.E+h+#%{+*@j+6#E@C@C@=#B@B@B@C@=#B@d#d#B@C@T$'=C@P+&@&@f$N@q$&#A@P+&@>#N#b&x>y>z>A>B>9%E%E%E%V+V+,#V+5&6&B+O.|.&@Q+n+^$V+B@)+C>| | | | | D>,#U$Q+V+^$c#B@-.f+c.q+U$W c$V+R+^$^$X#^$E>F>G>H>I>V+D$O#c#z$>=q$B@X#N#>#B@d#5$,=d#n$l+J>>=v$B@W d#{+{+i@6#)+)+)+1.{+|.J+Q.=.",
"h+i-L+#%6#*@'=E@K>C@C@v$/#O@=#E@B@[&B@x#>#B@B@T$O+>#=#>#,#X#B@z@]+B@N#c#c#X#L>M>N>O>P>v&k@V+t+X#t+c#P+r+Q>I+:&O.j+,#f$c#c#B@]+C>| | | | | D>!=X#V+ @^$B@~.c+!.z@Q+X#>#P+V+E%t+E%E%R>S>T>U>V>E%N#=#>#c$E@l+B@c$'*>#B@B@F@}%/#=#C@d#/#C@d#d#v$T$6#'=>=>=)+/#>=U+6#'+J+Q.V&",
"f.@*L+|.&#}%j+'='=E@)+E@/#E@E@/#y#T$d#c$x#B@B@T$l+B@d#W q+&@P+N@<%]+>#c#X#c#V+W>X>Y>Z>`>^*V+c#X#X#V+c#P+U$U$ ,f+0+)+P+c#f$W E@C>| | | | | D>,#c#V+V+&@f.C+h+-#Q+r+N#&@c#X#^$a@n#.,+,@,#,$,T@>#>#>#B@l+<%&#z$>#B@B@B@d#-#6#C@C@C@v$d#l+B@C@E@E@/#/#/#/#/#O@)+y+{+}%M+l.%.",
"g+Z L+|.]+w+'+6#j+j+>=E@E@E@'=O@/#E@v$>#>#d#T$E@F@B@d#B@>#=#B@c#A&k%]+q$f$t+c$f$,&%,&,*,=,d@f$&@f$V+c#f$Q+r+r+8.:&@.<%,#f$A@-#-,| | | | | ;,T c#c#&@!.a+@&<%n+U$c#c#c#P+V+a@9%>,,,',),L%E%>#B@B@B@&#&#N+A@V=l+d#B@n$d#B@j+l+B@B@n$B@C@d#E@>=C@B@d#E@6#'=E@)+)&{+w+!.l.%.",
"~.@*L+1.{+*@'+j+j+>=)+6#>='=E@/#E@/#C@=#d#v$C@E@F@B@d#B@=#F@O@&@U$O+n-*@N@c$>#W P+!,~,{,],^,9%c#U$U$V+V+Q+!=n@U c./,f+-#c#B@&#C>| | | | | (,q+&@&@I+b+h+]+Y@c#f$P+Q+c#U$^$_&_,:,<,[,},^$N@B@>#B@&#>@A@N@A@l+C@N@B@C@C@l+}%F@B@B@T+B@/#E@&#'=l+v$E@>=-$}%)+6#,@}%u+h+8+#.",
"N$<*g+`#w+|.w+6#>=/#E@>=E@>=T$d#C@/#7#d#C@C@C@>=F@B@W B@z#=#F@z@-#}%N%k+*@v$B@x#W s=J*&-|,1,c>t+U$r+c#c#,#&@,#n+=#!.P.3+O+=#)+C>| | | | | (,z@q+k+:*f.]+R+,#>#&@c#V+^$V+E%g>w&2,3,4,<&B@z$B@=#)+I+E@C@|.-#/#C@>#y#v$=#C@}%E@C@n$B@C@E@E@E@>=C@T$6#6#{+i@6#{+,@|.,@'@8+f+",
"B+G+B+b+L+y+}%)+>=/#C@E@M-/#T$y#C@C@/#C@C@/#/#}%F@A@W W d#N@O+=#{+#%j+'=I+{+W P+q+q$<&5,6,7,8,C@T Q+c#Q+c#q$q+q+n+O+h+o-=.O+)+C>| | | | | 9,T u+J.X-1%@@&@W >#,#,#Q+X#c#T 0,a,3,b,G&&@B@B@W ]+M+J>]+>=`#E@C@=#>#B@C@d#-#m@6#C@T$B@/#>=/#E@E@C@E@6#&#)+6#>=6#$%!.P.c+F+b+",
"d+e#:&b;c,&%w+)+/#/#C@E@>=/#v$B@C@C@/#/#/#E@,=}%)+B@=#z@C@d#B@W )+1.d,]+E@/.x+W T T N#3*e,f,g,N$-#P+N#,#r+,#P+B@A@V+j+V&P.l+&#C>| | | | | 9,q+}.d+!.@@T W q$Q+V+X#,#,#&@k+h,i,j,<#,#&@>#=#O+k+]+l+k+'=}.E@l+=#d#d#F@=#-#;$>=/#/#[&C@E@/#E@E@C@/#(#>=6#6#'=6#&%V&b;k,E+:*",
"f+e#L&X.d>`#w+j+E@'=>=/#M-(#/#E@6#/#E@/#/#>=i@%%j+B@B@>#B@B@=#z@E@l,1=;@E@&#/.j+>#&@>#,# @U$8.d+V&O+A@,#,#,#q+z@z@A@y+%.b+&#j+C>| | | | | m,W >@%.3+A@&@q$c$X#^$c#1=q$,@B+M+c$U@^$c#&@=#)+8.}%O+$%q$E@`#F@C@C@C@d#C@d#-#;$6#>=(#l+d#C@/#/#j+/#>=,=>=6#j+}%{+v+N$7+y@E+O.",
"C+$>C+8+=.v+w+6#)+j+>=E@>=/#E@>=)+/#>=>=>=6#w+|.{+O@C@>#>#B@A@q+F@-$B@T *@F@-#I+{+=#W B@P+=%q+I+3+g.O+&@,#P+>#W B@z@}.B+b+)+]+C>| | | | | n,A@8.d+P.=#B@B@>#c#V+P+T }.B+!.k%e@Q+X#c#W )+k+'=l+2.N@=#E@`#-#C@/#C@C@C@O@E@;$6#'=C@d#B@T$C@n*6#M-6#,=6#}%'+-$'+:.~.Q.;#E+6+",
"b+m.K.8+-.8.w+)+&#i@o,M-/#O@d#C@C@C@M-6#E@>=N--$w+'=&#C@d#=#B@,#F@|.C@q$Y@n-E@i@!.{+=#A@W P+5&A@!.b+'.W c#f$>#B@q$A@,@B+P.g D#p,| | | | | q,T%k+d+P.=#>#=#d#&@/$,#w+:&@&]+(@V+N#T+x#=#8.*@=#8.z@=#l+&#,@E@/#O@=#B@v$C@E@;$i@>=n$d#z#v$d#C@,=n*E@>={+6#}%}%%%8.%.K.L&Z 6+",
"b+r,b+8+-.v+*@'=6#}%}%>=F@d#B@B@l+d#C@/#E@E@n*6#j+C@C@=#=#W q$q+]+#%/#B@N#,#B@B@w+k+F@q+l+=#r+#@N@L+b+;@q$T >#A@q$&@|.s,J.]+j+p,| | | | | q,W I+d+P.B@B@C@C@B@P+=#$.~.#%W+n+,#>#A@B@*@y+B@q+F@z@F@/#>=[.E@/#F@C@l+B@E@-#w+6#>=B@d#l+/#d#d#E@E@O@E@]+>={+}%}%8.~.K.y@Z :*",
"a+m.b+X.-.x-|.{+j+}%}%'=O@C@C@d#d#C@F@C@T$/#/#i@i@O@O@N@B@A@W A@]+)&'=/#B@B@C@B@/#%%8.A@>#B@&@r+R+@&t,2.q+q$[&=#W W u,d+K.)+}%v,| | | | | q,=#!.e+J.N@d#d#O+O+&@O+w,s+X# @V+c$>#&@*@y+/#B@>#/#=#d#E@>=,@E@E@>=6#E@/#i@&#j+E@>=C@C@C@,=/#C@C@/#E@)+]+'='={+'+I+~.Q.y@@*P.",
"b+x,J.F+%.8.u+{+{+i@>=>=/#E@O@F@/#/#C@F@C@M-6#-$j+O@C@C@O+N@W N@{+,@'=E@B@B@O@B@l+J>%>-#z@W z@P+Z#y,z,A,A@A@=#O+W B@`#d+O.]+j+v,| | | | | q,=#!.c+K.O+N@d#B@>#,#T+B,C,D,c#A#N#&@>#/.6#C@B@>#O@O@C@E@E@,@)+O@E@>=E@E@6#)+}%/#C@n*E@E@6#>=E@C@/#>='={+{+j+{+%%/.%.9+o-@*P.",
"C+m.:*X.B+y+E,}%i@i@>=/#E@E@C@C@O@C@B@C@/#6#}%-$j+F@C@=#B@N@=#B@6#L$)+/#=#B@C@C@(#E@)&%%O@B@N@P+T@F,G,H,o A@A@B@>#B@9.B+K.)+{+p,| | | | | I,p !.C+9+F@B@d#B@c$c#J,K,L,M,V+,*z$>#B@J+'=/#>#q$F@K>/#(#&#`#E@O@/#E@>=6#6#]+j+F@C@E@E@/#>=>=/#E@/#)+)+]+]+]+{+m@:.%.l.O.@*6+",
"b+x,:*b;d+v+y+{+}%'=/#E@>=`@/#/#F@/#=#F@>=}%i@'+{+F@C@=#=#N@B@B@j+`#E@l+z#B@d#/#M-,=$%1.O@l+F@A@k@N,O,P,B@q+T q+A@A@2.B+9+]+i+v,| | | | | I,=#/.c+K.F@B@=#n$B@&@U=Q,R,S,.@c$[&d#d#&%&#O@>#q$/#>=E@E@)+`#]+l+N@N@E@'=6#&#j+C@/#E@E@C@C@C@F@O@-#'={+j+'=)+j+|.k+%.K.T,<*X.",
"P.x,J.Z 3+}.1.}%-$>=)+&#'=>=E@)+E@)+/#C@'=}%i@%%i+F@C@E@)+)+C@O+w+)&T$C@C@B@d#/#/#E@`#{+N@F@E@>#b@U,V,W,d#o T q+P+q+`#B+J.]+;@v,| | | | | X,O+!.s,K.F@B@l+d#=#W U=Y,Z,S,t+B@d#=#B@8.F@B@c$>#O@E@E@E@)+y+]+C@B@W C@E@>=)+j+E@>=>=&#/#C@l+F@O@C@O@]+j+6#'=w+)&k+$.l.O.<*7+",
"b+`,O.Z f+&%|.'+T#}%6#6#E@)+O@]+6#)+)+-#'=}%{+m@i+<%)+E@)+E@F@=#{+`#>=O@C@d#d#C@/#E@,@*@F@O@C@A@k@ '.'+'v$z@T p$&@T 8.3+J.D#-@v,| | | | | @'O+!.d+K.F@l+O@F@F@B@U=#'$'%'Y#B@d#C@N@K+C@=#B@W F@E@)+F@-#`#E@C@B@W =#6#O@)+}%j+i@6#6#E@)+)+)+F@-#-#-#)+&#&#w+y+k+B+K.d-&'6+",
"0+x,8+Z e+8.1.'+u,|.}%)+O@E@C@&#6#6#E@&#)+6#{+m@*@-#]+>=-#&#C@B@6#U+6#E@y#B@B@[&/#E@L$|.E@l+N@F@Z#*'='-'v$z@q+&@c$&@>@d+O.-@*@v,| | | | | @'B@!.;'9+-#O@E@F@O@y#>','''%'#*B@d#C@=#/.O+l+d#=#E@F@C@F@)+}.]+C@F@N@/#>=l+O@%%l,i@i@J>O@E@)+-#-#)+)+)+]+E@]+|.8.8.$.K.o-<*O.",
":*4+6+F+:&v+1.*@|.w+}%)+C@C@l+&#j+&#E@]+i@)'{+m@;@]+]+E@)+]+F@=#j+1.)+E@d#z$B@d#O@>=,@_$D@C@l+C@.@!'~'W,y#=#B@P+c$B@,@d+6+i+u+v,| | | | | X,=#!.a+K.E@O@l+C@O@y#{']'^'%'/'B@/#T$=#/.C@=#F@E@&#D@F@E@'=}.)+E@O@E@E@'=E@-#'+}%-$j+F@l+&#]+]+{+]+]+]+&#'=]+|.>@I+f+K.o-<*O.",
":*=+K.7+3+0.y+*@j+6#{+)+O@O@E@{+6#E@-#)+{+6#)+*@*@]+-#O@&#-#)+E@}%y+'=F@=#N@v$/#E@&#L$-@O+C@/#=#c#('_':'/#N@A@&@>#=#,@A+6+{+*@v,| | | | | <'=#/.e+l.-#C@d#B@B@y#['}'$'|'>#C@n*d#W ].C@o C@E@]+)+-#'={+>@j+-#E@&#&#i@E@-#w+]+6#E@l+C@-#6#{+{+]+j+{+}%j+]+*@,@I+3+8+T,B#O.",
"l.1'O.X.3+}.1.{+]+j+{+{+6#6#i@}%}%{+E@&#{+6#i@*@i+)+&#F@E@C@E@j+|.y+E@l+F@d#C@E@E@)+`#i+=#F@E@W c#2'3'4'n*l+z@q$B@=##%A+6+D#*@v,| | | | | 5'p I+e+8+-#[&=#B@=#T$|;6'7'8'B@=#/#=#=#!.-#o O+)+)+E@]+'={+8.&#&#C@F@6#l,]+)+w+)+-#E@E@C@-#6#{+)+)+'=j+|.*@|.1.,@I+B+9+y@B#8+",
"8+x,:*X.%.7.y+w+j+j+j+}%}%}%j+]+j+{+)+6#{+}%}%m@*@]+)+F@C@=#E@j+%%,@E@=#F@C@F@O@E@E@>@{+o O+=#>#9'0'a'b'&#F@=#z@W =##%d+6+D#_$v,| | | | | c'O+I+b+7+F@B@l+z#C@F@d'e'f'g'/#=#E@O@C@!.]+=#O+]+)+E@)+'={+[.j+E@l+C@6#}%]+)+*@]+)+-#&#O@)+)+j+6#{+}%j+w+|.)&`#v+8.%.9+y@<*w%",
"#-x,0+X.B+8.U+*@w+w+{+6#6#{+'=F@&#E@O@]+{+j+{+m@;@]+]+]+E@O+-#E@|.>@j+v$l+=#/#O@/#'=&%_$O+o =#=#r#h'i'j')+F@-#C@d#N@1.` 8+j+=@v,| | | | | <'O+I+P.8+=#B@C@=#O@E@k'l'm'n')+O+E@)+F@!.]+=#F@]+)+O@C@E@w+[.6#6#E@&#o,'+{+g |.{+{+)+]+]+)+j+j+}%{+j+'=j+w+y+)&y+8.=.O.+.<*B#",
"Q.<+P.X.e+8.y+o'w+w+{+)+6#w+6#O@)+-#F@O@]+{+}%w+u+j+j+)+E@O+F@F@*@8.}%O@/#l+E@E@)+6#c;{@-#=#B@c$G*p'q'r'o,F@-#F@/#F@`#d+6+x+*@v,| | | | | s'O@/.D+7+O+B@N@C@F@N@t'u'v'w's=l+&#O@F@!.)+N@F@)+j+E@C@E@{+,@{+j+{+{+}%%%}%]+|.{+6#E@6#&#j+'=]+j+}%j+6#{+m@#%|.1.I+%.6+T,G+B#",
"b+m.:*8+:&3%}.|.w+{+w+6#6#{+6#E@]+]+O@F@F@)+{+w+*@j+{+&#-#F@O@)+1.J+}%&#E@/#>='=>=6#J+2.F@-#E@l+d@x'y'z')+F@p l+l+]+8.e+6+]+y%v,| | | | | A'x%{.:*7+O+>#B@=#B@B@{*B'C'D'T+E@>='=-#!.-#l+&#6#}%]+O@)+i+0.{+{+j+}%}%%%}%]+1.j+)+O@O@E@j+)+]+6#{+]+{+{+w+|.|.m@_.%.K.E'e#H+",
"b+Z;K.X.:&:.`#|.|.'+%%}%i@'=6#E@)+&#E@-#O@&#j+*@*@j+{+&#E@O@&#j+1.J+w+{+E@O@6#6#E@6#J+2.F@E@&#F@F'G'H':'E@D@D@-#O+&#I+C+7+j+*@I'| | | | | A'x%!.b+l.O+>#d#=#N@B@J'K'L'`>B@)+E@'=F@!.j+)+J>E@i@{+)+k%1./.*@}%{+}%w+'+w+x+1.{+]+)+-#]+j+]+)+{+)+]+]+j+w+*@*@|.:.f+l.o-x@<*",
":*m.($Z b+{.]@|.*@|.|.%%{+'=&#)+]+.#)+]+]+)+]+m@*@j+{+)+6#{+}%}%y+M+|.'+{+'=j+>=E@6#I+u+)+&#&#F@M'G'N'P,/#k p -#-#]+!%a+8+_$=@I'| | | | | A'-#'@b+l.<%d#/#F@O@d#O']'P'Q'v$)+O@&#6#'@w+6#'=j+i@j+j+{+9.!.*@w+}%}%w+m@*@j+u+-@{+{+{+{+{+j+)+.#)+{+w+j+w+{+'+1.].#.R'S'<*H+",
"J.Z;K.X.0+!.8.1.*@'+m@'+i@}%]+)+]+]+g '=]+&#j+|.;@j+{+{+}%%%m@*@`#M+|.}%'+}%i@>=6#}%!%;@j+)+O@O@F'T'U'V'B@A@=#O+-#j+K+e+8+y%=@I'| | | | | W')+L+P.8+)+-#&#E@)+E@R>X'Y'|'B@/#l+C@)+L+%%{+j+w+j+j+{+|.,@^.|.*@}%}%w+*@w+]+2.|.*@w+%%|.|.{+.#]+]+j+'+6#j+{+-@2.!.%.7+S'@*w%",
"0+r,6+<*0+!.>@1.w+*@|.m@}%'+}%]+j+]+)+j+]+]+{+u+k &#{+'+%%|.w+}%y+M+|.%%m@{+'=6#i@}%M+_$.#)+O@O@R*!'Z'V'B@z@p O+C@)+/.C+8+i+i+I'| | | | | `')+g+J.8+]+-#E@6#i@E@ )X'.)+)6-C@d#O@-#f.{+{+'=w+)+{+}%|.`#!.%%}%w+w+'+*@j+<%1%*@{+{+}%u,#%w+j+{+]+{+{+j+j+{+{+_$M+3+Z o-x@@)",
"L&r,d+6&}./.>@1.;@*@'+{+{+'+{+'={+]+)+'=)+j+*@x%]+{+*@|.y+I+|.-@[.J+*@}%|.w+j+'=i@j+k+;@]+)+)+O@R*!'#)$)v$o k -#F@)+k+@.6+j+j%I'| | | | | `'<%;.P.8+]+&#'=]+)+J>%)X'.)&)6-l+F@C@C@'@j+{+]+*@j+{+{+'+,@!.N+*@/.|.'+w+w+)+O+1.{+{+6#%%#%w+j+i+j+{+j+w+*@w+*@|.I+)&L$h+<*d-",
"6+$+@*8+!.f.J+)&1._$-@{+{+w+w+j+'=&#)+E@)+j+,@i+j+w+1.y+R%f%y+]@~.M+/.k+M+,+8.J+M+1.8.|.]+E@)+C@R**)~'P,/#=#=#k x%]+>@L&8+;-_$=)| | | | | -))+~.K.b;]+6#j+&#)+/#;)>),)|'n$F@O+=#C@h+w+!.,@0.!.k+k+!.J+*.v+`#!.~.1.'+w+]+<%k+w+j+j+y+1.*@}%w+*@{+{+*@w+w+1.y+!.I+b+X.x@O.",
"Z $+<+w%0+-.J+y+|.*@*@{+{+*@*@{+6#j+j+)+6#m@J+*@{+*@y+g.c.u+>@~.!.N$c.b+%.e.3+R%d+*@J+y+j+>=]+O+t+')))!)E@p =#F@-#)+8.C+8+i+=@=)| | | | | ~)x%;.O.Z ]+>=j+)+&#&#%)]'{)])y#F@O@-#F@h+*@z+=.S'v*r-*.,.f+!.%.8.7.!.~.2.'+]+-#/.|.{+{+|.*@{+{+%%*@{+w+1.w+_$1.`#^.%.Z B#x@^)",
"8+[+&%d>h+e.8.9.|.|.'+w+w+{+{+j+j+6#}%k%k%y+J+*@w+|.8.~.}.I+*.h+J+!.0+g.*.@.R%0+*.&%K+y+]+6#j+E@,*/)()_)E@p O+-#E@&#k+C+8+*@;@=)| | | | | I-]+g+K.X.)+&#&#F@F@O@|;]':)])d#-#)+)+-#h+2.%.;#,.o-v*V&j.a&f.h+%.I+v+~.8.{+j+g !.|.{+{+{+w+j+{+N+w+*@*@w+'+*@|.,@'.!.%.*@b+6+",
"J.=+c+%.~.~.8.,@1.1.*@*@-@*@*@w+{+}%*@j+j+1.J+;@w+y+u+y+k+~.g.k+I+<)*.-.f+R%d-V&3+`#K+u+F@&#'=F@x#[)})|)E@O+=#)+)+}%6&a+8+y%[%=)| | | | | 1)D#=.:*7+]+)+F@O+O+C@2)3)4)5)=#E@6#]+-#'.1.g+-.y@R%@.B;-.d-g+I+8.V&!.8.'+|.{+g !.y+w+{+}%{+j+j+*@{+w+j+j+*@_$y+>@!.V&d+~.<*O.",
"L&*+b+g+k+/.>@`#`#`#|.}%j+{+*@|.|.*@|.-@{+1.>@D#j+y+>@k+g+'.6)2.8.6&v+&%>@I+k+k+M+1%}.{+O+E@F@=#B@7)8)9))+F@O+]+)+{+K+C+O.i+}.=)| | | | | 0){+~.b+9+x+]+&#-#O+/#a)N=b)c)z@-#6#-#F@f.<%k+ ,J+,@x-k+M+/.M+[.d)f%%.J+`#%%w+F@K+`#*@}%w+*@{+]+{+x+k%]+j+w+y+,@8.I+J+-.V&&'X.",
"P.*+b+-.M+J+,@,@>@`#|.o'{+{+*@|.|.*@*@*@*@y+,@N#T@t+N#^$|.J+k+,+,+!.h+h+,+--L+g+z+!./.<%F@)+O+o )+e)f)g))+-#)+j+]+{+K+d+}.x%{@=)| | | | | 0)-@|.%.9+-@)+]+O@F@)+C$k-h)j-k g ]+O@k  ,I+!.B+--f.h+'.h+f.'@h+!.'@8.X#R*E%i)B&8.,@*@{+{+*@*@D#]+x+w+{+*@|.y+y+,@J+M+$.f.<*w%",
"P.x,:&~.M+8.>@8.8.,@E,*@|.|.w+w+w+w+{+*@|.`#!.=@x+]+]+F@%=d@9%^$p%N#c$6-O#6-Y#'*j)k)A@x%-#]+=#{+l) =j'%;{+)+j+{+j+}%M+{.>#)+}.=)| | | | | m)*@-#}.b+}%]+E@C@E@}%%>n)o)p)}.-#O@O+F@E@q)r)s)d#'*N#%=^$2=5&t+#*R*t+U <%]+O@F@h+,@*@*@m@%%N+i+x+i+*@{+i+|.u+y+[.8.I+$.f.x@w%",
"o-[+L&*.K+M+I+>@>@,@1.|.y+y+|.w+{+*@{+w+|.$%{.=@{+j+6#j+-#l+)+F@=#O+)+]+]+'+j+}%}%)+]+)+-#)+=#w+t)u)--!.{+)+{+}%}%w+K+;.j+]+}.=)| | | | | v)j+D#k+P.{+j+'=F@F@}%w)x)S%y)k+k O+O+p 6#)+)+E@O@E@j+O@=#F@-#j+j+j+&#]+{+{+j+)+g+`#%%|.1.1.|.i+{+*@|.w+_$|.|.y+v+8.!.3+;.e#w%",
"d-%+O.%.K+8.k+>@8.,@|.1.y+`#|.w+*@|.*@%%%%#%!._$x%]+j+j+]+-#{+-#=#O@-#)+)+{+j+{+{+-#O+j+]+)+-#|.;'#-L+/.{+]+{+}%w+w+K+~.}%j+7.z)| | | | | A){+j+I+K.{+{+j+E@F@}%c;;'%.;'{.)+F@F@O@O+-#)+)+F@-#{+]+)+-#]+.#j+*@w+j+w+w+]+]+g+[.y+#%1.)&|.i+w+|.2.;@|.1.}.`#,@8.!.3+=.e#x@",
"6+.+K.%./.8.k+v+[.2.y+|.y+y+y+*@|.*@w+|.1.`#!.;@]+j+{+j+{+D#{+)+)+)+D#{+]+{+{+)+F@O+)+j+{+.#]+2.~@B)h+/.{+)+{+*@-@*@!.~.w+{+0.z)| | | | | C){+{+{.K.w+j+w+]+-#{+,@s,N$a+/.D#-#)+F@p k O@F@p -#{+]+.#g {+{+*@|.}%j+]+{+&#g f.>@y+`#,@,@1.i+{+'+y+}.2.o'}.`#[.8.!.A+$.D)E)",
"8+#+K.%.!.k+v+}.}.`#`#|.y+`#y+|.|.|.|.*@#%`#^.y%]+k%w+w+{+*@w+D#d ]+j+D#D#.#]+F@=#-#]+]+{+{+{+2.a+l.@&c.-@{+{+*@*@o'!.g+|.{+_.z)| | | | | F)y%-@].K.w+{+*@i+-#{+[.B+N$e+I+O@O@-#g -#]+o F@F@)+j+]+{+]+D#D#*@{+'=j+E@j+]+-#g+>@y+`#,@8.}.*@i+w+1.y+`#y+,@]@]@:.!.c+%.G)E)",
"@)#+O.B+%;8.v+`#`#,@`##%0@`#`#1.1.y+)&1.#%$%!.y%]+{+*@*@j+_$*@{+]+-#]+D#{+{+]+F@O@)+]+.#{+w+i+}.b+#-L+'.;@{+'+|.*@*@!.=.1._${.H)| | | | | F){+-@{.6+|.*@o'w+{+w+[.I)%.:&/.]+g g D@g C@=#k ]+j+w+]+D#]+D#D#*@'+'=j+{+)+]+-#g+8.)&9.,@J+}.*@w+m@`#v+v+,@8.k+v+k+!.c+%.<+|+",
"B#J)K.$.!.8.,@`#&%>@L$9.,@`#0@1.2.)&`#`#1.,@!.=@]+{+w+D#]+*@*@-@)+k k D#-@{+{+g g ]+)+)+]+j+w+`#b+l.f.!.1.w+|.y+1.N+!.-.1._${.H)| | | | | F){+*@!.l.|.w+*@'+|.y+J+B+N$:&!.-@{+{+]+.#D@-#x%D#{+j+]+{+]+D#D#)+{+-#D#j+)+]+k g+8.`#`#>@J+}.u+2.u+}.[.v+8.8.8.[.8.!.C+3+K)L)",
"H+D.l.c+h+/.8.,@,@v+[.`#,@,@,@1.`#L$L$}.`#,@h+A%{+*@j+)+j+}%{+{+{+j g D#-@{+{+j+)+)+]+{+-@{+-@}.-.B+/.!.2._$|.2.|.2.h+%.2.1.{.H)| | | | | M);@|.!.O.u+*@1.U+y+y+I+%.'.g./.*@*@{+{+.#]+k -#)+{+{+]+{+{+{+{+.#D#g ]+]+]+]+o g+J+`#,@,@>@`#1.`#}.,@[.,@[.>@>@8.M+h+b+:&.+x@",
"x@z.X.b+g+!.I+8.>@>@[.>@>@8.>@`#>@,@}.,@,@8.!.x+i+i+{+{+j+w+{+{+D#D#.#{+{+{+)+{+-@D#]+-@_$w+-@}.B+!.k+{.2.E,1.y+1.,@h+=.}.2.{.H)| | | | | N)2.2.!.K.y+u+y+U+y+}.I+!.{@f./.*@1.|.*@w+j+]+D#-#O)-@{+w+-@o''+-@{+.#{+-@{+w+)+/./.,@`#>@>@`#}.[.[.8.:.k+>@>@I+/./.z+P.:&P)E)",
"e#s.Z 0+*.'.!.!.K+M+M+J+J+I+I+8.8.8.>@>@8.!.x+{+{+*@{+w+{+_$w+{+{+d -@-@-@{+{+{+{+D#w+*@1.=@}#}.N$Q)7.!.}.1.0@]@1.0@f.%.{@2.{.H)| | | | | R)2.2.!.K.y+|.1.y+1.y+8.{.Y g+f%T%|.|.1.|.w+w+{+j+_$*@_$*@E,E,o''+*@*@-@_${+|.*@j+%;k+8.J+M+:.8.8.I+M+K+K+!./.!.^.^.g+8+:*++S)",
"G)U.5+:*3+d+B+%.%.N$%.N$N$~.g+~.~.~.g+f.g+2.u+2.2.}.1.2.2.}.2.1.1.1.1.2.2.2.2.1.1.1.1.2.}.{@[%{.3+g.*.`#`#2.]@[.`#1.~.$.}.2.'.H)| | | | | T){@2.f.7+|.1.y+1.1.,@`#~.-.B+h+y%}.,@`#2.u+1.]@y+}.}.y+}.]@}.1.2.}.}.}.}.}.[.0.[.|.g+--g+X-~.g+g+N$N$N$%.%.%.B+3+c+/,l.P.$+U)",
"P%D.D)$.V)%;%;J+c;`#&%8.I+K+J+6&8.8.8.$%}.!.b+6+X.Z E+X.8+8+7+6+8+8+7+7+7+7+6+8+l.:*L&3+f+@.c+3+h+K+2.,@8.:.k+I+e.7.$.#.}.2.'.H)| | | | | T)2.W)'.l.*@/.!.>@v+k+v+}.,+K+%.f+b+b+c+C+P.K.7+X.F+8+8+E+Z X.X.E+F+X.8+l.8+8+7+K.g+%>y+#%L$$%$%`#L$`#,@8.6&K+I+%;!.f.N$<*Z. +",
"$+q.B.#+4+m.m.m.$>e#e#G+e#e#e#G+x@G+e#G+&'G+$>m.$>}+K)<+D)|+D)e#G+e#G+e#|+m.m.m.e#e#G+e#e#D)e#G+e#D)e#m.}+[+<+m.m.X)Y)%.,@[.;.H)| | | | | Z)[.[.z+`) !$>m.}+`,}+m.$>e#<*<*<*G+e#e#D)m.}+$>e#|+|+e#e#e#e#D)}+<+m.$>m.$>m.D)e#<*i-.!<*e#e#m.$>e#e#e#e#+![+[+@!=+.+&+#!B.W.",
"<*m.C#G+@*E+8+8+l.Q.Q.D+D+K.K.a+a+$!D+D+D+Q.D+b+K.Q.l.9+K.K.K.P.a+D+K.Q.l.Q.Q.Q.%!%!K.K.K.K.D+D+K.K.b+d+;'&!D+D+x)*!=!-!'@~.@.H)| | | | | ;!V&;.X->!,!'!;'b+&!J.%!D+&!b+a+A+a+b+Q.%!D+K.K.D+%!D+$!a+a+b+D+K.Q.Q.K.Q.J.K.Q.Q.&!a+)!!!Q.~!Q.Q.Q.:*D+D+K.l.8+l.8+5+e#m.m.&'",
"{@2.x+g k p {!m V O+z@V V T%z@Q*r+W =#o o o T%A C;o o T%s s S O Q*A S q+=#A@z@z@V V U r+S r+S r+C r+C r+r+T V T%z@W >#q+T r+!=>-| | | | | ]!l&T ,#U$&@q+Q+r+P S 1=,#,#c#,#^!P S V /!w A@z@B@z@,#S S A C;T r+!=!=,#S U$!=A@=#=#z@q+A&k -#p k g T%z@z@{!z@^@(!X z%x+D#{@_.",
"_!:!<![!}!|!|!b-1!1!2!2!1!3!3!4!2!|!5!6!7!8!9!0!a!2!b!b-2!a!c!0!d!e!f!c!2!b-b-b-2!b-2!f!g!(!g!h!h!h!4!a!a!2!b-3!i!b-b-b-1!(!j!T-| | | | | k!2!1!1!9!9!9!a!f!l!m!a!g!n!9!a!h!o!f!4!p!a!2!b-b-b-4!h!f!f!a!9!a!9!(!o!g!h!a!4!b-b-b-b-|![![!|![!q!r!7!7!7!b-3!s!t!t!u!:!v!w!"};
