/* XPM */
static char * so_door26_tex_xpm[] = {
"132 132 1384 2",
"  	c #2F3A45",
". 	c #2F3B46",
"+ 	c #2F3944",
"@ 	c #2F3A46",
"# 	c #303C46",
"$ 	c #303B46",
"% 	c #303C47",
"& 	c #303A45",
"* 	c #313D4A",
"= 	c #313E4A",
"- 	c #323E4A",
"; 	c #323F4A",
"> 	c #313D48",
", 	c #35393C",
"' 	c #393939",
") 	c #34383D",
"! 	c #303B45",
"~ 	c #323F4B",
"{ 	c #313D49",
"] 	c #303C48",
"^ 	c #2E3843",
"/ 	c #283948",
"( 	c #293A49",
"_ 	c #283949",
": 	c #283847",
"< 	c #263746",
"[ 	c #273848",
"} 	c #293B4A",
"| 	c #293949",
"1 	c #293B4B",
"2 	c #293A4A",
"3 	c #2A3B4B",
"4 	c #2A3B4A",
"5 	c #2B3D4C",
"6 	c #2C3F4F",
"7 	c #2D3F4F",
"8 	c #2C3F50",
"9 	c #2D4151",
"0 	c #2C3D4C",
"a 	c #33393E",
"b 	c #32383F",
"c 	c #2B3C4B",
"d 	c #2A3C4B",
"e 	c #293C4B",
"f 	c #2D4050",
"g 	c #273847",
"h 	c #283848",
"i 	c #1A2630",
"j 	c #1A2732",
"k 	c #1A2631",
"l 	c #1A2833",
"m 	c #18252F",
"n 	c #192530",
"o 	c #1B2833",
"p 	c #1B2834",
"q 	c #1A2733",
"r 	c #1B2934",
"s 	c #1C2934",
"t 	c #1C2A35",
"u 	c #1C2A36",
"v 	c #1D2A36",
"w 	c #1D2B38",
"x 	c #1E2D39",
"y 	c #1F2F3C",
"z 	c #1F2E3B",
"A 	c #1F2E3A",
"B 	c #1F2C39",
"C 	c #313437",
"D 	c #2F3337",
"E 	c #1F2C38",
"F 	c #1E2C38",
"G 	c #1C2B37",
"H 	c #1D2D3A",
"I 	c #1D2B37",
"J 	c #1C2935",
"K 	c #1B2733",
"L 	c #1B2933",
"M 	c #1A2632",
"N 	c #080E12",
"O 	c #080E13",
"P 	c #080D12",
"Q 	c #080F14",
"R 	c #070D13",
"S 	c #080D13",
"T 	c #080E14",
"U 	c #090E14",
"V 	c #091015",
"W 	c #09131B",
"X 	c #091C2B",
"Y 	c #0F1E29",
"Z 	c #131F27",
"` 	c #131E27",
" .	c #131C24",
"..	c #2F3031",
"+.	c #2C2F31",
"@.	c #131E26",
"#.	c #141F28",
"$.	c #121E27",
"%.	c #091C29",
"&.	c #08151F",
"*.	c #081015",
"=.	c #090F14",
"-.	c #090F15",
";.	c #0C141B",
">.	c #0B1218",
",.	c #0B1319",
"'.	c #0B131A",
").	c #0C141A",
"!.	c #0D151B",
"~.	c #0D151C",
"{.	c #0C151B",
"].	c #0A1117",
"^.	c #0A1116",
"/.	c #0C1319",
"(.	c #0E1821",
"_.	c #0F1E2A",
":.	c #192733",
"<.	c #20303E",
"[.	c #223341",
"}.	c #303336",
"|.	c #2E3236",
"1.	c #21313F",
"2.	c #223340",
"3.	c #101E28",
"4.	c #0E1A23",
"5.	c #0B151B",
"6.	c #0A1218",
"7.	c #0E171E",
"8.	c #0F161E",
"9.	c #0E161D",
"0.	c #0D161C",
"a.	c #142029",
"b.	c #16212B",
"c.	c #15222C",
"d.	c #15212B",
"e.	c #16222B",
"f.	c #17232D",
"g.	c #18242E",
"h.	c #182530",
"i.	c #192631",
"j.	c #192732",
"k.	c #21313E",
"l.	c #21323F",
"m.	c #1C2B36",
"n.	c #233644",
"o.	c #1E303F",
"p.	c #273948",
"q.	c #293C4C",
"r.	c #233340",
"s.	c #313438",
"t.	c #2E3338",
"u.	c #263947",
"v.	c #283B4A",
"w.	c #192834",
"x.	c #263B4B",
"y.	c #1F2F3B",
"z.	c #1D2C38",
"A.	c #20313E",
"B.	c #22333F",
"C.	c #1E2E3A",
"D.	c #192731",
"E.	c #17222D",
"F.	c #16222C",
"G.	c #15212C",
"H.	c #16232D",
"I.	c #15202A",
"J.	c #1B2935",
"K.	c #1F303C",
"L.	c #243644",
"M.	c #273949",
"N.	c #283B4B",
"O.	c #2A3E4E",
"P.	c #2C4253",
"Q.	c #243847",
"R.	c #1E2E3B",
"S.	c #283C4C",
"T.	c #2A3F4F",
"U.	c #243442",
"V.	c #313538",
"W.	c #2E3339",
"X.	c #283A4B",
"Y.	c #293D4D",
"Z.	c #273B4C",
"`.	c #2D4253",
" +	c #2B4050",
".+	c #2B3F4F",
"++	c #2B4051",
"@+	c #2A3E4D",
"#+	c #263948",
"$+	c #20303D",
"%+	c #202F3B",
"&+	c #21303E",
"*+	c #20303C",
"=+	c #1B2A36",
"-+	c #1C2B38",
";+	c #1D2C39",
">+	c #2E4354",
",+	c #2E4455",
"'+	c #2D4353",
")+	c #2F4456",
"!+	c #2D4354",
"~+	c #2D4454",
"{+	c #2C4152",
"]+	c #32485A",
"^+	c #324A5C",
"/+	c #32495B",
"(+	c #32495C",
"_+	c #31485B",
":+	c #31485A",
"<+	c #2C4354",
"[+	c #1E303E",
"}+	c #1E2D3A",
"|+	c #293E4E",
"1+	c #2A3E4F",
"2+	c #2E4557",
"3+	c #263C4C",
"4+	c #2A3F50",
"5+	c #263744",
"6+	c #323639",
"7+	c #2F3439",
"8+	c #2B4153",
"9+	c #203240",
"0+	c #2D4355",
"a+	c #293D4E",
"b+	c #2B3F51",
"c+	c #1F2F3D",
"d+	c #293D4B",
"e+	c #344B5E",
"f+	c #314658",
"g+	c #314859",
"h+	c #2F4557",
"i+	c #304658",
"j+	c #2D4252",
"k+	c #2B4151",
"l+	c #2E4355",
"m+	c #2E4353",
"n+	c #2B4152",
"o+	c #304759",
"p+	c #344C5F",
"q+	c #2D4457",
"r+	c #1E313F",
"s+	c #243745",
"t+	c #233443",
"u+	c #2A3D4E",
"v+	c #2E4558",
"w+	c #2E4659",
"x+	c #294052",
"y+	c #293E4F",
"z+	c #2B4052",
"A+	c #273745",
"B+	c #32363A",
"C+	c #2F353A",
"D+	c #293D4C",
"E+	c #2C4355",
"F+	c #213443",
"G+	c #2F4558",
"H+	c #223240",
"I+	c #374F62",
"J+	c #2E4456",
"K+	c #2F4457",
"L+	c #2D4455",
"M+	c #2B3F50",
"N+	c #304558",
"O+	c #2E4457",
"P+	c #2D4152",
"Q+	c #30485B",
"R+	c #31495D",
"S+	c #2D4659",
"T+	c #1F3342",
"U+	c #223543",
"V+	c #223542",
"W+	c #2D4557",
"X+	c #30475A",
"Y+	c #2B4254",
"Z+	c #243645",
"`+	c #2C4254",
" @	c #273846",
".@	c #33373B",
"+@	c #2F353C",
"@@	c #213343",
"#@	c #2F4659",
"$@	c #2A4052",
"%@	c #2C4153",
"&@	c #213240",
"*@	c #253847",
"=@	c #223645",
"-@	c #31485C",
";@	c #30485A",
">@	c #31495C",
",@	c #31475A",
"'@	c #2E4658",
")@	c #304659",
"!@	c #32495D",
"~@	c #324A5E",
"{@	c #1B2F3D",
"]@	c #2A3F51",
"^@	c #293E50",
"/@	c #273947",
"(@	c #2F373D",
"_@	c #2D4254",
":@	c #203341",
"<@	c #32495E",
"[@	c #1A2B38",
"}@	c #30495C",
"|@	c #324A5D",
"1@	c #334B5E",
"2@	c #2F4658",
"3@	c #314759",
"4@	c #334A5E",
"5@	c #344C60",
"6@	c #324B5F",
"7@	c #334C61",
"8@	c #2E485B",
"9@	c #1D3140",
"0@	c #182631",
"a@	c #263A49",
"b@	c #253949",
"c@	c #2D4356",
"d@	c #253846",
"e@	c #33373C",
"f@	c #2F363D",
"g@	c #1F303F",
"h@	c #233645",
"i@	c #1D2E3B",
"j@	c #334A5D",
"k@	c #344D61",
"l@	c #334B5F",
"m@	c #334C60",
"n@	c #344D62",
"o@	c #314A5F",
"p@	c #1F3241",
"q@	c #273A4A",
"r@	c #2D4357",
"s@	c #283A49",
"t@	c #30383F",
"u@	c #1F303E",
"v@	c #243746",
"w@	c #1E2F3D",
"x@	c #324A5F",
"y@	c #30475B",
"z@	c #344D60",
"A@	c #354E61",
"B@	c #354D61",
"C@	c #344E62",
"D@	c #354D62",
"E@	c #324C5F",
"F@	c #2F485C",
"G@	c #1F3140",
"H@	c #1A2834",
"I@	c #273A49",
"J@	c #253746",
"K@	c #2E4458",
"L@	c #34393D",
"M@	c #303840",
"N@	c #1E303D",
"O@	c #2D4558",
"P@	c #2C4052",
"Q@	c #223442",
"R@	c #314A5E",
"S@	c #344C61",
"T@	c #354E62",
"U@	c #354E63",
"V@	c #334D61",
"W@	c #2F495D",
"X@	c #203140",
"Y@	c #253948",
"Z@	c #35393D",
"`@	c #303940",
" #	c #2A4051",
".#	c #233746",
"+#	c #334B60",
"@#	c #2F475B",
"##	c #1B2A35",
"$#	c #253947",
"%#	c #233545",
"&#	c #1C2B39",
"*#	c #2B4154",
"=#	c #2D4456",
"-#	c #243846",
";#	c #344B60",
">#	c #1E3140",
",#	c #253747",
"'#	c #283E4F",
")#	c #233543",
"!#	c #35393E",
"~#	c #303942",
"{#	c #293D4F",
"]#	c #1B2C39",
"^#	c #233646",
"/#	c #17242E",
"(#	c #203444",
"_#	c #233544",
":#	c #2F475A",
"<#	c #353A3E",
"[#	c #303A42",
"}#	c #182734",
"|#	c #223544",
"1#	c #18242F",
"2#	c #1D2D39",
"3#	c #1E2C39",
"4#	c #1C2C39",
"5#	c #314C60",
"6#	c #2B475C",
"7#	c #213D51",
"8#	c #243E50",
"9#	c #17242F",
"0#	c #2A3D4D",
"a#	c #1D2E3C",
"b#	c #253B4D",
"c#	c #253E52",
"d#	c #2A465A",
"e#	c #1E2F3B",
"f#	c #1D2E39",
"g#	c #2E4352",
"h#	c #2B3E4E",
"i#	c #30485C",
"j#	c #37546B",
"k#	c #1F4965",
"l#	c #1A74A2",
"m#	c #2A495E",
"n#	c #2A4153",
"o#	c #1A2935",
"p#	c #313B43",
"q#	c #1A2A36",
"r#	c #1C2D3A",
"s#	c #2C4659",
"t#	c #2A5B7B",
"u#	c #265F82",
"v#	c #305069",
"w#	c #365064",
"x#	c #233542",
"y#	c #233442",
"z#	c #2C4051",
"A#	c #1F2E39",
"B#	c #253645",
"C#	c #1E2D38",
"D#	c #20313D",
"E#	c #20303B",
"F#	c #1D2C37",
"G#	c #22323F",
"H#	c #355065",
"I#	c #1D4864",
"J#	c #127BB7",
"K#	c #2A4A61",
"L#	c #2C4356",
"M#	c #283E4E",
"N#	c #1C2C38",
"O#	c #1B2B38",
"P#	c #2E4A5E",
"Q#	c #286388",
"R#	c #246287",
"S#	c #2F4E66",
"T#	c #2C4252",
"U#	c #192630",
"V#	c #202F3A",
"W#	c #202F3C",
"X#	c #253745",
"Y#	c #233440",
"Z#	c #1D2C36",
"`#	c #21303B",
" $	c #21313D",
".$	c #21333F",
"+$	c #385268",
"@$	c #1E4864",
"#$	c #137BB9",
"$$	c #2B4B61",
"%$	c #273C4C",
"&$	c #1A2934",
"*$	c #2F4A5E",
"=$	c #296489",
"-$	c #236389",
";$	c #2F4F66",
">$	c #30485D",
",$	c #1B2A34",
"'$	c #233441",
")$	c #21303D",
"!$	c #1F2D39",
"~$	c #243542",
"{$	c #21303C",
"]$	c #283D4C",
"^$	c #1E4966",
"/$	c #0F7CC1",
"($	c #2B4A61",
"_$	c #283D4D",
":$	c #2B404F",
"<$	c #363A3D",
"[$	c #303B44",
"}$	c #28658A",
"|$	c #23668D",
"1$	c #2F5067",
"2$	c #2E475A",
"3$	c #334C5F",
"4$	c #233643",
"5$	c #223440",
"6$	c #263745",
"7$	c #283B4C",
"8$	c #2E4253",
"9$	c #385368",
"0$	c #1F4966",
"a$	c #0E7DC4",
"b$	c #2C4B62",
"c$	c #36393D",
"d$	c #2A6488",
"e$	c #22668F",
"f$	c #2F5069",
"g$	c #233341",
"h$	c #283A4A",
"i$	c #263848",
"j$	c #243646",
"k$	c #2A3E50",
"l$	c #365267",
"m$	c #1E4765",
"n$	c #1279C2",
"o$	c #2D4A61",
"p$	c #303A44",
"q$	c #2A668B",
"r$	c #216690",
"s$	c #2F526B",
"t$	c #2C4456",
"u$	c #253848",
"v$	c #30465A",
"w$	c #365167",
"x$	c #1277C2",
"y$	c #2B3E4F",
"z$	c #2F485D",
"A$	c #2B658A",
"B$	c #206692",
"C$	c #30526B",
"D$	c #31495E",
"E$	c #293F50",
"F$	c #233745",
"G$	c #354F65",
"H$	c #1E4967",
"I$	c #107AC4",
"J$	c #2E4C63",
"K$	c #363A3E",
"L$	c #293E4D",
"M$	c #1B2B36",
"N$	c #2F495E",
"O$	c #2B658C",
"P$	c #1F6693",
"Q$	c #30536D",
"R$	c #2C4457",
"S$	c #344F64",
"T$	c #0F7BC7",
"U$	c #2D4C63",
"V$	c #2F3B44",
"W$	c #2C658B",
"X$	c #1F6692",
"Y$	c #30526C",
"Z$	c #2D4458",
"`$	c #26394A",
" %	c #1E4763",
".%	c #0F7AC6",
"+%	c #2C4C63",
"@%	c #2F3A44",
"#%	c #2F4A5F",
"$%	c #21668F",
"%%	c #2F5169",
"&%	c #2C4255",
"*%	c #263A4A",
"=%	c #204763",
"-%	c #0F7CC6",
";%	c #2F3B45",
">%	c #273B4B",
",%	c #216790",
"'%	c #2A4152",
")%	c #1F4763",
"!%	c #0E7DC5",
"~%	c #2C4D64",
"{%	c #2B4253",
"]%	c #304A5F",
"^%	c #22658F",
"/%	c #2F4759",
"(%	c #1F4864",
"_%	c #0D7EC7",
":%	c #2D4E65",
"<%	c #2B6386",
"[%	c #23648C",
"}%	c #1D445F",
"|%	c #127CBC",
"1%	c #2B4B62",
"2%	c #18252E",
"3%	c #36393C",
"4%	c #2E4559",
"5%	c #2D475B",
"6%	c #2B6081",
"7%	c #266083",
"8%	c #2B4A60",
"9%	c #2A3F52",
"0%	c #1F3A4E",
"a%	c #2A5875",
"b%	c #253F53",
"c%	c #2E3944",
"d%	c #254A62",
"e%	c #224862",
"f%	c #1C3040",
"g%	c #253A49",
"h%	c #2C4759",
"i%	c #244055",
"j%	c #254F69",
"k%	c #243C4E",
"l%	c #2D3A43",
"m%	c #2A4050",
"n%	c #273E50",
"o%	c #25485E",
"p%	c #254962",
"q%	c #294458",
"r%	c #304758",
"s%	c #1D4561",
"t%	c #1B73A7",
"u%	c #28485F",
"v%	c #37393C",
"w%	c #2D3A44",
"x%	c #293F51",
"y%	c #294356",
"z%	c #2A5F80",
"A%	c #255F83",
"B%	c #2C4960",
"C%	c #293F4F",
"D%	c #1D4764",
"E%	c #127BBD",
"F%	c #2A4B62",
"G%	c #2E3A46",
"H%	c #2C475B",
"I%	c #236289",
"J%	c #2E4D65",
"K%	c #1E4A67",
"L%	c #107CC4",
"M%	c #2A4A62",
"N%	c #293E4C",
"O%	c #2E3B46",
"P%	c #2C485D",
"Q%	c #29668C",
"R%	c #216590",
"S%	c #1E4866",
"T%	c #107BC4",
"U%	c #192632",
"V%	c #2D3A45",
"W%	c #29668A",
"X%	c #206792",
"Y%	c #2D4F68",
"Z%	c #304859",
"`%	c #1E4A68",
" &	c #107BC3",
".&	c #2A4961",
"+&	c #37393B",
"@&	c #2C3943",
"#&	c #2B475B",
"$&	c #283D4E",
"%&	c #1D4966",
"&&	c #1279BD",
"*&	c #2A485F",
"=&	c #17242D",
"-&	c #2B4559",
";&	c #296386",
">&	c #236489",
",&	c #2D4F67",
"'&	c #2B4252",
")&	c #1579B5",
"!&	c #29485E",
"~&	c #2C3A44",
"{&	c #2B4558",
"]&	c #296082",
"^&	c #256083",
"/&	c #263B4C",
"(&	c #1D2F3B",
"_&	c #1A384C",
":&	c #21526E",
"<&	c #253E51",
"[&	c #2C3843",
"}&	c #214962",
"|&	c #204962",
"1&	c #2B4457",
"2&	c #283C4D",
"3&	c #1A2A37",
"4&	c #1A3040",
"5&	c #2B3743",
"6&	c #1D303F",
"7&	c #1C2E3D",
"8&	c #223441",
"9&	c #263845",
"0&	c #17232E",
"a&	c #2C3945",
"b&	c #253A48",
"c&	c #38393B",
"d&	c #2C3B46",
"e&	c #243543",
"f&	c #15212A",
"g&	c #37393A",
"h&	c #2B3944",
"i&	c #152029",
"j&	c #1F303B",
"k&	c #213442",
"l&	c #213340",
"m&	c #273C4A",
"n&	c #18242D",
"o&	c #273A48",
"p&	c #38393A",
"q&	c #2B3945",
"r&	c #20313F",
"s&	c #172B39",
"t&	c #182833",
"u&	c #2A3844",
"v&	c #172936",
"w&	c #213647",
"x&	c #253845",
"y&	c #284155",
"z&	c #1B3F56",
"A&	c #255A77",
"B&	c #1F394B",
"C&	c #273B49",
"D&	c #293F4E",
"E&	c #293844",
"F&	c #223746",
"G&	c #285773",
"H&	c #1B445D",
"I&	c #223E53",
"J&	c #294357",
"K&	c #1D4159",
"L&	c #1973A8",
"M&	c #24648A",
"N&	c #2B495F",
"O&	c #283642",
"P&	c #275471",
"Q&	c #0F7DC0",
"R&	c #1E4964",
"S&	c #264257",
"T&	c #294153",
"U&	c #1D3F56",
"V&	c #1C6F9F",
"W&	c #1E6D9C",
"X&	c #2D536D",
"Y&	c #14202A",
"Z&	c #293743",
"`&	c #304D64",
" *	c #285E81",
".*	c #0980C9",
"+*	c #1E4863",
"@*	c #264055",
"#*	c #263846",
"$*	c #273C4D",
"%*	c #1B3648",
"&*	c #1A72A5",
"**	c #2D5570",
"=*	c #142028",
"-*	c #192833",
";*	c #24638A",
">*	c #147AB2",
",*	c #1C3E54",
"'*	c #1A3141",
")*	c #1D3B4F",
"!*	c #285D7C",
"~*	c #2B536D",
"{*	c #2F4D65",
"]*	c #285A78",
"^*	c #1F425A",
"/*	c #1A3346",
"(*	c #253C4E",
"_*	c #1B394F",
":*	c #275876",
"<*	c #285A77",
"[*	c #2A4C62",
"}*	c #293845",
"|*	c #273B4A",
"1*	c #2D4A60",
"2*	c #224D68",
"3*	c #206A96",
"4*	c #1C4057",
"5*	c #253F52",
"6*	c #263B4A",
"7*	c #1D3C53",
"8*	c #275777",
"9*	c #127DBD",
"0*	c #283C4B",
"a*	c #2C4E65",
"b*	c #1971A8",
"c*	c #216692",
"d*	c #1B3E56",
"e*	c #263E51",
"f*	c #283E51",
"g*	c #1E3D54",
"h*	c #265474",
"i*	c #2D5774",
"j*	c #2B465B",
"k*	c #182630",
"l*	c #21323E",
"m*	c #383939",
"n*	c #263641",
"o*	c #2C4559",
"p*	c #2E526D",
"q*	c #1474B3",
"r*	c #236189",
"s*	c #1B3D56",
"t*	c #263C4F",
"u*	c #283F50",
"v*	c #1D3C54",
"w*	c #234E6C",
"x*	c #0782D3",
"y*	c #2B5B7B",
"z*	c #2C485E",
"A*	c #15222A",
"B*	c #263441",
"C*	c #141F27",
"D*	c #2C4458",
"E*	c #2D5470",
"F*	c #0E7ABF",
"G*	c #265B7D",
"H*	c #1A3A4F",
"I*	c #243A4B",
"J*	c #273A4B",
"K*	c #1E3B50",
"L*	c #1F4C6A",
"M*	c #0382DA",
"N*	c #2A5C7E",
"O*	c #2C4A60",
"P*	c #24323F",
"Q*	c #233642",
"R*	c #141E26",
"S*	c #0E7CC3",
"T*	c #275676",
"U*	c #193549",
"V*	c #25394B",
"W*	c #1E3241",
"X*	c #193950",
"Y*	c #295F82",
"Z*	c #2C4A62",
"`*	c #1E2E39",
" =	c #2C4151",
".=	c #1C2933",
"+=	c #151F27",
"@=	c #2B5471",
"#=	c #1A2C3A",
"$=	c #253A4B",
"%=	c #162936",
"&=	c #1A3447",
"*=	c #2B516C",
"==	c #2D4B61",
"-=	c #1C2C37",
";=	c #333537",
">=	c #272D33",
",=	c #284F69",
"'=	c #1E4256",
")=	c #162733",
"!=	c #162835",
"~=	c #243948",
"{=	c #283C4A",
"]=	c #101C25",
"^=	c #141D26",
"/=	c #353738",
"(=	c #252E35",
"_=	c #24394A",
":=	c #1A2D3A",
"<=	c #172430",
"[=	c #213341",
"}=	c #16242E",
"|=	c #182732",
"1=	c #253A4A",
"2=	c #152531",
"3=	c #122C3E",
"4=	c #103C55",
"5=	c #383839",
"6=	c #212F3A",
"7=	c #17252F",
"8=	c #273D4C",
"9=	c #1C303D",
"0=	c #162C3B",
"a=	c #124361",
"b=	c #11688D",
"c=	c #103447",
"d=	c #35383A",
"e=	c #29343E",
"f=	c #1A2933",
"g=	c #273C4B",
"h=	c #1B3140",
"i=	c #153143",
"j=	c #134B6C",
"k=	c #0B729B",
"l=	c #10394F",
"m=	c #35383B",
"n=	c #293640",
"o=	c #2C4558",
"p=	c #273D4E",
"q=	c #213645",
"r=	c #245570",
"s=	c #27455C",
"t=	c #263C4D",
"u=	c #163449",
"v=	c #144D6E",
"w=	c #0A749E",
"x=	c #103B52",
"y=	c #283641",
"z=	c #284255",
"A=	c #263F52",
"B=	c #205371",
"C=	c #233B4D",
"D=	c #233B4C",
"E=	c #127CA8",
"F=	c #274F6C",
"G=	c #263D4F",
"H=	c #153449",
"I=	c #154D6F",
"J=	c #0774A3",
"K=	c #103B53",
"L=	c #29495F",
"M=	c #0E7BAD",
"N=	c #234358",
"O=	c #1B2B37",
"P=	c #243E4F",
"Q=	c #0A84B7",
"R=	c #28516F",
"S=	c #273E51",
"T=	c #294051",
"U=	c #1B303F",
"V=	c #153247",
"W=	c #144C6E",
"X=	c #0675A5",
"Y=	c #0F3A52",
"Z=	c #284256",
"`=	c #283E4D",
" -	c #2A4B61",
".-	c #0783B8",
"+-	c #24455B",
"@-	c #0E81B0",
"#-	c #28506C",
"$-	c #153347",
"%-	c #144C6D",
"&-	c #0973A0",
"*-	c #28343F",
"=-	c #274053",
"--	c #2A495F",
";-	c #0C7EAC",
">-	c #233848",
",-	c #275E7C",
"'-	c #29475D",
")-	c #1C3141",
"!-	c #153043",
"~-	c #144A6B",
"{-	c #0975A1",
"]-	c #103B51",
"^-	c #284154",
"/-	c #275B77",
"(-	c #243C4F",
"_-	c #263F51",
":-	c #1D3241",
"<-	c #152D3D",
"[-	c #144764",
"}-	c #0D7299",
"|-	c #11384D",
"1-	c #35373A",
"2-	c #28323C",
"3-	c #283F51",
"4-	c #273F51",
"5-	c #16222D",
"6-	c #15364A",
"7-	c #124D69",
"8-	c #212F3B",
"9-	c #1B2D3A",
"0-	c #172A3A",
"a-	c #2D373F",
"b-	c #1E2C37",
"c-	c #1C2D39",
"d-	c #2A3D4C",
"e-	c #1E3749",
"f-	c #27526E",
"g-	c #27455B",
"h-	c #253946",
"i-	c #2E363D",
"j-	c #204A63",
"k-	c #214A60",
"l-	c #1B2E3C",
"m-	c #2E4759",
"n-	c #224259",
"o-	c #0880D0",
"p-	c #285C7E",
"q-	c #254259",
"r-	c #33363A",
"s-	c #2D343B",
"t-	c #24526F",
"u-	c #088ACD",
"v-	c #254E68",
"w-	c #2A4254",
"x-	c #2F4C62",
"y-	c #285372",
"z-	c #008AE3",
"A-	c #275675",
"B-	c #254156",
"C-	c #333639",
"D-	c #2D343A",
"E-	c #283F53",
"F-	c #244E69",
"G-	c #0683D2",
"H-	c #276083",
"I-	c #2F5168",
"J-	c #295979",
"K-	c #0087E2",
"L-	c #265270",
"M-	c #253F54",
"N-	c #1F303D",
"O-	c #17252E",
"P-	c #33373A",
"Q-	c #273D4F",
"R-	c #254A63",
"S-	c #0A7ECC",
"T-	c #216997",
"U-	c #294E68",
"V-	c #2B4356",
"W-	c #2B4E66",
"X-	c #266088",
"Y-	c #0188DB",
"Z-	c #25516E",
"`-	c #263F53",
" ;	c #34373B",
".;	c #2D353C",
"+;	c #1479B7",
"@;	c #1B71A7",
"#;	c #284E68",
"$;	c #2D475C",
"%;	c #2B4F67",
"&;	c #236692",
"*;	c #117EBB",
"=;	c #234C66",
"-;	c #274052",
";;	c #34373A",
">;	c #26475D",
",;	c #1D6F9E",
"';	c #1577B4",
");	c #28506B",
"!;	c #2D485D",
"~;	c #2D485B",
"{;	c #2B4F68",
"];	c #226994",
"^;	c #256487",
"/;	c #213E51",
"(;	c #2B3F4E",
"_;	c #213A4C",
":;	c #205571",
"<;	c #137AB1",
"[;	c #274F69",
"};	c #304D63",
"|;	c #2E495D",
"1;	c #27465C",
"2;	c #224358",
"3;	c #224A66",
"4;	c #234258",
"5;	c #1B2B35",
"6;	c #264256",
"7;	c #1E4B64",
"8;	c #204157",
"9;	c #24465C",
"0;	c #2E4C61",
"a;	c #244155",
"b;	c #0C7EC5",
"c;	c #23648E",
"d;	c #24435A",
"e;	c #16212A",
"f;	c #34383B",
"g;	c #2D363D",
"h;	c #274357",
"i;	c #235572",
"j;	c #0886C7",
"k;	c #23475E",
"l;	c #2F4B60",
"m;	c #26516F",
"n;	c #0083DD",
"o;	c #265C82",
"p;	c #234157",
"q;	c #152129",
"r;	c #2C353C",
"s;	c #264054",
"t;	c #224F6C",
"u;	c #0588D4",
"v;	c #265471",
"w;	c #2F4D63",
"x;	c #0181DA",
"y;	c #255372",
"z;	c #2C343C",
"A;	c #0882CF",
"B;	c #27597A",
"C;	c #2C4C64",
"D;	c #2E516A",
"E;	c #245170",
"F;	c #1774AD",
"G;	c #1E3C51",
"H;	c #2C343B",
"I;	c #1E3546",
"J;	c #206A99",
"K;	c #294D66",
"L;	c #213441",
"M;	c #1D2D38",
"N;	c #2A485C",
"O;	c #203E52",
"P;	c #192A38",
"Q;	c #172733",
"R;	c #1F3C4F",
"S;	c #28455A",
"T;	c #1F313E",
"U;	c #2B343C",
"V;	c #2B333B",
"W;	c #343739",
"X;	c #2B333A",
"Y;	c #293B4C",
"Z;	c #15222D",
"`;	c #1D2E3A",
" >	c #182834",
".>	c #1E2F3C",
"+>	c #353739",
"@>	c #182632",
"#>	c #162D3D",
"$>	c #17455B",
"%>	c #1D3342",
"&>	c #18384B",
"*>	c #16394E",
"=>	c #23394A",
"->	c #163E57",
";>	c #1A7198",
">>	c #204054",
",>	c #2A3239",
"'>	c #243544",
")>	c #131D27",
"!>	c #253D4F",
"~>	c #255673",
"{>	c #1F5978",
"]>	c #244257",
"^>	c #263949",
"/>	c #223342",
"(>	c #213342",
"_>	c #17425D",
":>	c #147AAD",
"<>	c #204359",
"[>	c #295D7D",
"}>	c #235E7F",
"|>	c #25455B",
"1>	c #184461",
"2>	c #107CB7",
"3>	c #22445B",
"4>	c #293239",
"5>	c #2A5E7F",
"6>	c #225F82",
"7>	c #18435F",
"8>	c #107CB8",
"9>	c #21445B",
"0>	c #263847",
"a>	c #2A323A",
"b>	c #2A5F7F",
"c>	c #235F83",
"d>	c #24445B",
"e>	c #18425E",
"f>	c #0F7DBB",
"g>	c #21445C",
"h>	c #29323A",
"i>	c #14212B",
"j>	c #243F53",
"k>	c #295F7F",
"l>	c #236084",
"m>	c #233342",
"n>	c #17415D",
"o>	c #117CB9",
"p>	c #131D26",
"q>	c #293139",
"r>	c #243E52",
"s>	c #2A5F7E",
"t>	c #226084",
"u>	c #25394A",
"v>	c #17405B",
"w>	c #147AB1",
"x>	c #204257",
"y>	c #121D26",
"z>	c #223C4E",
"A>	c #2A5E7C",
"B>	c #234359",
"C>	c #223443",
"D>	c #173D57",
"E>	c #1677AA",
"F>	c #204155",
"G>	c #121C25",
"H>	c #2A5C79",
"I>	c #255D7D",
"J>	c #214055",
"K>	c #1D2F3D",
"L>	c #17354A",
"M>	c #21607E",
"N>	c #1D394C",
"O>	c #283139",
"P>	c #121D25",
"Q>	c #203646",
"R>	c #204F6A",
"S>	c #1E506B",
"T>	c #1A3345",
"U>	c #182D3B",
"V>	c #1F3E52",
"W>	c #1C2F3D",
"X>	c #283039",
"Y>	c #1F3340",
"Z>	c #1E384B",
"`>	c #1F394D",
" ,	c #1A2B39",
".,	c #1A3F57",
"+,	c #1C6A8D",
"@,	c #1D3C4F",
"#,	c #213241",
"$,	c #131F28",
"%,	c #21394A",
"&,	c #23536F",
"*,	c #1F5471",
"=,	c #27455A",
"-,	c #153F59",
";,	c #1578A7",
">,	c #1F4055",
",,	c #283038",
"',	c #2A5C7A",
"),	c #225978",
"!,	c #224258",
"~,	c #263A4B",
"{,	c #16415C",
"],	c #137AB0",
"^,	c #363739",
"/,	c #273039",
"(,	c #233C4E",
"_,	c #2A5E7E",
":,	c #235A7A",
"<,	c #253849",
"[,	c #127BB1",
"},	c #273038",
"|,	c #223B4D",
"1,	c #225B7C",
"2,	c #234257",
"3,	c #17425E",
"4,	c #117CB4",
"5,	c #20445A",
"6,	c #272F37",
"7,	c #2B5F7F",
"8,	c #235D7E",
"9,	c #107DB7",
"0,	c #262F37",
"a,	c #223A4C",
"b,	c #245C7E",
"c,	c #244359",
"d,	c #107DB9",
"e,	c #20435A",
"f,	c #223C4D",
"g,	c #24445A",
"h,	c #17405C",
"i,	c #363738",
"j,	c #262F36",
"k,	c #111C23",
"l,	c #233C4D",
"m,	c #2B607F",
"n,	c #235C7F",
"o,	c #1A2731",
"p,	c #192730",
"q,	c #163F5B",
"r,	c #127AB7",
"s,	c #204258",
"t,	c #252D35",
"u,	c #111B23",
"v,	c #235B7E",
"w,	c #224157",
"x,	c #152028",
"y,	c #1B2832",
"z,	c #18232C",
"A,	c #153E59",
"B,	c #1379AF",
"C,	c #1E4156",
"D,	c #242D35",
"E,	c #121C24",
"F,	c #225C7E",
"G,	c #17222B",
"H,	c #17232C",
"I,	c #19252E",
"J,	c #142129",
"K,	c #143D57",
"L,	c #1279A9",
"M,	c #1D4056",
"N,	c #232C33",
"O,	c #223A4B",
"P,	c #2B5E7B",
"Q,	c #225B7D",
"R,	c #223F54",
"S,	c #162129",
"T,	c #19262F",
"U,	c #273946",
"V,	c #133A51",
"W,	c #167198",
"X,	c #1C3D51",
"Y,	c #232A32",
"Z,	c #21384A",
"`,	c #205978",
" '	c #213C4F",
".'	c #293B49",
"+'	c #142B3C",
"@'	c #184057",
"#'	c #1B2E3D",
"$'	c #222B32",
"%'	c #17384E",
"&'	c #243848",
"*'	c #253C4C",
"='	c #142430",
"-'	c #222B33",
";'	c #172835",
">'	c #1F3749",
",'	c #182F3E",
"''	c #263D4E",
")'	c #263D4D",
"!'	c #233846",
"~'	c #111F2A",
"{'	c #0F1A23",
"]'	c #232C34",
"^'	c #1B2A37",
"/'	c #131F29",
"('	c #15232D",
"_'	c #12202A",
":'	c #111C25",
"<'	c #373738",
"['	c #222B34",
"}'	c #14212A",
"|'	c #111D25",
"1'	c #222A33",
"2'	c #22313F",
"3'	c #202F3D",
"4'	c #373838",
"5'	c #212B33",
"6'	c #16232E",
"7'	c #233240",
"8'	c #212A32",
"9'	c #1F2E3C",
"0'	c #202931",
"a'	c #21303F",
"b'	c #23333F",
"c'	c #1F2831",
"d'	c #1E272E",
"e'	c #17222C",
"f'	c #202E3B",
"g'	c #111C24",
"h'	c #111B24",
"i'	c #0F171F",
"j'	c #0F1820",
"k'	c #0F1920",
"l'	c #0F181F",
"m'	c #0E171D",
"n'	c #0F1921",
"o'	c #111E28",
"p'	c #1D262D",
"q'	c #121F28",
"r'	c #111C26",
"s'	c #0E181F",
"t'	c #0D161E",
"u'	c #101A21",
"v'	c #131E28",
"w'	c #132029",
"x'	c #13222D",
"y'	c #132939",
"z'	c #162530",
"A'	c #1A2229",
"B'	c #142938",
"C'	c #132431",
"D'	c #14222C",
"E'	c #141F29",
"F'	c #24323E",
"G'	c #2B3E4D",
"H'	c #273746",
"I'	c #283A48",
"J'	c #263442",
"K'	c #283845",
"L'	c #283744",
"M'	c #273643",
"N'	c #263542",
"O'	c #24333F",
"P'	c #253542",
"Q'	c #263643",
"R'	c #263543",
"S'	c #253440",
"T'	c #253441",
"U'	c #24313E",
"V'	c #23323E",
"W'	c #24343F",
"X'	c #25343F",
"Y'	c #242E38",
"Z'	c #243440",
"`'	c #273543",
" )	c #253541",
".)	c #243441",
"+)	c #253442",
"@)	c #25333F",
"  .   + + + @ @ #   $ % # . .     @ .   . $ % & % % % * = - - ; > , ' ' ' ' ' ' ' ' ' ' ' ' ' ' ' ' ' ' ' ' ' ' ' ' ' ' ' ' ' ' ' ' ' ' ' ' ' ' ' ' ' ' ' ' ' ' ' ' ' ' ' ' ' ' ' ' ' ' ' ' ' ' ' ' ' ) ! % % - - - ~ - = { $ % % ] % $     ^   %         @         .   ",
"/ ( _ / : : _ _ _ < [ } } _ _ / _ | 1 2 ( 2 3 4 3 4 5 6 7 6 8 9 0 a ' ' ' ' ' ' ' ' ' ' ' ' ' ' ' ' ' ' ' ' ' ' ' ' ' ' ' ' ' ' ' ' ' ' ' ' ' ' ' ' ' ' ' ' ' ' ' ' ' ' ' ' ' ' ' ' ' ' ' ' ' ' ' ' ' b c d e 8 9 f 7 5 5 } ( 4 d 4 _ / / [ g _ d 2 | _ / ( h h _ | } _ ",
"i j j k k k j l j m n o p j j q l o p o r s t u v u w x y z A A B C ' ' ' ' ' ' ' ' ' ' ' ' ' ' ' ' ' ' ' ' ' ' ' ' ' ' ' ' ' ' ' ' ' ' ' ' ' ' ' ' ' ' ' ' ' ' ' ' ' ' ' ' ' ' ' ' ' ' ' ' ' ' ' ' ' D E F G H x F F I u J o t v t K K o o o L r o j j k M k K j o o K ",
"N O O P O O O O Q R S T Q T T T Q Q T O O O T T U Q V W X Y Z `  ...' ' ' ' ' ' ' ' ' ' ' ' ' ' ' ' ' ' ' ' ' ' ' ' ' ' ' ' ' ' ' ' ' ' ' ' ' ' ' ' ' ' ' ' ' ' ' ' ' ' ' ' ' ' ' ' ' ' ' ' ' ' ' ' ' +.@.#.$.%.&.*.=.=.=.U T U =.=.T Q Q Q Q =.-.T O T P S O T T U U T ",
";.>.>.,.'.).,.).!.).,.).~.!.{.).;.).,.].^.=.-.^./.).).(._.:.<.[.B }.' ' ' ' ' ' ' ' ' ' ' ' ' ' ' ' ' ' ' ' ' ' ' ' ' ' ' ' ' ' ' ' ' ' ' ' ' ' ' ' ' ' ' ' ' ' ' ' ' ' ' ' ' ' ' ' ' ' ' ' ' ' ' ' ' |.1.2.x 3.4.5.6.,.,.>.^.^.6.).~.7.8.9.{.~.9.7.;.).;.).;.0.9.~.;.;.",
"a.a.a.b.c.c.c.d.d.a.a.e.f.f.g.h.i.j.h.n t I A k.l.A m.n.o.G p.q.r.s.' ' ' ' ' ' ' ' ' ' ' ' ' ' ' ' ' ' ' ' ' ' ' ' ' ' ' ' ' ' ' ' ' ' ' ' ' ' ' ' ' ' ' ' ' ' ' ' ' ' ' ' ' ' ' ' ' ' ' ' ' ' ' ' ' t.u.v.n.w.x.y.z.A.B.C.x A j.l r r o p l D.l E.b.F.b.d.G.c.f.H.e.I.",
"J.u u G u m.u J.J.l l u x x x A K.y.C.A L.p.M.N.q.O.q.P.Q.R.S.T.U.V.' ' ' ' ' ' ' ' ' ' ' ' ' ' ' ' ' ' ' ' ' ' ' ' ' ' ' ' ' ' ' ' ' ' ' ' ' ' ' ' ' ' ' ' ' ' ' ' ' ' ' ' ' ' ' ' ' ' ' ' ' ' ' ' ' W.X.Y.Z.H `. +.+++@+N.#+v.$+%+$+l.&+*+A x A m.=+G G -+z.z.;+-+m.J.",
">+,+'+)+!+~+!+{+'+{+'+]+^+/+(+_+:+<+[+}+t M.|+1+Y.{+,+2+3+2.|+4+5+6+' ' ' ' ' ' ' ' ' ' ' ' ' ' ' ' ' ' ' ' ' ' ' ' ' ' ' ' ' ' ' ' ' ' ' ' ' ' ' ' ' ' ' ' ' ' ' ' ' ' ' ' ' ' ' ' ' ' ' ' ' ' ' ' ' 7+N.1+8+9+!+'+>+0+a+b+Y.A z c+d+:+e+/+f+g+h+,+'+)+i+)+h+>+,+j+k+ +",
"!+!+{+l+!+m+P.{+n+{+{+0+o+o+o+_+p+q+r+s+t+q.T.u+q.T.v+w+x+L.y+z+A+B+' ' ' ' ' ' ' ' ' ' ' ' ' ' ' ' ' ' ' ' ' ' ' ' ' ' ' ' ' ' ' ' ' ' ' ' ' ' ' ' ' ' ' ' ' ' ' ' ' ' ' ' ' ' ' ' ' ' ' ' ' ' ' ' ' C+D+z+E+F+w+2+G+P.O.P.{+H+u.9+q.I+_+i+G+J+K+,+L+h+o+i+2+J+!+{+ +M+",
"N+G+)+h+o+h+G+O+0+!+P+h+:+(+Q+Q+R+S+T+U+V+S.1+1+|+y+W+X+Y+Z+4+`+ @.@' ' ' ' ' ' ' ' ' ' ' ' ' ' ' ' ' ' ' ' ' ' ' ' ' ' ' ' ' ' ' ' ' ' ' ' ' ' ' ' ' ' ' ' ' ' ' ' ' ' ' ' ' ' ' ' ' ' ' ' ' ' ' ' ' +@u+P.`+@@#@X+w+$@q.%@z+&@*@=@S.-@#@;@>@i+i+h+J+o+,@o+_+o+'@J+P.`+",
"i+,@_+)@!@X+_+X+'@'@G+X+(+~@R+-@~@S+{@a.V+Z.n+z+]@^@0+-@E+Z+z+J+/@.@' ' ' ' ' ' ' ' ' ' ' ' ' ' ' ' ' ' ' ' ' ' ' ' ' ' ' ' ' ' ' ' ' ' ' ' ' ' ' ' ' ' ' ' ' ' ' ' ' ' ' ' ' ' ' ' ' ' ' ' ' ' ' ' ' (@b+_@z+:@X+<@)@]@|+2+b+1.;+[@Z.}@v+_+~@_+|@_+i+(+_+,@1@~@R+_+i+2@",
"h+3@4@5@4@!@~@R+_+_+_+_+|@4@4@6@7@8@9@0@a@b@z+`+z+z+c@X+Y+d@P.0+/@e@' ' ' ' ' ' ' ' ' ' ' ' ' ' ' ' ' ' ' ' ' ' ' ' ' ' ' ' ' ' ' ' ' ' ' ' ' ' ' ' ' ' ' ' ' ' ' ' ' ' ' ' ' ' ' ' ' ' ' ' ' ' ' ' ' f@z+0+z+g@X+-@h+P.P.)@4+h@9+i@y+~@o+R+<@~@1@1@j@4@_+_+k@k@5@4@~@|@",
"_+_+1@k@4@!@~@l@~@~@!@R+<@4@l@m@n@o@p@w.q@M.z+v+G+`+0+Q+E+#+r@0+s@) ' ' ' ' ' ' ' ' ' ' ' ' ' ' ' ' ' ' ' ' ' ' ' ' ' ' ' ' ' ' ' ' ' ' ' ' ' ' ' ' ' ' ' ' ' ' ' ' ' ' ' ' ' ' ' ' ' ' ' ' ' ' ' ' ' t@z+O+P.u@w+v+2+`+0+,@{+v@&@w@T.l@x@y@R+l@z@k@A@B@R+_+4@C@D@B@5@5@",
"p+1@1@4@~@G+_+~@k@6@!@~@6@l@m@l@E@F@G@H@I@J@b+v+#@v+'@X+8+J@K@O+e L@' ' ' ' ' ' ' ' ' ' ' ' ' ' ' ' ' ' ' ' ' ' ' ' ' ' ' ' ' ' ' ' ' ' ' ' ' ' ' ' ' ' ' ' ' ' ' ' ' ' ' ' ' ' ' ' ' ' ' ' ' ' ' ' ' M@P.O+z+N@O@q+E+q+#@X+P@Q.Q@[+|+6@4@Q+R@C@S@5@T@U@m@R+6@l@C@D@D@k@",
"4@e+4@4@;@O+q+#@4@~@-@4@l@!@x@m@V@W@X@H@Y@v@a+c@)@O+v+v+$@Z+q+v+e Z@' ' ' ' ' ' ' ' ' ' ' ' ' ' ' ' ' ' ' ' ' ' ' ' ' ' ' ' ' ' ' ' ' ' ' ' ' ' ' ' ' ' ' ' ' ' ' ' ' ' ' ' ' ' ' ' ' ' ' ' ' ' ' ' ' `@!+'@ #H E+E+8+v+-@o+++.#Q@[+T.k@S@R+R+m@5@T@5@D@p+-@-@_+1@l@l@m@",
"(+|@|@1@o+J+v+X+~@(+!@6@l@~@6@+#n@@#G@##$#%#a+%@G+Q+v+q+y+Z+2+c@1 L@' ' ' ' ' ' ' ' ' ' ' ' ' ' ' ' ' ' ' ' ' ' ' ' ' ' ' ' ' ' ' ' ' ' ' ' ' ' ' ' ' ' ' ' ' ' ' ' ' ' ' ' ' ' ' ' ' ' ' ' ' ' ' ' ' M@J+h+4+&#*#E+=#X+X+O+4+-#U+9+1+C@C@7@m@l@m@5@_+1@4@X+(+X+_+|@~@!@",
"=#_+/+(+_+G+v+o+(+o+-@!@~@;#S@7@m@y@>#=+,#J@$@%@X+R+_+'@'#)#`+0+d !#' ' ' ' ' ' ' ' ' ' ' ' ' ' ' ' ' ' ' ' ' ' ' ' ' ' ' ' ' ' ' ' ' ' ' ' ' ' ' ' ' ' ' ' ' ' ' ' ' ' ' ' ' ' ' ' ' ' ' ' ' ' ' ' ' ~#0+=#{#]#O@q+v+X+'@2@z+^#t+u@a+l@D@k@5@6@6@~@_+5@p+,@X+;@#@>@_+X+",
"/#i.i.n m f.f.g.m m i.r d@-@m@~@l@W@(#_#S.*@z+q+:#;@~@Q+ #/#J@n+d <#' ' ' ' ' ' ' ' ' ' ' ' ' ' ' ' ' ' ' ' ' ' ' ' ' ' ' ' ' ' ' ' ' ' ' ' ' ' ' ' ' ' ' ' ' ' ' ' ' ' ' ' ' ' ' ' ' ' ' ' ' ' ' ' ' [#%@4+l }#X+#@#@O+0+2+z+Y@q@|#M++#k@k@6@++;+l :.l l m /#/#1#i.i.0@",
"A 2#G 2#3#2#4#;+A R.z L.z i+1@6@6@5#6#7#8#Z.v+#@X+X+-@Q+$@9#m n+0#<#' ' ' ' ' ' ' ' ' ' ' ' ' ' ' ' ' ' ' ' ' ' ' ' ' ' ' ' ' ' ' ' ' ' ' ' ' ' ' ' ' ' ' ' ' ' ' ' ' ' ' ' ' ' ' ' ' ' ' ' ' ' ' ' ' [#P.Z+/#a#}@X+#@c@P@0+`+b#c#d#~@4@4@l@m@$+2.1.4#e#y.2#2#f#H 4#C.A.",
"g#Z+1.*+1.1.C.[.&+<.d@h#1 h+_+~@i#l@j#k#l#m#q+#@)@Q+)@v+n#o###n+@+<#' ' ' ' ' ' ' ' ' ' ' ' ' ' ' ' ' ' ' ' ' ' ' ' ' ' ' ' ' ' ' ' ' ' ' ' ' ' ' ' ' ' ' ' ' ' ' ' ' ' ' ' ' ' ' ' ' ' ' ' ' ' ' ' ' p#++S.q#r#Q+'@q+c@P.c@s#t#u#v#w#5@R+-@1@x#>+u.z A.1.&+y#z y l.Z+z#",
"A#Q@B#C#D#L E#F#j G#x Y.q@h+y@y@:#6@H#I#J#K#L#q+v+c@c@E+M#q###4+h#Z@' ' ' ' ' ' ' ' ' ' ' ' ' ' ' ' ' ' ' ' ' ' ' ' ' ' ' ' ' ' ' ' ' ' ' ' ' ' ' ' ' ' ' ' ' ' ' ' ' ' ' ' ' ' ' ' ' ' ' ' ' ' ' ' ' [#4+|+N#O#2@q+E+`+E+v+P#Q#R#S#6@X+'@i#1@v@T#y.G#U#%+A#L V#j Q@v@x#",
"W#A X#x C#Y#Z#`# $s .$4+*@J+X+y@w+}@+$@$#$$$c@J+`+z+0+z+%$o#l ++ +Z@' ' ' ' ' ' ' ' ' ' ' ' ' ' ' ' ' ' ' ' ' ' ' ' ' ' ' ' ' ' ' ' ' ' ' ' ' ' ' ' ' ' ' ' ' ' ' ' ' ' ' ' ' ' ' ' ' ' ' ' ' ' ' ' ' ~#z+O.N#&$'@O@c@`+L#'@*$=$-$;$>$w+w+Q+m@Z+{+n.,$%+x V#B.L G#2.y#G#",
"'$)$A.y#&+!$~$%+{$~$z.]$q@L+Q+i#w+Q++$^$/$($E+0+%@%@`+`+_$o#j.k+:$<$' ' ' ' ' ' ' ' ' ' ' ' ' ' ' ' ' ' ' ' ' ' ' ' ' ' ' ' ' ' ' ' ' ' ' ' ' ' ' ' ' ' ' ' ' ' ' ' ' ' ' ' ' ' ' ' ' ' ' ' ' ' ' ' ' [$z+O.4#r v+'@v+O@v+v+W@}$|$1$o@2$w+}@3$v@P.C.4$2#$+5+A#5$k.v@1.p.",
"Z+6$G#Z+7${+8$>+i+'+Y.n+S.L+Q+i#:#i#9$0$a$b$c@q+E+8+`+_@S.o#U# +h#c$' ' ' ' ' ' ' ' ' ' ' ' ' ' ' ' ' ' ' ' ' ' ' ' ' ' ' ' ' ' ' ' ' ' ' ' ' ' ' ' ' ' ' ' ' ' ' ' ' ' ' ' ' ' ' ' ' ' ' ' ' ' ' ' ' [$++Y.-+l W+'@v+=#'@#@*$d$e$f$o@:#:#Q+~@J@L+T.n+ #{+`..+T.7$g$N.S.",
"q@h$i$j$k$`+`+`+2+q+8+8+a@,+R+R+y@F@l$m$n$o$v+#@c@E+E+n+S.o#m M+.+c$' ' ' ' ' ' ' ' ' ' ' ' ' ' ' ' ' ' ' ' ' ' ' ' ' ' ' ' ' ' ' ' ' ' ' ' ' ' ' ' ' ' ' ' ' ' ' ' ' ' ' ' ' ' ' ' ' ' ' ' ' ' ' ' ' p$z+Y.G l W+w+w+q+v+X+W@q$r$s$o@Q+:#F@|@Q@n+0+t$E+!+=#_@z+4+v@Y.b+",
"]$S.q@,#4+`+0+_@%@L#8+n+u$J+X+-@v$i#w$^$x$o$)@o+'@=#n+n+S.&$/#O.y$c$' ' ' ' ' ' ' ' ' ' ' ' ' ' ' ' ' ' ' ' ' ' ' ' ' ' ' ' ' ' ' ' ' ' ' ' ' ' ' ' ' ' ' ' ' ' ' ' ' ' ' ' ' ' ' ' ' ' ' ' ' ' ' ' ' p${+Y.G l W+q+q+E+q+}@z$A$B$C$6@D$:##@>@v@E+c@q+E+=#=#O+n+4+J@T. #",
"n+b+|+q@z+0+O@2@q+E+E$E$F${+O+G+2@Q+G$H$I$J$;@_+G+v+c@t$]$J.h.O.O.K$' ' ' ' ' ' ' ' ' ' ' ' ' ' ' ' ' ' ' ' ' ' ' ' ' ' ' ' ' ' ' ' ' ' ' ' ' ' ' ' ' ' ' ' ' ' ' ' ' ' ' ' ' ' ' ' ' ' ' ' ' ' ' ' ' ! <+L$M$o W+c@q+q+X+y@N$O$P$Q$6@R@:#:#R+v@E+'@'@v+v+c@c@n+z+*@z+z+",
"c@2+4+u$n+`+t$O@R$L#$@]@^#{+c@r@)@Q+S$H$T$U$#@-@_+#@'@c@a+=+m O.@+c$' ' ' ' ' ' ' ' ' ' ' ' ' ' ' ' ' ' ' ' ' ' ' ' ' ' ' ' ' ' ' ' ' ' ' ' ' ' ' ' ' ' ' ' ' ' ' ' ' ' ' ' ' ' ' ' ' ' ' ' ' ' ' ' ' V$n+]$=+L W+v+v+#@:#:#*$W$X$Y$6@>$Z$:#|@h@E+'@w+'@W+c@`+P.z+#+n+{+",
"q+v+]@`$z+`+`+L#E+L#$@$@_#4+0+r@K@X+C@ %.%+%w+X+X+o+W+`+Y.J.g.T.O.c$' ' ' ' ' ' ' ' ' ' ' ' ' ' ' ' ' ' ' ' ' ' ' ' ' ' ' ' ' ' ' ' ' ' ' ' ' ' ' ' ' ' ' ' ' ' ' ' ' ' ' ' ' ' ' ' ' ' ' ' ' ' ' ' ' @%z+N.J.l Y+t$t$'@:#F@#%W$$%%%R@w+q+w+|@%#&%:#:#v+E+E+P.z+4+M.P.`+",
"G+o+ #*%]@`+E+L#8+8+E$$@^#O.%@0+0+#@k@=%-%+%'@o+,@G+=#E+Y.J./#T.T.<$' ' ' ' ' ' ' ' ' ' ' ' ' ' ' ' ' ' ' ' ' ' ' ' ' ' ' ' ' ' ' ' ' ' ' ' ' ' ' ' ' ' ' ' ' ' ' ' ' ' ' ' ' ' ' ' ' ' ' ' ' ' ' ' ' ;% #>%&$D.P.8+8+v+X+i#N$W$,%%%R@Z$w+#@|@v@c@y@:#'@E+Y+n+$@^@h$b+z+",
"'@#@n+*% #`+Y+Y+Y+'%E$E$v@b+`+8+8+#@k@)%!%~%v$,@o+2+q+E+D+J.m T.T.<$' ' ' ' ' ' ' ' ' ' ' ' ' ' ' ' ' ' ' ' ' ' ' ' ' ' ' ' ' ' ' ' ' ' ' ' ' ' ' ' ' ' ' ' ' ' ' ' ' ' ' ' ' ' ' ' ' ' ' ' ' ' ' ' ' . z+v.&$U#{%n+z+q+w+Q+]%A$^%1$R+q+'@:#~@d@=##@/%:#Z$Y+8+$@]@,#y+8+",
"2+v+n+b@E$ #E$8+`+8+$@$@^#z+`+]@n+G+m@(%_%:%#@i+G+=#E+{%]$J.m M+T.c$' ' ' ' ' ' ' ' ' ' ' ' ' ' ' ' ' ' ' ' ' ' ' ' ' ' ' ' ' ' ' ' ' ' ' ' ' ' ' ' ' ' ' ' ' ' ' ' ' ' ' ' ' ' ' ' ' ' ' ' ' ' ' ' ' ;%++N.&$i.n+n+$@c@'@X+P#<%[%;$i#O@'@X+1@v@=#X+;@'@q+8+$@ #]@Y@4+8+",
"v+v+n+b@a+$@{%<+`+8+'%y+h@4+P.n+W+)@w+}%|%1%Z$v+O+0+0+8+>%J.2%4+@+3%' ' ' ' ' ' ' ' ' ' ' ' ' ' ' ' ' ' ' ' ' ' ' ' ' ' ' ' ' ' ' ' ' ' ' ' ' ' ' ' ' ' ' ' ' ' ' ' ' ' ' ' ' ' ' ' ' ' ' ' ' ' ' ' ' ;%4+M.##l E+$@]@0+v+4%5%6%7%8%X+#@v+Q+1@Z+c@G+#@#@=#Y+'%4+^@J@k$$@",
"2+2+z+b@4+z+<+`+*#$@9%y+_#|+`+8+=#w+r+0%a%b%Y+=#O+0+<+$@S.J.g.T.@+3%' ' ' ' ' ' ' ' ' ' ' ' ' ' ' ' ' ' ' ' ' ' ' ' ' ' ' ' ' ' ' ' ' ' ' ' ' ' ' ' ' ' ' ' ' ' ' ' ' ' ' ' ' ' ' ' ' ' ' ' ' ' ' ' ' c%T.M.=+D.<+n+n+E+E+<+n#d%e%f% ##@W+#@(+s+=#v+v+'@q+{%{%$@ #Z+a+4+",
"W+W+$@g%{%P.`+q+E+$@]@y+|#|+`+n+E+Q+h%i%j%k%z+P.!+P.`+n+I@l f.T.L$3%' ' ' ' ' ' ' ' ' ' ' ' ' ' ' ' ' ' ' ' ' ' ' ' ' ' ' ' ' ' ' ' ' ' ' ' ' ' ' ' ' ' ' ' ' ' ' ' ' ' ' ' ' ' ' ' ' ' ' ' ' ' ' ' ' l%m%#+J.m <+<+`+!+P.$@n%o%p%q%w+'@E+w+_+v@=#v+`+q+Y+<+<+<+4+L.|+k$",
"=#q+4+b@E+E+Y+W+Y+$@^@y+_#1+{%$@`+r%R@s%t%u%0+,+`+n+n+n+d@l g.|+D+v%' ' ' ' ' ' ' ' ' ' ' ' ' ' ' ' ' ' ' ' ' ' ' ' ' ' ' ' ' ' ' ' ' ' ' ' ' ' ' ' ' ' ' ' ' ' ' ' ' ' ' ' ' ' ' ' ' ' ' ' ' ' ' ' ' w%T.u.&$n 2+q+=#=#E+x%y%z%A%B%;@v+E+v+(+t+E+q+ #'%t$`+$@{%4+Z+z+n+",
"q+E+C%g%8+q+q+O@E+n+$@E$.#|+n+n+P.v+m@D%E%F%O@v+0+++z+b+J@l f.O.q.v%' ' ' ' ' ' ' ' ' ' ' ' ' ' ' ' ' ' ' ' ' ' ' ' ' ' ' ' ' ' ' ' ' ' ' ' ' ' ' ' ' ' ' ' ' ' ' ' ' ' ' ' ' ' ' ' ' ' ' ' ' ' ' ' ' G%4+u.&$n ,+=#n+E+=#{%H%=$I%J%#@'@=#2+_+_#`+E+E$E$n+Y+$@$@ #v@++`+",
"L+E+Y.Y@ #<+<+t$Z$E+n+y+_#|+z+n+P.2+C@K%L%M%R$h+J+{+n+1+v@:.E.O.N%v%' ' ' ' ' ' ' ' ' ' ' ' ' ' ' ' ' ' ' ' ' ' ' ' ' ' ' ' ' ' ' ' ' ' ' ' ' ' ' ' ' ' ' ' ' ' ' ' ' ' ' ' ' ' ' ' ' ' ' ' ' ' ' ' ' O%|+u.l m !+n+ #P.L+E+P%Q%R%%%2$#@v+v+/%y#n+{%$@E$8+`+8+8+y+_#4+z+",
"=#P.S.-#_$4+ #$@n+$@]@a+|#T.n+$@8+W+R+S%T%K#E+q+`+`+z+4+v@U%F.L$D+v%' ' ' ' ' ' ' ' ' ' ' ' ' ' ' ' ' ' ' ' ' ' ' ' ' ' ' ' ' ' ' ' ' ' ' ' ' ' ' ' ' ' ' ' ' ' ' ' ' ' ' ' ' ' ' ' ' ' ' ' ' ' ' ' ' V%Y.#+l m P. #E$n+<+E+6#W%X%Y%2$2@0+2+Z%)#$@P.{%n+8+n+$@ #_$t+++T#",
"{% #x..#_$a+^@E$E$x%a+M#^#S.y+4+n+E+i#`% &.&n+`+z+ #z+ #*@:.F.|+N.+&' ' ' ' ' ' ' ' ' ' ' ' ' ' ' ' ' ' ' ' ' ' ' ' ' ' ' ' ' ' ' ' ' ' ' ' ' ' ' ' ' ' ' ' ' ' ' ' ' ' ' ' ' ' ' ' ' ' ' ' ' ' ' ' ' @&Y.#+l m P.4+y+z+`+`+#&W%$%Y%@#;@<+q+o+h@E$z+$@'%P.]@y+E$_$t+n+n+",
" #T.Y@%#_$_$S.M#$&^@n+x%^#$#%$ # #n+F@%&&&*& #n+z+z+$@n+#+l H.L$q@+&' ' ' ' ' ' ' ' ' ' ' ' ' ' ' ' ' ' ' ' ' ' ' ' ' ' ' ' ' ' ' ' ' ' ' ' ' ' ' ' ' ' ' ' ' ' ' ' ' ' ' ' ' ' ' ' ' ' ' ' ' ' ' ' ' V%T.p.l =&L+$@y+ #n+`+-&;&>&,&2$'@E+`+G+h@ #n+$@ #'&4+E$y+3+Q@b+n+",
"P. +Y@h@%$x.*%x.Z.4+{%M#:@I@y+$@ #n+_+I#)&!&E$$@n+n+n+n+Y@l E.D+p.+&' ' ' ' ' ' ' ' ' ' ' ' ' ' ' ' ' ' ' ' ' ' ' ' ' ' ' ' ' ' ' ' ' ' ' ' ' ' ' ' ' ' ' ' ' ' ' ' ' ' ' ' ' ' ' ' ' ' ' ' ' ' ' ' ' ~&T.p.&$/#E+n+a+y+ #n+{&]&^&~%w+=#t$2+r%V+m%`+z+_$ #y+T.y+%$y#++z+",
"n+++a@U+%$_$S.Z.Z.z+n+/&(&S.b+n+^@P.i+_&:&<&T.++4+ #$@$@u$:.E.D+v.+&' ' ' ' ' ' ' ' ' ' ' ' ' ' ' ' ' ' ' ' ' ' ' ' ' ' ' ' ' ' ' ' ' ' ' ' ' ' ' ' ' ' ' ' ' ' ' ' ' ' ' ' ' ' ' ' ' ' ' ' ' ' ' ' ' [&|+M.l =&<+$@a+1+z+'&x+}&|&1&v+`+`+2+2@1.T.P.z+%$y+4+C%Y.x.)#M+4+",
"m%y+Y@h@]$a+a+x.2& #y+U+$#++{+z+z+T#T#3&4&*@y+4+$@ #n+4+*@q f.L$1 +&' ' ' ' ' ' ' ' ' ' ' ' ' ' ' ' ' ' ' ' ' ' ' ' ' ' ' ' ' ' ' ' ' ' ' ' ' ' ' ' ' ' ' ' ' ' ' ' ' ' ' ' ' ' ' ' ' ' ' ' ' ' ' ' ' 5&T.I@:.=&E+<+$@b+n+P.Y.6&7&T.v+W+$@n+!+ +8&O. #Z./&y+y+y+y+Z+T.4+",
"y+y+a@h@y+y+m%-#v@a+h@)#O.`.{+++ # +$+f.&$9&m%z+n+8+{%z+M.q 0&M+1 +&' ' ' ' ' ' ' ' ' ' ' ' ' ' ' ' ' ' ' ' ' ' ' ' ' ' ' ' ' ' ' ' ' ' ' ' ' ' ' ' ' ' ' ' ' ' ' ' ' ' ' ' ' ' ' ' ' ' ' ' ' ' ' ' ' a&M+d@l m E+{%8+P.0+0+T.m.j.m.T#0+]@8+0+,+q.y#Y.Y@8&S.a+4+y+L.|+|+",
"T.y+*%h@M#4+S.f#$#)#x#>%n+P.!+T#_$8&a.i.x k+{%z+8+<+<+n+b&l =&T.N.c&' ' ' ' ' ' ' ' ' ' ' ' ' ' ' ' ' ' ' ' ' ' ' ' ' ' ' ' ' ' ' ' ' ' ' ' ' ' ' ' ' ' ' ' ' ' ' ' ' ' ' ' ' ' ' ' ' ' ' ' ' ' ' ' ' d&T.J@l 2%P.{%P.E+q+2+J+L.,$a.x n+n+{%P.L+!+I@.$S.*+s+|+Y.S.e&D+_$",
"Y.a+Y@U+_$>%y.d@F$Q@]$y+ #!+T#T.)#f&U%C#]$4+ #n+ #n+z+ #v@l g.S.v.g&' ' ' ' ' ' ' ' ' ' ' ' ' ' ' ' ' ' ' ' ' ' ' ' ' ' ' ' ' ' ' ' ' ' ' ' ' ' ' ' ' ' ' ' ' ' ' ' ' ' ' ' ' ' ' ' ' ' ' ' ' ' ' ' ' h&1+Z+j.2%n+$@E+c@E+`+2+!+[.,$i&!$4+++n+{+!+ #u.[.I@j&n.q@x.y#Y.|+",
"_$Y.a@k&Y@C.*%*@l&4+ #y+ #P.n+X#d.m x m&a+S.a+z+M#E$4+Y.v@l n&S.o&p&' ' ' ' ' ' ' ' ' ' ' ' ' ' ' ' ' ' ' ' ' ' ' ' ' ' ' ' ' ' ' ' ' ' ' ' ' ' ' ' ' ' ' ' ' ' ' ' ' ' ' ' ' ' ' ' ' ' ' ' ' ' ' ' ' q&O.t+U%2%k+E$8+8+`+E+n+++k+l.l a.y.O.!+T#<+n+|+s+2.I@x 8&b@Q@Y.]$",
"S.y+b&Q@2#v@-#r&Z.n+ #4+ #P.n%s&t&2#L$_$a+y+y+++T.m%_$#+l i.U#@+u.p&' ' ' ' ' ' ' ' ' ' ' ' ' ' ' ' ' ' ' ' ' ' ' ' ' ' ' ' ' ' ' ' ' ' ' ' ' ' ' ' ' ' ' ' ' ' ' ' ' ' ' ' ' ' ' ' ' ' ' ' ' ' ' ' ' u&O.x#j./#2.>%'%$@$@<+z+ #T.n+k.J.v&w&`+n+P.C%b+|+Q@l.x&,$Y@y#q@x.",
"%$_$#+8&$#v@A.a@]$ #a+{+_@y&z&A&B&O. +S._$$@$@n+n+++q@U#/#r C&D&u.p&' ' ' ' ' ' ' ' ' ' ' ' ' ' ' ' ' ' ' ' ' ' ' ' ' ' ' ' ' ' ' ' ' ' ' ' ' ' ' ' ' ' ' ' ' ' ' ' ' ' ' ' ' ' ' ' ' ' ' ' ' ' ' ' ' E&L${+2#h.#.8&C%8+8+t$`+n+]$k+!+F&G&H&I&c@!+|+ #++y+V+8&x&q@'$Y@x.",
"q@%$a@u.x&f#>%a+_$Y.a+n+J&K&L&M&N&++M+|+E$ #'%z+z+D+l F.##u.T.Y.u.p&' ' ' ' ' ' ' ' ' ' ' ' ' ' ' ' ' ' ' ' ' ' ' ' ' ' ' ' ' ' ' ' ' ' ' ' ' ' ' ' ' ' ' ' ' ' ' ' ' ' ' ' ' ' ' ' ' ' ' ' ' ' ' ' ' O&L$n+4+4#/#f&Z+n+]@8+=#<+ #M+m+W@P&Q&R&S&`+T.C%y+E$m%A.2.q.8&a@Z.",
">%a@1.l.y.Y@{#S.Z._$4+T&U&V&W&X&R${+n+4+a+C%4+ #L$L Y&l d@++++Y.u.p&' ' ' ' ' ' ' ' ' ' ' ' ' ' ' ' ' ' ' ' ' ' ' ' ' ' ' ' ' ' ' ' ' ' ' ' ' ' ' ' ' ' ' ' ' ' ' ' ' ' ' ' ' ' ' ' ' ' ' ' ' ' ' ' ' Z&a+++$@'&;+H.e.$#4+n+{%$@<+z+n+v+`& *.*+*@*1+T.a+S.m%]$N@5$A.v@x.",
"I@8&#* #M#Y.Z.S.S.$&$*%*,%&***S+P.z+'%$@4+E$y+_$##=*-*)#M+ # #_$u.p&' ' ' ' ' ' ' ' ' ' ' ' ' ' ' ' ' ' ' ' ' ' ' ' ' ' ' ' ' ' ' ' ' ' ' ' ' ' ' ' ' ' ' ' ' ' ' ' ' ' ' ' ' ' ' ' ' ' ' ' ' ' ' ' ' u&1+z+y+z+T.4#H.F.v@ #n+ #'%{%{%P.v+S#;*>*,*b@a+]$S.a+_$]$'%m&l.*@",
"Q@X#x&]$|+S.a@_$_$3+'*)*!*~*s#L+T#n+$@$@M#M#Y.G =*i.)#4+y+a+4+Y.u.p&' ' ' ' ' ' ' ' ' ' ' ' ' ' ' ' ' ' ' ' ' ' ' ' ' ' ' ' ' ' ' ' ' ' ' ' ' ' ' ' ' ' ' ' ' ' ' ' ' ' ' ' ' ' ' ' ' ' ' ' ' ' ' ' ' E&4+n+ #$@ #L$G F.f.N.T.E$x%<+E+<+P.O@{*]*^*/*(*y+Y.Y.S._$Y.-#.$r&",
"Y@$#>%S.S.Z.Z._$n%_*:*<*[*s# #z+z+$@$@4+|+|+2#a.0@2.m%|+C%4+E$Y.u.p&' ' ' ' ' ' ' ' ' ' ' ' ' ' ' ' ' ' ' ' ' ' ' ' ' ' ' ' ' ' ' ' ' ' ' ' ' ' ' ' ' ' ' ' ' ' ' ' ' ' ' ' ' ' ' ' ' ' ' ' ' ' ' ' ' }*z+P.n+$@4+++D+m.b.m |*|+|+ #c@E+n+]@E+1*2*3*4*5*4+T.Z.S.S.S.s+v@",
"v@6*%$Z.S._$Z.n%7*8*9*~*{&$@E$z+'% #n+4+T.*+f&j.l.4+]@|+m%$@ #a+d@p&' ' ' ' ' ' ' ' ' ' ' ' ' ' ' ' ' ' ' ' ' ' ' ' ' ' ' ' ' ' ' ' ' ' ' ' ' ' ' ' ' ' ' ' ' ' ' ' ' ' ' ' ' ' ' ' ' ' ' ' ' ' ' ' ' E&++T#{%8+ #4+k+I@&$e.U#0*|+_$ #{%$@E$$@E+a*b*c*d*e*y+]$%$I@a@q@)#",
".#*%%$>%Y.4+f*g*h*_%i*j* #_$E$]@$@ #n+D&.$d.k*l*++Y.y+4+E$ # #y+X#m*' ' ' ' ' ' ' ' ' ' ' ' ' ' ' ' ' ' ' ' ' ' ' ' ' ' ' ' ' ' ' ' ' ' ' ' ' ' ' ' ' ' ' ' ' ' ' ' ' ' ' ' ' ' ' ' ' ' ' ' ' ' ' ' ' n*z+P.n+E+z+y+y+'&p.l a.l ]$C%M#$@$@4+y+^@o*p*q*r*s*t*7$_$q@q@q@s+",
"Q@*%>%S._$u*v*w*x*y*z*^@|+]$E$]@y+ #$@2.A*m y.k+|+%$y+ #$@z+z+y+)#m*' ' ' ' ' ' ' ' ' ' ' ' ' ' ' ' ' ' ' ' ' ' ' ' ' ' ' ' ' ' ' ' ' ' ' ' ' ' ' ' ' ' ' ' ' ' ' ' ' ' ' ' ' ' ' ' ' ' ' ' ' ' ' ' ' B*T.'&n+`+$@ #M#Y.T#$#i.C*r ]$M#M#4+z+E$4+y+D*E*F*G*H*I*Z.*%q@q@_#",
"$+-#>%J*$&K*L*M*N*O*$@y+_$%$^@ #4+|+Z+f&=&A T.y+%$Z._$|+z+n+ #S.B.' ' ' ' ' ' ' ' ' ' ' ' ' ' ' ' ' ' ' ' ' ' ' ' ' ' ' ' ' ' ' ' ' ' ' ' ' ' ' ' ' ' ' ' ' ' ' ' ' ' ' ' ' ' ' ' ' ' ' ' ' ' ' ' ' ' P*S.n+{%z+]@4+y+%$4+T#Q*h.R*I ]$^@8+4+ # #_$ #o*E*S*T*U*V*Y@x.a@Q@",
"e#*@a@g%W*X*T%Y*Z*'%|+_$]$M#C%y+M#s+H.f.`* =m%_$*%x.a+C%++m%D&#+t m*' ' ' ' ' ' ' ' ' ' ' ' ' ' ' ' ' ' ' ' ' ' ' ' ' ' ' ' ' ' ' ' ' ' ' ' ' ' ' ' ' ' ' ' ' ' ' ' ' ' ' ' ' ' ' ' ' ' ' ' ' ' ' ' ' .=t+T.n+$@$@4+y+y+4+L$k+2.=&+=A a+{%z+E$$@4+a+a+-&@=9*}&#=-#]$M.8&",
"C.*@#+$=%=&=*===n#a+$&S.M#E$E$_$$#=&F.z.{+T._$a+x.%$ #m%m%]$0*-=D.;=' ' ' ' ' ' ' ' ' ' ' ' ' ' ' ' ' ' ' ' ' ' ' ' ' ' ' ' ' ' ' ' ' ' ' ' ' ' ' ' ' ' ' ' ' ' ' ' ' ' ' ' ' ' ' ' ' ' ' ' ' ' ' ' ' >=r |*|+ #'&E$_$a+y+]$|+n+A.g.i&B.z+'%y+ #4+y+S._$-&,='=)=|*N.q@8&",
"D#*@q@b@!=3&~=Y.S.>%/&%$y+]@E$Z.U+n r {=Y.S.]$_$%$Z.E$D&_$|+C.&$]=^=/=' ' ' ' ' ' ' ' ' ' ' ' ' ' ' ' ' ' ' ' ' ' ' ' ' ' ' ' ' ' ' ' ' ' ' ' ' ' ' ' ' ' ' ' ' ' ' ' ' ' ' ' ' ' ' ' ' ' ' ' ' ' ' ' +&(=z.]$T.++y+_$_$y+_$q@]$ +J.h.x Y.'#a+ #E$_$x.0*]$_=:=<=q@v.$#[=",
"l.a@x.*@}=|='$N.x.1=*%x._$_$M#S.Q@##j./@I@x.%$_$M#2&T.L$_$z+i@2=3=4=l 5=' ' ' ' ' ' ' ' ' ' ' ' ' ' ' ' ' ' ' ' ' ' ' ' ' ' ' ' ' ' ' ' ' ' ' ' ' ' ' ' ' ' ' ' ' ' ' ' ' ' ' ' ' ' ' ' ' ' ' ' ' ' ' c&m*6=n+$@E$C%_$M#]$]$*%a@n+i.U%r |+4+a+_$$&Z.*%I@q@Z+:.H.e&I@a@U+",
"l.a@O.N.7=j.'$q.S.Z.x.Z._$_$y+a+8&##m d@0*S.q@/&_$8=]$|+]$$@9=0=a=b=c=d=' ' ' ' ' ' ' ' ' ' ' ' ' ' ' ' ' ' ' ' ' ' ' ' ' ' ' ' ' ' ' ' ' ' ' ' ' ' ' ' ' ' ' ' ' ' ' ' ' ' ' ' ' ' ' ' ' ' ' ' ' ' ' +&' e=w+'&m%|+%$_$%$%$x.Y@T.1#j.,$O.|+|+Z._$]$x.I@N.L.j.c.'$I@q@_#",
"A 0*4+0*/#f=2.y+y+_$S.Z.$&%$_$4+[.J.h.9&g=|*x.*%%$]$Y.0*%$x%h=i=j=k=l=m=' ' ' ' ' ' ' ' ' ' ' ' ' ' ' ' ' ' ' ' ' ' ' ' ' ' ' ' ' ' ' ' ' ' ' ' ' ' ' ' ' ' ' ' ' ' ' ' ' ' ' ' ' ' ' ' ' ' ' ' ' ' ' +&' n=o=E$Z.Y.]$]$]$*%b@a@Y.1#&$s @+]$]$S.]$_$x.*%p=%#U%c.$+#+7$Q@",
"C.S.q.u.H.-*q=r=s=t=/&M#y+%$x.|+l.&$h.Z+q@%$%$*%x.x.q@C.%#x+'*u=v=w=x=m=' ' ' ' ' ' ' ' ' ' ' ' ' ' ' ' ' ' ' ' ' ' ' ' ' ' ' ' ' ' ' ' ' ' ' ' ' ' ' ' ' ' ' ' ' ' ' ' ' ' ' ' ' ' ' ' ' ' ' ' ' ' ' g&' y=z=%$m ]$%$Z./&Y@Q.b@]$/#f=s 0*_$_$y+|+_$/&A=B=C=l H.W#I@q@&@",
"z.#+*%u./#o#D=E=F=G=/&Z.a+%$1=Y.1.f=h.Z+a@Z.x.*%S.]$I@N#U+Y+'*H=I=J=K=m=' ' ' ' ' ' ' ' ' ' ' ' ' ' ' ' ' ' ' ' ' ' ' ' ' ' ' ' ' ' ' ' ' ' ' ' ' ' ' ' ' ' ' ' ' ' ' ' ' ' ' ' ' ' ' ' ' ' ' ' ' ' ' g&' y=y&_$9#y+]$*%g%b@*@a@]$f.l l |*>%y+y+_$%$$*L=M=N==+1#1.#+#+r&",
"G J@#+p./#O=P=Q=R=S=x.x.a+]$x.L$l.J.m x#a@S.S.]$_$a+0*C.)#T=U=V=W=X=Y=m=' ' ' ' ' ' ' ' ' ' ' ' ' ' ' ' ' ' ' ' ' ' ' ' ' ' ' ' ' ' ' ' ' ' ' ' ' ' ' ' ' ' ' ' ' ' ' ' ' ' ' ' ' ' ' ' ' ' ' ' ' ' ' c&' y=Z=|+0@m%Y.x.*%g%*%x.L$H.l s S.L$_$y+|+S.`= -.-+-=+g.1.#+#+l.",
";+#+>%u.h.G P=@-#-p=a@2&y+a+%$T.2.m.h.x#a@S.S.Y.Y.|+q.A.h@E${@$-%-&-x=m=' ' ' ' ' ' ' ' ' ' ' ' ' ' ' ' ' ' ' ' ' ' ' ' ' ' ' ' ' ' ' ' ' ' ' ' ' ' ' ' ' ' ' ' ' ' ' ' ' ' ' ' ' ' ' ' ' ' ' ' ' ' ' c&' *-=-`=f=m%]$]$%$3+/&x.|+f.l m.O.|+a+Y.4+S.%$--;-+-=+/#2.M.N.l.",
"x p.J*J@f.=+>-,-'-3+*%S.y+S._$|+2.&$f.x#a@S.]$L$|+]$q.k+_$'%)-!-~-{-]-m=' ' ' ' ' ' ' ' ' ' ' ' ' ' ' ' ' ' ' ' ' ' ' ' ' ' ' ' ' ' ' ' ' ' ' ' ' ' ' ' ' ' ' ' ' ' ' ' ' ' ' ' ' ' ' ' ' ' ' ' ' ' ' c&' *-e*8=S.C%q@]$_$x.*%*%L$f.l ,$O.|+S.a+|+_$/&^-/-(-J.m y#S.N.l.",
"y.#+J*B#H.J.[._-$&x.x.x.a+Y.^@4+x#r f.4$a@Z.]$]$|+]$]$m%C%Y+:-<-[-}-|-1-' ' ' ' ' ' ' ' ' ' ' ' ' ' ' ' ' ' ' ' ' ' ' ' ' ' ' ' ' ' ' ' ' ' ' ' ' ' ' ' ' ' ' ' ' ' ' ' ' ' ' ' ' ' ' ' ' ' ' ' ' ' ' c&' 2-3-M#_$_$N.S.Y.>%a@a@T./#l t O._$_$|+M#%$x.x.4-v@r 1#x#N.M.&@",
"$+#+x.d@5-&$l.q@>%x.x.Y@]$Y.T.|+x#&$m e&q@Z.]$Y.T.|+Y._$Y.T.i@#=6-7-{@5=' ' ' ' ' ' ' ' ' ' ' ' ' ' ' ' ' ' ' ' ' ' ' ' ' ' ' ' ' ' ' ' ' ' ' ' ' ' ' ' ' ' ' ' ' ' ' ' ' ' ' ' ' ' ' ' ' ' ' ' ' ' ' c&' 8-a@_$/&_$D+S.|+S.M.q@.+m p t O.4+|+++a+%$Q.a@q.Z+l 2%'$N.#+[.",
"$+I@q@Z+c.J.2.v.S.b@b@*%%$C%Y.S.)#&$h.L.#+S.>%]$|+S.Y.]$T._$*%n.9-0-m=' ' ' ' ' ' ' ' ' ' ' ' ' ' ' ' ' ' ' ' ' ' ' ' ' ' ' ' ' ' ' ' ' ' ' ' ' ' ' ' ' ' ' ' ' ' ' ' ' ' ' ' ' ' ' ' ' ' ' ' ' ' ' ' +&a-X#L$|+]$|+S.S.T.Y.|*S.0*m r b-O.4+O.4+|+S.Y@q@q.X#l H.'$|*N.2.",
"y M.M.X#9#c-|#Y.S.q@Y@x.%$Z.S.S.#+=+U%,$*@S.]$%$Z.q@]$O.Y.Z.|*0*r&7+' ' ' ' ' ' ' ' ' ' ' ' ' ' ' ' ' ' ' ' ' ' ' ' ' ' ' ' ' ' ' ' ' ' ' ' ' ' ' ' ' ' ' ' ' ' ' ' ' ' ' ' ' ' ' ' ' ' ' ' ' ' ' ' ' B+9&d->%]$T.Y.a@q@|+]$q@|*y /#J.l.O.T.Y.y+S.S.q@q.@+u$r#9#e&q@I@k.",
"z p.I@q.]#e-f-g-/&Y@Y@Z.a@*%*%Z.T#h-G I.r #+S.>%>%x.S.D+|+]$Y.S.n..@' ' ' ' ' ' ' ' ' ' ' ' ' ' ' ' ' ' ' ' ' ' ' ' ' ' ' ' ' ' ' ' ' ' ' ' ' ' ' ' ' ' ' ' ' ' ' ' ' ' ' ' ' ' ' ' ' ' ' ' ' ' ' ' ' i-e 0*J*T.|+Y.q@q@]$Y.M.A.f&:.A.{+O.|+%$]$>%N.N.a+z=j-k-l-N.p.*@$+",
"y *@s@s@m-n-o-p-q-/&>%x.a@x.x.x.]$P.n.l #.w q@]$>%S.]$|+|+|+]$#+$+r-' ' ' ' ' ' ' ' ' ' ' ' ' ' ' ' ' ' ' ' ' ' ' ' ' ' ' ' ' ' ' ' ' ' ' ' ' ' ' ' ' ' ' ' ' ' ' ' ' ' ' ' ' ' ' ' ' ' ' ' ' ' ' ' ' s-$#>%Y.|+_$Y.q@|*0*D+8&f&7=f# +L$]$a+S.>%x.7$S.Z=t-u-v-w-q.X#d@A.",
"&@p.p.d@1+x-y-z-A-B-3+*%/&/&Z.*%*%S.n+r&U##.C.q@S.]$D+T.Y.]$Y.q@A.C-' ' ' ' ' ' ' ' ' ' ' ' ' ' ' ' ' ' ' ' ' ' ' ' ' ' ' ' ' ' ' ' ' ' ' ' ' ' ' ' ' ' ' ' ' ' ' ' ' ' ' ' ' ' ' ' ' ' ' ' ' ' ' ' ' D-#+L$|+C%_$a+N.S.q.)#e.H.##@+O.Y.S.Y.Y.Y.S.Z.E-F-G-H-.&$@M.L.J@r&",
"[.p.p.*@p.$@I-J-K-L-M-x.x.%$/&%$x.q@>%m%N-O-=*$+>%0*D+O.]$]$S.q@2.P-' ' ' ' ' ' ' ' ' ' ' ' ' ' ' ' ' ' ' ' ' ' ' ' ' ' ' ' ' ' ' ' ' ' ' ' ' ' ' ' ' ' ' ' ' ' ' ' ' ' ' ' ' ' ' ' ' ' ' ' ' ' ' ' ' s-M.S.S.|+|+|+0*S.L.E.f.r v.>%>%_$S.Y.S.q.>%Q-R-S-T-U-s#0*p.*@v@r&",
"L.d@M.M.u.#+V-W-X-Y-Z-`-'#y+_$_$%$S.q@|* +2#f.#.$+u.S.Y.S.Y.]$$#[. ;' ' ' ' ' ' ' ' ' ' ' ' ' ' ' ' ' ' ' ' ' ' ' ' ' ' ' ' ' ' ' ' ' ' ' ' ' ' ' ' ' ' ' ' ' ' ' ' ' ' ' ' ' ' ' ' ' ' ' ' ' ' ' ' ' .;v.S.S.S.q.q.0*)#F.e.&$/@#+*%]$|+Y.S.a@Y.x%p%+;@;#;$;Z.Y@I@Y@t+l.",
"$#8&d@M.#+*@a@R$%;&;*;=;-;M#_$_$_$S.S.I@S.L$M$H.@.y #+N.q.]$S.v@[.;;' ' ' ' ' ' ' ' ' ' ' ' ' ' ' ' ' ' ' ' ' ' ' ' ' ' ' ' ' ' ' ' ' ' ' ' ' ' ' ' ' ' ' ' ' ' ' ' ' ' ' ' ' ' ' ' ' ' ' ' ' ' ' ' ' .;I@0*N.S.]$q@v@=&e.L u.0*J@Y@S.O.]$]$>%]$>;,;';);!;S.,#b@q@-#[=$#",
"v@X#2.v@a@q@q@>%~;{;];^;/;$&a+S.x.>%x.q@M.v.(;##f&@.l.I@|*q@q@v@2.;;' ' ' ' ' ' ' ' ' ' ' ' ' ' ' ' ' ' ' ' ' ' ' ' ' ' ' ' ' ' ' ' ' ' ' ' ' ' ' ' ' ' ' ' ' ' ' ' ' ' ' ' ' ' ' ' ' ' ' ' ' ' ' ' ' .;o&>%S.Y.]$v@m b.l X#N.>%*@M.S._$x._$_$_;:;<;[;};_$a@Z+*@Y@Q@n.v@",
"M.s+x#2.*@q@>%q@S.|;1;2;3;4;n%S.q@>%>%S.q@M.0*0*5;e.=*[.M.q@|*J@Q@;;' ' ' ' ' ' ' ' ' ' ' ' ' ' ' ' ' ' ' ' ' ' ' ' ' ' ' ' ' ' ' ' ' ' ' ' ' ' ' ' ' ' ' ' ' ' ' ' ' ' ' ' ' ' ' ' ' ' ' ' ' ' ' ' ' .;I@q@S.S.#+i.I.j.y#N.v.a@#+q@>%]$|+^@6;7;8;9;0;y+*@*@*@v@n.x#8&-#",
"v@q@9&.$2.$#|*x.Y@|*t$a;b;c;d;3+|*#+|*S.q@|*N.v.v.G f&e;x#I@|*d@y#f;' ' ' ' ' ' ' ' ' ' ' ' ' ' ' ' ' ' ' ' ' ' ' ' ' ' ' ' ' ' ' ' ' ' ' ' ' ' ' ' ' ' ' ' ' ' ' ' ' ' ' ' ' ' ' ' ' ' ' ' ' ' ' ' ' g;p.q@q@#+l Y&-*x#q.0*q@q@q@M.S.|+M#h;i;j;k;2$_$*@v@v@v@8&8&K.d@h-",
"t+#+0*L.`*$+s+Y@*@J@M.l;m;n;o;p;M#q@0*0*S.S.N.o&d+/@L q;e.y#q@v@8&;;' ' ' ' ' ' ' ' ' ' ' ' ' ' ' ' ' ' ' ' ' ' ' ' ' ' ' ' ' ' ' ' ' ' ' ' ' ' ' ' ' ' ' ' ' ' ' ' ' ' ' ' ' ' ' ' ' ' ' ' ' ' ' ' ' r;u.#+#+##a.j.2.D+q@|*M.N.q@0*]$C%s;t;u;v;w;]$s+v@*@v@8&-+d@s+d@n.",
")#X#y#r&4$m.$+%#v@u$J@$*,&h*x;y;M-x.0*v.q@q@I@#+I@q.Z+l #.F.L.Z+[.;;' ' ' ' ' ' ' ' ' ' ' ' ' ' ' ' ' ' ' ' ' ' ' ' ' ' ' ' ' ' ' ' ' ' ' ' ' ' ' ' ' ' ' ' ' ' ' ' ' ' ' ' ' ' ' ' ' ' ' ' ' ' ' ' ' z;X#u.m.C*i.2.O.I@*@#+q@S.]$S._$Q-=%A;B;C;E$v@-#v@Z+[.##Q@_#y y#U+",
"L.Z+1.e#l.l&##1.J@M.u.$#E$D;E;F;G;_#p.N.q@N.q@$#u.u.q.L.j.+=g.L.[.;;' ' ' ' ' ' ' ' ' ' ' ' ' ' ' ' ' ' ' ' ' ' ' ' ' ' ' ' ' ' ' ' ' ' ' ' ' ' ' ' ' ' ' ' ' ' ' ' ' ' ' ' ' ' ' ' ' ' ' ' ' ' ' ' ' H;p.y.Z 7=D# +#+J@*@I@I@N.>%q@p.I;J;B;K;{%#+v@v@J@2.J.L;2.[=2#Q@_#",
"v@J@[.z M;2.Q@r B.J@p.p.a@x%N;O;P;/#y#M.a@I@v.I@M.v@d@S.l.2%#.n.8&;;' ' ' ' ' ' ' ' ' ' ' ' ' ' ' ' ' ' ' ' ' ' ' ' ' ' ' ' ' ' ' ' ' ' ' ' ' ' ' ' ' ' ' ' ' ' ' ' ' ' ' ' ' ' ' ' ' ' ' ' ' ' ' ' ' H;u.x c.l  +p.J@$#N.S.>%I@I@#+m.Q;R;S;Y+I@#+*@Z+L.m.2.n.m.l&x Q@n.",
"Z+X#Q@T;C&*+Q@8&r l.*@#+*@I@Y.0*G c.2%L.d@I@I@I@u.X#X#d@C.f.a.8&l.;;' ' ' ' ' ' ' ' ' ' ' ' ' ' ' ' ' ' ' ' ' ' ' ' ' ' ' ' ' ' ' ' ' ' ' ' ' ' ' ' ' ' ' ' ' ' ' ' ' ' ' ' ' ' ' ' ' ' ' ' ' ' ' ' ' U;J@-+f.F.d@#+$#Y@>%]$q@C&$#;+H.J.Y@z+]$q@#+Z+[.G r&L.f#$#Q@2#)#_#",
"d@u.)#u@v@p.$+)#y###1.Z+J@v@M.h#u.##F.U#L.#+I@M.*@J@v@X#x H.a.[.2.;;' ' ' ' ' ' ' ' ' ' ' ' ' ' ' ' ' ' ' ' ' ' ' ' ' ' ' ' ' ' ' ' ' ' ' ' ' ' ' ' ' ' ' ' ' ' ' ' ' ' ' ' ' ' ' ' ' ' ' ' ' ' ' ' ' V;d@G c.#.Z+v@v@*@q@S.M.p.x H.l .$4+N.>%q@J@[.m.l&n.A s+Z+Q@2#y#_#",
"v@I@)#y _#$#D+`*Q@9+l 1.Z+d@J@M.L$d@l a.j J@q@|**@v@$#d@;+H.#.g$G#W;' ' ' ' ' ' ' ' ' ' ' ' ' ' ' ' ' ' ' ' ' ' ' ' ' ' ' ' ' ' ' ' ' ' ' ' ' ' ' ' ' ' ' ' ' ' ' ' ' ' ' ' ' ' ' ' ' ' ' ' ' ' ' ' ' X;6$m.c.#.Z+*@Z+h@#+Y;I@A.f&-*2.{+S.a@Q.u$Z+G $+Z+G X#Z+n.8&;+Q@U+",
"$#u.2.e#U+v@a@I@v@v@A.m.)#u.n.Z+v..+s+0@a.*+$#p.*@d@$##+y Z;Z 2.l.W;' ' ' ' ' ' ' ' ' ' ' ' ' ' ' ' ' ' ' ' ' ' ' ' ' ' ' ' ' ' ' ' ' ' ' ' ' ' ' ' ' ' ' ' ' ' ' ' ' ' ' ' ' ' ' ' ' ' ' ' ' ' ' ' ' V;J@##c.#.v@v@_#_#v@M.Z+E.m e#T.q.I@*@d@v@$+C.v@u.)#X#)#U+[=w Q@U+",
"J@d@2.`;l&U+v@v@_#v@U+N-G d@*@v@#+v.O.-* >A u.$#F$Z+J@J@.>c.` [.r&+>' ' ' ' ' ' ' ' ' ' ' ' ' ' ' ' ' ' ' ' ' ' ' ' ' ' ' ' ' ' ' ' ' ' ' ' ' ' ' ' ' ' ' ' ' ' ' ' ' ' ' ' ' ' ' ' ' ' ' ' ' ' ' ' ' V;Z+l d.Z s+h@h@L.L.#+L.@>w.>%Y.S.Y@*@#+$+C.U+v@*@U+Z+h@Q@[=;+Q@Q@",
"J@s+1.;+l&Q@v@v@t+v@n.L;c-y#X#J@X#M.7$#>$>%>d@d@Z+L.J@v@2#c.@.2.l.+>' ' ' ' ' ' ' ' ' ' ' ' ' ' ' ' ' ' ' ' ' ' ' ' ' ' ' ' ' ' ' ' ' ' ' ' ' ' ' ' ' ' ' ' ' ' ' ' ' ' ' ' ' ' ' ' ' ' ' ' ' ' ' ' ' V;Z+l b.` L.s+h@v@*@I@Q.&>*>=>q@J*a@#+*@r &@_#v@*@t+t+_#Q@Q@;+[.t+",
"Z+v@&@4#[.U+Z+v@_#_#V+Q@`;N-t+v@s+M.y+->;>>>B#d@d@v@*@v@H H.` [.1.W;' ' ' ' ' ' ' ' ' ' ' ' ' ' ' ' ' ' ' ' ' ' ' ' ' ' ' ' ' ' ' ' ' ' ' ' ' ' ' ' ' ' ' ' ' ' ' ' ' ' ' ' ' ' ' ' ' ' ' ' ' ' ' ' ' ,>'>l I.)>)#v@h@v@Y@q@!>~>{>]>S.^>-#*@v@=+l&U+*@$#)#/>U+V+8&2#Q@t+",
"v@v@l.2#Q@n.j$v@h@U+(>k&f#z t+n.)#d@a+_>:><>v@u.p.u.d@d@A H.)>2.k.+>' ' ' ' ' ' ' ' ' ' ' ' ' ' ' ' ' ' ' ' ' ' ' ' ' ' ' ' ' ' ' ' ' ' ' ' ' ' ' ' ' ' ' ' ' ' ' ' ' ' ' ' ' ' ' ' ' ' ' ' ' ' ' ' ' ,>Z+r b.` )#v@Z+.#v@#+5*[>}>|>Z.Y@F$h@h@N#8&t+*@$#U+[=Q@Q@[.2#2.n.",
"_#L.A.`;|#_#_#v@h@U+U+Q@2#1.s+)#Q@*@1+1>2>3>h@B#p.u.M.u.2#H.Z 2.*++>' ' ' ' ' ' ' ' ' ' ' ' ' ' ' ' ' ' ' ' ' ' ' ' ' ' ' ' ' ' ' ' ' ' ' ' ' ' ' ' ' ' ' ' ' ' ' ' ' ' ' ' ' ' ' ' ' ' ' ' ' ' ' ' ' 4>L.l Z;` )#v@n.h@Z+J@5*5>6>|>x.v@h@Z+v@G )#v@Y@*@t+Q@Q@Q@[.C.2._#",
")#Z+1.2#[=t+_#h@h@_#U+Q@;+$+)#t+_#d@a+7>8>9>%#X#p.0>#+p.G F.Z G#&++>' ' ' ' ' ' ' ' ' ' ' ' ' ' ' ' ' ' ' ' ' ' ' ' ' ' ' ' ' ' ' ' ' ' ' ' ' ' ' ' ' ' ' ' ' ' ' ' ' ' ' ' ' ' ' ' ' ' ' ' ' ' ' ' ' a>L.l c.` )#n.t+)#)#v@5*b>c>d>*%v@h@_#s+&$_#Z+v@J@)#Q@[.)#y#2#Q@_#",
"_#v@&@R.&@Q@^#v@v@F$U+Q@4#y Q@n.s+)#7$e>f>g>%#X#u.#+Y@#+-+c.@.&+$++>' ' ' ' ' ' ' ' ' ' ' ' ' ' ' ' ' ' ' ' ' ' ' ' ' ' ' ' ' ' ' ' ' ' ' ' ' ' ' ' ' ' ' ' ' ' ' ' ' ' ' ' ' ' ' ' ' ' ' ' ' ' ' ' ' h>v@l i>)>y#t+Q@)#t+^#j>k>l>d>1=v@h@_#Z+r L.n.h@Z+Q@)#_#)#[.x 2._#",
")#Z+l.z [.Q@h@-#v@h@t+[=;+W#m>_#n._#Z.n>o>3>^#Z+v@M.Y@v@;+c.p>k.y.+>' ' ' ' ' ' ' ' ' ' ' ' ' ' ' ' ' ' ' ' ' ' ' ' ' ' ' ' ' ' ' ' ' ' ' ' ' ' ' ' ' ' ' ' ' ' ' ' ' ' ' ' ' ' ' ' ' ' ' ' ' ' ' ' ' q>Z+l Y&` Q@t+n._#t+^#r>s>t>d>u>v@U+|#Z+r _#Z+)#Q@8&m>)#Q@l&x [.Q@",
"[.Q@r&C.l&)#Z+s+%#U+Q@8&4#&+L._#U+Z+q@v>w>x>U+s+d@#+*@Z+;+G.p>1.$++>' ' ' ' ' ' ' ' ' ' ' ' ' ' ' ' ' ' ' ' ' ' ' ' ' ' ' ' ' ' ' ' ' ' ' ' ' ' ' ' ' ' ' ' ' ' ' ' ' ' ' ' ' ' ' ' ' ' ' ' ' ' ' ' ' q>Z+r d.y>y#_#h@v@v@^#z>A>c>B>*@_#C>h@J@p _#B#_#Q@2.[.y#l&1.-+l.y#",
"Q@l.y C.Q@n.)#h@_#Q@Q@[.2#k.Z+)#Q@J@q@D>E>F>C>n.X#$#v@Z+e#G.p>G#$++>' ' ' ' ' ' ' ' ' ' ' ' ' ' ' ' ' ' ' ' ' ' ' ' ' ' ' ' ' ' ' ' ' ' ' ' ' ' ' ' ' ' ' ' ' ' ' ' ' ' ' ' ' ' ' ' ' ' ' ' ' ' ' ' ' q>'>##d.G>y#F$Z+v@Z+|#C=H>I>J>v@Z+U+Z+Z+l y#B#L.[.[.Q@2.l&1.G 8&8&",
"Q@l.N-;+Q@Z+)#_#)#t+Q@Q@-+1.B#L.Z+*@K>L>M>N>8&)#Z+X#J@Z+e#c.p>G#W#+>' ' ' ' ' ' ' ' ' ' ' ' ' ' ' ' ' ' ' ' ' ' ' ' ' ' ' ' ' ' ' ' ' ' ' ' ' ' ' ' ' ' ' ' ' ' ' ' ' ' ' ' ' ' ' ' ' ' ' ' ' ' ' ' ' O>L.##a.P>)#v@n.j$_#)#Q>R>S>T>U+Z+Q@t+_#l 2.Z+L.2.[.Q@[.l&1.w l.Q@",
"y#Q@y -+l.%#n.Z+U+t+U+l&N#W#L.B#Z+Z+[@U>V>W>[.)#y#_#h@s+z 5-G>l.%++>' ' ' ' ' ' ' ' ' ' ' ' ' ' ' ' ' ' ' ' ' ' ' ' ' ' ' ' ' ' ' ' ' ' ' ' ' ' ' ' ' ' ' ' ' ' ' ' ' ' ' ' ' ' ' ' ' ' ' ' ' ' ' ' ' X>L.###.G>Z+v@_#Z+t+Q@Y>Z>`> ,[.L.Q@[.)#l 2.Z+)#2.[.t+_#Q@A.w &@&@",
")#)#$+G r&t+U+n.Q@Q@[.&@O=!$y#Z+v@Y@-&.,+,@,#,)#y#)#U+)#2#c.p>B.$++>' ' ' ' ' ' ' ' ' ' ' ' ' ' ' ' ' ' ' ' ' ' ' ' ' ' ' ' ' ' ' ' ' ' ' ' ' ' ' ' ' ' ' ' ' ' ' ' ' ' ' ' ' ' ' ' ' ' ' ' ' ' ' ' ' X>t+r $,P>L.v@s+_#)#s+%,&,*,=,$*n.8&t+)#l [.s+)#[.l.Q@_#Q@1.;+1.l.",
"t+[.z =+r&8&Q@U+[=l&[=&@=+A )#y#Q@n.3+-,;,>,[.)#'>n.n.2.G d.p>2.)$+>' ' ' ' ' ' ' ' ' ' ' ' ' ' ' ' ' ' ' ' ' ' ' ' ' ' ' ' ' ' ' ' ' ' ' ' ' ' ' ' ' ' ' ' ' ' ' ' ' ' ' ' ' ' ' ' ' ' ' ' ' ' ' ' ' ,,'$o C*P>L.*@v@Z+v@v@k%',),!,Q.Q@[=l&y#l y#n.8&&@r&2.t+[.k.I 1.1.",
"8&l.z =+A.1.Q@t+&@&@Q@&@=+A )#Q@8&)#~,{,],x>Q@m>m>y#L.8&##I.P>l.$+^,' ' ' ' ' ' ' ' ' ' ' ' ' ' ' ' ' ' ' ' ' ' ' ' ' ' ' ' ' ' ' ' ' ' ' ' ' ' ' ' ' ' ' ' ' ' ' ' ' ' ' ' ' ' ' ' ' ' ' ' ' ' ' ' ' /,'$l a.y>L.*@h@Z+s+v@(,_,:,4;v@[.Q@l&)#l l.[.L;Q@9+1.[..$z r $+r&",
"r&r&C.J.y <.1.l&l.[=Q@&@##y.[.8&8&)#<,{,[,<>U+e&'>y#y#2.o#Y&G>W#%+^,' ' ' ' ' ' ' ' ' ' ' ' ' ' ' ' ' ' ' ' ' ' ' ' ' ' ' ' ' ' ' ' ' ' ' ' ' ' ' ' ' ' ' ' ' ' ' ' ' ' ' ' ' ' ' ' ' ' ' ' ' ' ' ' ' },y#U%a.y>x#h@U+)#t+h@|,s>1,2,%#[.t+8&&@U%A.&@l&l.9+l.l.1.H l $+A.",
"c+$+2#J.y r&<.r&9+[=&@r&o#*+l.[.t+t+~,3,4,5,v@d@Z+L.y#l.&$d.G>)$%+^,' ' ' ' ' ' ' ' ' ' ' ' ' ' ' ' ' ' ' ' ' ' ' ' ' ' ' ' ' ' ' ' ' ' ' ' ' ' ' ' ' ' ' ' ' ' ' ' ' ' ' ' ' ' ' ' ' ' ' ' ' ' ' ' ' 6,[.0@#.G>[.y#8&Q@[.Q@_;7,8,B>v@U+n._#[.0@N-1.l.A.l.l.1.y ;+q y $+",
"A.r&C.J.y N-c+1.l&&@9+r&J.W#H+[.t+t+/&n>9,5,v@X#'>L._#[.r I.G>k.k.^,' ' ' ' ' ' ' ' ' ' ' ' ' ' ' ' ' ' ' ' ' ' ' ' ' ' ' ' ' ' ' ' ' ' ' ' ' ' ' ' ' ' ' ' ' ' ' ' ' ' ' ' ' ' ' ' ' ' ' ' ' ' ' ' ' 0,[.h.Z G>2.y#Q@&@9+Q@a,7,b,c,~=_#h@t+y#i.1.1.l&A.[.1.r&y 2#l N-r&",
"y &+w =+$+r&y A.l.l&9+l.m.*+2.[.[.t+/&n>d,e,%#B#e&y#)#[.m.e;p>l. $^,' ' ' ' ' ' ' ' ' ' ' ' ' ' ' ' ' ' ' ' ' ' ' ' ' ' ' ' ' ' ' ' ' ' ' ' ' ' ' ' ' ' ' ' ' ' ' ' ' ' ' ' ' ' ' ' ' ' ' ' ' ' ' ' ' 0,x#n #.G>2.8&l&2.[.L;f,7,b,g,~=n.)#_#_#U%l.1.2.$+l.1.1.<.;+l K.$+",
"C.3#m J.r m.J.:.G =+J.z G y 2.Q@[._#/&h,o><>U+Z+Z+e&'$2.-+i&G>l*W#i,' ' ' ' ' ' ' ' ' ' ' ' ' ' ' ' ' ' ' ' ' ' ' ' ' ' ' ' ' ' ' ' ' ' ' ' ' ' ' ' ' ' ' ' ' ' ' ' ' ' ' ' ' ' ' ' ' ' ' ' ' ' ' ' ' j,[.m ` k,2.&@l.8&[.U+l,m,n,B>.#)#L.Z+_#j.A.l ;+I l m.m.l =+n&z.2#",
"-+m l /#L a.f.o,F.p,c.$+=+C.l.[=2.L.x.q,r,s,Q@'>Z+)#y#[.G I.G>k.%+i,' ' ' ' ' ' ' ' ' ' ' ' ' ' ' ' ' ' ' ' ' ' ' ' ' ' ' ' ' ' ' ' ' ' ' ' ' ' ' ' ' ' ' ' ' ' ' ' ' ' ' ' ' ' ' ' ' ' ' ' ' ' ' ' ' t,'$n @.u,2.[=l.[.8&8&f,s>v,w,^#)#t+y#)#j.$+D.g.x,y,z,n&i e.l f.G ",
"n&j.=+l =*U#n&e;p,=*n&N#&$C.2.&@l.Q@^>A,B,C,Q@'>L.y#Q@8&m.I.G>$+*+i,' ' ' ' ' ' ' ' ' ' ' ' ' ' ' ' ' ' ' ' ' ' ' ' ' ' ' ' ' ' ' ' ' ' ' ' ' ' ' ' ' ' ' ' ' ' ' ' ' ' ' ' ' ' ' ' ' ' ' ' ' ' ' ' ' D,2.h.` E,[.8&8&)#)#t+C=s>F,w,h@y#[.[.y#j.A f.G,i +=y,2%H,I,i.j.f.",
"U#m.##J,n&=&e.p,R*2%F.2#&$y.)#8&l&)#u$K,L,M,Q@L.Z+[.[.r&M$Y&G>)$A#i,' ' ' ' ' ' ' ' ' ' ' ' ' ' ' ' ' ' ' ' ' ' ' ' ' ' ' ' ' ' ' ' ' ' ' ' ' ' ' ' ' ' ' ' ' ' ' ' ' ' ' ' ' ' ' ' ' ' ' ' ' ' ' ' ' N,G#g.C*P>2.[.)#L.L._#O,P,Q,R,Z+Q@&@2.y#j z h.=&S,p,e;T,=&R*h.##G ",
"U,A G M$z.N#-+##m.m.J.D#x 1.L.Q@)#Z+v@V,W,X,[.)#L.2.[.1.&$I.@.k.x i,' ' ' ' ' ' ' ' ' ' ' ' ' ' ' ' ' ' ' ' ' ' ' ' ' ' ' ' ' ' ' ' ' ' ' ' ' ' ' ' ' ' ' ' ' ' ' ' ' ' ' ' ' ' ' ' ' ' ' ' ' ' ' ' ' Y,1.m a.)>B.2.8&y#L.U+Z,<*`, 'X#y#&@y#)#i.x#m.5;=+;+-=m.J.r J.w .'",
"m.:.:.l j.j.:.k*0@h.D.l r x#)#[.L.B#[.+'@'#'[.y#[.l.2.1.&$c.x '$!$i,' ' ' ' ' ' ' ' ' ' ' ' ' ' ' ' ' ' ' ' ' ' ' ' ' ' ' ' ' ' ' ' ' ' ' ' ' ' ' ' ' ' ' ' ' ' ' ' ' ' ' ' ' ' ' ' ' ' ' ' ' ' ' ' ' $'&+y f.)>&+[.2.t+)#[.>#X*%'W*e&g$2.t+e&5;##l H.k*i.j.j j.i.U%j.l ",
"M#]$%$a@Y@~=b@~=*%g%&'*'d@'$y#2.Z+1.='4&W>f=1.[.l.1.l.r&J.o *@[.x i,' ' ' ' ' ' ' ' ' ' ' ' ' ' ' ' ' ' ' ' ' ' ' ' ' ' ' ' ' ' ' ' ' ' ' ' ' ' ' ' ' ' ' ' ' ' ' ' ' ' ' ' ' ' ' ' ' ' ' ' ' ' ' ' ' -'$+y#x a.r&2.Q@_#Q@r&c-;'>','x y#t+L.)#Q@'')'!'h@g%a@b&]$D&L$x.1=",
"[.)#Z+L.[.2.2.<.l.r&r&[.2.[.y#[.Z+A.~'{'k*l 1.[.1.r&r&A.&$n l.2.x i,' ' ' ' ' ' ' ' ' ' ' ' ' ' ' ' ' ' ' ' ' ' ' ' ' ' ' ' ' ' ' ' ' ' ' ' ' ' ' ' ' ' ' ' ' ' ' ' ' ' ' ' ' ' ' ' ' ' ' ' ' ' ' ' ' ]'l.G#m.#.1.l.l&)#)#r&^'/'('_'m.e&L.L.'>&@[.[.Q@t+Q@l.t+Z+)#y#l.l.",
"1.y#Z+t+y#[.[.1.l.1.1.y#L.l.2.[.y#y i>:'0@r 1.2.1.r&A.A.&$m r&l.F <'' ' ' ' ' ' ' ' ' ' ' ' ' ' ' ' ' ' ' ' ' ' ' ' ' ' ' ' ' ' ' ' ' ' ' ' ' ' ' ' ' ' ' ' ' ' ' ' ' ' ' ' ' ' ' ' ' ' ' ' ' ' ' ' ' ['1.l.##` 1.1.l.Q@)#r&O=i>f.i>o [.)#)#t+L.y#[.[.)#y#1.2.[.y#2.H+l.",
"1.[.[.[.G#1.2.1.1.[.)#L.[.l.1.H+2.A }'|'j.r 1.[.1.$+&+$+l m A.1.I <'' ' ' ' ' ' ' ' ' ' ' ' ' ' ' ' ' ' ' ' ' ' ' ' ' ' ' ' ' ' ' ' ' ' ' ' ' ' ' ' ' ' ' ' ' ' ' ' ' ' ' ' ' ' ' ' ' ' ' ' ' ' ' ' ' 1'1.1.o ` A.l.A.2.y#1.;+Z;/#Y&r G#y#[.)#'>e&t+)#'>y#1.2.H+g$1.1.$+",
"A.G#2'2.l.G#G#H+2.)#Z+y#2.2.1.1.1.A Y&y>-*L &+1.1.$+$+3'l h.y 1.t <'' ' ' ' ' ' ' ' ' ' ' ' ' ' ' ' ' ' ' ' ' ' ' ' ' ' ' ' ' ' ' ' ' ' ' ' ' ' ' ' ' ' ' ' ' ' ' ' ' ' ' ' ' ' ' ' ' ' ' ' ' ' ' ' ' -')$&+p ` A.1.$+k.y#1.w H./#d.##t+t+y#g$y#2.B#)#)#[.l.2.1.2.G#G#$+",
"$+1.2.y#2.G#1.1.2.)#t+[.2.H+1.A.k.x a.:'0@j *+1.<.y $+$+l g.z W#o 4'' ' ' ' ' ' ' ' ' ' ' ' ' ' ' ' ' ' ' ' ' ' ' ' ' ' ' ' ' ' ' ' ' ' ' ' ' ' ' ' ' ' ' ' ' ' ' ' ' ' ' ' ' ' ' ' ' ' ' ' ' ' ' ' ' 5'1.&+o p>y $+3'A.1.A.w 6'f.f&r 2.g$g$m>g$_#Z+e&2.l.A.2.G#2.G#G#$+",
"$+&+[.e&e&G#&+1.1.g$g$2.[.[.2.l.A.2#a.y>i.l z A.y C.z K.l =&z W#o 4'' ' ' ' ' ' ' ' ' ' ' ' ' ' ' ' ' ' ' ' ' ' ' ' ' ' ' ' ' ' ' ' ' ' ' ' ' ' ' ' ' ' ' ' ' ' ' ' ' ' ' ' ' ' ' ' ' ' ' ' ' ' ' ' ' 5'1.$+l y>y A.$+<.y C.=+H./#f&l &+1.1.2.H+m>y#'$G#1.l.2.1.2.G#G#[.",
"1.1.1.7'g$G#&+1.1.l.[.[.2.1.&+1.&+x =&H.r l A W#y A y A j.f.A z o 4'' ' ' ' ' ' ' ' ' ' ' ' ' ' ' ' ' ' ' ' ' ' ' ' ' ' ' ' ' ' ' ' ' ' ' ' ' ' ' ' ' ' ' ' ' ' ' ' ' ' ' ' ' ' ' ' ' ' ' ' ' ' ' ' ' 8'*+y l @.y.$+z R.C.C.##f.j U#r $+$+1.1.H+2.e&y#[.1.1.2.1.1.1.1.H+",
"1.1.G#G#H+1.1.1.[.1.&+G#2.&+W#A.&+x H.l m.o A 9'z C.z ;+j.g.x A o 4'' ' ' ' ' ' ' ' ' ' ' ' ' ' ' ' ' ' ' ' ' ' ' ' ' ' ' ' ' ' ' ' ' ' ' ' ' ' ' ' ' ' ' ' ' ' ' ' ' ' ' ' ' ' ' ' ' ' ' ' ' ' ' ' ' 0'A A l ` C.y.C.R.C.x ##l !$i.r $+z y $+A.l.2.G#y#a'&+1.A.&+3'<.&+",
"A.1.1.2'&+&+&+1.1.1.1.G#A.$+z %+ @x /#b'F l x z }+3#z }+i.f.!$A o 4'' ' ' ' ' ' ' ' ' ' ' ' ' ' ' ' ' ' ' ' ' ' ' ' ' ' ' ' ' ' ' ' ' ' ' ' ' ' ' ' ' ' ' ' ' ' ' ' ' ' ' ' ' ' ' ' ' ' ' ' ' ' ' ' ' c'A A l ` C.y z C.z C.G o r.h.,$6$y y z y A.A.1.l.W#$+W#$+9'9'3'<.",
"A z z z z A A A A z z z z A x !$A#o F.U#n&2#2#A 3#w 2#z m E.x A j 4'' ' ' ' ' ' ' ' ' ' ' ' ' ' ' ' ' ' ' ' ' ' ' ' ' ' ' ' ' ' ' ' ' ' ' ' ' ' ' ' ' ' ' ' ' ' ' ' ' ' ' ' ' ' ' ' ' ' ' ' ' ' ' ' ' d'!$A i.P>y z C.z z ;+2#m =&H.j.)$x ;+2#A y.z 3#C.x x C.x 3#x z A ",
"P>p>G>G>P>P>P>P>p>G>y>C*i&F.e.e;b.F.j.&$A ;+G u m.##o,F E.e'x A j 4'' ' ' ' ' ' ' ' ' ' ' ' ' ' ' ' ' ' ' ' ' ' ' ' ' ' ' ' ' ' ' ' ' ' ' ' ' ' ' ' ' ' ' ' ' ' ' ' ' ' ' ' ' ' ' ' ' ' ' ' ' ' ' ' ' d'A f'j y>$+r l -+z.m.z.x :.&$f.e.a.a.b.I.#.` P>E,g'G>G>h'u,E,E,h'",
"i'j'k'j'k'j'l'7.7.7.j'j'k'j'j'i'j'k'j'i'j'7.m'0.9.7.7.n'o'f.;+w n 4'' ' ' ' ' ' ' ' ' ' ' ' ' ' ' ' ' ' ' ' ' ' ' ' ' ' ' ' ' ' ' ' ' ' ' ' ' ' ' ' ' ' ' ' ' ' ' ' ' ' ' ' ' ' ' ' ' ' ' ' ' ' ' ' ' p'w w D.q'r's'7.m't'm'7.s'j'u'u'u'k'j'j'i'7.m's'j'l'l'j'j'j'j'i'm'",
"` #.Y&$,` $.y>$.$.$.v'v'` ` ` ` $,$,` ` a.c.i>w'$,$,/'x'y'z'U%m e;4'' ' ' ' ' ' ' ' ' ' ' ' ' ' ' ' ' ' ' ' ' ' ' ' ' ' ' ' ' ' ' ' ' ' ' ' ' ' ' ' ' ' ' ' ' ' ' ' ' ' ' ' ' ' ' ' ' ' ' ' ' ' ' ' ' A'2%n 7=B'C'D'i>a.w'Z v'$,w'a.Y&G.Y&a.$.v'$,` ` $,v'$,E'Y&Y&a.$,` ",
"s@d d-} s@u.Z+d@X#X##*#*/@v.s@v.s@v.1 v.1 v.v.p.#*6$X#J@*@u.p.v.o&m*' ' ' ' ' ' ' ' ' ' ' ' ' ' ' ' ' ' ' ' ' ' ' ' ' ' ' ' ' ' ' ' ' ' ' ' ' ' ' ' ' ' ' ' ' ' ' ' ' ' ' ' ' ' ' ' ' ' ' ' ' ' ' ' ' F'x&p.I@0*#+u.N.v.e s@C&I@I@q@I@G'e s@#*H'/ d@X#v@X#I@s@s@} I'p.v.",
"J'K'L'M'N'J'O'P*P*P*O'P*O'N'P'Q'P'R'R'R'S'T'T'O'P*U'V'P*P*P*W'Q'X'5=' ' ' ' ' ' ' ' ' ' ' ' ' ' ' ' ' ' ' ' ' ' ' ' ' ' ' ' ' ' ' ' ' ' ' ' ' ' ' ' ' ' ' ' ' ' ' ' ' ' ' ' ' ' ' ' ' ' ' ' ' ' ' ' ' Y'O'W'W'Z'Z'Z'T'N'`' )T'P'.)Z'T'R'+)N'S'@)T'O'P*P*P*S'R'N'N'T'Z'T'"};
