/* XPM */
static char * so_door23_tex_xpm[] = {
"132 132 1415 2",
"  	c #2E3944",
". 	c #2F3A45",
"+ 	c #2E3842",
"@ 	c #2E3841",
"# 	c #2E3943",
"$ 	c #2F3B46",
"% 	c #2F3944",
"& 	c #2F3A46",
"* 	c #303C46",
"= 	c #303B46",
"- 	c #303C47",
"; 	c #303A45",
"> 	c #313D4A",
", 	c #313E4A",
"' 	c #323E4A",
") 	c #323F4A",
"! 	c #313D48",
"~ 	c #35393C",
"{ 	c #393939",
"] 	c #303B45",
"^ 	c #323F4B",
"/ 	c #313D49",
"( 	c #303C48",
"_ 	c #2E3843",
": 	c #2E3A44",
"< 	c #263746",
"[ 	c #273847",
"} 	c #263645",
"| 	c #273645",
"1 	c #283847",
"2 	c #283948",
"3 	c #293A49",
"4 	c #283949",
"5 	c #273848",
"6 	c #293B4A",
"7 	c #293949",
"8 	c #293B4B",
"9 	c #293A4A",
"0 	c #2A3B4B",
"a 	c #2A3B4A",
"b 	c #2B3D4C",
"c 	c #2C3F4F",
"d 	c #2D3F4F",
"e 	c #2C3F50",
"f 	c #2D4151",
"g 	c #2C3D4C",
"h 	c #33393E",
"i 	c #2B3C4B",
"j 	c #2A3C4B",
"k 	c #293C4B",
"l 	c #2D4050",
"m 	c #283848",
"n 	c #283A49",
"o 	c #273948",
"p 	c #273947",
"q 	c #263846",
"r 	c #253746",
"s 	c #192530",
"t 	c #19242F",
"u 	c #1A2630",
"v 	c #1A2732",
"w 	c #1A2631",
"x 	c #1A2833",
"y 	c #18252F",
"z 	c #1B2833",
"A 	c #1B2834",
"B 	c #1A2733",
"C 	c #1B2934",
"D 	c #1C2934",
"E 	c #1C2A35",
"F 	c #1C2A36",
"G 	c #1D2A36",
"H 	c #1D2B38",
"I 	c #1E2D39",
"J 	c #1F2F3C",
"K 	c #1F2E3B",
"L 	c #1F2E3A",
"M 	c #1F2C39",
"N 	c #313437",
"O 	c #303337",
"P 	c #1F2C38",
"Q 	c #1E2C38",
"R 	c #1C2B37",
"S 	c #1D2D3A",
"T 	c #1D2B37",
"U 	c #1C2935",
"V 	c #1B2733",
"W 	c #1B2933",
"X 	c #1A2632",
"Y 	c #1A2731",
"Z 	c #192631",
"` 	c #192630",
" .	c #080D12",
"..	c #070D12",
"+.	c #070D13",
"@.	c #080E12",
"#.	c #080E13",
"$.	c #080F14",
"%.	c #080D13",
"&.	c #080E14",
"*.	c #090E14",
"=.	c #091015",
"-.	c #09131B",
";.	c #091C2B",
">.	c #0F1E29",
",.	c #131F27",
"'.	c #131E27",
").	c #131C24",
"!.	c #2F3031",
"~.	c #2E2F31",
"{.	c #131E26",
"].	c #141F28",
"^.	c #121E27",
"/.	c #091C29",
"(.	c #08151F",
"_.	c #081015",
":.	c #090F14",
"<.	c #090F15",
"[.	c #0B131A",
"}.	c #0C141A",
"|.	c #0C141B",
"1.	c #0D151C",
"2.	c #0E171E",
"3.	c #0B1218",
"4.	c #0B1319",
"5.	c #0D151B",
"6.	c #0C151B",
"7.	c #0A1117",
"8.	c #0A1116",
"9.	c #0C1319",
"0.	c #0E1821",
"a.	c #0F1E2A",
"b.	c #192733",
"c.	c #20303E",
"d.	c #223341",
"e.	c #303336",
"f.	c #2F3236",
"g.	c #21313F",
"h.	c #223340",
"i.	c #101E28",
"j.	c #0E1A23",
"k.	c #0B151B",
"l.	c #0A1218",
"m.	c #0F161E",
"n.	c #0E161D",
"o.	c #0D161C",
"p.	c #0E171D",
"q.	c #0F181F",
"r.	c #131D27",
"s.	c #142028",
"t.	c #14202A",
"u.	c #142029",
"v.	c #16212B",
"w.	c #15222C",
"x.	c #15212B",
"y.	c #16222B",
"z.	c #17232D",
"A.	c #18242E",
"B.	c #182530",
"C.	c #192732",
"D.	c #21313E",
"E.	c #21323F",
"F.	c #1C2B36",
"G.	c #233644",
"H.	c #1E303F",
"I.	c #293C4C",
"J.	c #233340",
"K.	c #313438",
"L.	c #2F3337",
"M.	c #263947",
"N.	c #283B4A",
"O.	c #192834",
"P.	c #263B4B",
"Q.	c #1F2F3B",
"R.	c #1D2C38",
"S.	c #20313E",
"T.	c #22333F",
"U.	c #1E2E3A",
"V.	c #192731",
"W.	c #17222D",
"X.	c #16222C",
"Y.	c #15212C",
"Z.	c #16232D",
"`.	c #15202A",
" +	c #131F28",
".+	c #182631",
"++	c #1A2934",
"@+	c #1B2935",
"#+	c #1F303C",
"$+	c #243644",
"%+	c #273949",
"&+	c #283B4B",
"*+	c #2A3E4E",
"=+	c #2C4253",
"-+	c #243847",
";+	c #1E2E3B",
">+	c #283C4C",
",+	c #2A3F4F",
"'+	c #243442",
")+	c #313538",
"!+	c #303438",
"~+	c #283A4B",
"{+	c #293D4D",
"]+	c #273B4C",
"^+	c #2D4253",
"/+	c #2B4050",
"(+	c #2B3F4F",
"_+	c #2B4051",
":+	c #2A3E4D",
"<+	c #263948",
"[+	c #20303D",
"}+	c #202F3B",
"|+	c #21303E",
"1+	c #20303C",
"2+	c #1B2A36",
"3+	c #1C2B38",
"4+	c #1D2C39",
"5+	c #192632",
"6+	c #2C4151",
"7+	c #2C4152",
"8+	c #2A3F4E",
"9+	c #2E4354",
"0+	c #2E4455",
"a+	c #2D4353",
"b+	c #2F4456",
"c+	c #2D4354",
"d+	c #2D4454",
"e+	c #32485A",
"f+	c #324A5C",
"g+	c #32495B",
"h+	c #32495C",
"i+	c #31485B",
"j+	c #31485A",
"k+	c #2C4354",
"l+	c #1E303E",
"m+	c #1E2D3A",
"n+	c #293E4E",
"o+	c #2A3E4F",
"p+	c #2E4557",
"q+	c #263C4C",
"r+	c #2A3F50",
"s+	c #263744",
"t+	c #323639",
"u+	c #303539",
"v+	c #2B4153",
"w+	c #203240",
"x+	c #2D4355",
"y+	c #293D4E",
"z+	c #2B3F51",
"A+	c #1F2F3D",
"B+	c #293D4B",
"C+	c #344B5E",
"D+	c #314658",
"E+	c #314859",
"F+	c #2F4557",
"G+	c #304658",
"H+	c #2D4252",
"I+	c #2B4151",
"J+	c #2B3F50",
"K+	c #2C4051",
"L+	c #2E4355",
"M+	c #2E4353",
"N+	c #2B4152",
"O+	c #304759",
"P+	c #344C5F",
"Q+	c #2D4457",
"R+	c #1E313F",
"S+	c #243745",
"T+	c #233443",
"U+	c #2A3D4E",
"V+	c #2E4558",
"W+	c #2E4659",
"X+	c #294052",
"Y+	c #293E4F",
"Z+	c #2B4052",
"`+	c #273745",
" @	c #32363A",
".@	c #30353A",
"+@	c #293D4C",
"@@	c #2C4355",
"#@	c #213443",
"$@	c #2F4558",
"%@	c #223240",
"&@	c #374F62",
"*@	c #2E4456",
"=@	c #2F4457",
"-@	c #2D4455",
";@	c #2B3E4F",
">@	c #304558",
",@	c #2E4457",
"'@	c #2D4152",
")@	c #30485B",
"!@	c #31495D",
"~@	c #2D4659",
"{@	c #1F3342",
"]@	c #223543",
"^@	c #223542",
"/@	c #2D4557",
"(@	c #30475A",
"_@	c #2B4254",
":@	c #243645",
"<@	c #2C4254",
"[@	c #273846",
"}@	c #33373B",
"|@	c #30363B",
"1@	c #213343",
"2@	c #2F4659",
"3@	c #2A4052",
"4@	c #2C4153",
"5@	c #213240",
"6@	c #253847",
"7@	c #223645",
"8@	c #31485C",
"9@	c #30485A",
"0@	c #31495C",
"a@	c #31475A",
"b@	c #2E4658",
"c@	c #334A5C",
"d@	c #304557",
"e@	c #2D4254",
"f@	c #304659",
"g@	c #32495D",
"h@	c #324A5E",
"i@	c #1B2F3D",
"j@	c #2A3F51",
"k@	c #293E50",
"l@	c #30373C",
"m@	c #203341",
"n@	c #32495E",
"o@	c #1A2B38",
"p@	c #30495C",
"q@	c #324A5D",
"r@	c #334B5E",
"s@	c #2F4658",
"t@	c #374E62",
"u@	c #344A5D",
"v@	c #304657",
"w@	c #314759",
"x@	c #334A5E",
"y@	c #344C60",
"z@	c #324B5F",
"A@	c #334C61",
"B@	c #2E485B",
"C@	c #1D3140",
"D@	c #263A49",
"E@	c #253949",
"F@	c #2D4356",
"G@	c #253846",
"H@	c #33373C",
"I@	c #30373D",
"J@	c #1F303F",
"K@	c #233645",
"L@	c #1D2E3B",
"M@	c #334A5D",
"N@	c #344D61",
"O@	c #375063",
"P@	c #314758",
"Q@	c #334B5F",
"R@	c #334C60",
"S@	c #344D62",
"T@	c #314A5F",
"U@	c #1F3241",
"V@	c #273A4A",
"W@	c #2D4357",
"X@	c #34383D",
"Y@	c #31383F",
"Z@	c #1F303E",
"`@	c #243746",
" #	c #1E2F3D",
".#	c #324A5F",
"+#	c #30475B",
"@#	c #344D60",
"##	c #354E61",
"$#	c #354D61",
"%#	c #344E62",
"&#	c #354D62",
"*#	c #385164",
"=#	c #344C5E",
"-#	c #324C5F",
";#	c #2F485C",
">#	c #1F3140",
",#	c #1A2834",
"'#	c #273A49",
")#	c #2E4458",
"!#	c #34393D",
"~#	c #31393F",
"{#	c #1E303D",
"]#	c #2D4558",
"^#	c #2C4052",
"/#	c #223442",
"(#	c #314A5E",
"_#	c #344C61",
":#	c #354E62",
"<#	c #354E63",
"[#	c #385165",
"}#	c #334B5D",
"|#	c #334D61",
"1#	c #2F495D",
"2#	c #203140",
"3#	c #253948",
"4#	c #35393D",
"5#	c #313940",
"6#	c #2A4051",
"7#	c #233746",
"8#	c #3A5368",
"9#	c #2C4252",
"0#	c #334B60",
"a#	c #2F475B",
"b#	c #1B2A35",
"c#	c #253947",
"d#	c #233545",
"e#	c #1C2B39",
"f#	c #2B4154",
"g#	c #2D4456",
"h#	c #243846",
"i#	c #395367",
"j#	c #344B60",
"k#	c #1E3140",
"l#	c #253747",
"m#	c #283E4F",
"n#	c #233543",
"o#	c #35393E",
"p#	c #313A41",
"q#	c #293D4F",
"r#	c #1B2C39",
"s#	c #233646",
"t#	c #30465A",
"u#	c #375064",
"v#	c #33495B",
"w#	c #17242E",
"x#	c #203444",
"y#	c #233544",
"z#	c #2F475A",
"A#	c #353A3E",
"B#	c #313A42",
"C#	c #182734",
"D#	c #223544",
"E#	c #18242F",
"F#	c #1D2D39",
"G#	c #1E2C39",
"H#	c #1C2C39",
"I#	c #314C60",
"J#	c #2B475C",
"K#	c #213D51",
"L#	c #243E50",
"M#	c #17242F",
"N#	c #2A3D4D",
"O#	c #1D2E3C",
"P#	c #253B4D",
"Q#	c #253E52",
"R#	c #2A465A",
"S#	c #1E2F3B",
"T#	c #1D2E39",
"U#	c #1F303D",
"V#	c #1C2C38",
"W#	c #2E4352",
"X#	c #2B3E4E",
"Y#	c #30485C",
"Z#	c #37546B",
"`#	c #1F4965",
" $	c #1A74A2",
".$	c #2A495E",
"+$	c #2A4153",
"@$	c #1A2935",
"#$	c #323B43",
"$$	c #1A2A36",
"%$	c #1C2D3A",
"&$	c #2C4659",
"*$	c #2A5B7B",
"=$	c #265F82",
"-$	c #305069",
";$	c #365064",
">$	c #233542",
",$	c #233442",
"'$	c #273A4B",
")$	c #233341",
"!$	c #22323F",
"~$	c #1F2E39",
"{$	c #253645",
"]$	c #1E2D38",
"^$	c #20313D",
"/$	c #20303B",
"($	c #1D2C37",
"_$	c #355065",
":$	c #1D4864",
"<$	c #127BB7",
"[$	c #2A4A61",
"}$	c #2C4356",
"|$	c #283E4E",
"1$	c #1B2B38",
"2$	c #2E4A5E",
"3$	c #286388",
"4$	c #246287",
"5$	c #2F4E66",
"6$	c #202F3A",
"7$	c #253745",
"8$	c #293B4C",
"9$	c #283C4B",
"0$	c #1B2A34",
"a$	c #202F3C",
"b$	c #233440",
"c$	c #1D2C36",
"d$	c #21303B",
"e$	c #21313D",
"f$	c #21333F",
"g$	c #385268",
"h$	c #1E4864",
"i$	c #137BB9",
"j$	c #2B4B61",
"k$	c #273C4C",
"l$	c #303941",
"m$	c #2F4A5E",
"n$	c #296489",
"o$	c #236389",
"p$	c #2F4F66",
"q$	c #30485D",
"r$	c #243543",
"s$	c #233441",
"t$	c #21303D",
"u$	c #1F2D39",
"v$	c #243542",
"w$	c #21303C",
"x$	c #283D4C",
"y$	c #1E4966",
"z$	c #0F7CC1",
"A$	c #2B4A61",
"B$	c #283D4D",
"C$	c #2B404F",
"D$	c #363A3D",
"E$	c #313B43",
"F$	c #28658A",
"G$	c #23668D",
"H$	c #2F5067",
"I$	c #2E475A",
"J$	c #334C5F",
"K$	c #233643",
"L$	c #223440",
"M$	c #263745",
"N$	c #283B4C",
"O$	c #2E4253",
"P$	c #385368",
"Q$	c #1F4966",
"R$	c #0E7DC4",
"S$	c #2C4B62",
"T$	c #36393D",
"U$	c #313A43",
"V$	c #2A6488",
"W$	c #22668F",
"X$	c #2F5069",
"Y$	c #283A4A",
"Z$	c #263848",
"`$	c #243646",
" %	c #2A3E50",
".%	c #365267",
"+%	c #1E4765",
"@%	c #1279C2",
"#%	c #2D4A61",
"$%	c #303A44",
"%%	c #2A668B",
"&%	c #216690",
"*%	c #2F526B",
"=%	c #2C4456",
"-%	c #32485B",
";%	c #253848",
">%	c #365167",
",%	c #1277C2",
"'%	c #2F485D",
")%	c #2B658A",
"!%	c #206692",
"~%	c #30526B",
"{%	c #31495E",
"]%	c #293F50",
"^%	c #233745",
"/%	c #354F65",
"(%	c #1E4967",
"_%	c #107AC4",
":%	c #2E4C63",
"<%	c #363A3E",
"[%	c #313B45",
"}%	c #293E4D",
"|%	c #1B2B36",
"1%	c #2F495E",
"2%	c #2B658C",
"3%	c #1F6693",
"4%	c #30536D",
"5%	c #223441",
"6%	c #2C4457",
"7%	c #344F64",
"8%	c #0F7BC7",
"9%	c #2D4C63",
"0%	c #2F3A43",
"a%	c #2C658B",
"b%	c #1F6692",
"c%	c #30526C",
"d%	c #2D4458",
"e%	c #26394A",
"f%	c #1E4763",
"g%	c #0F7AC6",
"h%	c #2C4C63",
"i%	c #2F4A5F",
"j%	c #21668F",
"k%	c #2F5169",
"l%	c #2C4255",
"m%	c #263A4A",
"n%	c #204763",
"o%	c #0F7CC6",
"p%	c #303B44",
"q%	c #273B4B",
"r%	c #216790",
"s%	c #2A4152",
"t%	c #1F4763",
"u%	c #0E7DC5",
"v%	c #2C4D64",
"w%	c #2F3B45",
"x%	c #2B4253",
"y%	c #304A5F",
"z%	c #22658F",
"A%	c #2F4759",
"B%	c #1F4864",
"C%	c #0D7EC7",
"D%	c #2D4E65",
"E%	c #2B6386",
"F%	c #23648C",
"G%	c #1D445F",
"H%	c #127CBC",
"I%	c #2B4B62",
"J%	c #18252E",
"K%	c #36393C",
"L%	c #2F3A44",
"M%	c #2E4559",
"N%	c #2D475B",
"O%	c #2B6081",
"P%	c #266083",
"Q%	c #2B4A60",
"R%	c #283D4E",
"S%	c #2A3F52",
"T%	c #1F3A4E",
"U%	c #2A5875",
"V%	c #253F53",
"W%	c #254A62",
"X%	c #224862",
"Y%	c #1C3040",
"Z%	c #253A49",
"`%	c #2C4759",
" &	c #244055",
".&	c #254F69",
"+&	c #243C4E",
"@&	c #2E3A43",
"#&	c #2A4050",
"$&	c #273E50",
"%&	c #25485E",
"&&	c #254962",
"*&	c #294458",
"=&	c #304758",
"-&	c #1D4561",
";&	c #1B73A7",
">&	c #28485F",
",&	c #37393C",
"'&	c #293F51",
")&	c #294356",
"!&	c #2A5F80",
"~&	c #255F83",
"{&	c #2C4960",
"]&	c #293F4F",
"^&	c #1D4764",
"/&	c #127BBD",
"(&	c #2A4B62",
"_&	c #2E3A45",
":&	c #2C475B",
"<&	c #236289",
"[&	c #2E4D65",
"}&	c #1E4A67",
"|&	c #107CC4",
"1&	c #2A4A62",
"2&	c #293E4C",
"3&	c #2E3A46",
"4&	c #2C485D",
"5&	c #29668C",
"6&	c #216590",
"7&	c #1E4866",
"8&	c #107BC4",
"9&	c #2D3A44",
"0&	c #29668A",
"a&	c #206792",
"b&	c #2D4F68",
"c&	c #304859",
"d&	c #1E4A68",
"e&	c #107BC3",
"f&	c #2A4961",
"g&	c #37393B",
"h&	c #2D3943",
"i&	c #2B475B",
"j&	c #263949",
"k&	c #1D4966",
"l&	c #1279BD",
"m&	c #2A485F",
"n&	c #2D3A45",
"o&	c #17242D",
"p&	c #2B4559",
"q&	c #296386",
"r&	c #236489",
"s&	c #2D4F67",
"t&	c #2B4252",
"u&	c #1579B5",
"v&	c #29485E",
"w&	c #2B4558",
"x&	c #296082",
"y&	c #256083",
"z&	c #2A3D4C",
"A&	c #263B4C",
"B&	c #1D2F3B",
"C&	c #1A384C",
"D&	c #21526E",
"E&	c #253E51",
"F&	c #2C3842",
"G&	c #214962",
"H&	c #204962",
"I&	c #2B4457",
"J&	c #283C4D",
"K&	c #1A2A37",
"L&	c #1A3040",
"M&	c #2C3742",
"N&	c #1D303F",
"O&	c #1C2E3D",
"P&	c #263845",
"Q&	c #17232E",
"R&	c #2C3944",
"S&	c #273B4A",
"T&	c #253A48",
"U&	c #38393B",
"V&	c #2D3B45",
"W&	c #15212A",
"X&	c #37393A",
"Y&	c #2B3944",
"Z&	c #152029",
"`&	c #1F303B",
" *	c #213442",
".*	c #213340",
"+*	c #273C4A",
"@*	c #18242D",
"#*	c #273A48",
"$*	c #38393A",
"%*	c #2C3945",
"&*	c #20313F",
"**	c #172B39",
"=*	c #182833",
"-*	c #2B3844",
";*	c #172936",
">*	c #213647",
",*	c #253845",
"'*	c #284155",
")*	c #1B3F56",
"!*	c #255A77",
"~*	c #1F394B",
"{*	c #273B49",
"]*	c #293F4E",
"^*	c #2A3843",
"/*	c #223746",
"(*	c #285773",
"_*	c #1B445D",
":*	c #223E53",
"<*	c #294357",
"[*	c #1D4159",
"}*	c #1973A8",
"|*	c #24648A",
"1*	c #2B495F",
"2*	c #293642",
"3*	c #275471",
"4*	c #0F7DC0",
"5*	c #1E4964",
"6*	c #264257",
"7*	c #294153",
"8*	c #1D3F56",
"9*	c #1C6F9F",
"0*	c #1E6D9C",
"a*	c #2D536D",
"b*	c #293743",
"c*	c #304D64",
"d*	c #285E81",
"e*	c #0980C9",
"f*	c #1E4863",
"g*	c #264055",
"h*	c #273C4D",
"i*	c #1B3648",
"j*	c #1A72A5",
"k*	c #2D5570",
"l*	c #192833",
"m*	c #2A3844",
"n*	c #24638A",
"o*	c #147AB2",
"p*	c #1C3E54",
"q*	c #273C4B",
"r*	c #1A3141",
"s*	c #1D3B4F",
"t*	c #285D7C",
"u*	c #2B536D",
"v*	c #293844",
"w*	c #2F4D65",
"x*	c #285A78",
"y*	c #1F425A",
"z*	c #1A3346",
"A*	c #253C4E",
"B*	c #1B394F",
"C*	c #275876",
"D*	c #285A77",
"E*	c #2A4C62",
"F*	c #293845",
"G*	c #2D4A60",
"H*	c #224D68",
"I*	c #206A96",
"J*	c #1C4057",
"K*	c #253F52",
"L*	c #253946",
"M*	c #263B4A",
"N*	c #1D3C53",
"O*	c #275777",
"P*	c #127DBD",
"Q*	c #2C4E65",
"R*	c #1971A8",
"S*	c #216692",
"T*	c #1B3E56",
"U*	c #263E51",
"V*	c #283E51",
"W*	c #1E3D54",
"X*	c #265474",
"Y*	c #2D5774",
"Z*	c #2B465B",
"`*	c #182630",
" =	c #21323E",
".=	c #383939",
"+=	c #263641",
"@=	c #2C4559",
"#=	c #2E526D",
"$=	c #1474B3",
"%=	c #236189",
"&=	c #1B3D56",
"*=	c #263C4F",
"==	c #253A4A",
"-=	c #283F50",
";=	c #1D3C54",
">=	c #234E6C",
",=	c #0782D3",
"'=	c #2B5B7B",
")=	c #2C485E",
"!=	c #15222A",
"~=	c #263440",
"{=	c #141F27",
"]=	c #2C4458",
"^=	c #2D5470",
"/=	c #0E7ABF",
"(=	c #265B7D",
"_=	c #1A3A4F",
":=	c #243A4B",
"<=	c #1E3B50",
"[=	c #1F4C6A",
"}=	c #0382DA",
"|=	c #2A5C7E",
"1=	c #2C4A60",
"2=	c #24323F",
"3=	c #233642",
"4=	c #141E26",
"5=	c #0E7CC3",
"6=	c #275676",
"7=	c #193549",
"8=	c #25394B",
"9=	c #1E3241",
"0=	c #193950",
"a=	c #295F82",
"b=	c #2C4A62",
"c=	c #1E2E39",
"d=	c #1C2933",
"e=	c #151F27",
"f=	c #2B5471",
"g=	c #1A2C3A",
"h=	c #213341",
"i=	c #253A4B",
"j=	c #162936",
"k=	c #1A3447",
"l=	c #2B516C",
"m=	c #2D4B61",
"n=	c #1C2C37",
"o=	c #333537",
"p=	c #282D32",
"q=	c #284F69",
"r=	c #1E4256",
"s=	c #162733",
"t=	c #162835",
"u=	c #243948",
"v=	c #283C4A",
"w=	c #101C25",
"x=	c #141D26",
"y=	c #353738",
"z=	c #252E35",
"A=	c #24394A",
"B=	c #1A2D3A",
"C=	c #172430",
"D=	c #16242E",
"E=	c #182732",
"F=	c #152531",
"G=	c #122C3E",
"H=	c #103C55",
"I=	c #383839",
"J=	c #212F3A",
"K=	c #17252F",
"L=	c #273D4C",
"M=	c #1C303D",
"N=	c #162C3B",
"O=	c #124361",
"P=	c #11688D",
"Q=	c #103447",
"R=	c #35383A",
"S=	c #29343E",
"T=	c #1A2933",
"U=	c #1B3140",
"V=	c #153143",
"W=	c #134B6C",
"X=	c #0B729B",
"Y=	c #10394F",
"Z=	c #35383B",
"`=	c #293640",
" -	c #2C4558",
".-	c #273D4E",
"+-	c #213645",
"@-	c #245570",
"#-	c #27455C",
"$-	c #263C4D",
"%-	c #163449",
"&-	c #144D6E",
"*-	c #0A749E",
"=-	c #103B52",
"--	c #283641",
";-	c #284255",
">-	c #263F52",
",-	c #205371",
"'-	c #233B4D",
")-	c #233B4C",
"!-	c #127CA8",
"~-	c #274F6C",
"{-	c #263D4F",
"]-	c #153449",
"^-	c #154D6F",
"/-	c #0774A3",
"(-	c #103B53",
"_-	c #29495F",
":-	c #0E7BAD",
"<-	c #234358",
"[-	c #1B2B37",
"}-	c #243E4F",
"|-	c #0A84B7",
"1-	c #28516F",
"2-	c #273E51",
"3-	c #294051",
"4-	c #1B303F",
"5-	c #153247",
"6-	c #144C6E",
"7-	c #0675A5",
"8-	c #0F3A52",
"9-	c #284256",
"0-	c #283E4D",
"a-	c #2A4B61",
"b-	c #0783B8",
"c-	c #24455B",
"d-	c #0E81B0",
"e-	c #28506C",
"f-	c #153347",
"g-	c #144C6D",
"h-	c #0973A0",
"i-	c #28343F",
"j-	c #274053",
"k-	c #2A495F",
"l-	c #0C7EAC",
"m-	c #233848",
"n-	c #275E7C",
"o-	c #29475D",
"p-	c #1C3141",
"q-	c #153043",
"r-	c #144A6B",
"s-	c #0975A1",
"t-	c #103B51",
"u-	c #284154",
"v-	c #275B77",
"w-	c #243C4F",
"x-	c #263F51",
"y-	c #1D3241",
"z-	c #152D3D",
"A-	c #144764",
"B-	c #0D7299",
"C-	c #11384D",
"D-	c #35373A",
"E-	c #28323C",
"F-	c #283F51",
"G-	c #273F51",
"H-	c #16222D",
"I-	c #15364A",
"J-	c #124D69",
"K-	c #212F3B",
"L-	c #1B2D3A",
"M-	c #172A3A",
"N-	c #2D373F",
"O-	c #1E2C37",
"P-	c #1C2D39",
"Q-	c #2F3439",
"R-	c #333639",
"S-	c #1E3749",
"T-	c #27526E",
"U-	c #27455B",
"V-	c #2F363C",
"W-	c #204A63",
"X-	c #214A60",
"Y-	c #1B2E3C",
"Z-	c #2E4759",
"`-	c #224259",
" ;	c #0880D0",
".;	c #285C7E",
"+;	c #254259",
"@;	c #33363A",
"#;	c #2E343A",
"$;	c #24526F",
"%;	c #088ACD",
"&;	c #254E68",
"*;	c #2A4254",
"=;	c #2F4C62",
"-;	c #285372",
";;	c #008AE3",
">;	c #275675",
",;	c #254156",
"';	c #2E3439",
");	c #283F53",
"!;	c #244E69",
"~;	c #0683D2",
"{;	c #276083",
"];	c #2F5168",
"^;	c #295979",
"/;	c #0087E2",
"(;	c #265270",
"_;	c #253F54",
":;	c #17252E",
"<;	c #33373A",
"[;	c #2E353B",
"};	c #273D4F",
"|;	c #254A63",
"1;	c #0A7ECC",
"2;	c #216997",
"3;	c #294E68",
"4;	c #2B4356",
"5;	c #2B4E66",
"6;	c #266088",
"7;	c #0188DB",
"8;	c #25516E",
"9;	c #263F53",
"0;	c #34373B",
"a;	c #2F353C",
"b;	c #1479B7",
"c;	c #1B71A7",
"d;	c #284E68",
"e;	c #2D475C",
"f;	c #2B4F67",
"g;	c #236692",
"h;	c #117EBB",
"i;	c #234C66",
"j;	c #274052",
"k;	c #34373A",
"l;	c #2E353C",
"m;	c #26475D",
"n;	c #1D6F9E",
"o;	c #1577B4",
"p;	c #28506B",
"q;	c #2D485D",
"r;	c #2D485B",
"s;	c #2B4F68",
"t;	c #226994",
"u;	c #256487",
"v;	c #213E51",
"w;	c #2B3F4E",
"x;	c #213A4C",
"y;	c #205571",
"z;	c #137AB1",
"A;	c #274F69",
"B;	c #304D63",
"C;	c #2E495D",
"D;	c #27465C",
"E;	c #224358",
"F;	c #224A66",
"G;	c #234258",
"H;	c #1B2B35",
"I;	c #264256",
"J;	c #1E4B64",
"K;	c #204157",
"L;	c #24465C",
"M;	c #2E4C61",
"N;	c #244155",
"O;	c #0C7EC5",
"P;	c #23648E",
"Q;	c #24435A",
"R;	c #16212A",
"S;	c #34383B",
"T;	c #2E363C",
"U;	c #274357",
"V;	c #235572",
"W;	c #0886C7",
"X;	c #23475E",
"Y;	c #2F4B60",
"Z;	c #26516F",
"`;	c #0083DD",
" >	c #265C82",
".>	c #234157",
"+>	c #152129",
"@>	c #2D353C",
"#>	c #264054",
"$>	c #224F6C",
"%>	c #0588D4",
"&>	c #265471",
"*>	c #2F4D63",
"=>	c #0181DA",
"->	c #255372",
";>	c #0882CF",
">>	c #27597A",
",>	c #2C4C64",
"'>	c #2E516A",
")>	c #245170",
"!>	c #1774AD",
"~>	c #1E3C51",
"{>	c #2D343B",
"]>	c #1E3546",
"^>	c #206A99",
"/>	c #294D66",
"(>	c #213441",
"_>	c #1D2D38",
":>	c #2A485C",
"<>	c #203E52",
"[>	c #192A38",
"}>	c #172733",
"|>	c #1F3C4F",
"1>	c #28455A",
"2>	c #1F313E",
"3>	c #2C353B",
"4>	c #2C333B",
"5>	c #343739",
"6>	c #2C333A",
"7>	c #15222D",
"8>	c #1D2E3A",
"9>	c #182834",
"0>	c #1E2F3C",
"a>	c #353739",
"b>	c #182632",
"c>	c #162D3D",
"d>	c #17455B",
"e>	c #1D3342",
"f>	c #18384B",
"g>	c #16394E",
"h>	c #23394A",
"i>	c #163E57",
"j>	c #1A7198",
"k>	c #204054",
"l>	c #2B3239",
"m>	c #243544",
"n>	c #253D4F",
"o>	c #255673",
"p>	c #1F5978",
"q>	c #244257",
"r>	c #223342",
"s>	c #213342",
"t>	c #17425D",
"u>	c #147AAD",
"v>	c #204359",
"w>	c #295D7D",
"x>	c #235E7F",
"y>	c #25455B",
"z>	c #184461",
"A>	c #107CB7",
"B>	c #22445B",
"C>	c #2A3239",
"D>	c #2A5E7F",
"E>	c #225F82",
"F>	c #18435F",
"G>	c #107CB8",
"H>	c #21445B",
"I>	c #263847",
"J>	c #2A323A",
"K>	c #2A5F7F",
"L>	c #235F83",
"M>	c #24445B",
"N>	c #18425E",
"O>	c #0F7DBB",
"P>	c #21445C",
"Q>	c #14212B",
"R>	c #243F53",
"S>	c #295F7F",
"T>	c #236084",
"U>	c #233342",
"V>	c #17415D",
"W>	c #117CB9",
"X>	c #131D26",
"Y>	c #243E52",
"Z>	c #2A5F7E",
"`>	c #226084",
" ,	c #25394A",
".,	c #17405B",
"+,	c #147AB1",
"@,	c #204257",
"#,	c #293138",
"$,	c #121D26",
"%,	c #223C4E",
"&,	c #2A5E7C",
"*,	c #234359",
"=,	c #223443",
"-,	c #173D57",
";,	c #1677AA",
">,	c #204155",
",,	c #2A3139",
"',	c #121C25",
"),	c #2A5C79",
"!,	c #255D7D",
"~,	c #214055",
"{,	c #1D2F3D",
"],	c #17354A",
"^,	c #21607E",
"/,	c #1D394C",
"(,	c #293139",
"_,	c #121D25",
":,	c #203646",
"<,	c #204F6A",
"[,	c #1E506B",
"},	c #1A3345",
"|,	c #182D3B",
"1,	c #1F3E52",
"2,	c #1C2F3D",
"3,	c #1F3340",
"4,	c #1E384B",
"5,	c #1F394D",
"6,	c #1A2B39",
"7,	c #213241",
"8,	c #1A3F57",
"9,	c #1C6A8D",
"0,	c #1D3C4F",
"a,	c #293038",
"b,	c #21394A",
"c,	c #23536F",
"d,	c #1F5471",
"e,	c #27455A",
"f,	c #153F59",
"g,	c #1578A7",
"h,	c #1F4055",
"i,	c #283038",
"j,	c #2A5C7A",
"k,	c #225978",
"l,	c #224258",
"m,	c #263A4B",
"n,	c #16415C",
"o,	c #137AB0",
"p,	c #363739",
"q,	c #233C4E",
"r,	c #2A5E7E",
"s,	c #235A7A",
"t,	c #253849",
"u,	c #127BB1",
"v,	c #223B4D",
"w,	c #225B7C",
"x,	c #234257",
"y,	c #17425E",
"z,	c #117CB4",
"A,	c #20445A",
"B,	c #273037",
"C,	c #2B5F7F",
"D,	c #235D7E",
"E,	c #107DB7",
"F,	c #272F37",
"G,	c #223A4C",
"H,	c #245C7E",
"I,	c #244359",
"J,	c #107DB9",
"K,	c #20435A",
"L,	c #223C4D",
"M,	c #24445A",
"N,	c #192730",
"O,	c #17405C",
"P,	c #363738",
"Q,	c #272F36",
"R,	c #111C23",
"S,	c #233C4D",
"T,	c #2B607F",
"U,	c #235C7F",
"V,	c #163F5B",
"W,	c #127AB7",
"X,	c #204258",
"Y,	c #262E35",
"Z,	c #111B23",
"`,	c #235B7E",
" '	c #224157",
".'	c #152028",
"+'	c #1B2832",
"@'	c #18232C",
"#'	c #153E59",
"$'	c #1379AF",
"%'	c #1E4156",
"&'	c #121C24",
"*'	c #225C7E",
"='	c #17222B",
"-'	c #17232C",
";'	c #19252E",
">'	c #142129",
",'	c #143D57",
"''	c #1279A9",
")'	c #1D4056",
"!'	c #242C33",
"~'	c #223A4B",
"{'	c #2B5E7B",
"]'	c #225B7D",
"^'	c #223F54",
"/'	c #162129",
"('	c #19262F",
"_'	c #273946",
":'	c #133A51",
"<'	c #167198",
"['	c #1C3D51",
"}'	c #232B32",
"|'	c #21384A",
"1'	c #205978",
"2'	c #213C4F",
"3'	c #293B49",
"4'	c #142B3C",
"5'	c #184057",
"6'	c #1B2E3D",
"7'	c #17384E",
"8'	c #294050",
"9'	c #243848",
"0'	c #253C4C",
"a'	c #142430",
"b'	c #232C33",
"c'	c #172835",
"d'	c #1F3749",
"e'	c #182F3E",
"f'	c #263D4E",
"g'	c #263D4D",
"h'	c #233846",
"i'	c #111F2A",
"j'	c #0F1A23",
"k'	c #242C34",
"l'	c #1B2A37",
"m'	c #131F29",
"n'	c #15232D",
"o'	c #12202A",
"p'	c #111C25",
"q'	c #373738",
"r'	c #232B34",
"s'	c #14212A",
"t'	c #111D25",
"u'	c #232B33",
"v'	c #22313F",
"w'	c #202F3D",
"x'	c #222B33",
"y'	c #373838",
"z'	c #16232E",
"A'	c #233240",
"B'	c #222A32",
"C'	c #1F2E3C",
"D'	c #202A32",
"E'	c #21303F",
"F'	c #23333F",
"G'	c #202931",
"H'	c #1F272E",
"I'	c #111B24",
"J'	c #17222C",
"K'	c #202E3B",
"L'	c #111C24",
"M'	c #0E181F",
"N'	c #0E161C",
"O'	c #0F171F",
"P'	c #0F1820",
"Q'	c #0F1920",
"R'	c #0F1921",
"S'	c #111E28",
"T'	c #1E262D",
"U'	c #121F28",
"V'	c #111C26",
"W'	c #0D161E",
"X'	c #101A21",
"Y'	c #131E28",
"Z'	c #132029",
"`'	c #13222D",
" )	c #132939",
".)	c #162530",
"+)	c #1B2229",
"@)	c #142938",
"#)	c #132431",
"$)	c #14222C",
"%)	c #141F29",
"&)	c #283A48",
"*)	c #25323D",
"=)	c #2B3E4D",
"-)	c #273746",
";)	c #283845",
">)	c #253441",
",)	c #24333F",
"')	c #24313F",
"))	c #263442",
"!)	c #283744",
"~)	c #273643",
"{)	c #263542",
"])	c #253542",
"^)	c #263643",
"/)	c #263543",
"()	c #253440",
"_)	c #24313E",
":)	c #23323E",
"<)	c #24343F",
"[)	c #25343F",
"})	c #242F38",
"|)	c #243440",
"1)	c #273543",
"2)	c #253541",
"3)	c #243441",
"4)	c #243340",
"5)	c #253442",
"6)	c #25333F",
"  . + @ # . . . $ . % % % & & * . = - * $ $ . . & $ . $ = - ; - - - > , ' ' ) ! ~ { { { { { { { { { { { { { { { { { { { { { { { { { { { { { { { { { { { { { { { { { { { { { { { { { { { ~ ] - - ' ' ' ^ ' , / = - - ( - = . . _ . - . . . . & . . . . $ . . . . . : # # ",
"< [ < } | 1 2 2 3 4 2 1 1 4 4 4 < 5 6 6 4 4 2 4 7 8 9 3 9 0 a 0 a b c d c e f g h { { { { { { { { { { { { { { { { { { { { { { { { { { { { { { { { { { { { { { { { { { { { { { { { { { { h i j k e f l d b b 6 3 a j a 4 2 2 5 [ 4 j 9 7 4 2 3 m m 4 7 6 4 m n n o p q r ",
"s s t t t s s u v v w w w v x v y s z A v v B x z A z C D E F G F H I J K L L M N { { { { { { { { { { { { { { { { { { { { { { { { { { { { { { { { { { { { { { { { { { { { { { { { { { { O P Q R S I Q Q T F U z E G E V V z z z W C z v v w X w V v z z V Y x x Z ` s s ",
" . ... . . .+.@.#.#. .#.#.#.#.$.+.%.&.$.&.&.&.$.$.&.#.#.#.&.&.*.$.=.-.;.>.,.'.).!.{ { { { { { { { { { { { { { { { { { { { { { { { { { { { { { { { { { { { { { { { { { { { { { { { { { { ~.{.].^./.(._.:.:.:.*.&.*.:.:.&.$.$.$.$.:.<.&.#.&. .%.#.&.&.*.*.&.#.&.&.#.#.#.#.",
"[.}.|.}.}.1.2.|.3.3.4.[.}.4.}.5.}.4.}.1.5.6.}.|.}.4.7.8.:.<.8.9.}.}.0.a.b.c.d.M e.{ { { { { { { { { { { { { { { { { { { { { { { { { { { { { { { { { { { { { { { { { { { { { { { { { { { f.g.h.I i.j.k.l.4.4.3.8.8.l.}.1.2.m.n.6.1.n.2.|.}.|.}.|.o.n.1.|.|.|.5.p.q.q.2.n.",
"r.r.r.].].s.t.u.u.u.v.w.w.w.x.x.u.u.y.z.z.A.B.Z C.B.s E T L D.E.L F.G.H.R o I.J.K.{ { { { { { { { { { { { { { { { { { { { { { { { { { { { { { { { { { { { { { { { { { { { { { { { { { { L.M.N.G.O.P.Q.R.S.T.U.I L C.x C C z A x V.x W.v.X.v.x.Y.w.z.Z.y.`.u.s.u.u.u.,. +",
"y y y .+Z x ++@+F F R F F.F @+@+x x F I I I L #+Q.U.L $+o %+&+I.*+I.=+-+;+>+,+'+)+{ { { { { { { { { { { { { { { { { { { { { { { { { { { { { { { { { { { { { { { { { { { { { { { { { { { !+~+{+]+S ^+/+(+_+:+&+<+N.[+}+[+E.|+1+L I L F.2+R R 3+R.R.4+3+F.@+A x b.5+b..+Z ",
":+6+:+7+8+*+/+9+0+a+b+c+d+c+7+a+7+a+e+f+g+h+i+j+k+l+m+E %+n+o+{+7+0+p+q+h.n+r+s+t+{ { { { { { { { { { { { { { { { { { { { { { { { { { { { { { { { { { { { { { { { { { { { { { { { { { { u+&+o+v+w+c+a+9+x+y+z+{+L K A+B+j+C+g+D+E+F+0+a+b+G+b+F+9+0+H+I+/+_+7+J+(+H+H+K+",
":+:+&+*+{+,+7+c+c+7+L+c+M+=+7+N+7+7+x+O+O+O+i+P+Q+R+S+T+I.,+U+I.,+V+W+X+$+Y+Z+`+ @{ { { { { { { { { { { { { { { { { { { { { { { { { { { { { { { { { { { { { { { { { { { { { { { { { { { .@+@Z+@@#@W+p+$@=+*+=+7+%@M.w+I.&@i+G+$@*@=@0+-@F+O+G+p+*@c+7+/+J+J+z+,+;@7+H+_+",
"K+J+,+_+_+_+7+>@$@b+F+O+F+$@,@x+c+'@F+j+h+)@)@!@~@{@]@^@>+o+o+n+Y+/@(@_@:@r+<@[@}@{ { { { { { { { { { { { { { { { { { { { { { { { { { { { { { { { { { { { { { { { { { { { { { { { { { { |@U+=+<@1@2@(@W+3@I.4@Z+5@6@7@>+8@2@9@0@G+G+F+*@O+a@O+i+O+b@*@=+<@=+7+N+Z+c+c+G+",
"c@d@,+7+7+_+e@G+a@i+f@g@(@i+(@b@b@$@(@h+h@!@8@h@~@i@u.^@]+N+Z+j@k@x+8@@@:@Z+*@p }@{ { { { { { { { { { { { { { { { { { { { { { { { { { { { { { { { { { { { { { { { { { { { { { { { { { { l@z+e@Z+m@(@n@f@j@n+p+z+g.4+o@]+p@V+i+h@i+q@i+G+h+i+a@r@h@!@i+G+s@F+=@=+Z+x+b+t@",
"u@v@7+0+e@7+-@F+w@x@y@x@g@h@!@i+i+i+i+q@x@x@z@A@B@C@.+D@E@Z+<@Z+Z+F@(@_@G@=+x+p H@{ { { { { { { { { { { { { { { { { { { { { { { { { { { { { { { { { { { { { { { { { { { { { { { { { { { I@Z+x+Z+J@(@8@F+=+=+f@r+K@w+L@Y+h@O+!@n@h@r@r@M@x@i+i+N@N@y@x@h@q@i+a@F+=+0+F+O@",
"C+P@c+x+F+F+G+i+i+r@N@x@g@h@Q@h@h@g@!@n@x@Q@R@S@T@U@O.V@%+Z+V+$@<@x+)@@@<+W@x+n X@{ { { { { { { { { { { { { { { { { { { { { { { { { { { { { { { { { { { { { { { { { { { { { { { { { { { Y@Z+,@=+Z@W+V+p+<@x+a@7+`@5@ #,+Q@.#+#!@Q@@#N@##$#!@i+x@%#&#$#y@y@r@h+$@e@x+G+*#",
"=#j+c+F+a@i+x@P+r@r@x@h@$@i+h@N@z@g@h@z@Q@R@Q@-#;#>#,#'#r z+V+2@V+b@(@v+r )#,@k !#{ { { { { { { { { { { { { { { { { { { { { { { { { { { { { { { { { { { { { { { { { { { { { { { { { { { ~#=+,@Z+{#]#Q+@@Q+2@(@^#-+/#l+n+z@x@)@(#%#_#y@:#<#R@!@z@Q@%#&#&#N@N@x@F+e@0+G+[#",
"}#E+e@c+s@O+q@x@C+x@x@9@,@Q+2@x@h@8@x@Q@g@.#R@|#1#2#,#3#`@y+F@f@,@V+V+3@:@Q+V+k 4#{ { { { { { { { { { { { { { { { { { { { { { { { { { { { { { { { { { { { { { { { { { { { { { { { { { { 5#c+b@6#S @@@@v+V+8@O+_+7#/#l+,+N@_#!@!@R@y@:#y@&#P+8@8@i+r@Q@Q@R@%#r@V+<@e@O+8#",
"g+w@9#Z+=+<@V+h+q@q@r@O+*@V+(@h@h+g@z@Q@h@z@0#S@a#>#b#c#d#y+4@$@)@V+Q+Y+:@p+F@8 !#{ { { { { { { { { { { { { { { { { { { { { { { { { { { { { { { { { { { { { { { { { { { { { { { { { { { Y@*@F+r+e#f#@@g#(@(@,@r+h#]@w+o+%#%#A@R@Q@R@y@i+r@x@(@h+(@i+q@h@g@!@g@2@e@<@O+i#",
"E+$@7+r+N+N+r+g#i+g+h+i+$@V+O+h+O+8@g@h@j#_#A@R@+#k#2+l#r 3@4@(@!@i+b@m#n#<@x+j o#{ { { { { { { { { { { { { { { { { { { { { { { { { { { { { { { { { { { { { { { { { { { { { { { { { { { p#x+g#q#r#]#Q+V+(@b@s@Z+s#T+Z@y+Q@&#N@y@z@z@h@i+y@P+a@(@9@2@0@i+(@t#i+8@F@e@V+u#",
"v#E+r+y+{+4+X.w#Z Z s y z.z.A.y y Z C G@8@R@h@Q@1#x#y#>+6@Z+Q+z#9@h@)@6#w#r N+j A#{ { { { { { { { { { { { { { { { { { { { { { { { { { { { { { { { { { { { { { { { { { { { { { { { { { { B#4@r+x C#(@2@2@,@x+p+Z+3#V@D#J+0#N@N@z@_+4+x b.x x y w#w#E#Z Z .+B.b#x+x+{+e@y@",
"q [+2+2+2+2+U.L F#R F#G#F#H#4+L ;+K $+K G+r@z@z@I#J#K#L#]+V+2@(@(@8@)@3@M#y N+N#A#{ { { { { { { { { { { { { { { { { { { { { { { { { { { { { { { { { { { { { { { { { { { { { { { { { { { p#=+:@w#O#p@(@2@F@^#x+<@P#Q#R#h@x@x@Q@R@[+h.g.H#S#Q.F#F#T#S H#U.S.U#S g.K V#1+<+",
"P@+@V@S+E.U#}+W#:@g.1+g.g.U.d.|+c.G@X#8 F+i+h@Y#Q@Z#`# $.$Q+2@f@)@f@V++$@$b#N+:+A#{ { { { { { { { { { { { { { { { { { { { { { { { { { { { { { { { { { { { { { { { { { { { { { { { { { { #$_+>+$$%$)@b@Q+F@=+F@&$*$=$-$;$y@!@8@r@>$9+M.K S.g.|+,$K J E.:@K+T.S.`@r &+(+E+",
"v@I.'$6@)$h.!$~$/#{$]$^$W /$($v !$I {+V@F++#+#z#z@_$:$<$[$}$Q+V+F@F@@@|$$$b#r+X#4#{ { { { { { { { { { { { { { { { { { { { { { { { { { { { { { { { { { { { { { { { { { { { { { { { { { { B#r+n+V#1$s@Q+@@<@@@V+2$3$4$5$z@(@b@Y#r@`@9#Q.!$` }+~$W 6$v /#`@>$E.,$7$%+8$(+F+",
"E+,+9$:@0$>$h.a$L 7$I ]$b$c$d$e$D f$r+6@*@(@+#W+p@g$h$i$j$F@*@<@Z+x+Z+k$@$x _+/+4#{ { { { { { { { { { { { { { { { { { { { { { { { { { { { { { { { { { { { { { { { { { { { { { { { { { { l$Z+*+V#++b@]#F@<@}$b@m$n$o$p$q$W+W+)@R@:@7+G.0$}+I 6$T.W !$h.,$!$G@G@}+r$I.*+G+",
"C+7+>+'$7$}+>$s$t$S.,$|+u$v$}+w$v$R.x$V@-@)@Y#W+)@g$y$z$A$@@x+4@4@<@<@B$@$C.I+C$D${ { { { { { { { { { { { { { { { { { { { { { { { { { { { { { { { { { { { { { { { { { { { { { { { { { { E$Z+*+H#C V+b@V+]#V+V+1#F$G$H$T@I$W+p@J$`@=+U.K$F#[+s+~$L$D.`@g.o &+L$>${+I.9#E+",
"}#7+>+>+x$7$L :@M$!$:@N$7+O$9+G+a+{+N+>+-@)@Y#z#Y#P$Q$R$S$F@Q+@@v+<@e@>+@$` /+X#T${ { { { { { { { { { { { { { { { { { { { { { { { { { { { { { { { { { { { { { { { { { { { { { { { { { { U$_+{+3+x /@b@V+g#b@2@m$V$W$X$T@z#z#)@h@r -@,+N+6#7+^+(+,+N$)$&+>+r$$+,+{+{+c+j+",
"f+^+y+{+{+r+G@V@Y$Z$`$ %<@<@<@p+Q+v+v+D@0+!@!@+#;#.%+%@%#%V+2@F@@@@@N+>+@$y J+(+T${ { { { { { { { { { { { { { { { { { { { { { { { { { { { { { { { { { { { { { { { { { { { { { { { { { { $%Z+{+R x /@W+W+Q+V+(@1#%%&%*%T@)@z#;#q@/#N+x+=%@@c+g#e@Z+r+`@{+z+&+Z+j@r+z+@@-%",
"j+c+,+r+r+7+N+x$>+V@l#r+<@x+e@4@}$v+N+;%*@(@8@t#Y#>%y$,%#%f@O+b@g#N+N+>+++w#*+;@T${ { { { { { { { { { { { { { { { { { { { { { { { { { { { { { { { { { { { { { { { { { { { { { { { { { { $%7+{+R x /@Q+Q+@@Q+p@'%)%!%~%z@{%z#2@0@`@@@F@Q+@@g#g#,@N+r+r ,+6#Z+=+Z+q#N+,@a@",
"&+7+Z+v+<@x+Q+N+z+n+V@Z+x+]#s@Q+@@]%]%^%7+,@$@s@)@/%(%_%:%9@i+$@V+F@=%x$@+B.*+*+<%{ { { { { { { { { { { { { { { { { { { { { { { { { { { { { { { { { { { { { { { { { { { { { { { { { { { [%k+}%|%z /@F@Q+Q+(@+#1%2%3%4%z@(#z#z#!@`@@@b@b@V+V+F@F@N+Z+6@Z+Z+Z+=+<@6#Z+x+,+",
"5%N+r+Z+<@@@@@F@p+r+;%N+<@=%]#6%}$3@j@s#7+F@W@f@)@7%(%8%9%2@8@i+2@b@F@y+2+y *+:+T${ { { { { { { { { { { { { { { { { { { { { { { { { { { { { { { { { { { { { { { { { { { { { { { { { { { 0%N+x$2+W /@V+V+2@z#z#m$a%b%c%z@q$d%z#q@K@@@b@W+b@/@F@<@=+Z+<+N+7+<@x+x+Z+=+0+n#",
"6@=+r+ %N+<@<@Q+V+j@e%Z+<@<@}$@@}$3@3@y#r+x+W@)#(@%#f%g%h%W+(@(@O+/@<@{+@+A.,+*+T${ { { { { { { { { { { { { { { { { { { { { { { { { { { { { { { { { { { { { { { { { { { { { { { { { { { 0%Z+&+@+x _@=%=%b@z#;#i%a%j%k%(#W+Q+W+q@d#l%z#z#V+@@@@=+Z+r+%+=+<@@@x+=+6#Z+*@3#",
"]+=+r+r+N+<@V+$@O+6#m%j@<@@@}$v+v+]%3@s#*+4@x+x+2@N@n%o%h%b@O+a@$@g#@@{+@+w#,+,+D${ { { { { { { { { { { { { { { { { { { { { { { { { { { { { { { { { { { { { { { { { { { { { { { { { { { p%6#q%++V.=+v+v+V+(@Y#1%a%r%k%(#d%W+2@q@`@F@+#z#b@@@_@N+3@k@Y$z+Z+@@x+N+r+r+*@m%",
"]+7+_+6#<@<@g#b@2@N+m%6#<@_@_@_@s%]%]%`@z+<@v+v+2@N@t%u%v%t#a@O+p+Q+@@+@@+y ,+,+D${ { { { { { { { { { { { { { { { { { { { { { { { { { { { { { { { { { { { { { { { { { { { { { { { { { { w%Z+N.++` x%N+Z+Q+W+)@y%)%z%H$!@Q+b@z#h@G@g#2@A%z#d%_@v+3@j@l#Y+v+=+F@N+j@N+x+;%",
"B$a+_+6#=+@@x+p+V+N+E@]%6#]%v+<@v+3@3@s#Z+<@j@N+$@R@B%C%D%2@G+$@g#@@x%x$@+y J+,+T${ { { { { { { { { { { { { { { { { { { { { { { { { { { { { { { { { { { { { { { { { { { { { { { { { { { . _+&+++Z N+N+3@F@b@(@2$E%F%p$Y#]#b@(@r@`@g#(@9@b@Q+v+3@6#j@3#r+v+v+Q+N+k@3@d+D@",
"]+7+r+6#Z+=+g#V+V+N+E@y+3@x%k+<@v+s%Y+K@r+=+N+/@f@W+G%H%I%d%V+,@x+x+v+q%@+J%r+:+K%{ { { { { { { { { { { { { { { { { { { { { { { { { { { { { { { { { { { { { { { { { { { { { { { { { { { L%r+%+b#x @@3@j@x+V+M%N%O%P%Q%(@2@V+)@r@:@F@$@2@2@g#_@s%r+k@r  %3@N+x+3@Y+k@c+q%",
">+I+R%n+Z+@@V+p+p+Z+E@r+Z+k+<@f#3@S%Y+y#n+<@v+g#W+R+T%U%V%_@g#,@x+k+3@>+@+A.,+:+K%{ { { { { { { { { { { { { { { { { { { { { { { { { { { { { { { { { { { { { { { { { { { { { { { { { { { # ,+%+2+V.k+N+N+@@@@k++$W%X%Y%6#2@/@2@h+S+g#V+V+b@Q+x%x%3@6#:@y+r+Z+@@Z+B$r+9#V@",
"{+a+6#Y+6#V+p+/@/@3@Z%x%=+<@Q+@@3@j@Y+D#n+<@N+@@)@`% &.&+&Z+=+c+=+<@N+'#x z.,+}%K%{ { { { { { { { { { { { { { { { { { { { { { { { { { { { { { { { { { { { { { { { { { { { { { { { { { { @&#&<+@+y k+k+<@c+=+3@$&%&&&*&W+b@@@W+i+`@g#V+<@Q+_@k+k+k+r+$+n+ %j@=+z+y+6#I+P.",
"{+H+r+>+r+x+g#g#Q+r+E@@@@@_@/@_@3@k@Y+y#o+x%3@<@=&(#-&;&>&x+0+<@N+N+N+G@x A.n++@,&{ { { { { { { { { { { { { { { { { { { { { { { { { { { { { { { { { { { { { { { { { { { { { { { { { { { : ,+M.++s p+Q+g#g#@@'&)&!&~&{&9@V+@@V+h+T+@@Q+6#s%=%<@3@x%r+:@Z+N+r+N+r+j@o+/+m%",
">+/+Y+>+#&k+F@Q+@@]&Z%v+Q+Q+]#@@N+3@]%7#n+N+N+=+V+R@^&/&(&]#V+x+_+Z+z+r x z.*+I.,&{ { { { { { { { { { { { { { { { { { { { { { { { { { { { { { { { { { { { { { { { { { { { { { { { { { { _&r+M.++s 0+g#N+@@g#x%:&n$<&[&2@b@g#p+i+y#<@@@]%]%N+_@3@3@6#`@_+<@6#3@r+N+6#7+P.",
"]+(+,+]+3@@@@@-@@@{+3#6#k+k+=%d%@@N+Y+y#n+Z+N+=+p+%#}&|&1&6%F+*@7+N+o+`@b.W.*+2&,&{ { { { { { { { { { { { { { { { { { { { { { { { { { { { { { { { { { { { { { { { { { { { { { { { { { { 3&n+M.x y c+N+6#=+-@@@4&5&6&k%I$2@V+V+A%,$N+x%3@]%v+<@v+v+Y+y#r+Z+Z+3@Y+j@N+N+V@",
"V@:+}%>+6#@@x+g#=+>+h#B$r+6#3@N+3@j@y+D#,+N+3@v+/@!@7&8&[$@@Q+<@<@Z+r+`@5+X.}%+@,&{ { { { { { { { { { { { { { { { { { { { { { { { { { { { { { { { { { { { { { { { { { { { { { { { { { { 9&{+<+x y =+6#]%N+k+@@J#0&a&b&I$s@x+p+c&n#3@=+x%N+v+N+3@6#B$T+_+9#6#Y+Y+Y+N+I+3#",
"V@:+,+n+n+N+Z+x%6#P.7#B$y+k@]%]%'&y+|$s#>+Y+r+N+@@Y#d&e&f&N+<@Z+6#Z+6#6@b.X.n+&+g&{ { { { { { { { { { { { { { { { { { { { { { { { { { { { { { { { { { { { { { { { { { { { { { { { { { { h&{+<+x y =+r+Y+Z+<@<@i&0&j%b&a#9@k+Q+O+K@]%Z+3@s%=+j@Y+]%B$T+N+N+z+6#y+B$7+K+j&",
"V@*+J+r+y+n+y+6#,+3#d#B$B$>+|$R%k@N+'&s#c#k$6#6#N+;#k&l&m&6#N+Z+Z+3@N+<+x Z.}%V@g&{ { { { { { { { { { { { { { { { { { { { { { { { { { { { { { { { { { { { { { { { { { { { { { { { { { { n&,+o x o&-@3@Y+6#N+<@p&q&r&s&I$b@@@<@$@K@6#N+3@6#t&r+]%Y+q+/#z+N+r+Y+{+y+_+8+G@",
"m%*+,+n+n+n+r+=+/+3#K@k$P.m%P.]+r+x%|$m@'#Y+3@6#N+i+:$u&v&]%3@N+N+N+N+3#x W.+@o g&{ { { { { { { { { { { { { { { { { { { { { { { { { { { { { { { { { { { { { { { { { { { { { { { { { { { 9&,+o ++w#@@N+y+Y+6#N+w&x&y&v%W+g#=%p+=&^@#&<@Z+B$6#Y+,+Y+k$,$_+Z+n+n+B${+{+/+D@",
"D@z&}%x$x$n+o+N+_+D@]@k$B$>+]+]+Z+N+A&B&>+z+N+k@=+G+C&D&E&,+_+r+6#3@3@;%b.W.+@N.g&{ { { { { { { { { { { { { { { { { { { { { { { { { { { { { { { { { { { { { { { { { { { { { { { { { { { F&n+%+x o&k+3@y+o+Z+t&X+G&H&I&V+<@<@p+s@g.,+=+Z+k$Y+r+]&{+P.n#J+r+>+y+B$>+{+I+<+",
"3#+@+@>+B${+,+#&Y+3#K@x$y+y+P.J&6#Y+]@c#_+7+Z+Z+9#9#K&L&6@Y+r+3@6#N+r+6@B z.}%8 g&{ { { { { { { { { { { { { { { { { { { { { { { { { { { { { { { { { { { { { { { { { { { { { { { { { { { M&,+'#b.o&@@k+3@z+N+=+{+N&O&,+V+/@3@N+c+/+5%*+6#]+A&Y+Y+Y+Y+:@,+r+y+{+y+>+{+:+`@",
";%2&*+>+>+n+n+Y+Y+D@K@Y+Y+#&h#`@y+K@n#*+^+7+_+6#/+[+z.++P&#&Z+N+v+x%Z+%+B Q&J+8 g&{ { { { { { { { { { { { { { { { { { { { { { { { { { { { { { { { { { { { { { { { { { { { { { { { { { { R&J+G@x y @@x%v+=+x+x+,+F.C.F.9#x+j@v+x+0+I.,${+3#5%>+y+r+Y+$+n+n+n+n+x$]+{+{+6@",
"3#+@>+S&>+x$y+,+Y+m%K@|$r+>+T#c#n#>$q%N+=+c+9#B$5%u.Z I I+x%Z+v+k+k+N+T&x o&,+&+U&{ { { { { { { { { { { { { { { { { { { { { { { { { { { { { { { { { { { { { { { { { { { { { { { { { { { V&,+r x J%=+x%=+@@Q+p+*@$+0$u.I N+N+x%=+-@c+'#f$>+1+S+n+{+>+r$+@B$B${+B$]+B$,+6@",
"`@q%D@3#Z%m%B${+y+3#]@B$q%Q.G@^%/#x$Y+6#c+9#,+n#W&5+]$x$r+6#N+6#N+Z+6#`@x A.>+N.X&{ { { { { { { { { { { { { { { { { { { { { { { { { { { { { { { { { { { { { { { { { { { { { { { { { { { Y&o+:@C.J%N+3@@@F@@@<@p+c+d.0$Z&u$r+_+N+7+c+6#M.d.'#`&G.V@P.,${+n+R%>+k$x$>+{+`@",
"6@'#3#`@h#'$B$B${+D@ *3#U.m%6@.*r+6#Y+6#=+N+7$x.y I +*y+>+y+Z+|$]%r+{+`@x @*>+#*$*{ { { { { { { { { { { { { { { { { { { { { { { { { { { { { { { { { { { { { { { { { { { { { { { { { { { %**+T+5+J%I+]%v+v+<@@@N+_+I+E.x u.Q.*+c+9#k+N+n+S+h.'#I 5%E@/#{+x$]+P.A&P.V@{+`@",
"6@'#3#D@m%>+>+>+Y+T&/#F#`@h#&*]+N+6#r+6#=+$&**=*F#}%B$y+Y+Y+_+,+#&B$<+x Z ` :+M.$*{ { { { { { { { { { { { { { { { { { { { { { { { { { { { { { { { { { { { { { { { { { { { { { { { { { { -**+>$C.w#h.q%s%3@3@k+Z+6#,+N+D.@+;*>*<@N+=+]&z+n+/#E.,*0$3#,$V@P.k$P.q%D@D@x$K@",
"-+'#D@>+>+V@P.k$B$<+5%c#`@S.D@x$6#y+7+e@'*)*!*~**+/+>+B$3@3@N+N+_+V@` w#C {*]*M.$*{ { { { { { { { { { { { { { { { { { { { { { { { { { { { { { { { { { { { { { { { { { { { { { { { { { { ^*}%7+F#B.].5%]&v+v+=%<@N+x$I+c+/*(*_*:*F@c+n+6#_+Y+^@5%,*V@s$3#P.k$>+>+'$<+>+]@",
"`@S&m%A&>+D@V@V@k$D@M.,*T#q%y+B${+y+N+<*[*}*|*1*_+J+n+]%6#s%Z+Z++@x X.b#M.,+{+M.$*{ { { { { { { { { { { { { { { { { { { { { { { { { { { { { { { { { { { { { { { { { { { { { { { { { { { 2*}%N+r+H#w#W&:@N+j@v+g#k+6#J+M+1#3*4*5*6*<@,+]&Y+]%#&S.h.I.5%D@]+P.A&P.P.V@9$/#",
"s#<+D@q%D@6@V@q%D@g.E.Q.3#q#>+]+B$r+7*8*9*0*a*6%7+N+r+y+]&r+6#}%W t.x G@_+_+{+M.$*{ { { { { { { { { { { { { { { { { { { { { { { { { { { { { { { { { { { { { { { { { { { { { { { { { { { b*y+_+3@t&4+Z.y.c#r+N+x%3@k+Z+N+V+c*d*e*f*g*o+,+y+>+#&x${#L$S.`@P.m%>+>+;%m%V@/#",
"d#&+'#q%D@m%S&'#5%q 6#|${+]+>+>+R%h*i*r%j*k*~@=+Z+s%3@r+]%Y+B$b#s.l*n#J+6#6#B$M.$*{ { { { { { { { { { { { { { { { { { { { { { { { { { { { { { { { { { { { { { { { { { { { { { { { { { { m*o+Z+Y+Z+,+H#Z.X.`@6#N+6#s%x%x%=+V+5$n*o*p*E@y+x$>+y+B$x$s%+*E.6@m%N$]+3#m%q*y#",
"y#S&q*>+P.k$D@/#7$,*x$n+>+D@B$B$q+r*s*t*u*&$-@9#N+3@3@|$|${+R s.Z n#r+Y+y+r+{+M.$*{ { { { { { { { { { { { { { { { { { { { { { { { { { { { { { { { { { { { { { { { { { { { { { { { { { { v*r+N+6#3@6#}%R X.z.&+,+]%'&k+@@k+=+]#w*x*y*z*A*Y+{+{+>+B${+h#f$&*`@q%V@3#c#>+K@",
"n#o 9$V@q%m%n#3#c#q%>+>+]+]+B$$&B*C*D*E*&$6#Z+Z+3@3@r+n+n+F#u..+h.#&n+]&r+]%{+M.$*{ { { { { { { { { { { { { { { { { { { { { { { { { { { { { { { { { { { { { { { { { { { { { { { { { { { F*Z+=+N+3@r+_++@F.v.y S&n+n+6#F@@@N+j@@@G*H*I*J*K*r+,+]+>+>+>+S+`@K 6@V@V@m%&+y#",
"d#S&V@m%V@/#L*`@M*k$]+>+B$]+$&N*O*P*u*w&3@]%Z+s%6#N+r+,+1+W&C.E.r+j@n+#&3@6#y+G@$*{ { { { { { { { { { { { { { { { { { { { { { { { { { { { { { { { { { { { { { { { { { { { { { { { { { { v*_+9#x%v+6#r+I+'#++y.` 9$n+B$6#x%3@]%3@@@Q*R*S*T*U*Y+x$k$'#D@V@n#$+D.D@m%m%+@T+",
"y#>+Z%m%Z%y#B$7#m%k$q%{+r+V*W*X*C%Y*Z*6#B$]%j@3@6#N+]*f$x.`* =_+{+Y+r+]%6#6#Y+7$.={ { { { { { { { { { { { { { { { { { { { { { { { { { { { { { { { { { { { { { { { { { { { { { { { { { { +=Z+=+N+@@Z+Y+Y+t&o x u.x x$]&|$3@3@r+Y+k@@=#=$=%=&=*=N$B$V@V@V@S+{+/#%+-+m%}%n#",
",+n+q%P.D@==k$/#m%q%>+B$-=;=>=,='=)=k@n+x$]%j@Y+6#3@h.!=y Q.I+n+k$Y+6#3@Z+Z+Y+n#.={ { { { { { { { { { { { { { { { { { { { { { { { { { { { { { { { { { { { { { { { { { { { { { { { { { { ~=,+t&N+<@3@6#|${+9#c#Z {=C x$|$|$r+Z+]%r+Y+]=^=/=(=_=:=]+m%V@V@y#{+S+3#`@3#x$:+",
"x$q*D@3#3#K@E@[+h#q%'$R%<=[=}=|=1=3@Y+B$k$k@6#r+n+:@W&o&L ,+Y+k$]+B$n+Z+N+6#>+T.{ { { { { { { { { { { { { { { { { { { { { { { { { { { { { { { { { { { { { { { { { { { { { { { { { { { { 2=>+N+x%Z+j@r+Y+k$r+9#3=B.4=T x$k@v+r+6#6#B$6#@=^=5=6=7=8=3#P.D@/#`@y#;%-+-+&+>+",
";%D@`@U.S+`@K@S#6@D@Z%9=0=8&a=b=s%n+B$x$|$]&Y+|$S+Z.z.c=6+#&B$m%P.y+]&_+#&]*<+E .={ { { { { { { { { { { { { { { { { { { { { { { { { { { { { { { { { { { { { { { { { { { { { { { { { { { d=T+,+N+3@3@r+Y+Y+r+}%I+h.o&e=L y+x%Z+]%3@r+y+y+p&f=P*G&g=h#x$%+5%.*5@q%R D#6@V@",
"3#3#h=|%<+`@7#U.6@<+i=j=k=l=m=+$y+R%>+|$]%]%B$c#o&X.R.7+,+B$y+P.k$6##&#&x$9$n=V.o={ { { { { { { { { { { { { { { { { { { { { { { { { { { { { { { { { { { { { { { { { { { { { { { { { { { p=C S&n+6#t&]%B$y+Y+x$n+N+S.A.Z&T.Z+s%Y+6#r+Y+>+B$p&q=r=s=S&&+V@5%d.d.3#4+T#h#3#",
"T&m%.*c#S&6@ *^$6@V@E@t=K&u={+>+q%A&k$Y+j@]%]+]@s C v={+>+x$B$k$]+]%]*B$n+U.++w=x=y={ { { { { { { { { { { { { { { { { { { { { { { { { { { { { { { { { { { { { { { { { { { { { { { { { { { z=R.x$,+_+Y+B$B$Y+B$V@x$/+@+B.I {+m#y+6#]%B$P.9$x$A=B=C=V@N.c#h=5@/#V@3#J D@V@",
"P.<+>+V@-+y#K@E.D@P.6@D=E=s$&+P.==m%P.B$B$|$>+/#b#C.p '#P.k$B$|$J&,+}%B$Z+L@F=G=H=x I={ { { { { { { { { { { { { { { { { { { { { { { { { { { { { { { { { { { { { { { { { { { { { { { { { { .=J=N+3@]%]&B$|$x$x$m%D@N+Z 5+C n+r+y+B$R%]+m%'#V@:@b.Z.r$'#D@]@h.5%D@Z%x$q%S&",
"S&G@Z%V@3#n#K@E.D@*+&+K=C.s$I.>+]+P.]+B$B$Y+y+5%b#y G@9$>+V@A&B$L=x$n+x$3@M=N=O=P=Q=R={ { { { { { { { { { { { { { { { { { { { { { { { { { { { { { { { { { { { { { { { { { { { { { { { { { { S=W+t&#&n+k$B$k$k$P.3#,+E#C.0$*+n+n+]+B$x$P.'#&+$+C.w.s$'#V@y#h.&*D@q%>+>+q%",
"k$m%Z%V@V@$+x L 9$r+9$w#T=h.Y+Y+B$>+]+R%k$B$r+d.@+B.P&q*S&P.m%k$x${+9$k$'&U=V=W=X=Y=Z={ { { { { { { { { { { { { { { { { { { { { { { { { { { { { { { { { { { { { { { { { { { { { { { { { { { `= -]%]+{+x$x$x$m%E@D@{+E#++D :+x$x$>+x$B$P.m%.-d#5+w.[+<+N$/#y K V@q%>+q%&+",
">+V@q%V@S&G.B.U.>+I.M.Z.l*+-@-#-$-A&|$Y+k$P.n+E.++B.:@V@k$k$m%P.P.V@U.d#X+r*%-&-*-=-Z={ { { { { { { { { { { { { { { { { { { { { { { { { { { { { { { { { { { { { { { { { { { { { { { { { { { --;-k$y x$k$]+A&3#-+E@x$w#T=D 9$B$B$Y+n+B$A&>-,-'-x Z.a$'#V@5@Z.[+V@>+q%>+>+",
">+>+P.S&m%/#.+R.<+m%M.w#@$)-!-~-{-A&]+y+k$=={+g.T=B.:@D@]+P.m%>+x$'#V#]@_@r*]-^-/-(-Z={ { { { { { { { { { { { { { { { { { { { { { { { { { { { { { { { { { { { { { { { { { { { { { { { { { { --'*B$M#Y+x$m%Z%E@6@D@x$z.x x S&q%Y+Y+B$k$h*_-:-<-2+E#g.<+<+&*Z }+V@>+V@q%V@",
"V@V@D@D@3#5%.+R r <+o w#[-}-|-1-2-P.P.y+x$P.}%E.@+y >$D@>+>+x$B$y+9$U.n#3-4-5-6-7-8-Z={ { { { { { { { { { { { { { { { { { { { { { { { { { { { { { { { { { { { { { { { { { { { { { { { { { { --9-n+.+#&{+P.m%Z%m%P.}%Z.x D >+}%B$Y+n+>+0-a-b-c-2+A.g.<+<+E.Z Q.'#V@q%V@'#",
"S&>+D@<+<+/#.+4+<+q%M.B.R }-d-e-.-D@J&Y+y+k$,+h.F.B.>$D@>+>+{+{+n+I.S.K@]%i@f-g-h-=-Z={ { { { { { { { { { { { { { { { { { { { { { { { { { { { { { { { { { { { { { { { { { { { { { { { { { { i-j-0-T=#&x$x$k$q+A&P.n+z.x F.*+n+y+{+r+>+k$k-l-c-2+w#h.%+&+E.B.!$N.V@&+q%%+",
"S&>+D@<+<+.*.+I o '$r z.2+m-n-o-q+m%>+Y+>+B$n+h.++z.>$D@>+x$}%n+x$I.I+B$s%p-q-r-s-t-Z={ { { { { { { { { { { { { { { { { { { { { { { { { { { { { { { { { { { { { { { { { { { { { { { { { { { i-U*L=>+]&V@x$B$P.m%m%}%z.x 0$*+n+>+y+n+B$A&u-v-w-@+y ,$>+&+E.y E.N.q%V@V@%+",
"<+9$D@V@'#n#`@Q.<+'${$Z.@+d.x-R%P.P.P.y+{+k@r+>$C z.K$D@]+x$x$n+x$x$#&]&_@y-z-A-B-C-D-{ { { { { { { { { { { { { { { { { { { { { { { { { { { { { { { { { { { { { { { { { { { { { { { { { { { E-F-|$B$B$&+>+{+q%D@D@,+w#x E *+B$B$n+|$k$P.P.G-`@C E#>$&+%+5@g.n#V@V@q%q%<+",
"%+>+V@V@V@y#:@[+<+P.G@H-++E.V@q%P.P.3#x${+,+n+>$++y r$V@]+x${+,+n+{+B${+,+L@g=I-J-i@I={ { { { { { { { { { { { { { { { { { { { { { { { { { { { { { { { { { { { { { { { { { { { { { { { { { { K-D@B$A&B$+@>+n+>+%+V@(+y A E *+r+n+_+y+k$-+D@I.:@x J%s$&+<+d.g.E.<+V@'#'$'#",
"o q%n#6@D@n#/#[+'#V@:@w.@+h.N.>+E@E@m%k$]&{+>+n#++B.$+<+>+q%x$n+>+{+x$,+B$m%G.L-M-Z={ { { { { { { { { { { { { { { { { { { { { { { { { { { { { { { { { { { { { { { { { { { { { { { { { { { N-7$}%n+x$n+>+>+,+{+S&>+9$y C O-*+r+*+r+n+>+3#V@I.7$x Z.s$S&&+h.1+S.'#3#g.r <+",
"V@<+f$U.`$h.,$J %+%+7$M#P-D#{+>+V@3#P.k$]+>+>+<+2+5+0$6@>+x$k$]+V@x$*+{+]+S&9$&*Q-{ { { { { { { { { { { { { { { { { { { { { { { { { { { { { { { { { { { { { { { { { { { { { { { { { { { R-P&z&q%x$,+{+D@V@n+x$V@S&J w#@+E.*+,+{+Y+>+>+V@I.:+;%%$M#r$V@'#D.1+[+6@[+L r 6@",
">+r G@E.6@h.h=K o '#I.r#S-T-U-A&3#3#]+D@m%m%]+9#L*R `.C <+>+q%q%P.>++@n+x${+>+G.}@{ { { { { { { { { { { { { { { { { { { { { { { { { { { { { { { { { { { { { { { { { { { { { { { { { { { V-k 9$'$,+n+{+V@V@x${+%+S.W&b.S.7+*+n+k$x$q%&+&+y+;-W-X-Y-&+o 6@[+U.J %+U#6@`@3#",
"'#V@`@3#c#5%y#J 6@n n Z-`- ;.;+;A&q%P.D@P.P.P.x$=+G.x ].H V@x$q%>+x$n+n+n+x$<+[+@;{ { { { { { { { { { { { { { { { { { { { { { { { { { { { { { { { { { { { { { { { { { { { { { { { { { { #;c#q%{+n+B${+V@S&9$+@5%W&K=T#/+}%x$y+>+q%P.N$>+9-$;%;&;*;I.7$G@S.S.J c#`@`@`@D@",
"6@>+6@<+G@/#>+5@o o G@o+=;-;;;>;,;q+m%A&A&]+m%m%>+N+&*` ].U.V@>+x$+@,+{+x${+V@S.R-{ { { { { { { { { { { { { { { { { { { { { { { { { { { { { { { { { { { { { { { { { { { { { { { { { { { ';<+}%n+]&B$y+&+>+I.n#y.Z.b#:+*+{+>+{+{+{+>+]+);!;~;{;f&3@%+$+r &*G@S.`@`@`@`@3#",
"Q.V@&+<+:@d.q%d.o o 6@o 3@];^;/;(;_;P.P.k$A&k$P.V@q%#&U#:;s.[+q%9$+@*+x$x$>+V@h.<;{ { { { { { { { { { { { { { { { { { { { { { { { { { { { { { { { { { { { { { { { { { { { { { { { { { { [;%+>+>+n+n+n+9$>+$+W.z.C N.q%q%B$>+{+>+I.q%};|;1;2;3;&$9$o 6@`@&*6@5@`@G@`@6@h.",
"3+T+%+<+c#>$o $+G@%+%+M.<+4;5;6;7;8;9;m#Y+B$B$k$>+V@S&/+F#z.].[+M.>+{+>+{+x$c#d.0;{ { { { { { { { { { { { { { { { { { { { { { { { { { { { { { { { { { { { { { { { { { { { { { { { { { { a;N.>+>+>+I.I.9$n#X.y.++p <+m%x$n+{+>+D@{+'&&&b;c;d;e;]+3#'#3#T+E.c#/#3#`@K@S+[-",
".*y#%+<+<+S&S+c#5%G@%+<+6@D@6%f;g;h;i;j;|$B$B$B$>+>+'#>+}%|%Z.{.J <+&+I.x$>+`@d.k;{ { { { { { { { { { { { { { { { { { { { { { { { { { { { { { { { { { { { { { { { { { { { { { { { { { { l;'#9$&+>+x$V@`@o&y.W M.9$r 3#>+*+x$x$q%x$m;n;o;p;q;>+l#E@V@h#h=c#`@q%D@6@`@K@{#",
"D#$+6@:@6@'#q%`@7$h.`@D@V@V@q%r;s;t;u;v;R%y+>+P.q%P.V@%+N.w;b#W&{.E.'#S&V@V@`@h.k;{ { { { { { { { { { { { { { { { { { { { { { { { { { { { { { { { { { { { { { { { { { { { { { { { { { { l;#*q%>+{+x$`@y v.x 7$&+q%6@%+>+B$P.B$B$x;y;z;A;B;B$D@:@6@3#/#G.`@3#Z%6@`@`@n#&*",
"D#G.`@K@r M.<+%+S+>$h.6@V@q%V@>+C;D;E;F;G;$&>+V@q%q%>+V@%+9$9$H;y.s.d.%+V@S&r /#k;{ { { { { { { { { { { { { { { { { { { { { { { { { { { { { { { { { { { { { { { { { { { { { { { { { { { l;'#V@>+>+<+Z `.C.,$&+N.D@<+V@q%x$n+k@I;J;K;L;M;Y+6@6@6@`@G.>$5%h#6@`@`@`@K@,$5@",
"/#n#`@K@`@6@:@`@V@P&f$h.c#S&P.3#S&=%N;O;P;Q;q+S&<+S&>+V@S&&+N.N.R W&R;>$'#S&G@,$S;{ { { { { { { { { { { { { { { { { { { { { { { { { { { { { { { { { { { { { { { { { { { { { { { { { { { T;o V@V@<+x t.l*>$I.9$V@V@V@%+>+n+|$U;V;W;X;I$B$6@`@`@`@5%5%#+G@L*G.K@`@7#K@`@E.",
"/#n#`@K@`@:@n#T+<+9$$+c=[+S+3#6@r %+Y;Z;`; >.>|$V@9$9$>+>+&+#*B+p W +>y.,$V@`@5%k;{ { { { { { { { { { { { { { { { { { { { { { { { { { { { { { { { { { { { { { { { { { { { { { { { { { { @>M.<+<+b#u.C.h.+@V@S&%+&+V@9$x$]&#>$>%>&>*>x$S+`@6@`@5%3+G@S+G@G.y#S+`@y#y#G.&*",
"h=n#`@r `@`$:@n#7$,$&*K$F.[+d#`@;%r h*s&X*=>->_;P.9$N.V@V@'#<+'#I.:@x ].X.$+:@d.k;{ { { { { { { { { { { { { { { { { { { { { { { { { { { { { { { { { { { { { { { { { { { { { { { { { { { @>7$M.F.{=Z h.*+'#6@<+V@>+x$>+B$};n%;>>>,>]%`@h#`@:@d.b#/#y#J ,$]@y#6@s#d#:@y#&*",
"&*n#G@r r K@S+$+:@g.S#E..*b#g.r %+M.c#]%'>)>!>~>y#o &+V@&+V@c#M.M.I.$+C.e=A.$+d.k;{ { { { { { { { { { { { { { { { { { { { { { { { { { { { { { { { { { { { { { { { { { { { { { { { { { { {>o Q.,.K=^$/+<+r 6@'#'#&+q%V@o ]>^>>>/>x%<+`@`@r h.@+(>h.h=F#/#y#:@6@`@y#K@,$A+",
"&*d.`@:@7$y#K@`@r d.K _>h./#C T.r o o D@'&:><>[>w#,$%+D@'#N.'#%+`@G@>+E.J%].G.5%k;{ { { { { { { { { { { { { { { { { { { { { { { { { { { { { { { { { { { { { { { { { { { { { { { { { { { {>M.I w.x /+o r c#&+>+q%'#'#<+F.}>|>1>_@'#<+6@:@$+F.h.G.F..*I /#G.:@K@K@n#:@,$ #",
"U#E.`@`@6@`@`@:@7$/#2>{*1+/#5%C E.6@<+6@'#{+9$R w.J%$+G@'#'#'#M.7$7$G@U.z.u.5%E.k;{ { { { { { { { { { { { { { { { { { { { { { { { { { { { { { { { { { { { { { { { { { { { { { { { { { { 3>r 3+z.X.G@<+c#3#q%x$V@{*c#4+Z.@+3#Z+x$V@<+:@d.R &*$+T#c#/#F#n#y#y#y#K@y#K@,$ #",
"J g.T+y#6@6@`@G@M.n#Z@`@o [+n#,$b#g.:@r `@%+X#M.b#X.` $+<+'#%+6@r `@7$I Z.u.d.h.k;{ { { { { { { { { { { { { { { { { { { { { { { { { { { { { { { { { { { { { { { { { { { { { { { { { { { 4>G@R w.].:@`@`@6@V@>+%+o I Z.x f$r+&+q%V@r d.F..*G.L S+:@/#F#,$y#]@y#y#y#T+/# #",
"Z@S..*5%y#K@:@`@'#n#J y#c#+@c=/#w+x g.:@G@r %+}%G@x u.v r V@S&6@`@c#G@4+Z.].)$!$5>{ { { { { { { { { { { { { { { { { { { { { { { { { { { { { { { { { { { { { { { { { { { { { { { { { { { 6>M$F.w.].:@6@:@K@<+8$'#S.W&l*h.7+>+D@-+;%:@R [+:@R 7$:@G.5%4+/#]@T+:@`@d#y#/# #",
"5@E.y#y#:@:@r c#M.h.S#]@`@D@'#`@`@S.F.n#M.G.:@N.(+S+.+u.1+c#o 6@G@c#<+J 7>,.h.E.5>{ { { { { { { { { { { { { { { { { { { { { { { { { { { { { { { { { { { { { { { { { { { { { { { { { { { 6>r b#w.].`@`@y#y#`@%+:@W.y S#,+I.'#6@G@`@[+U.`@M.n#7$n#]@h=H /#]@n#y#G.`@/#,$S.",
"w+w+T+T+S+`@G@r G@h.8>.*]@`@`@y#`@]@U#R G@6@`@<+N.*+l*9>L M.c#^%:@r r 0>w.'.d.&*a>{ { { { { { { { { { { { { { { { { { { { { { { { { { { { { { { { { { { { { { { { { { { { { { { { { { { 6>:@x x.,.S+K@K@$+$+<+$+b>O.q%{+>+3#6@<+[+U.]@`@6@]@:@K@/#h=4+/#/#h=5@/#]@w+5%E.",
"Z@E.T+y#y#$+S+r S+g.4+.*/#`@`@T+`@G.(>P-,$7$r 7$%+N$c>d>e>G@G@:@$+r `@F#w.{.h.E.a>{ { { { { { { { { { { { { { { { { { { { { { { { { { { { { { { { { { { { { { { { { { { { { { { { { { { 6>:@x v.'.$+S+K@`@6@'#-+f>g>h>V@'$D@<+6@C 5@y#`@6@T+T+y#/#/#4+d.T+/#h=/#/#5@d.&*",
"Z@E.n#y#:@`@S+:@`@5@H#d.]@:@`@y#y#^@/#8>U#T+`@S+%+Y+i>j>k>{$G@G@`@6@`@S Z.'.d.g.5>{ { { { { { { { { { { { { { { { { { { { { { { { { { { { { { { { { { { { { { { { { { { { { { { { { { { l>m>x `.r.n#`@K@`@3#V@n>o>p>q>>+j&h#6@`@2+.*]@6@c#n#r>]@^@5%F#/#T+]@/#h=5@5@h.E.",
"c.g.n#y#:@:@S+`@`@E.F#/#G.`$`@K@]@s> *T#K T+G.n#G@y+t>u>v>`@M.o M.G@G@L Z.r.h.D.a>{ { { { { { { { { { { { { { { { { { { { { { { { { { { { { { { { { { { { { { { { { { { { { { { { { { { l>:@C v.'.n#`@:@7#`@<+K*w>x>y>]+3#^%K@K@V#5%T+6@c#]@h=/#/#d.F#h.G.S+S+/#.*5@5%E.",
"U#D.n#y#/#d.d.y#$+S.8>D#y#y#`@K@]@]@/#F#g.S+n#/#6@o+z>A>B>K@{$o M.%+M.F#Z.,.h.1+a>{ { { { { { { { { { { { { { { { { { { { { { { { { { { { { { { { { { { { { { { { { { { { { { { { { { { C>$+x 7>'.n#`@G.K@:@r K*D>E>y>P.`@K@:@`@R n#`@3#6@T+/#/#/#d.U.h.y#`@r y#/#h=d.E.",
"A+D.>$d./#d./#n#:@g.F#h=T+y#K@K@y#]@/#4+[+n#T+y#G@y+F>G>H>d#7$o I><+o R X.,.!$|+a>{ { { { { { { { { { { { { { { { { { { { { { { { { { { { { { { { { { { { { { { { { { { { { { { { { { { J>$+x w.'.n#G.T+n#n#`@K*K>L>M>m%`@K@y#S+++y#:@`@r n#/#d.n#,$F#/#y#`@r :@5@T+d.&*",
"A+[+,$h.h=,$5%y#`@5@;+5@/#s#`@`@^%]@/#H#J /#G.S+n#N$N>O>P>d#7$M.<+3#<+3+w.{.|+[+a>{ { { { { { { { { { { { { { { { { { { { { { { { { { { { { { { { { { { { { { { { { { { { { { { { { { { J>`@x Q>r.,$T+/#n#T+s#R>S>T>M>==`@K@y#:@C $+G.K@:@/#n#y#n#d.I h.y#n#S+]@h=G.T+U#",
"A+1+h.h./#d.h.n#:@E.K d./#K@h#`@K@T+h=4+a$U>y#G.y#]+V>W>B>s#:@`@%+3#`@4+w.X>D.Q.a>{ { { { { { { { { { { { { { { { { { { { { { { { { { { { { { { { { { { { { { { { { { { { { { { { { { { C>:@x t.'./#T+G.y#T+s#Y>Z>`>M> ,`@]@D#:@C y#:@n#/#5%U>n#/#.*I d./#T+/#/#.*/#,$c.",
"[+[+h.,$T+5%,$d./#&*U..*n#:@S+d#]@/#5%H#|+$+y#]@:@V@.,+,@,]@S+G@<+6@:@4+Y.X>g.[+a>{ { { { { { { { { { { { { { { { { { { { { { { { { { { { { { { { { { { { { { { { { { { { { { { { { { { #,:@C x.$,,$y#K@`@`@s#%,&,L>*,6@y#=,K@r A y#{$y#/#h.d.,$.*g.3+E.,$/#5%5%w+/#,$S.",
"[+D.d.5%n#/#y#/#E.J U./#G.n#K@y#/#/#d.F#D.:@n#/#r V@-,;,>,=,G.7$c#`@:@S#Y.X>!$[+a>{ { { { { { { { { { { { { { { { { { { { { { { { { { { { { { { { { { { { { { { { { { { { { { { { { { { ,,m>b#x.',,$^%:@`@:@D#'-),!,~,`@:@]@:@:@x ,${$$+d.d./#h..*g.R 5%5%y#n#5@2>h.d.S.",
"A+[+h.d.n#y#:@/#E.U#4+/#:@n#y#n#T+/#/#3+g.{$$+:@6@{,],^,/,5%n#:@7$r :@S#w.X>!$a$a>{ { { { { { { { { { { { { { { { { { { { { { { { { { { { { { { { { { { { { { { { { { { { { { { { { { { (,$+b#u._,n#`@G.`$y#n#:,<,[,},]@:@/#T+y#x h.:@$+h.d./#d..*g.H E./#G.y#5@&*h.d.[+",
"A+1+h.h.h./#$+,$/#J 3+E.d#G.:@]@T+]@.*V#a$$+{$:@:@o@|,1,2,d.n#,$y#K@S+K H-',E.}+a>{ { { { { { { { { { { { { { { { { { { { { { { { { { { { { { { { { { { { { { { { { { { { { { { { { { { #,$+b#].',:@`@y#:@T+/#3,4,5,6,d.$+/#d.n#x h.:@n#h.d.T+y#/#S.H 5@5@/#5%7,c.g.)$J ",
"S.Q.E.E.d./#$+n#n#[+R &*T+]@G./#/#d.5@[-u$,$:@`@3#p&8,9,0,7,n#,$n#]@n#F#w.X>T.[+a>{ { { { { { { { { { { { { { { { { { { { { { { { { { { { { { { { { { { { { { { { { { { { { { { { { { { a,T+C  +_,$+`@S+y#n#S+b,c,d,e,h*G.5%T+n#x d.S+n#d.E./#y#/#g.4+g.E.g.g.&*U#&*h.J ",
"S.[+E.g.5%,$n#T+d.K 2+&*5%/#]@h=.*h=5@2+L n#,$/#G.q+f,g,h,d.n#m>G.G.h.R x.X>h.t$a>{ { { { { { { { { { { { { { { { { { { { { { { { { { { { { { { { { { { { { { { { { { { { { { { { { { { i,s$z {=_,$+6@`@:@`@`@+&j,k,l,-+/#h=.*,$x ,$G.5%5@&*h.T+d.D.T g.g.E.&*&*U#&*h.K ",
"[+[+E.g.5%/#T+5%E.K 2+S.g./#T+5@5@/#5@2+L n#/#5%n#m,n,o,@,/#U>U>,$$+5%b#`._,E.[+p,{ { { { { { { { { { { { { { { { { { { { { { { { { { { { { { { { { { { { { { { { { { { { { { { { { { { i,s$x u.$,$+6@K@:@S+`@q,r,s,G;`@d./#.*n#x E.d.(>/#w+g.d.f$K C [+&*g.&*S.c.S.T.K ",
"A+[+E.g.d.5@g.&*&*U.@+J c.g..*E.h=/#5@b#Q.d.5%5%n#t,n,u,v>]@r$m>,$,$h.@$t.',a$}+p,{ { { { { { { { { { { { { { { { { { { { { { { { { { { { { { { { { { { { { { { { { { { { { { { { { { { i,,$5+u.$,>$K@]@n#T+K@v,Z>w,x,d#d.T+5%5@5+S.5@.*E.w+E.E.g.S x [+S.&*&*S.A+[+E.Q.",
"J 1+E.g.g.&*U#A+[+F#@+J &*c.&*w+h=5@&*@$1+E.d.T+T+m,y,z,A,`@G@:@$+,$E.++x.',t$}+p,{ { { { { { { { { { { { { { { { { { { { { { { { { { { { { { { { { { { { { { { { { { { { { { { { { { { B,d..+].',d.,$5%/#d./#x;C,D,*,`@]@G.y#d..+U#g.E.S.E.E.g.J 4+B J [+&*&*S.[+S.h.L ",
"Q.r$5%g.c.U#J S.&*U.@+J U#A+g..*5@w+&*@+a$%@d.T+T+A&V>E,A,`@7$m>$+y#d.C `.',D.D.p,{ { { { { { { { { { { { { { { { { { { { { { { { { { { { { { { { { { { { { { { { { { { { { { { { { { { F,d.B.,.',h.,$/#5@w+/#G,C,H,I,u=y#K@T+,$Z g.g..*S.d.g.&*J F#x U#&*S.S.c.[+E.>$^$",
"s$h.g.[+J U.b#J |+H 2+[+&*J S.E..*w+E.F.1+h.d.d.T+A&V>J,K,d#{$r$,$n#d.F.R;X>E.e$p,{ { { { { { { { { { { { { { { { { { { { { { { { { { { { { { { { { { { { { { { { { { { { { { { { { { { F,>$s ].',h.5%.*h.d.(>L,C,H,M,u=G.n#y#y#5+E.g.h.[+E.g.g.c.4+x #+[+C J c.S.S.d.$+",
"D.E.S.K U.N,0$U.G#y @+C F.@+b.R 2+@+K R J h./#d.y#A&O,W>v>]@:@:@r$s$h.3+Z&', =a$P,{ { { { { { { { { { { { { { { { { { { { { { { { { { { { { { { { { { { { { { { { { { { { { { { { { { { Q,d.y '.R,h.5@E.5%d.]@S,T,U,*,7#n#$+:@y#C.S.x 4+T x F.F.x 2+@*R.F#x y K c.S.h.>$",
"[+g.[+U.` W Q.3+y x w#W u.z.Y X.N,w.[+2+U.E.h=h.$+P.V,W,X,/#m>:@n#,$d.R `.',D.}+P,{ { { { { { { { { { { { { { { { { { { { { { { { { { { { { { { { { { { { { { { { { { { { { { { { { { { Y,s$s {.Z,h.h=E.d.5%5%L,Z>`, 's#n#T+,$n#C.[+V.A..'+'@'@*u y.x z.R Q x y L c.h.,$",
"[+S.J R y I b#@*C.2+x s.` @*R;N,s.@*V#++U.h.5@E./#j&#'$'%'/#m>$+,$/#5%F.`.',[+1+P,{ { { { { { { { { { { { { { { { { { { { { { { { { { { { { { { { { { { { { { { { { { { { { { { { { { { z=h.B.'.&'d.5%5%n#n#T+'-Z>*' 'K@,$d.d.,$C.L z.='u e=+'J%-';'Z C.z.b#R.y R g.E.)$",
"1+S.U.Q.U.F.y ` F.b#>'@*o&y.N,4=J%X.F#++Q.n#5%.*n#;%,''')'/#$+:@d.d.&*|%t.',t$~$P,{ { { { { { { { { { { { { { { { { { { { { { { { { { { { { { { { { { { { { { { { { { { { { { { { { { { !'!$A.{=_,h.d.n#$+$+y#~'{']'^':@/#5@h.,$v K B.o&/'N,R;('o&4=B.b#R J%x R c.J g.)$",
"!$E.U.3+F.B.v _'L R |%R.V#3+b#F.F.@+^$I g.$+/#n#:@`@:'<'['d.n#$+h.d.g.++`.{.D.I P,{ { { { { { { { { { { { { { { { { { { { { { { { { { { { { { { { { { { { { { { { { { { { { { { { { { { }'g.y u.r.T.h.5%,$$+]@|'D*1'2'7$,$5@,$n#Z >$F.H;2+4+n=F.@+C @+H 3'0$z.2+F#U#S.n#",
"D@Y+P.D@x$J 2+F.b.b.x C.C.b.`*.+B.V.x C >$n#d.$+{$d.4'5'6'd.,$d.E.h.g.++w.I s$u$P,{ { { { { { { { { { { { { { { { { { { { { { { { { { { { { { { { { { { { { { { { { { { { { { { { { { { }'|+J z.r.|+d.h.T+n#d.k#0=7'9=r$)$h.T+r$H;b#x Z.`*Z C.v C.Z 5+C.x 5+R q%A&B$8's%",
"}+T.h.h.n#T&q+|$x$k$D@3#u=E@u=m%Z%9'0'G@s$,$h.:@g.a'L&2,T=g.d.E.g.E.&*@+z 6@d.I P,{ { { { { { { { { { { { { { { { { { { { { { { { { { { { { { { { { { { { { { { { { { { { { { { { { { { b'[+,$I u.&*h./#y#/#&*P-c'd'e'I ,$T+$+n#/#f'g'h'K@Z%D@T&x$]*}%P.==A&P.p >$h.T+n#",
"}+g.E.5@E.,$G.d.n#:@$+d.h.h.c.E.&*&*d.h.d.,$d.:@S.i'j'`*x g.d.g.&*&*S.++s E.h.I P,{ { { { { { { { { { { { { { { { { { { { { { { { { { { { { { { { { { { { { { { { { { { { { { { { { { { k'E.!$F.].g.E..*n#n#&*l'm'n'o'F.r$$+$+m>5@d.d./#T+/#E.T+:@n#,$E.E.E.5%h.g.g.E.d.",
"a$s$h.E.E.h.,$g.,$:@T+,$d.d.g.E.g.g.,$$+E.h.d.,$J Q>p'.+C g.h.g.&*S.S.++y &*E.Q q'{ { { { { { { { { { { { { { { { { { { { { { { { { { { { { { { { { { { { { { { { { { { { { { { { { { { r'g.E.b#'.g.g.E./#n#&*[-Q>z.Q>z d.n#n#T+$+,$d.d.n#,$g.h.d.,$h.%@E.[+S.E.S.S.h.h.",
"1+h.E.g.E.g.!$g.d.d.d.!$g.h.g.g.d.n#$+d.E.g.%@h.L s't'C.C g.d.g.[+|+[+x y S.g.T q'{ { { { { { { { { { { { { { { { { { { { { { { { { { { { { { { { { { { { { { { { { { { { { { { { { { { u'g.g.z '.S.E.S.h.,$g.4+7>w#t.C !$,$d.n#m>r$T+n#m>,$g.h.%@)$g.g.[+J &*E.h.g.5%)$",
"t$h.f$S.S.g.[+S.!$v'h.E.!$!$%@h.n#:@,$h.h.g.g.g.L t.$,l*W |+g.g.[+[+w'x B.J g.E q'{ { { { { { { { { { { { { { { { { { { { { { { { { { { { { { { { { { { { { { { { { { { { { { { { { { { x't$|+A '.S.g.[+D.,$g.H Z.w#x.b#T+T+,$)$,$h.{$n#n#d.E.h.g.h.!$!$[+g..*E./#E.h.,$",
"t$h.g.[+[+E.a$[+g.h.,$h.!$g.g.h.n#T+d.h.%@g.S.D.I u.p'.+v 1+g.c.J [+[+x A.K a$z y'{ { { { { { { { { { { { { { { { { { { { { { { { { { { { { { { { { { { { { { { { { { { { { { { { { { { x'g.|+z X>J [+w'S.g.S.H z'z.W&C h.)$)$U>)$y#:@r$h.E.S.h.!$h.!$!$[+c..*E.g.d.h.,$",
"}+h.g.S.!$h.[+[+|+d.r$r$!$|+g.g.)$)$h.d.d.h.E.S.F#u.$,Z x K S.J U.K #+x o&K a$z y'{ { { { { { { { { { { { { { { { { { { { { { { { { { { { { { { { { { { { { { { { { { { { { { { { { { { x'g.[+x $,J S.[+c.J U.2+Z.w#W&x |+g.g.h.%@U>,$s$!$g.E.h.g.h.!$!$d.g.,$!$E.d.h.r$",
"w$g.[+E.d.E.&*g.g.g.A')$!$|+g.g.E.d.d.h.g.|+g.|+I o&Z.C x L a$J L J L C.z.L K z y'{ { { { { { { { { { { { { { { { { { { { { { { { { { { { { { { { { { { { { { { { { { { { { { { { { { { B'1+J x {.Q.[+K ;+U.U.b#z.v ` C [+[+g.g.%@h.r$,$d.g.g.h.g.g.g.g.%@!$)$h.h.h.h.{$",
"T.D.D.g.g.E.S.g.g.!$!$%@g.g.g.d.g.|+!$h.|+a$S.|+I Z.x F.z L C'K U.K 4+C.A.I L z y'{ { { { { { { { { { { { { { { { { { { { { { { { { { { { { { { { { { { { { { { { { { { { { { { { { { { D'L L x '.U.Q.U.;+U.I b#x u$Z C [+K J [+S.E.h.!$,$E'|+g.S.|+w'c.|+g.%@g.|+g.S.d.",
"g.g.[+g.S.g.a$S.g.g.v'|+|+|+g.g.g.g.!$S.[+K }+[@I w#F'Q x I K m+G#K m+Z z.u$L z y'{ { { { { { { { { { { { { { { { { { { { { { { { { { { { { { { { { { { { { { { { { { { { { { { { { { { G'L L x '.U.J K U.K U.R z J.B.0$M$J J K J S.S.g.E.a$[+a$[+C'C'w'c.[+[+|+a$g.J [+",
"L L I K L L I L K K K K L L L L K K K K L I u$~$z X.` @*F#F#L G#H F#K y W.I L v y'{ { { { { { { { { { { { { { { { { { { { { { { { { { { { { { { { { { { { { { { { { { { { { { { { { { { H'u$L Z _,J K U.K K 4+F#y o&Z.C.t$I 4+F#L Q.K G#U.I I U.I G#I K L I I I I I H T ",
"X>&'Z,I'&'',',_,X>',',_,_,_,_,X>',$,{=Z&X.y.R;v.X.C.++L 4+R F F.b#Y Q W.J'I L v y'{ { { { { { { { { { { { { { { { { { { { { { { { { { { { { { { { { { { { { { { { { { { { { { { { { { { H'L K'v $,[+C x 3+R.F.R.I b.++z.y.u.u.v.`.].'._,&'L'',',I'Z,&'&'I'L'&'',$,',',_,",
"2.M'p.N'n.O'q.O'P'Q'P'Q'P'q.2.2.2.P'P'Q'P'P'O'P'Q'P'O'P'2.p.o.n.2.2.R'S'z.4+H s y'{ { { { { { { { { { { { { { { { { { { { { { { { { { { { { { { { { { { { { { { { { { { { { { { { { { { T'H H V.U'V'M'2.p.W'p.2.M'P'X'X'X'Q'P'P'O'2.p.M'P'q.q.P'P'P'P'O'p.n.2.M'2.M'2.O'",
"u.'.^.$,r.'.'.'.].t. +'.^.$,^.^.^.Y'Y''.'.'.'. + +'.'.u.w.Q>Z' + +m'`' ).)5+y R;y'{ { { { { { { { { { { { { { { { { { { { { { { { { { { { { { { { { { { { { { { { { { { { { { { { { { { +)J%s K=@)#)$)Q>u.Z',.Y' +Z'u.t.Y.t.u.^.Y' +'.'. +Y' +%)t.t.u. +'.^.^.'.^.,.'.^.",
"6 &){${$M$[ [ n j z&6 n M.:@G@7$7$q q p N.n N.n N.8 N.8 N.N.o q M$7$r 6@M.o N.#*.={ { { { { { { { { { { { { { { { { { { { { { { { { { { { { { { { { { { { { { { { { { { { { { { { { { { *),*o '#9$<+M.&+N.k n {*'#'#V@'#=)k n q -)2 G@7$`@7$'#n n 6 &)o N.#*#*'#n 9$#*G@",
";)>),)')2=,)>)));)!)~){))),)2=2=2=,)2=,){)])^)])/)/)/)()>)>),)2=_):)2=2=2=<)^)[)I={ { { { { { { { { { { { { { { { { { { { { { { { { { { { { { { { { { { { { { { { { { { { { { { { { { { }),)<)<)|)|)|)>){)1)2)>)])3)4)>)/)5){)()6)>),)2=2=2=()/){){)>)|)>)|)^)5)])/)>)()"};
