/* XPM */
static char * so_door31_tex_xpm[] = {
"132 132 1017 2",
"  	c #2F3A46",
". 	c #2F3B46",
"+ 	c #2F3A45",
"@ 	c #303B46",
"# 	c #303C47",
"$ 	c #303A45",
"% 	c #313D4A",
"& 	c #313E4A",
"* 	c #323E4A",
"= 	c #323F4A",
"- 	c #313D48",
"; 	c #35393C",
"> 	c #393939",
", 	c #383939",
"' 	c #303B45",
") 	c #323F4B",
"! 	c #313D49",
"~ 	c #303C48",
"{ 	c #293949",
"] 	c #293B4B",
"^ 	c #293A4A",
"/ 	c #293A49",
"( 	c #2A3B4B",
"_ 	c #2A3B4A",
": 	c #2B3D4C",
"< 	c #2C3F4F",
"[ 	c #2D3F4F",
"} 	c #2C3F50",
"| 	c #2D4151",
"1 	c #2C3D4C",
"2 	c #33393E",
"3 	c #37383A",
"4 	c #2B3C4B",
"5 	c #2A3C4B",
"6 	c #293C4B",
"7 	c #2D4050",
"8 	c #293B4A",
"9 	c #283949",
"0 	c #1B2833",
"a 	c #1B2834",
"b 	c #1B2934",
"c 	c #1C2934",
"d 	c #1C2A35",
"e 	c #1C2A36",
"f 	c #1D2A36",
"g 	c #1D2B38",
"h 	c #1E2D39",
"i 	c #1F2F3C",
"j 	c #1F2E3B",
"k 	c #1F2E3A",
"l 	c #1F2C39",
"m 	c #313437",
"n 	c #303337",
"o 	c #1F2C38",
"p 	c #1E2C38",
"q 	c #1C2B37",
"r 	c #1D2D3A",
"s 	c #1D2B37",
"t 	c #1C2935",
"u 	c #1B2733",
"v 	c #080F14",
"w 	c #080E14",
"x 	c #080E13",
"y 	c #090E14",
"z 	c #091015",
"A 	c #09131B",
"B 	c #091C2B",
"C 	c #0F1E29",
"D 	c #131F27",
"E 	c #131E27",
"F 	c #131C24",
"G 	c #2F3031",
"H 	c #2E2F31",
"I 	c #131E26",
"J 	c #141F28",
"K 	c #121E27",
"L 	c #091C29",
"M 	c #08151F",
"N 	c #081015",
"O 	c #090F14",
"P 	c #0C141A",
"Q 	c #0B1319",
"R 	c #0A1117",
"S 	c #0A1116",
"T 	c #090F15",
"U 	c #0C1319",
"V 	c #0E1821",
"W 	c #0F1E2A",
"X 	c #192733",
"Y 	c #20303E",
"Z 	c #223341",
"` 	c #303336",
" .	c #2F3236",
"..	c #21313F",
"+.	c #223340",
"@.	c #101E28",
"#.	c #0E1A23",
"$.	c #0B151B",
"%.	c #0A1218",
"&.	c #0B1218",
"*.	c #0D151C",
"=.	c #192732",
"-.	c #182530",
";.	c #192530",
">.	c #21313E",
",.	c #21323F",
"'.	c #1C2B36",
").	c #233644",
"!.	c #1E303F",
"~.	c #273948",
"{.	c #293C4C",
"].	c #233340",
"^.	c #313438",
"/.	c #2F3337",
"(.	c #263947",
"_.	c #283B4A",
":.	c #192834",
"<.	c #263B4B",
"[.	c #1F2F3B",
"}.	c #1D2C38",
"|.	c #20313E",
"1.	c #22333F",
"2.	c #1E2E3A",
"3.	c #1A2833",
"4.	c #243644",
"5.	c #273949",
"6.	c #283B4B",
"7.	c #2A3E4E",
"8.	c #2C4253",
"9.	c #243847",
"0.	c #1E2E3B",
"a.	c #283C4C",
"b.	c #2A3F4F",
"c.	c #243442",
"d.	c #313538",
"e.	c #303438",
"f.	c #283A4B",
"g.	c #293D4D",
"h.	c #273B4C",
"i.	c #2D4253",
"j.	c #2B4050",
"k.	c #2B3F4F",
"l.	c #2B4051",
"m.	c #2A3E4D",
"n.	c #263948",
"o.	c #20303D",
"p.	c #202F3B",
"q.	c #2C4354",
"r.	c #1E303E",
"s.	c #1E2D3A",
"t.	c #293E4E",
"u.	c #2A3E4F",
"v.	c #2C4152",
"w.	c #2E4455",
"x.	c #2E4557",
"y.	c #263C4C",
"z.	c #2A3F50",
"A.	c #263744",
"B.	c #323639",
"C.	c #303539",
"D.	c #2B4153",
"E.	c #203240",
"F.	c #2D4354",
"G.	c #2D4353",
"H.	c #2E4354",
"I.	c #2D4355",
"J.	c #293D4E",
"K.	c #2B3F51",
"L.	c #1F2F3D",
"M.	c #293D4B",
"N.	c #2D4457",
"O.	c #1E313F",
"P.	c #243745",
"Q.	c #233443",
"R.	c #2A3D4E",
"S.	c #2E4558",
"T.	c #2E4659",
"U.	c #294052",
"V.	c #293E4F",
"W.	c #2B4052",
"X.	c #273745",
"Y.	c #32363A",
"Z.	c #30353A",
"`.	c #293D4C",
" +	c #2C4355",
".+	c #213443",
"++	c #2F4558",
"@+	c #223240",
"#+	c #2D4659",
"$+	c #1F3342",
"%+	c #223543",
"&+	c #223542",
"*+	c #2D4557",
"=+	c #30475A",
"-+	c #2B4254",
";+	c #243645",
">+	c #2C4254",
",+	c #273846",
"'+	c #33373B",
")+	c #37393A",
"!+	c #30363B",
"~+	c #213343",
"{+	c #2F4659",
"]+	c #2A4052",
"^+	c #2C4153",
"/+	c #213240",
"(+	c #253847",
"_+	c #223645",
":+	c #1B2F3D",
"<+	c #142029",
"[+	c #2B4152",
"}+	c #2A3F51",
"|+	c #293E50",
"1+	c #31485C",
"2+	c #2E4456",
"3+	c #273947",
"4+	c #30373C",
"5+	c #2D4254",
"6+	c #203341",
"7+	c #32495E",
"8+	c #304659",
"9+	c #1D2C39",
"0+	c #1A2B38",
"a+	c #2E485B",
"b+	c #1D3140",
"c+	c #182631",
"d+	c #263A49",
"e+	c #253949",
"f+	c #2D4356",
"g+	c #253846",
"h+	c #33373C",
"i+	c #30373D",
"j+	c #1F303F",
"k+	c #2F4557",
"l+	c #233645",
"m+	c #1D2E3B",
"n+	c #314A5F",
"o+	c #1F3241",
"p+	c #273A4A",
"q+	c #30485B",
"r+	c #2D4357",
"s+	c #283A49",
"t+	c #34383D",
"u+	c #31383F",
"v+	c #2E4457",
"w+	c #1F303E",
"x+	c #31475A",
"y+	c #243746",
"z+	c #1E2F3D",
"A+	c #2F485C",
"B+	c #1F3140",
"C+	c #1A2834",
"D+	c #273A49",
"E+	c #253746",
"F+	c #2E4658",
"G+	c #2E4458",
"H+	c #34393D",
"I+	c #31393F",
"J+	c #1E303D",
"K+	c #2D4558",
"L+	c #2C4052",
"M+	c #223442",
"N+	c #2F495D",
"O+	c #203140",
"P+	c #253948",
"Q+	c #35393D",
"R+	c #313940",
"S+	c #2A4051",
"T+	c #304759",
"U+	c #233746",
"V+	c #2F475B",
"W+	c #1B2A35",
"X+	c #253947",
"Y+	c #233545",
"Z+	c #1C2B39",
"`+	c #2B4154",
" @	c #2D4456",
".@	c #243846",
"+@	c #30475B",
"@@	c #1E3140",
"#@	c #1B2A36",
"$@	c #253747",
"%@	c #31495D",
"&@	c #31485B",
"*@	c #283E4F",
"=@	c #233543",
"-@	c #35393E",
";@	c #313A41",
">@	c #293D4F",
",@	c #1B2C39",
"'@	c #2F4658",
")@	c #233646",
"!@	c #203444",
"~@	c #233544",
"{@	c #2F475A",
"]@	c #30485A",
"^@	c #324A5E",
"/@	c #17242E",
"(@	c #353A3E",
"_@	c #313A42",
":@	c #182734",
"<@	c #223544",
"[@	c #2B3F50",
"}@	c #314C60",
"|@	c #2B475C",
"1@	c #213D51",
"2@	c #243E50",
"3@	c #17242F",
"4@	c #18252F",
"5@	c #2A3D4D",
"6@	c #1D2E3C",
"7@	c #30495C",
"8@	c #253B4D",
"9@	c #253E52",
"0@	c #2A465A",
"a@	c #334B5F",
"b@	c #37546B",
"c@	c #1F4965",
"d@	c #1A74A2",
"e@	c #2A495E",
"f@	c #2A4153",
"g@	c #1A2935",
"h@	c #38393A",
"i@	c #323B43",
"j@	c #1A2A36",
"k@	c #1C2D3A",
"l@	c #2C4659",
"m@	c #2A5B7B",
"n@	c #265F82",
"o@	c #305069",
"p@	c #365064",
"q@	c #324B5F",
"r@	c #355065",
"s@	c #1D4864",
"t@	c #127BB7",
"u@	c #2A4A61",
"v@	c #2C4356",
"w@	c #283E4E",
"x@	c #2B3E4E",
"y@	c #38393B",
"z@	c #1C2C38",
"A@	c #1B2B38",
"B@	c #2E4A5E",
"C@	c #286388",
"D@	c #246287",
"E@	c #2F4E66",
"F@	c #385268",
"G@	c #1E4864",
"H@	c #137BB9",
"I@	c #2B4B61",
"J@	c #273C4C",
"K@	c #303941",
"L@	c #1A2934",
"M@	c #2F4A5E",
"N@	c #296489",
"O@	c #236389",
"P@	c #2F4F66",
"Q@	c #30485D",
"R@	c #1E4966",
"S@	c #0F7CC1",
"T@	c #2B4A61",
"U@	c #283D4D",
"V@	c #2B4151",
"W@	c #2B404F",
"X@	c #363A3D",
"Y@	c #383A3C",
"Z@	c #313B43",
"`@	c #1C2C39",
" #	c #28658A",
".#	c #23668D",
"+#	c #2F5067",
"@#	c #30485C",
"##	c #385368",
"$#	c #1F4966",
"%#	c #0E7DC4",
"&#	c #2C4B62",
"*#	c #192630",
"=#	c #36393D",
"-#	c #313A43",
";#	c #1C2B38",
">#	c #2A6488",
",#	c #22668F",
"'#	c #2F5069",
")#	c #365267",
"!#	c #1E4765",
"~#	c #1279C2",
"{#	c #2D4A61",
"]#	c #303A44",
"^#	c #2A668B",
"/#	c #216690",
"(#	c #2F526B",
"_#	c #365167",
":#	c #1277C2",
"<#	c #2B3E4F",
"[#	c #383A3B",
"}#	c #2F485D",
"|#	c #2B658A",
"1#	c #206692",
"2#	c #30526B",
"3#	c #354F65",
"4#	c #1E4967",
"5#	c #107AC4",
"6#	c #2E4C63",
"7#	c #2C4456",
"8#	c #283D4C",
"9#	c #1B2935",
"0#	c #363A3E",
"a#	c #313B45",
"b#	c #293E4D",
"c#	c #1B2B36",
"d#	c #2F495E",
"e#	c #2B658C",
"f#	c #1F6693",
"g#	c #30536D",
"h#	c #344F64",
"i#	c #0F7BC7",
"j#	c #2D4C63",
"k#	c #2F3A43",
"l#	c #1B2933",
"m#	c #2C658B",
"n#	c #1F6692",
"o#	c #30526C",
"p#	c #344E62",
"q#	c #1E4763",
"r#	c #0F7AC6",
"s#	c #2C4C63",
"t#	c #18242E",
"u#	c #2F4A5F",
"v#	c #21668F",
"w#	c #2F5169",
"x#	c #314A5E",
"y#	c #344D61",
"z#	c #204763",
"A#	c #0F7CC6",
"B#	c #303B44",
"C#	c #273B4B",
"D#	c #192731",
"E#	c #216790",
"F#	c #1F4763",
"G#	c #0E7DC5",
"H#	c #2C4D64",
"I#	c #30465A",
"J#	c #2F3B45",
"K#	c #2B4253",
"L#	c #304A5F",
"M#	c #22658F",
"N#	c #334C60",
"O#	c #1F4864",
"P#	c #0D7EC7",
"Q#	c #2D4E65",
"R#	c #304658",
"S#	c #192631",
"T#	c #2B6386",
"U#	c #23648C",
"V#	c #1D445F",
"W#	c #127CBC",
"X#	c #2B4B62",
"Y#	c #2D4458",
"Z#	c #18252E",
"`#	c #36393C",
" $	c #2F3A44",
".$	c #2E4559",
"+$	c #2D475B",
"@$	c #2B6081",
"#$	c #266083",
"$$	c #2B4A60",
"%$	c #1F3A4E",
"&$	c #2A5875",
"*$	c #253F53",
"=$	c #2E3943",
"-$	c #254A62",
";$	c #224862",
">$	c #1C3040",
",$	c #2C4759",
"'$	c #244055",
")$	c #254F69",
"!$	c #243C4E",
"~$	c #17232D",
"{$	c #2E3A43",
"]$	c #2A4050",
"^$	c #273E50",
"/$	c #25485E",
"($	c #254962",
"_$	c #294458",
":$	c #304758",
"<$	c #1D4561",
"[$	c #1B73A7",
"}$	c #28485F",
"|$	c #37393C",
"1$	c #2E3A44",
"2$	c #293F51",
"3$	c #294356",
"4$	c #2A5F80",
"5$	c #255F83",
"6$	c #2C4960",
"7$	c #1D4764",
"8$	c #127BBD",
"9$	c #2A4B62",
"0$	c #2E3A45",
"a$	c #2C475B",
"b$	c #236289",
"c$	c #2E4D65",
"d$	c #1E4A67",
"e$	c #107CC4",
"f$	c #2A4A62",
"g$	c #2C4457",
"h$	c #17222D",
"i$	c #293E4C",
"j$	c #2E3A46",
"k$	c #2D4455",
"l$	c #2C485D",
"m$	c #29668C",
"n$	c #216590",
"o$	c #2E475A",
"p$	c #1E4866",
"q$	c #107BC4",
"r$	c #192632",
"s$	c #16222C",
"t$	c #2D3A44",
"u$	c #293F50",
"v$	c #29668A",
"w$	c #206792",
"x$	c #2D4F68",
"y$	c #1E4A68",
"z$	c #107BC3",
"A$	c #2A4961",
"B$	c #37393B",
"C$	c #2D3943",
"D$	c #2B475B",
"E$	c #1D4966",
"F$	c #1279BD",
"G$	c #2A485F",
"H$	c #16232D",
"I$	c #2D3A45",
"J$	c #17242D",
"K$	c #2B4559",
"L$	c #296386",
"M$	c #236489",
"N$	c #2D4F67",
"O$	c #1579B5",
"P$	c #29485E",
"Q$	c #2B4558",
"R$	c #296082",
"S$	c #256083",
"T$	c #1A384C",
"U$	c #21526E",
"V$	c #253E51",
"W$	c #253848",
"X$	c #2C3842",
"Y$	c #2B4252",
"Z$	c #214962",
"`$	c #204962",
" %	c #2B4457",
".%	c #2C4252",
"+%	c #1A2A37",
"@%	c #1A3040",
"#%	c #1A2733",
"$%	c #2C3742",
"%%	c #1D303F",
"&%	c #1C2E3D",
"*%	c #263845",
"=%	c #17232E",
"-%	c #2C3944",
";%	c #223441",
">%	c #253A48",
",%	c #2D3B45",
"'%	c #1B2A34",
")%	c #15212A",
"!%	c #1E2D38",
"~%	c #2B3944",
"{%	c #152029",
"]%	c #273C4A",
"^%	c #18242D",
"/%	c #273A48",
"(%	c #2C3945",
"_%	c #1D2D39",
":%	c #2B3844",
"<%	c #233542",
"[%	c #2A4152",
"}%	c #273B49",
"|%	c #293F4E",
"1%	c #2A3843",
"2%	c #293F4F",
"3%	c #293642",
"4%	c #2E4353",
"5%	c #14202A",
"6%	c #293743",
"7%	c #16222B",
"8%	c #142028",
"9%	c #192833",
"0%	c #2A3844",
"a%	c #293844",
"b%	c #293845",
"c%	c #16212B",
"d%	c #273B4A",
"e%	c #20303C",
"f%	c #283C4B",
"g%	c #21333F",
"h%	c #15212B",
"i%	c #182630",
"j%	c #21323E",
"k%	c #253745",
"l%	c #263641",
"m%	c #15222A",
"n%	c #263440",
"o%	c #141F27",
"p%	c #24323F",
"q%	c #233642",
"r%	c #141E26",
"s%	c #1E2E39",
"t%	c #2C4151",
"u%	c #263A4A",
"v%	c #1C2933",
"w%	c #151F27",
"x%	c #1C2C37",
"y%	c #333537",
"z%	c #282D32",
"A%	c #283C4A",
"B%	c #101C25",
"C%	c #141D26",
"D%	c #353738",
"E%	c #252E35",
"F%	c #283C4D",
"G%	c #152531",
"H%	c #122C3E",
"I%	c #103C55",
"J%	c #383839",
"K%	c #212F3A",
"L%	c #263B4C",
"M%	c #273D4C",
"N%	c #1C303D",
"O%	c #162C3B",
"P%	c #124361",
"Q%	c #11688D",
"R%	c #103447",
"S%	c #35383A",
"T%	c #29343E",
"U%	c #18242F",
"V%	c #273C4B",
"W%	c #1B3140",
"X%	c #153143",
"Y%	c #134B6C",
"Z%	c #0B729B",
"`%	c #10394F",
" &	c #35383B",
".&	c #293640",
"+&	c #2C4558",
"@&	c #1A3141",
"#&	c #163449",
"$&	c #144D6E",
"%&	c #0A749E",
"&&	c #103B52",
"*&	c #283641",
"=&	c #284255",
"-&	c #1A2933",
";&	c #153449",
">&	c #154D6F",
",&	c #0774A3",
"'&	c #103B53",
")&	c #284155",
"!&	c #253A49",
"~&	c #294051",
"{&	c #1B303F",
"]&	c #153247",
"^&	c #144C6E",
"/&	c #0675A5",
"(&	c #0F3A52",
"_&	c #284256",
":&	c #153347",
"<&	c #144C6D",
"[&	c #0973A0",
"}&	c #28343F",
"|&	c #274053",
"1&	c #283E4D",
"2&	c #1C3141",
"3&	c #153043",
"4&	c #144A6B",
"5&	c #0975A1",
"6&	c #103B51",
"7&	c #263E51",
"8&	c #233643",
"9&	c #1D3241",
"0&	c #152D3D",
"a&	c #144764",
"b&	c #0D7299",
"c&	c #11384D",
"d&	c #35373A",
"e&	c #28323C",
"f&	c #283F51",
"g&	c #243543",
"h&	c #1A2C3A",
"i&	c #15364A",
"j&	c #124D69",
"k&	c #212F3B",
"l&	c #1B2D3A",
"m&	c #172A3A",
"n&	c #2D373F",
"o&	c #20313F",
"p&	c #2F3439",
"q&	c #333639",
"r&	c #2A3D4C",
"s&	c #253946",
"t&	c #15202A",
"u&	c #2F363C",
"v&	c #273A4B",
"w&	c #33363A",
"x&	c #2E343A",
"y&	c #17252F",
"z&	c #1D2E39",
"A&	c #2E3439",
"B&	c #1F303D",
"C&	c #17252E",
"D&	c #33373A",
"E&	c #2E353B",
"F&	c #34373B",
"G&	c #2F353C",
"H&	c #34373A",
"I&	c #2E353C",
"J&	c #2B3F4E",
"K&	c #1B2B35",
"L&	c #233442",
"M&	c #16212A",
"N&	c #34383B",
"O&	c #2E363C",
"P&	c #152129",
"Q&	c #2D353C",
"R&	c #2D343B",
"S&	c #20313D",
"T&	c #15222C",
"U&	c #2C353B",
"V&	c #2C333B",
"W&	c #1A2732",
"X&	c #233341",
"Y&	c #22323F",
"Z&	c #343739",
"`&	c #2C333A",
" *	c #263745",
".*	c #293B4C",
"+*	c #15222D",
"@*	c #1E2F3B",
"#*	c #182834",
"$*	c #233745",
"%*	c #1E2F3C",
"&*	c #353739",
"**	c #182632",
"=*	c #283B4C",
"-*	c #162D3D",
";*	c #17455B",
">*	c #1D3342",
",*	c #18384B",
"'*	c #16394E",
")*	c #23394A",
"!*	c #163E57",
"~*	c #1A7198",
"{*	c #204054",
"]*	c #253645",
"^*	c #2B3239",
"/*	c #243544",
"(*	c #131D27",
"_*	c #253D4F",
":*	c #255673",
"<*	c #1F5978",
"[*	c #244257",
"}*	c #17425D",
"|*	c #147AAD",
"1*	c #204359",
"2*	c #253F52",
"3*	c #295D7D",
"4*	c #235E7F",
"5*	c #25455B",
"6*	c #184461",
"7*	c #107CB7",
"8*	c #22445B",
"9*	c #2A3239",
"0*	c #2A5E7F",
"a*	c #225F82",
"b*	c #18435F",
"c*	c #107CB8",
"d*	c #21445B",
"e*	c #263847",
"f*	c #21303E",
"g*	c #2A323A",
"h*	c #2A5F7F",
"i*	c #235F83",
"j*	c #24445B",
"k*	c #18425E",
"l*	c #0F7DBB",
"m*	c #21445C",
"n*	c #14212B",
"o*	c #243F53",
"p*	c #295F7F",
"q*	c #236084",
"r*	c #253A4A",
"s*	c #17415D",
"t*	c #117CB9",
"u*	c #131D26",
"v*	c #243E52",
"w*	c #2A5F7E",
"x*	c #226084",
"y*	c #25394A",
"z*	c #17405B",
"A*	c #147AB1",
"B*	c #204257",
"C*	c #15212C",
"D*	c #293138",
"E*	c #121D26",
"F*	c #223C4E",
"G*	c #2A5E7C",
"H*	c #234359",
"I*	c #173D57",
"J*	c #1677AA",
"K*	c #204155",
"L*	c #223443",
"M*	c #2A3139",
"N*	c #121C25",
"O*	c #233B4D",
"P*	c #2A5C79",
"Q*	c #255D7D",
"R*	c #214055",
"S*	c #1D2F3D",
"T*	c #17354A",
"U*	c #21607E",
"V*	c #1D394C",
"W*	c #202F3C",
"X*	c #293139",
"Y*	c #121D25",
"Z*	c #243646",
"`*	c #203646",
" =	c #204F6A",
".=	c #1E506B",
"+=	c #1A3345",
"@=	c #182D3B",
"#=	c #1F3E52",
"$=	c #1C2F3D",
"%=	c #16222D",
"&=	c #1F3340",
"*=	c #1E384B",
"==	c #1F394D",
"-=	c #1A2B39",
";=	c #1A3F57",
">=	c #1C6A8D",
",=	c #1D3C4F",
"'=	c #213241",
")=	c #293038",
"!=	c #131F28",
"~=	c #21394A",
"{=	c #23536F",
"]=	c #1F5471",
"^=	c #27455A",
"/=	c #273C4D",
"(=	c #153F59",
"_=	c #1578A7",
":=	c #1F4055",
"<=	c #21303D",
"[=	c #283038",
"}=	c #233441",
"|=	c #2A5C7A",
"1=	c #225978",
"2=	c #224258",
"3=	c #263A4B",
"4=	c #16415C",
"5=	c #137AB0",
"6=	c #233342",
"7=	c #363739",
"8=	c #233C4E",
"9=	c #2A5E7E",
"0=	c #235A7A",
"a=	c #234258",
"b=	c #253849",
"c=	c #127BB1",
"d=	c #223B4D",
"e=	c #225B7C",
"f=	c #234257",
"g=	c #17425E",
"h=	c #117CB4",
"i=	c #20445A",
"j=	c #373839",
"k=	c #273037",
"l=	c #213A4C",
"m=	c #2B5F7F",
"n=	c #235D7E",
"o=	c #107DB7",
"p=	c #272F37",
"q=	c #223A4C",
"r=	c #245C7E",
"s=	c #244359",
"t=	c #243948",
"u=	c #107DB9",
"v=	c #20435A",
"w=	c #21313D",
"x=	c #213340",
"y=	c #213441",
"z=	c #223C4D",
"A=	c #24445A",
"B=	c #17405C",
"C=	c #363738",
"D=	c #272F36",
"E=	c #111C23",
"F=	c #233C4D",
"G=	c #2B607F",
"H=	c #235C7F",
"I=	c #163F5B",
"J=	c #127AB7",
"K=	c #204258",
"L=	c #262E35",
"M=	c #111B23",
"N=	c #213341",
"O=	c #235B7E",
"P=	c #224157",
"Q=	c #263949",
"R=	c #153E59",
"S=	c #1379AF",
"T=	c #1E4156",
"U=	c #121C24",
"V=	c #225C7E",
"W=	c #143D57",
"X=	c #1279A9",
"Y=	c #1D4056",
"Z=	c #1F2E39",
"`=	c #242C33",
" -	c #223A4B",
".-	c #2B5E7B",
"+-	c #225B7D",
"@-	c #223F54",
"#-	c #133A51",
"$-	c #167198",
"%-	c #1C3D51",
"&-	c #232B32",
"*-	c #21384A",
"=-	c #285A77",
"--	c #205978",
";-	c #213C4F",
">-	c #142B3C",
",-	c #184057",
"'-	c #1B2E3D",
")-	c #1F2D39",
"!-	c #193950",
"~-	c #17384E",
"{-	c #1E3241",
"]-	c #142430",
"^-	c #232C33",
"/-	c #1C2D39",
"(-	c #172835",
"_-	c #1F3749",
":-	c #182F3E",
"<-	c #111F2A",
"[-	c #0F1A23",
"}-	c #242C34",
"|-	c #1B2A37",
"1-	c #131F29",
"2-	c #15232D",
"3-	c #12202A",
"4-	c #111C25",
"5-	c #373738",
"6-	c #232B34",
"7-	c #1B2B37",
"8-	c #14212A",
"9-	c #111D25",
"0-	c #232B33",
"a-	c #202F3D",
"b-	c #222B33",
"c-	c #373838",
"d-	c #16232E",
"e-	c #1F303C",
"f-	c #222A32",
"g-	c #1F2E3C",
"h-	c #202A32",
"i-	c #23333F",
"j-	c #1E2C39",
"k-	c #202931",
"l-	c #1F272E",
"m-	c #1A2731",
"n-	c #17222C",
"o-	c #202E3B",
"p-	c #0F1920",
"q-	c #0F1820",
"r-	c #0F171F",
"s-	c #0E171E",
"t-	c #0E171D",
"u-	c #0D161C",
"v-	c #0E161D",
"w-	c #0F1921",
"x-	c #111E28",
"y-	c #1E262D",
"z-	c #121F28",
"A-	c #111C26",
"B-	c #0E181F",
"C-	c #0D161E",
"D-	c #101A21",
"E-	c #132029",
"F-	c #13222D",
"G-	c #132939",
"H-	c #162530",
"I-	c #1B2229",
"J-	c #142938",
"K-	c #132431",
"L-	c #14222C",
"M-	c #131E28",
"N-	c #263846",
"O-	c #25323D",
"P-	c #253845",
"Q-	c #263543",
"R-	c #253440",
"S-	c #253441",
"T-	c #24333F",
"U-	c #24313E",
"V-	c #23323E",
"W-	c #24343F",
"X-	c #263643",
"Y-	c #25343F",
"Z-	c #242F38",
"`-	c #243440",
" ;	c #263542",
".;	c #273543",
"+;	c #253541",
"@;	c #253542",
"#;	c #243441",
"  . + . @ # $ # # # % & * * = - ; > > > > > > > > > > > > > > > > > > > > > > > > > > > > > > > > > > > > > > > > > > > > > > > > > > > > > > > > > > > > > > > > > , > > > > > > > > > > > > > > > > > > > > > > > > > > > > > > > > > ; ' # # * * * ) * & ! @ # # ~ # ",
"{ ] ^ / ^ ( _ ( _ : < [ < } | 1 2 > > > > > > > > > > > > > > > > > > > > > > > > > > > > > > > > > > > > > > > > > > > > > > > > > > > > > > > > > > > > > > > > > 3 > > > > > > > > > > > > > > > > > > > > > > > > > > > > > > > > > 2 4 5 6 } | 7 [ : : 8 / _ 5 _ 9 ",
"0 a 0 b c d e f e g h i j k k l m > > > > > > > > > > > > > > > > > > > > > > > > > > > > > > > > > > > > > > > > > > > > > > > > > > > > > > > > > > > > > > > > > 3 > > > > > > > > > > > > > > > > > > > > > > > > > > > > > > > > > n o p q r h p p s e t 0 d f d u ",
"v w x x x w w y v z A B C D E F G > > > > > > > > > > > > > > > > > > > > > > > > > > > > > > > > > > > > > > > > > > > > > > > > > > > > > > > > > > > > > > > > > 3 > > > > > > > > > > > > > > > > > > > > > > > > > > > > > > > > > H I J K L M N O O O y w y O O w ",
"P Q R S O T S U P P V W X Y Z l ` > > > > > > > > > > > > > > > > > > > > > > > > > > > > > > > > > > > > > > > > > > > > > > > > > > > > > > > > > > > > > > > > > 3 > > > > > > > > > > > > > > > > > > > > > > > > > > > > > > > > >  ...+.h @.#.$.%.Q Q &.S S %.P *.",
"=.-.;.d s k >.,.k '.).!.q ~.{.].^.> > > > > > > > > > > > > > > > > > > > > > > > > > > > > > > > > > > > > > > > > > > > > > > > > > > > > > > > > > > > > > > > > 3 > > > > > > > > > > > > > > > > > > > > > > > > > > > > > > > > > /.(._.).:.<.[.}.|.1.2.h k =.3.b ",
"[.2.k 4.~.5.6.{.7.{.8.9.0.a.b.c.d.> > > > > > > > > > > > > > > > > > > > > > > > > > > > > > > > > > > > > > > > > > > > > > > > > > > > > > > > > > > > > > > > > 3 > > > > > > > > > > > > > > > > > > > > > > > > > > > > > > > > > e.f.g.h.r i.j.k.l.m.6.n._.o.p.o.",
"q.r.s.d 5.t.u.g.v.w.x.y.+.t.z.A.B.> > > > > > > > > > > > > > > > > > > > > > > > > > > > > > > > > > > > > > > > > > > > > > > > > > > > > > > > > > > > > > > > > 3 > > > > > > > > > > > > > > > > > > > > > > > > > > > > > > > > > C.6.u.D.E.F.G.H.I.J.K.g.k j L.M.",
"N.O.P.Q.{.b.R.{.b.S.T.U.4.V.W.X.Y.> > > > > > > > > > > > > > > > > > > > > > > > > > > > > > > > > > > > > > > > > > > > > > > > > > > > > > > > > > > > > > > > > 3 > > > > > > > > > > > > > > > > > > > > > > > > > > > > > > > > > Z.`.W. +.+T.x.++8.7.8.v.@+(.E.{.",
"#+$+%+&+a.u.u.t.V.*+=+-+;+z.>+,+'+> > > > > > > > > > > > > > > > > > > > > > > > > > > > > > > > > > > > > > > > > > > > > > > > > > > > > > > > > > > > > > > > > )+> > > > > > > > > > > > > > > > > > > > > > > > > > > > > > > > > !+R.8.>+~+{+=+T.]+{.^+W./+(+_+a.",
"#+:+<+&+h.[+W.}+|+I.1+ +;+W.2+3+'+> > > > > > > > > > > > > > > > > > > > > > > > > > > > > > > > > > > > > > > > > > > > > > > > > > > > > > > > > > > > > > > > > )+> > > > > > > > > > > > > > > > > > > > > > > > > > > > > > > > > 4+K.5+W.6+=+7+8+}+t.x.K...9+0+h.",
"a+b+c+d+e+W.>+W.W.f+=+-+g+8.I.3+h+> > > > > > > > > > > > > > > > > > > > > > > > > > > > > > > > > > > > > > > > > > > > > > > > > > > > > > > > > > > > > > > > > 3 > > > > > > > > > > > > > > > > > > > > > > > > > > > > > > > > > i+W.I.W.j+=+1+k+8.8.8+z.l+E.m+V.",
"n+o+:.p+5.W.S.++>+I.q+ +n.r+I.s+t+> > > > > > > > > > > > > > > > > > > > > > > > > > > > > > > > > > > > > > > > > > > > > > > > > > > > > > > > > > > > > > > > > )+> > > > > > > > > > > > > > > > > > > > > > > > > > > > > > > > > u+W.v+8.w+T.S.x.>+I.x+v.y+/+z+b.",
"A+B+C+D+E+K.S.{+S.F+=+D.E+G+v+6 H+> > > > > > > > > > > > > > > > > > > > > > > > > > > > > > > > > > > > > > > > > > > > > > > > > > > > > > > > > > > > > > > > > )+> > > > > > > > > > > > > > > > > > > > > > > > > > > > > > > > > I+8.v+W.J+K+N. +N.{+=+L+9.M+r.t.",
"N+O+C+P+y+J.f+8+v+S.S.]+;+N.S.6 Q+> > > > > > > > > > > > > > > > > > > > > > > > > > > > > > > > > > > > > > > > > > > > > > > > > > > > > > > > > > > > > > > > > )+> > > > > > > > > > > > > > > > > > > > > > > > > > > > > > > > > R+F.F+S+r  + +D.S.1+T+l.U+M+r.b.",
"V+B+W+X+Y+J.^+++q+S.N.V.;+x.f+] H+> > > > > > > > > > > > > > > > > > > > > > > > > > > > > > > > > > > > > > > > > > > > > > > > > > > > > > > > > > > > > > > > > )+> > > > > > > > > > > > > > > > > > > > > > > > > > > > > > > > > u+2+k+z.Z+`+ + @=+=+v+z..@%+E.u.",
"+@@@#@$@E+]+^+=+%@&@F+*@=@>+I.5 -@> > > > > > > > > > > > > > > > > > > > > > > > > > > > > > > > > > > > > > > > > > > > > > > > > > > > > > > > > > > > > > > > > )+> > > > > > > > > > > > > > > > > > > > > > > > > > > > > > > > > ;@I. @>@,@K+N.S.=+F+'@W.)@Q.w+J.",
"N+!@~@a.(+W.N.{@]@^@q+S+/@E+[+5 (@> > > > > > > > > > > > > > > > > > > > > > > > > > > > > > > > > > > > > > > > > > > > > > > > > > > > > > > > > > > > > > > > > )+> > > > > > > > > > > > > > > > > > > > > > > > > > > > > > > > > _@^+z.3.:@=+{+{+v+I.x.W.P+p+<@[@",
"}@|@1@2@h.S.{+=+=+1+q+]+3@4@[+5@(@> > > > > > > > > > > > > > > > > > > > > > > > > > > > > > > > > > > > > > > > > > > > > > > > > > > > > > > > > > > > > > > > > )+> > > > > > > > > > > > > > > > > > > > > > > > > > > > > > > > > ;@8.;+/@6@7@=+{+f+L+I.>+8@9@0@^@",
"a@b@c@d@e@N.{+8+q+8+S.f@g@W+[+m.(@> > > > > > > > > > > > > > > > > > > > > > > > > > > > > > > > > > > > > > > > > > > > > > > > > > > > > > > > > > > > > > > > > h@> > > > > > > > > > > > > > > > > > > > > > > > > > > > > > > > > i@l.a.j@k@q+F+N.f+8.f+l@m@n@o@p@",
"q@r@s@t@u@v@N.S.f+f+ +w@j@W+z.x@Q+> > > > > > > > > > > > > > > > > > > > > > > > > > > > > > > > > > > > > > > > > > > > > > > > > > > > > > > > > > > > > > > > > y@> > > > > > > > > > > > > > > > > > > > > > > > > > > > > > > > > _@z.t.z@A@'@N. +>+ +S.B@C@D@E@q@",
"7@F@G@H@I@f+2+>+W.I.W.J@g@3.l.j.Q+> > > > > > > > > > > > > > > > > > > > > > > > > > > > > > > > > > > > > > > > > > > > > > > > > > > > > > > > > > > > > > > > > y@> > > > > > > > > > > > > > > > > > > > > > > > > > > > > > > > > K@W.7.z@L@F+K+f+>+v@F+M@N@O@P@Q@",
"q+F@R@S@T@ +I.^+^+>+>+U@g@=.V@W@X@> > > > > > > > > > > > > > > > > > > > > > > > > > > > > > > > > > > > > > > > > > > > > > > > > > > > > > > > > > > > > > > > > Y@> > > > > > > > > > > > > > > > > > > > > > > > > > > > > > > > > Z@W.7.`@b S.F+S.K+S.S.N+ #.#+#n+",
"@###$#%#&#f+N. +D.>+5+a.g@*#j.x@=#> > > > > > > > > > > > > > > > > > > > > > > > > > > > > > > > > > > > > > > > > > > > > > > > > > > > > > > > > > > > > > > > > Y@> > > > > > > > > > > > > > > > > > > > > > > > > > > > > > > > > -#l.g.;#3.*+F+S. @F+{+M@>#,#'#n+",
"A+)#!#~#{#S.{+f+ + +[+a.g@4@[@k.=#> > > > > > > > > > > > > > > > > > > > > > > > > > > > > > > > > > > > > > > > > > > > > > > > > > > > > > > > > > > > > > > > > Y@> > > > > > > > > > > > > > > > > > > > > > > > > > > > > > > > > ]#W.g.q 3.*+T.T.N.S.=+N+^#/#(#n+",
"@#_#R@:#{#8+T+F+ @[+[+a.L@/@7.<#=#> > > > > > > > > > > > > > > > > > > > > > > > > > > > > > > > > > > > > > > > > > > > > > > > > > > > > > > > > > > > > > > > > [#> > > > > > > > > > > > > > > > > > > > > > > > > > > > > > > > > ]#v.g.q 3.*+N.N. +N.7@}#|#1#2#q@",
"q+3#4#5#6#]@&@++S.f+7#8#9#-.7.7.0#> > > > > > > > > > > > > > > > > > > > > > > > > > > > > > > > > > > > > > > > > > > > > > > > > > > > > > > > > > > > > > > > > [#> > > > > > > > > > > > > > > > > > > > > > > > > > > > > > > > > a#q.b#c#0 *+f+N.N.=++@d#e#f#g#q@",
"q+h#4#i#j#{+1+&@{+F+f+J.#@4@7.m.=#> > > > > > > > > > > > > > > > > > > > > > > > > > > > > > > > > > > > > > > > > > > > > > > > > > > > > > > > > > > > > > > > > Y@> > > > > > > > > > > > > > > > > > > > > > > > > > > > > > > > > k#[+8##@l#*+S.S.{+{@{@M@m#n#o#q@",
"=+p#q#r#s#T.=+=+T+*+>+g.9#t#b.7.=#> > > > > > > > > > > > > > > > > > > > > > > > > > > > > > > > > > > > > > > > > > > > > > > > > > > > > > > > > > > > > > > > > [#> > > > > > > > > > > > > > > > > > > > > > > > > > > > > > > > > k#W.6.9#3.-+7#7#F+{@A+u#m#v#w#x#",
"{+y#z#A#s#F+T+x+++ @ +g.9#/@b.b.X@> > > > > > > > > > > > > > > > > > > > > > > > > > > > > > > > > > > > > > > > > > > > > > > > > > > > > > > > > > > > > > > > > [#> > > > > > > > > > > > > > > > > > > > > > > > > > > > > > > > > B#S+C#L@D#8.D.D.S.=+@#d#m#E#w#x#",
"{+y#F#G#H#I#x+T+x.N. +`.9#4@b.b.X@> > > > > > > > > > > > > > > > > > > > > > > > > > > > > > > > > > > > > > > > > > > > > > > > > > > > > > > > > > > > > > > > > Y@> > > > > > > > > > > > > > > > > > > > > > > > > > > > > > > > > J#W._.L@*#K#[+W.N.T.q+L#|#M#+#%@",
"++N#O#P#Q#{+R#++ @ +K#8#9#4@[@b.=#> > > > > > > > > > > > > > > > > > > > > > > > > > > > > > > > > > > > > > > > > > > > > > > > > > > > > > > > > > > > > > > > > Y@> > > > > > > > > > > > > > > > > > > > > > > > > > > > > > > > > + l.6.L@S#[+[+]+f+F+=+B@T#U#P@@#",
"8+T.V#W#X#Y#S.v+I.I.D.C#9#Z#z.m.`#> > > > > > > > > > > > > > > > > > > > > > > > > > > > > > > > > > > > > > > > > > > > > > > > > > > > > > > > > > > > > > > > > Y@> > > > > > > > > > > > > > > > > > > > > > > > > > > > > > > > >  $z.5.W+3. +]+}+I.S..$+$@$#$$$=+",
"T.O.%$&$*$-+ @v+I.q.]+a.9#t#b.m.`#> > > > > > > > > > > > > > > > > > > > > > > > > > > > > > > > > > > > > > > > > > > > > > > > > > > > > > > > > > > > > > > > > [#> > > > > > > > > > > > > > > > > > > > > > > > > > > > > > > > > =$b.5.#@D#q.[+[+ + +q.f@-$;$>$S+",
"q+,$'$)$!$W.8.F.8.>+[+D+3.~$b.b#`#> > > > > > > > > > > > > > > > > > > > > > > > > > > > > > > > > > > > > > > > > > > > > > > > > > > > > > > > > > > > > > > > > [#> > > > > > > > > > > > > > > > > > > > > > > > > > > > > > > > > {$]$n.9#4@q.q.>+F.8.]+^$/$($_$T.",
":$x#<$[$}$I.w.>+[+[+[+g+3.t#t.`.|$> > > > > > > > > > > > > > > > > > > > > > > > > > > > > > > > > > > > > > > > > > > > > > > > > > > > > > > > > > > > > > > > > y@> > > > > > > > > > > > > > > > > > > > > > > > > > > > > > > > > 1$b.(.L@;.x.N. @ @ +2$3$4$5$6$]@",
"S.N#7$8$9$K+S.I.l.W.K.E+3.~$7.{.|$> > > > > > > > > > > > > > > > > > > > > > > > > > > > > > > > > > > > > > > > > > > > > > > > > > > > > > > > > > > > > > > > > y@> > > > > > > > > > > > > > > > > > > > > > > > > > > > > > > > > 0$z.(.L@;.w. @[+ + @K#a$N@b$c${+",
"x.p#d$e$f$g$k+2+v.[+u.y+X h$7.i$|$> > > > > > > > > > > > > > > > > > > > > > > > > > > > > > > > > > > > > > > > > > > > > > > > > > > > > > > > > > > > > > > > > y@> > > > > > > > > > > > > > > > > > > > > > > > > > > > > > > > > j$t.(.3.4@F.[+S+8.k$ +l$m$n$w#o$",
"*+%@p$q$u@ +N.>+>+W.z.y+r$s$b#`.|$> > > > > > > > > > > > > > > > > > > > > > > > > > > > > > > > > > > > > > > > > > > > > > > > > > > > > > > > > > > > > > > > > y@> > > > > > > > > > > > > > > > > > > > > > > > > > > > > > > > > t$g.n.3.4@8.S+u$[+q. +|@v$w$x$o$",
" +@#y$z$A$[+>+W.S+W.S+(+X s$t.6.B$> > > > > > > > > > > > > > > > > > > > > > > > > > > > > > > > > > > > > > > > > > > > > > > > > > > > > > > > > > > > > > > > > y@> > > > > > > > > > > > > > > > > > > > > > > > > > > > > > > > > C$g.n.3.4@8.z.V.W.>+>+D$v$v#x$V+",
"[+A+E$F$G$S+[+W.W.]+[+n.3.H$b#p+B$> > > > > > > > > > > > > > > > > > > > > > > > > > > > > > > > > > > > > > > > > > > > > > > > > > > > > > > > > > > > > > > > > y@> > > > > > > > > > > > > > > > > > > > > > > > > > > > > > > > > I$b.~.3.J$k$]+V.S+[+>+K$L$M$N$o$",
"[+&@s@O$P$u$]+[+[+[+[+P+3.h$`.~.B$> > > > > > > > > > > > > > > > > > > > > > > > > > > > > > > > > > > > > > > > > > > > > > > > > > > > > > > > > > > > > > > > > [#> > > > > > > > > > > > > > > > > > > > > > > > > > > > > > > > > t$b.~.L@/@ +[+J.V.S+[+Q$R$S$H#T.",
"8.R#T$U$V$b.l.z.S+]+]+W$X h$`._.B$> > > > > > > > > > > > > > > > > > > > > > > > > > > > > > > > > > > > > > > > > > > > > > > > > > > > > > > > > > > > > > > > > y@> > > > > > > > > > > > > > > > > > > > > > > > > > > > > > > > > X$t.5.3.J$q.]+J.u.W.Y$U.Z$`$ %S.",
".%.%+%@%(+V.z.]+S+[+z.(+#%~$b#] B$> > > > > > > > > > > > > > > > > > > > > > > > > > > > > > > > > > > > > > > > > > > > > > > > > > > > > > > > > > > > > > > > > y@> > > > > > > > > > > > > > > > > > > > > > > > > > > > > > > > > $%b.D+X J$ +q.]+K.[+8.g.%%&%b.S.",
"j.o.~$L@*%]$W.[+D.K#W.5.#%=%[@] B$> > > > > > > > > > > > > > > > > > > > > > > > > > > > > > > > > > > > > > > > > > > > > > > > > > > > > > > > > > > > > > > > > h@> > > > > > > > > > > > > > > > > > > > > > > > > > > > > > > > > -%[@g+3.4@ +K#D.8.I.I.b.'.=.'..%",
";%<+S#h V@K#W.D.q.q.[+>%3.J$b.6.y@> > > > > > > > > > > > > > > > > > > > > > > > > > > > > > > > > > > > > > > > > > > > > > > > > > > > > > > > > > > > > > > > > h@> > > > > > > > > > > > > > > > > > > > > > > > > > > > > > > > > ,%b.E+3.Z#8.K#8. +N.x.2+4.'%<+h ",
")%r$!%8#z.S+[+S+[+W.S+y+3.t#a._.)+> > > > > > > > > > > > > > > > > > > > > > > > > > > > > > > > > > > > > > > > > > > > > > > > > > > > > > > > > > > > > > > > > h@> > > > > > > > > > > > > > > > > > > > > > > > > > > > > > > > > ~%u.;+=.Z#[+]+ +f+ +>+x.F.Z '%{%",
"4@h ]%J.a.J.W.w@u$z.g.y+3.^%a./%h@> > > > > > > > > > > > > > > > > > > > > > > > > > > > > > > > > > > > > > > > > > > > > > > > > > > > > > > > > > > > > > > > > )+> > > > > > > > > > > > > > > > > > > > > > > > > > > > > > > > > (%7.Q.r$Z#V@u$D.D.>+ +[+l.V@,.3.",
"_%b#U@J.V.V.l.b.]$U@n.3.S#*#m.(.h@> > > > > > > > > > > > > > > > > > > > > > > > > > > > > > > > > > > > > > > > > > > > > > > > > > > > > > > > > > > > > > > > > )+> > > > > > > > > > > > > > > > > > > > > > > > > > > > > > > > > :%7.<%=./@+.C#[%]+]+q.W.S+b.[+>.",
"7.j.a.U@]+]+[+[+l.p+*#/@b }%|%(.h@> > > > > > > > > > > > > > > > > > > > > > > > > > > > > > > > > > > > > > > > > > > > > > > > > > > > > > > > > > > > > > > > > y@> > > > > > > > > > > > > > > > > > > > > > > > > > > > > > > > > 1%b#v._%-.J ;%2%D.D.7#>+[+8#V@F.",
"l.[@t.u$S+[%W.W.`.3.s$W+(.b.g.(.h@> > > > > > > > > > > > > > > > > > > > > > > > > > > > > > > > > > > > > > > > > > > > > > > > > > > > > > > > > > > > > > > > > y@> > > > > > > > > > > > > > > > > > > > > > > > > > > > > > > > > 3%b#[+z.`@/@)%;+[+}+D. @q.S+[@4%",
"v.[+z.J.2%z.S+b#l#5%3.g+l.l.g.(.h@> > > > > > > > > > > > > > > > > > > > > > > > > > > > > > > > > > > > > > > > > > > > > > > > > > > > > > > > > > > > > > > > > B$> > > > > > > > > > > > > > > > > > > > > > > > > > > > > > > > > 6%J.l.]+Y$9+H$7%X+z.[+K#]+q.W.[+",
"W.[%]+z.u$V.U@W+8%9%=@[@S+S+U@(.h@> > > > > > > > > > > > > > > > > > > > > > > > > > > > > > > > > > > > > > > > > > > > > > > > > > > > > > > > > > > > > > > > > y@> > > > > > > > > > > > > > > > > > > > > > > > > > > > > > > > > 0%u.W.V.W.b.`@H$s$y+S+[+S+[%K#K#",
"[+]+]+w@w@g.q 8%S#=@z.V.J.z.g.(.h@> > > > > > > > > > > > > > > > > > > > > > > > > > > > > > > > > > > > > > > > > > > > > > > > > > > > > > > > > > > > > > > > > y@> > > > > > > > > > > > > > > > > > > > > > > > > > > > > > > > > a%z.[+S+]+S+b#q s$~$6.b.u$2$q. +",
"]+]+z.t.t._%<+c++.]$t.2%z.u$g.(.h@> > > > > > > > > > > > > > > > > > > > > > > > > > > > > > > > > > > > > > > > > > > > > > > > > > > > > > > > > > > > > > > > > y@> > > > > > > > > > > > > > > > > > > > > > > > > > > > > > > > > b%W.8.[+]+z.l.`.'.c%4@d%t.t.S+f+",
"S+[+z.b.e%)%=.,.z.}+t.]$]+S+J.g+h@> > > > > > > > > > > > > > > > > > > > > > > > > > > > > > > > > > > > > > > > > > > > > > > > > > > > > > > > > > > > > > > > > [#> > > > > > > > > > > > > > > > > > > > > > > > > > > > > > > > > a%l..%K#D.S+z.V@D+L@7%*#f%t.U@S+",
"S+[+|%g%h%i%j%l.g.V.z.u$S+S+V.k%, > > > > > > > > > > > > > > > > > > > > > > > > > > > > > > > > > > > > > > > > > > > > > > > > > > > > > > > > > > > > > > > > > y@> > > > > > > > > > > > > > > > > > > > > > > > > > > > > > > > > l%W.8.[+ +W.V.V.Y$~.3.<+3.8#2%w@",
"S+]++.m%4@[.V@t.J@V.S+]+W.W.V.=@, > > > > > > > > > > > > > > > > > > > > > > > > > > > > > > > > > > > > > > > > > > > > > > > > > > > > > > > > > > > > > > > > > y@> > > > > > > > > > > > > > > > > > > > > > > > > > > > > > > > > n%b.Y$[+>+]+S+w@g..%X+S#o%b 8#w@",
"t.;+)%J$k b.V.J@h.U@t.W.[+S+a.1.> > > > > > > > > > > > > > > > > > > > > > > > > > > > > > > > > > > > > > > > > > > > > > > > > > > > > > > > > > > > > > > > > > y@> > > > > > > > > > > > > > > > > > > > > > > > > > > > > > > > > p%a.[+K#W.}+z.V.J@z..%q%-.r%s 8#",
"P.H$~$s%t%]$U@u%<.J.2%l.]$|%n.d , > > > > > > > > > > > > > > > > > > > > > > > > > > > > > > > > > > > > > > > > > > > > > > > > > > > > > > > > > > > > > > > > > y@> > > > > > > > > > > > > > > > > > > > > > > > > > > > > > > > > v%Q.b.[+]+]+z.V.V.z.b#V@+.J$w%k ",
"J$s$}.v.b.U@J.<.J@S+]$]$8#f%x%D#y%> > > > > > > > > > > > > > > > > > > > > > > > > > > > > > > > > > > > > > > > > > > > > > > > > > > > > > > > > > > > > > > > > y@> > > > > > > > > > > > > > > > > > > > > > > > > > > > > > > > > z%b d%t.S+Y$u$U@J.V.8#t.[+|.t#{%",
";.b A%g.a.8#U@J@h.u$|%U@t.2.L@B%C%D%> > > > > > > > > > > > > > > > > > > > > > > > > > > > > > > > > > > > > > > > > > > > > > > > > > > > > > > > > > > > > > > > y@> > > > > > > > > > > > > > > > > > > > > > > > > > > > > > > > > > E%}.8#b.l.V.U@U@V.U@p+8#j.9#-.",
"W+=.3+D+<.J@U@w@F%b.b#U@W.m+G%H%I%3.J%> > > > > > > > > > > > > > > > > > > > > > > > > > > > > > > > > > > > > > > > > > > > > > > > > > > > > > > > > > > > > > > y@> > > > > > > > > > > > > > > > > > > > > > > > > > > > > > > > > > , K%[+]+u$2%U@w@8#8#u%d+[+S#r$",
"W+4@g+f%a.p+L%U@M%8#t.8#]+N%O%P%Q%R%S%> > > > > > > > > > > > > > > > > > > > > > > > > > > > > > > > > > > > > > > > > > > > > > > > > > > > > > > > > > > > > > > B$> > > > > > > > > > > > > > > > > > > > > > > > > > > > > > > > > > > T%T.Y$]$t.J@U@J@J@<.P+b.U%=.",
"9#-.*%V%d%<.u%J@8#g.f%J@2$W%X%Y%Z%`% &> > > > > > > > > > > > > > > > > > > > > > > > > > > > > > > > > > > > > > > > > > > > > > > > > > > > > > > > > > > > > > > B$> > > > > > > > > > > > > > > > > > > > > > > > > > > > > > > > > > > .&+&u$h.g.8#8#8#u%e+d+g.U%L@",
"L@-.;+p+J@J@u%<.<.p+2.Y+U.@&#&$&%&&& &> > > > > > > > > > > > > > > > > > > > > > > > > > > > > > > > > > > > > > > > > > > > > > > > > > > > > > > > > > > > > > > )+> > > > > > > > > > > > > > > > > > > > > > > > > > > > > > > > > > > *&=&J@4@8#J@h.L%P+9.e+8#/@-&",
"-&-.;+d+h.<.u%a.8#D+z@%+-+@&;&>&,&'& &> > > > > > > > > > > > > > > > > > > > > > > > > > > > > > > > > > > > > > > > > > > > > > > > > > > > > > > > > > > > > > > )+> > > > > > > > > > > > > > > > > > > > > > > > > > > > > > > > > > > *&)&U@3@V.8#u%!&e+(+d+8#~$3.",
"9#4@<%d+a.a.8#U@J.f%2.=@~&{&]&^&/&(& &> > > > > > > > > > > > > > > > > > > > > > > > > > > > > > > > > > > > > > > > > > > > > > > > > > > > > > > > > > > > > > > y@> > > > > > > > > > > > > > > > > > > > > > > > > > > > > > > > > > > *&_&t.c+]$g.<.u%!&u%<.b#H$3.",
"'.-.<%d+a.a.g.g.t.{.|.l+u$:+:&<&[&&& &> > > > > > > > > > > > > > > > > > > > > > > > > > > > > > > > > > > > > > > > > > > > > > > > > > > > > > > > > > > > > > > y@> > > > > > > > > > > > > > > > > > > > > > > > > > > > > > > > > > > }&|&1&-&]$8#8#J@y.L%<.t.~$3.",
"L@~$<%d+a.8#b#t.8#{.V@U@[%2&3&4&5&6& &> > > > > > > > > > > > > > > > > > > > > > > > > > > > > > > > > > > > > > > > > > > > > > > > > > > > > > > > > > > > > > > y@> > > > > > > > > > > > > > > > > > > > > > > > > > > > > > > > > > > }&7&M%a.2%p+8#U@<.u%u%b#~$3.",
"b ~$8&d+h.8#8#t.8#8#]$2%-+9&0&a&b&c&d&> > > > > > > > > > > > > > > > > > > > > > > > > > > > > > > > > > > > > > > > > > > > > > > > > > > > > > > > > > > > > > > y@> > > > > > > > > > > > > > > > > > > > > > > > > > > > > > > > > > > e&f&w@U@U@6.a.g.C#d+d+b./@3.",
"L@4@g&p+h.8#g.b.t.g.U@g.b.m+h&i&j&:+J%> > > > > > > > > > > > > > > > > > > > > > > > > > > > > > > > > > > > > > > > > > > > > > > > > > > > > > > > > > > > > > > y@> > > > > > > > > > > > > > > > > > > > > > > > > > > > > > > > > > > k&d+U@L%U@`.a.t.a.5.p+k.4@a ",
"L@-.4.n.a.C#8#t.a.g.8#b.U@u%).l&m& &> > > > > > > > > > > > > > > > > > > > > > > > > > > > > > > > > > > > > > > > > > > > > > > > > > > > > > > > > > > > > > > > B$> > > > > > > > > > > > > > > > > > > > > > > > > > > > > > > > > > n&k%b#t.8#t.a.a.b.g.d%a.f%4@b ",
"#@r$'%(+a.8#J@h.p+8#7.g.h.d%f%o&p&> > > > > > > > > > > > > > > > > > > > > > > > > > > > > > > > > > > > > > > > > > > > > > > > > > > > > > > > > > > > > > > > > y@> > > > > > > > > > > > > > > > > > > > > > > > > > > > > > > > > q&*%r&C#8#b.g.d+p+t.8#p+d%i /@9#",
"s&q t&b n.a.C#C#<.a.`.t.8#g.a.).'+> > > > > > > > > > > > > > > > > > > > > > > > > > > > > > > > > > > > > > > > > > > > > > > > > > > > > > > > > > > > > > > > > B$> > > > > > > > > > > > > > > > > > > > > > > > > > > > > > > > > u&6 f%v&b.t.g.p+p+8#g.5.|.)%X |.",
"8.).3.J g p+8#C#a.8#t.t.t.8#n.o.w&> > > > > > > > > > > > > > > > > > > > > > > > > > > > > > > > > > > > > > > > > > > > > > > > > > > > > > > > > > > > > > > > > y@> > > > > > > > > > > > > > > > > > > > > > > > > > > > > > > > > x&X+C#g.t.U@g.p+d%f%`.;%)%y&z&j.",
"a.[+o&*#J 2.p+a.8#`.b.g.8#g.p+|.q&> > > > > > > > > > > > > > > > > > > > > > > > > > > > > > > > > > > > > > > > > > > > > > > > > > > > > > > > > > > > > > > > > B$> > > > > > > > > > > > > > > > > > > > > > > > > > > > > > > > > A&n.b#t.2%U@J.6.a.{.=@7%H$W+m.7.",
"p+C#]$B&C&8%o.C#f%`.7.8#8#a.p++.D&> > > > > > > > > > > > > > > > > > > > > > > > > > > > > > > > > > > > > > > > > > > > > > > > > > > > > > > > > > > > > > > > > )+> > > > > > > > > > > > > > > > > > > > > > > > > > > > > > > > > E&5.a.a.t.t.t.f%a.4.h$~$b _.C#C#",
"a.p+d%j._%~$J o.(.a.g.a.g.8#X+Z F&> > > > > > > > > > > > > > > > > > > > > > > > > > > > > > > > > > > > > > > > > > > > > > > > > > > > > > > > > > > > > > > > > 3 > > > > > > > > > > > > > > > > > > > > > > > > > > > > > > > > > G&_.a.a.a.{.{.f%=@s$7%L@3+n.u%8#",
"a.a.D+a.b#c#H$I i n.6.{.8#a.y+Z H&> > > > > > > > > > > > > > > > > > > > > > > > > > > > > > > > > > > > > > > > > > > > > > > > > > > > > > > > > > > > > > > > > )+> > > > > > > > > > > > > > > > > > > > > > > > > > > > > > > > > I&D+f%6.a.8#p+y+J$7%l#(.f%E+P+a.",
"C#<.p+5._.J&W+)%I ,.D+d%p+p+y++.H&> > > > > > > > > > > > > > > > > > > > > > > > > > > > > > > > > > > > > > > > > > > > > > > > > > > > > > > > > > > > > > > > > )+> > > > > > > > > > > > > > > > > > > > > > > > > > > > > > > > > I&/%C#a.g.8#y+4@c%3.k%6.C#(+5.a.",
"C#C#a.p+5.f%f%K&7%8%Z 5.p+d%E+M+H&> > > > > > > > > > > > > > > > > > > > > > > > > > > > > > > > > > > > > > > > > > > > > > > > > > > > > > > > > > > > > > > > > )+> > > > > > > > > > > > > > > > > > > > > > > > > > > > > > > > > I&D+p+a.a.n.S#t&=.L&6._.d+n.p+C#",
"n.d%a.p+d%6._._.q )%M&<%D+d%g+L&N&> > > > > > > > > > > > > > > > > > > > > > > > > > > > > > > > > > > > > > > > > > > > > > > > > > > > > > > > > > > > > > > > > )+> > > > > > > > > > > > > > > > > > > > > > > > > > > > > > > > > O&~.p+p+n.3.5%9%<%{.f%p+p+p+5.a.",
"p+f%f%a.a.6./%M.3+l#P&7%L&p+y+;%H&> > > > > > > > > > > > > > > > > > > > > > > > > > > > > > > > > > > > > > > > > > > > > > > > > > > > > > > > > > > > > > > > > )+> > > > > > > > > > > > > > > > > > > > > > > > > > > > > > > > > Q&(.n.n.W+<+=.+.`.p+d%5.6.p+f%8#",
"<.f%_.p+p+D+n.D+{.;+3.J s$4.;+Z H&> > > > > > > > > > > > > > > > > > > > > > > > > > > > > > > > > > > > > > > > > > > > > > > > > > > > > > > > > > > > > > > > > )+> > > > > > > > > > > > > > > > > > > > > > > > > > > > > > > > > Q&k%(.'.o%S#+.7.D+(+n.p+a.8#a.U@",
"~@~.6.p+6.p+X+(.(.{.4.=.w%t#4.Z H&> > > > > > > > > > > > > > > > > > > > > > > > > > > > > > > > > > > > > > > > > > > > > > > > > > > > > > > > > > > > > > > > > )+> > > > > > > > > > > > > > > > > > > > > > > > > > > > > > > > > R&~.[.D y&S&j.n.E+(+D+D+6.C#p+~.",
"/@L&5.d+D+_.D+5.y+g+a.,.Z#J ).;%H&> > > > > > > > > > > > > > > > > > > > > > > > > > > > > > > > > > > > > > > > > > > > > > > > > > > > > > > > > > > > > > > > > )+> > > > > > > > > > > > > > > > > > > > > > > > > > > > > > > > > R&(.h T&3.j.~.E+X+6.a.C#D+D+n.'.",
"T&Z#4.g+D+D+D+(.k%k%g+2.~$<+;%,.H&> > > > > > > > > > > > > > > > > > > > > > > > > > > > > > > > > > > > > > > > > > > > > > > > > > > > > > > > > > > > > > > > > )+> > > > > > > > > > > > > > > > > > > > > > > > > > > > > > > > > U&E+;#~$s$g+n.X+P+C#8#p+}%X+9+H$",
"W+s$*#4.n.D+5.(+E+y+k%h H$<+Z +.H&> > > > > > > > > > > > > > > > > > > > > > > > > > > > > > > > > > > > > > > > > > > > > > > > > > > > > > > > > > > > > > > > > )+> > > > > > > > > > > > > > > > > > > > > > > > > > > > > > > > > V&g+q T&J ;+y+y+(+p+a.5.~.h H$3.",
"g+3.<+W&E+p+d%(+y+X+g+9+H$J X&Y&Z&> > > > > > > > > > > > > > > > > > > > > > > > > > > > > > > > > > > > > > > > > > > > > > > > > > > > > > > > > > > > > > > > > )+> > > > > > > > > > > > > > > > > > > > > > > > > > > > > > > > > `& *'.T&J ;+(+;+l+n..*D+|.)%9%+.",
"k.P.c+<+e%X+~.(+g+X+n.i +*D +.,.Z&> > > > > > > > > > > > > > > > > > > > > > > > > > > > > > > > > > > > > > > > > > > > > > > > > > > > > > > > > > > > > > > > > )+> > > > > > > > > > > > > > > > > > > > > > > > > > > > > > > > > `&E+W+T&J y+y+~@~@y+5.;+h$4@@*b.",
"_.7.9%#*k (.X+$*;+E+E+%*T&E Z o&&*> > > > > > > > > > > > > > > > > > > > > > > > > > > > > > > > > > > > > > > > > > > > > > > > > > > > > > > > > > > > > > > > > )+> > > > > > > > > > > > > > > > > > > > > > > > > > > > > > > > > `&;+3.h%D P.l+l+4.4.n.4.**:.C#g.",
"5.=*-*;*>*g+g+;+4.E+y+_%T&I +.,.&*> > > > > > > > > > > > > > > > > > > > > > > > > > > > > > > > > > > > > > > > > > > > > > > > > > > > > > > > > > > > > > > > > )+> > > > > > > > > > > > > > > > > > > > > > > > > > > > > > > > > `&;+3.c%E 4.P.l+y+(+D+9.,*'*)*p+",
"5.V.!*~*{*]*g+g+y+(+y+r H$E Z ..Z&> > > > > > > > > > > > > > > > > > > > > > > > > > > > > > > > > > > > > > > > > > > > > > > > > > > > > > > > > > > > > > > > > 3 > > > > > > > > > > > > > > > > > > > > > > > > > > > > > > > > > ^*/*3.t&(*=@y+l+y+P+p+_*:*<*[*a.",
"g+J.}*|*1*y+(.~.(.g+g+k H$(*+.>.&*> > > > > > > > > > > > > > > > > > > > > > > > > > > > > > > > > > > > > > > > > > > > > > > > > > > > > > > > > > > > > > > > > 3 > > > > > > > > > > > > > > > > > > > > > > > > > > > > > > > > > ^*;+b c%E =@y+;+U+y+n.2*3*4*5*h.",
"(+u.6*7*8*l+]*~.(.5.(._%H$D +.e%&*> > > > > > > > > > > > > > > > > > > > > > > > > > > > > > > > > > > > > > > > > > > > > > > > > > > > > > > > > > > > > > > > > 3 > > > > > > > > > > > > > > > > > > > > > > > > > > > > > > > > > 9*4.3.+*E =@y+).l+;+E+2*0*a*5*<.",
"g+J.b*c*d*Y+k%~.e*n.~.q s$D Y&f*&*> > > > > > > > > > > > > > > > > > > > > > > > > > > > > > > > > > > > > > > > > > > > > > > > > > > > > > > > > > > > > > > > > 3 > > > > > > > > > > > > > > > > > > > > > > > > > > > > > > > > > g*4.3.T&E =@).Q.=@=@y+2*h*i*j*u%",
"=@=*k*l*m*Y+k%(.n.P+n.;#T&I f*o.&*> > > > > > > > > > > > > > > > > > > > > > > > > > > > > > > > > > > > > > > > > > > > > > > > > > > > > > > > > > > > > > > > > 3 > > > > > > > > > > > > > > > > > > > > > > > > > > > > > > > > > g*y+3.n*(*L&Q.M+=@Q.)@o*p*q*j*r*",
"~@h.s*t*8*)@;+y+5.P+y+9+T&u*>.[.&*> > > > > > > > > > > > > > > > > > > > > > > > > > > > > > > > > > > > > > > > > > > > > > > > > > > > > > > > > > > > > > > > > 3 > > > > > > > > > > > > > > > > > > > > > > > > > > > > > > > > > 9*;+3.5%E M+Q.).~@Q.)@v*w*x*j*y*",
";+p+z*A*B*%+P.g+n.(+;+9+C*u*..o.&*> > > > > > > > > > > > > > > > > > > > > > > > > > > > > > > > > > > > > > > > > > > > > > > > > > > > > > > > > > > > > > > > > )+> > > > > > > > > > > > > > > > > > > > > > > > > > > > > > > > > D*;+b h%E*L&~@l+y+y+)@F*G*i*H*(+",
"E+p+I*J*K*L*).k%X+y+;+@*C*u*Y&o.&*> > > > > > > > > > > > > > > > > > > > > > > > > > > > > > > > > > > > > > > > > > > > > > > > > > > > > > > > > > > > > > > > > 3 > > > > > > > > > > > > > > > > > > > > > > > > > > > > > > > > > M*/*W+h%N*L&$*;+y+;+<@O*P*Q*R*y+",
"(+S*T*U*V*;%=@;+k%E+;+@*T&u*Y&W*&*> > > > > > > > > > > > > > > > > > > > > > > > > > > > > > > > > > > > > > > > > > > > > > > > > > > > > > > > > > > > > > > > > 3 > > > > > > > > > > > > > > > > > > > > > > > > > > > > > > > > > X*4.W+<+Y*=@y+).Z*~@=@`* =.=+=%+",
";+0+@=#=$=Z =@L&~@l+P.j %=N*,.p.&*> > > > > > > > > > > > > > > > > > > > > > > > > > > > > > > > > > > > > > > > > > > > > > > > > > > > > > > > > > > > > > > > > 3 > > > > > > > > > > > > > > > > > > > > > > > > > > > > > > > > > D*4.W+J N*;+y+~@;+Q.M+&=*===-=Z ",
"P+K$;=>=,='==@L&=@%+=@_%T&u*1.o.&*> > > > > > > > > > > > > > > > > > > > > > > > > > > > > > > > > > > > > > > > > > > > > > > > > > > > > > > > > > > > > > > > > 3 > > > > > > > > > > > > > > > > > > > > > > > > > > > > > > > > > )=Q.b !=Y*4.y+P.~@=@P.~={=]=^=/=",
").y.(=_=:=Z =@/*).).+.q h%u*+.<=&*> > > > > > > > > > > > > > > > > > > > > > > > > > > > > > > > > > > > > > > > > > > > > > > > > > > > > > > > > > > > > > > > > 3 > > > > > > > > > > > > > > > > > > > > > > > > > > > > > > > > > [=}=0 o%Y*4.(+y+;+y+y+!$|=1=2=9.",
"=@3=4=5=B*M+6=6=L&4.;%W+t&Y*,.o.7=> > > > > > > > > > > > > > > > > > > > > > > > > > > > > > > > > > > > > > > > > > > > > > > > > > > > > > > > > > > > > > > > > 3 > > > > > > > > > > > > > > > > > > > > > > > > > > > > > > > > > [=}=3.<+E*4.(+l+;+P.y+8=9=0=a=y+",
"=@b=4=c=1*%+g&/*L&L&+.g@5%N*W*p.7=> > > > > > > > > > > > > > > > > > > > > > > > > > > > > > > > > > > > > > > > > > > > > > > > > > > > > > > > > > > > > > > > > 3 > > > > > > > > > > > > > > > > > > > > > > > > > > > > > > > > > [=L&r$<+E*<%l+%+=@Q.l+d=w*e=f=Y+",
"Q.3=g=h=i=y+g+;+4.L&,.L@h%N*<=p.7=> > > > > > > > > > > > > > > > > > > > > > > > > > > > > > > > > > > > > > > > > > > > > > > > > > > > > > > > > > > > > > > > > j=> > > > > > > > > > > > > > > > > > > > > > > > > > > > > > > > > k=Z c+J N*Z L&;%M+Z M+l=m=n=H*y+",
"Q.L%s*o=i=y+k%/*4.~@Z b t&N*>.>.7=> > > > > > > > > > > > > > > > > > > > > > > > > > > > > > > > > > > > > > > > > > > > > > > > > > > > > > > > > > > > > > > > > j=> > > > > > > > > > > > > > > > > > > > > > > > > > > > > > > > > p=Z -.D N*+.L&M+/+E.M+q=m=r=s=t=",
"Q.L%s*u=v=Y+]*g&L&=@Z '.M&u*,.w=7=> > > > > > > > > > > > > > > > > > > > > > > > > > > > > > > > > > > > > > > > > > > > > > > > > > > > > > > > > > > > > > > > > j=> > > > > > > > > > > > > > > > > > > > > > > > > > > > > > > > > p=<%;.J N*+.;%x=+.Z y=z=m=r=A=t=",
"~@L%B=t*1*%+;+;+g&}=+.;#{%N*j%W*C=> > > > > > > > > > > > > > > > > > > > > > > > > > > > > > > > > > > > > > > > > > > > > > > > > > > > > > > > > > > > > > > > > j=> > > > > > > > > > > > > > > > > > > > > > > > > > > > > > > > > D=Z 4@E E=+./+,.;%Z %+F=G=H=H*U+",
"4.<.I=J=K=M+/*;+=@L&Z q t&N*>.p.C=> > > > > > > > > > > > > > > > > > > > > > > > > > > > > > > > > > > > > > > > > > > > > > > > > > > > > > > > > > > > > > > > > j=> > > > > > > > > > > > > > > > > > > > > > > > > > > > > > > > > L=}=;.I M=+.N=,.Z ;%;%z=w*O=P=)@",
"M+Q=R=S=T=M+/*4.L&M+;%'.t&N*o.e%C=> > > > > > > > > > > > > > > > > > > > > > > > > > > > > > > > > > > > > > > > > > > > > > > > > > > > > > > > > > > > > > > > > j=> > > > > > > > > > > > > > > > > > > > > > > > > > > > > > > > > E%+.-.E U=Z ;%;%=@=@Q.O*w*V=P=l+",
"=@W$W=X=Y=M+4.;+Z Z o&c#5%N*<=Z=C=> > > > > > > > > > > > > > > > > > > > > > > > > > > > > > > > > > > > > > > > > > > > > > > > > > > > > > > > > > > > > > > > > j=> > > > > > > > > > > > > > > > > > > > > > > > > > > > > > > > > `=Y&t#o%Y*+.Z =@4.4.~@ -.-+-@-;+",
";+y+#-$-%-Z =@4.+.Z ..L@t&I >.h C=> > > > > > > > > > > > > > > > > > > > > > > > > > > > > > > > > > > > > > > > > > > > > > > > > > > > > > > > > > > > > > > > > j=> > > > > > > > > > > > > > > > > > > > > > > > > > > > > > > > > &-..4@<+(*1.+.;%L&4.%+*-=---;-k%",
"]*Z >-,-'-Z L&Z ,.+...L@T&h }=)-C=> > > > > > > > > > > > > > > > > > > > > > > > > > > > > > > > > > > > > > > > > > > > > > > > > > > > > > > > > > > > > > > > > j=> > > > > > > > > > > > > > > > > > > > > > > > > > > > > > > > > &-f*i ~$(*f*Z +.Q.=@Z @@!-~-{-g&",
"..]-@%$=-&..Z ,...,.o&9#0 (+Z h C=> > > > > > > > > > > > > > > > > > > > > > > > > > > > > > > > > > > > > > > > > > > > > > > > > > > > > > > > > > > > > > > > > j=> > > > > > > > > > > > > > > > > > > > > > > > > > > > > > > > > ^-o.L&h <+o&+.M+~@M+o&/-(-_-:-h ",
"|.<-[-i%3...Z ..o&o&|.L@;.,.+.h C=> > > > > > > > > > > > > > > > > > > > > > > > > > > > > > > > > > > > > > > > > > > > > > > > > > > > > > > > > > > > > > > > > j=> > > > > > > > > > > > > > > > > > > > > > > > > > > > > > > > > }-,.Y&'.J ..,.x==@=@o&|-1-2-3-'.",
"i n*4-c+b ..+...o&|.|.L@4@o&,.p 5-> > > > > > > > > > > > > > > > > > > > > > > > > > > > > > > > > > > > > > > > > > > > > > > > > > > > > > > > > > > > > > > > > j=> > > > > > > > > > > > > > > > > > > > > > > > > > > > > > > > > 6-..,.W+E ....,.M+=@o&7-n*~$n*0 ",
"k 8-9-=.b ..Z ..o.f*o.3.4@|...s 5-> > > > > > > > > > > > > > > > > > > > > > > > > > > > > > > > > > > > > > > > > > > > > > > > > > > > > > > > > > > > > > > > > j=> > > > > > > > > > > > > > > > > > > > > > > > > > > > > > > > > 0-....0 E |.,.|.+.L&..9++*/@5%b ",
"k 5%E*9%l#f*....o.o.a-3.-.i ..d 5-> > > > > > > > > > > > > > > > > > > > > > > > > > > > > > > > > > > > > > > > > > > > > > > > > > > > > > > > > > > > > > > > > j=> > > > > > > > > > > > > > > > > > > > > > > > > > > > > > > > > b-<=f*a E |...o.>.L&..g H$/@h%W+",
"h <+4-c+W&e%..Y i o.o.3.t#j W*0 c-> > > > > > > > > > > > > > > > > > > > > > > > > > > > > > > > > > > > > > > > > > > > > > > > > > > > > > > > > > > > > > > > > j=> > > > > > > > > > > > > > > > > > > > > > > > > > > > > > > > > b-..f*0 u*i o.a-|...|.g d-~$)%b ",
"_%<+E*S#3.j |.i 2.j e-3.J$j W*0 c-> > > > > > > > > > > > > > > > > > > > > > > > > > > > > > > > > > > > > > > > > > > > > > > > > > > > > > > > > > > > > > > > > j=> > > > > > > > > > > > > > > > > > > > > > > > > > > > > > > > > b-..o.3.E*i |.o.Y i 2.#@H$/@)%3.",
"h J$H$b 3.k W*i k i k =.~$k j 0 c-> > > > > > > > > > > > > > > > > > > > > > > > > > > > > > > > > > > > > > > > > > > > > > > > > > > > > > > > > > > > > > > > > j=> > > > > > > > > > > > > > > > > > > > > > > > > > > > > > > > > f-e%i 3.I [.o.j 0.2.2.W+~$W&*#b ",
"h H$3.'.0 k g-j 2.j 9+=.t#h k 0 c-> > > > > > > > > > > > > > > > > > > > > > > > > > > > > > > > > > > > > > > > > > > > > > > > > > > > > > > > > > > > > > > > > c-> > > > > > > > > > > > > > > > > > > > > > > > > > > > > > > > > h-k k 3.E 2.[.2.0.2.h W+3.)-S#b ",
"h /@i-p 3.h j s.j-j s.S#~$)-k 0 c-> > > > > > > > > > > > > > > > > > > > > > > > > > > > > > > > > > > > > > > > > > > > > > > > > > > > > > > > > > > > > > > > > c-> > > > > > > > > > > > > > > > > > > > > > > > > > > > > > > > > k-k k 3.E 2.i j 2.j 2.q 0 ].-.'%",
"0 s$*#^%_%_%k j-g _%j 4@h$h k W&c-> > > > > > > > > > > > > > > > > > > > > > > > > > > > > > > > > > > > > > > > > > > > > > > > > > > > > > > > > > > > > > > > > c-> > > > > > > > > > > > > > > > > > > > > > > > > > > > > > > > > l-)-k S#Y*i j 2.j j 9+_%4@J$H$=.",
"s$=.L@k 9+q e '.W+m-p h$n-h k W&c-> > > > > > > > > > > > > > > > > > > > > > > > > > > > > > > > > > > > > > > > > > > > > > > > > > > > > > > > > > > > > > > > > c-> > > > > > > > > > > > > > > > > > > > > > > > > > > > > > > > > l-k o-W&E*o.b 3.;#}.'.}.h X L@~$",
"p-q-r-q-s-t-u-v-s-s-w-x-~$9+g ;.c-> > > > > > > > > > > > > > > > > > > > > > > > > > > > > > > > > > > > > > > > > > > > > > > > > > > > > > > > > > > > > > > > > c-> > > > > > > > > > > > > > > > > > > > > > > > > > > > > > > > > y-g g D#z-A-B-s-t-C-t-s-B-q-D-D-",
"!=E E <+T&n*E-!=!=1-F-G-H-r$4@M&c-> > > > > > > > > > > > > > > > > > > > > > > > > > > > > > > > > > > > > > > > > > > > > > > > > > > > > > > > > > > > > > > > > c-> > > > > > > > > > > > > > > > > > > > > > > > > > > > > > > > > I-Z#;.y&J-K-L-n*<+E-D M-!=E-<+5%",
"_.] _.] _._.~.N- *k%E+(+(.~._./%, > > > > > > > > > > > > > > > > > > > > > > > > > > > > > > > > > > > > > > > > > > > > > > > > > > > > > > > > > > > > > > > > > 3 > > > > > > > > > > > > > > > > > > > > > > > > > > > > > > > > > O-P-~.D+f%n.(.6._.6 s+}%D+D+p+D+",
"Q-Q-Q-R-S-S-T-p%U-V-p%p%p%W-X-Y-J%> > > > > > > > > > > > > > > > > > > > > > > > > > > > > > > > > > > > > > > > > > > > > > > > > > > > > > > > > > > > > > > > > j=> > > > > > > > > > > > > > > > > > > > > > > > > > > > > > > > > Z-T-W-W-`-`-`-S- ;.;+;S-@;#;`-S-"};
