/* XPM */
static char * so_door22_tex_xpm[] = {
"132 132 1422 2",
"  	c #2E3944",
". 	c #2E3943",
"+ 	c #2F3A45",
"@ 	c #2E3842",
"# 	c #2E3841",
"$ 	c #2F3B46",
"% 	c #2F3944",
"& 	c #2F3A46",
"* 	c #303C46",
"= 	c #303B46",
"- 	c #303C47",
"; 	c #303A45",
"> 	c #313D4A",
", 	c #313E4A",
"' 	c #323E4A",
") 	c #323F4A",
"! 	c #313D48",
"~ 	c #35393C",
"{ 	c #393939",
"] 	c #303B45",
"^ 	c #323F4B",
"/ 	c #313D49",
"( 	c #303C48",
"_ 	c #2E3A45",
": 	c #2E3843",
"< 	c #2E3A44",
"[ 	c #2D3842",
"} 	c #2E3942",
"| 	c #253545",
"1 	c #253645",
"2 	c #263746",
"3 	c #273847",
"4 	c #263645",
"5 	c #273645",
"6 	c #283847",
"7 	c #283948",
"8 	c #293A49",
"9 	c #283949",
"0 	c #273848",
"a 	c #293B4A",
"b 	c #293949",
"c 	c #293B4B",
"d 	c #293A4A",
"e 	c #2A3B4B",
"f 	c #2A3B4A",
"g 	c #2B3D4C",
"h 	c #2C3F4F",
"i 	c #2D3F4F",
"j 	c #2C3F50",
"k 	c #2D4151",
"l 	c #2C3D4C",
"m 	c #33393E",
"n 	c #2B3C4B",
"o 	c #2A3C4B",
"p 	c #293C4B",
"q 	c #2D4050",
"r 	c #283848",
"s 	c #283A49",
"t 	c #273948",
"u 	c #273947",
"v 	c #263846",
"w 	c #253746",
"x 	c #17222D",
"y 	c #17232D",
"z 	c #192530",
"A 	c #19242F",
"B 	c #1A2630",
"C 	c #1A2732",
"D 	c #1A2631",
"E 	c #1A2833",
"F 	c #18252F",
"G 	c #1B2833",
"H 	c #1B2834",
"I 	c #1A2733",
"J 	c #1B2934",
"K 	c #1C2934",
"L 	c #1C2A35",
"M 	c #1C2A36",
"N 	c #1D2A36",
"O 	c #1D2B38",
"P 	c #1E2D39",
"Q 	c #1F2F3C",
"R 	c #1F2E3B",
"S 	c #1F2E3A",
"T 	c #1F2C39",
"U 	c #313437",
"V 	c #303337",
"W 	c #1F2C38",
"X 	c #1E2C38",
"Y 	c #1C2B37",
"Z 	c #1D2D3A",
"` 	c #1D2B37",
" .	c #1C2935",
"..	c #1B2733",
"+.	c #1B2933",
"@.	c #1A2632",
"#.	c #1A2731",
"$.	c #192631",
"%.	c #192630",
"&.	c #070C10",
"*.	c #070C11",
"=.	c #080D12",
"-.	c #070D12",
";.	c #070D13",
">.	c #080E12",
",.	c #080E13",
"'.	c #080F14",
").	c #080D13",
"!.	c #080E14",
"~.	c #090E14",
"{.	c #091015",
"].	c #09131B",
"^.	c #091C2B",
"/.	c #0F1E29",
"(.	c #131F27",
"_.	c #131E27",
":.	c #131C24",
"<.	c #2F3031",
"[.	c #2E2F31",
"}.	c #131E26",
"|.	c #141F28",
"1.	c #121E27",
"2.	c #091C29",
"3.	c #08151F",
"4.	c #081015",
"5.	c #090F14",
"6.	c #090F15",
"7.	c #0D151B",
"8.	c #0C141B",
"9.	c #0B131A",
"0.	c #0C141A",
"a.	c #0D151C",
"b.	c #0E171E",
"c.	c #0B1218",
"d.	c #0B1319",
"e.	c #0C151B",
"f.	c #0A1117",
"g.	c #0A1116",
"h.	c #0C1319",
"i.	c #0E1821",
"j.	c #0F1E2A",
"k.	c #192733",
"l.	c #20303E",
"m.	c #223341",
"n.	c #303336",
"o.	c #2F3236",
"p.	c #21313F",
"q.	c #223340",
"r.	c #101E28",
"s.	c #0E1A23",
"t.	c #0B151B",
"u.	c #0A1218",
"v.	c #0F161E",
"w.	c #0E161D",
"x.	c #0D161C",
"y.	c #0E171D",
"z.	c #0F181F",
"A.	c #131D27",
"B.	c #142028",
"C.	c #14202A",
"D.	c #142029",
"E.	c #16212B",
"F.	c #15222C",
"G.	c #15212B",
"H.	c #16222B",
"I.	c #18242E",
"J.	c #182530",
"K.	c #192732",
"L.	c #21313E",
"M.	c #21323F",
"N.	c #1C2B36",
"O.	c #233644",
"P.	c #1E303F",
"Q.	c #293C4C",
"R.	c #233340",
"S.	c #313438",
"T.	c #2F3337",
"U.	c #263947",
"V.	c #283B4A",
"W.	c #192834",
"X.	c #263B4B",
"Y.	c #1F2F3B",
"Z.	c #1D2C38",
"`.	c #20313E",
" +	c #22333F",
".+	c #1E2E3A",
"++	c #192731",
"@+	c #16222C",
"#+	c #15212C",
"$+	c #16232D",
"%+	c #15202A",
"&+	c #131F28",
"*+	c #182631",
"=+	c #1A2934",
"-+	c #1B2935",
";+	c #1F303C",
">+	c #243644",
",+	c #273949",
"'+	c #283B4B",
")+	c #2A3E4E",
"!+	c #2C4253",
"~+	c #243847",
"{+	c #1E2E3B",
"]+	c #283C4C",
"^+	c #2A3F4F",
"/+	c #243442",
"(+	c #313538",
"_+	c #303438",
":+	c #283A4B",
"<+	c #293D4D",
"[+	c #273B4C",
"}+	c #2D4253",
"|+	c #2B4050",
"1+	c #2B3F4F",
"2+	c #2B4051",
"3+	c #2A3E4D",
"4+	c #263948",
"5+	c #20303D",
"6+	c #202F3B",
"7+	c #21303E",
"8+	c #20303C",
"9+	c #1B2A36",
"0+	c #1C2B38",
"a+	c #1D2C39",
"b+	c #192632",
"c+	c #263744",
"d+	c #2C4151",
"e+	c #2C4152",
"f+	c #2A3F4E",
"g+	c #2E4354",
"h+	c #2E4455",
"i+	c #2D4353",
"j+	c #2F4456",
"k+	c #2D4354",
"l+	c #2D4454",
"m+	c #32485A",
"n+	c #324A5C",
"o+	c #32495B",
"p+	c #32495C",
"q+	c #31485B",
"r+	c #31485A",
"s+	c #2C4354",
"t+	c #1E303E",
"u+	c #1E2D3A",
"v+	c #293E4E",
"w+	c #2A3E4F",
"x+	c #2E4557",
"y+	c #263C4C",
"z+	c #2A3F50",
"A+	c #323639",
"B+	c #303539",
"C+	c #2B4153",
"D+	c #203240",
"E+	c #2D4355",
"F+	c #293D4E",
"G+	c #2B3F51",
"H+	c #1F2F3D",
"I+	c #293D4B",
"J+	c #344B5E",
"K+	c #314658",
"L+	c #314859",
"M+	c #2F4557",
"N+	c #304658",
"O+	c #2D4252",
"P+	c #2B4151",
"Q+	c #2B3F50",
"R+	c #2C4051",
"S+	c #1E2C39",
"T+	c #2E4355",
"U+	c #2E4353",
"V+	c #2B4152",
"W+	c #304759",
"X+	c #344C5F",
"Y+	c #2D4457",
"Z+	c #1E313F",
"`+	c #243745",
" @	c #233443",
".@	c #2A3D4E",
"+@	c #2E4558",
"@@	c #2E4659",
"#@	c #294052",
"$@	c #293E4F",
"%@	c #2B4052",
"&@	c #273745",
"*@	c #32363A",
"=@	c #30353A",
"-@	c #293D4C",
";@	c #2C4355",
">@	c #213443",
",@	c #2F4558",
"'@	c #223240",
")@	c #374F62",
"!@	c #2E4456",
"~@	c #2F4457",
"{@	c #2D4455",
"]@	c #2B3E4F",
"^@	c #304558",
"/@	c #2E4457",
"(@	c #2D4152",
"_@	c #30485B",
":@	c #31495D",
"<@	c #2D4659",
"[@	c #1F3342",
"}@	c #223543",
"|@	c #223542",
"1@	c #2D4557",
"2@	c #30475A",
"3@	c #2B4254",
"4@	c #243645",
"5@	c #2C4254",
"6@	c #273846",
"7@	c #33373B",
"8@	c #30363B",
"9@	c #213343",
"0@	c #2F4659",
"a@	c #2A4052",
"b@	c #2C4153",
"c@	c #213240",
"d@	c #253847",
"e@	c #223645",
"f@	c #31485C",
"g@	c #30485A",
"h@	c #31495C",
"i@	c #31475A",
"j@	c #2E4658",
"k@	c #334A5C",
"l@	c #304557",
"m@	c #2D4254",
"n@	c #304659",
"o@	c #32495D",
"p@	c #324A5E",
"q@	c #1B2F3D",
"r@	c #2A3F51",
"s@	c #293E50",
"t@	c #30373C",
"u@	c #203341",
"v@	c #32495E",
"w@	c #1A2B38",
"x@	c #30495C",
"y@	c #324A5D",
"z@	c #334B5E",
"A@	c #2F4658",
"B@	c #374E62",
"C@	c #344A5D",
"D@	c #304657",
"E@	c #314759",
"F@	c #334A5E",
"G@	c #344C60",
"H@	c #324B5F",
"I@	c #334C61",
"J@	c #2E485B",
"K@	c #1D3140",
"L@	c #263A49",
"M@	c #253949",
"N@	c #2D4356",
"O@	c #253846",
"P@	c #33373C",
"Q@	c #30373D",
"R@	c #1F303F",
"S@	c #233645",
"T@	c #1D2E3B",
"U@	c #334A5D",
"V@	c #344D61",
"W@	c #375063",
"X@	c #243746",
"Y@	c #314758",
"Z@	c #334B5F",
"`@	c #334C60",
" #	c #344D62",
".#	c #314A5F",
"+#	c #1F3241",
"@#	c #273A4A",
"##	c #2D4357",
"$#	c #34383D",
"%#	c #31383F",
"&#	c #1F303E",
"*#	c #1E2F3D",
"=#	c #324A5F",
"-#	c #30475B",
";#	c #344D60",
">#	c #354E61",
",#	c #354D61",
"'#	c #344E62",
")#	c #354D62",
"!#	c #385164",
"~#	c #233442",
"{#	c #283B4C",
"]#	c #233342",
"^#	c #344C5E",
"/#	c #324C5F",
"(#	c #2F485C",
"_#	c #1F3140",
":#	c #1A2834",
"<#	c #273A49",
"[#	c #2E4458",
"}#	c #34393D",
"|#	c #31393F",
"1#	c #1E303D",
"2#	c #2D4558",
"3#	c #2C4052",
"4#	c #223442",
"5#	c #314A5E",
"6#	c #344C61",
"7#	c #354E62",
"8#	c #354E63",
"9#	c #385165",
"0#	c #233544",
"a#	c #233543",
"b#	c #334B5D",
"c#	c #334D61",
"d#	c #2F495D",
"e#	c #203140",
"f#	c #253948",
"g#	c #35393D",
"h#	c #313940",
"i#	c #2A4051",
"j#	c #233746",
"k#	c #3A5368",
"l#	c #233341",
"m#	c #2C4252",
"n#	c #334B60",
"o#	c #2F475B",
"p#	c #1B2A35",
"q#	c #253947",
"r#	c #233545",
"s#	c #1C2B39",
"t#	c #2B4154",
"u#	c #2D4456",
"v#	c #243846",
"w#	c #395367",
"x#	c #344B60",
"y#	c #1E3140",
"z#	c #253747",
"A#	c #283E4F",
"B#	c #35393E",
"C#	c #313A41",
"D#	c #293D4F",
"E#	c #1B2C39",
"F#	c #233646",
"G#	c #30465A",
"H#	c #375064",
"I#	c #33495B",
"J#	c #17242E",
"K#	c #203444",
"L#	c #2F475A",
"M#	c #353A3E",
"N#	c #313A42",
"O#	c #182734",
"P#	c #223544",
"Q#	c #18242F",
"R#	c #283C4B",
"S#	c #1D2D39",
"T#	c #1C2C39",
"U#	c #314C60",
"V#	c #2B475C",
"W#	c #213D51",
"X#	c #243E50",
"Y#	c #17242F",
"Z#	c #2A3D4D",
"`#	c #1D2E3C",
" $	c #253B4D",
".$	c #253E52",
"+$	c #2A465A",
"@$	c #1E2F3B",
"#$	c #1D2E39",
"$$	c #1F303D",
"%$	c #1C2C38",
"&$	c #2E4352",
"*$	c #2B3E4E",
"=$	c #30485C",
"-$	c #37546B",
";$	c #1F4965",
">$	c #1A74A2",
",$	c #2A495E",
"'$	c #2A4153",
")$	c #1A2935",
"!$	c #323B43",
"~$	c #1A2A36",
"{$	c #1C2D3A",
"]$	c #2C4659",
"^$	c #2A5B7B",
"/$	c #265F82",
"($	c #305069",
"_$	c #365064",
":$	c #233542",
"<$	c #263A4A",
"[$	c #273A4B",
"}$	c #22323F",
"|$	c #1F2E39",
"1$	c #1E2D38",
"2$	c #20313D",
"3$	c #20303B",
"4$	c #1D2C37",
"5$	c #355065",
"6$	c #1D4864",
"7$	c #127BB7",
"8$	c #2A4A61",
"9$	c #2C4356",
"0$	c #283E4E",
"a$	c #1B2B38",
"b$	c #2E4A5E",
"c$	c #286388",
"d$	c #246287",
"e$	c #2F4E66",
"f$	c #202F3A",
"g$	c #253745",
"h$	c #293B4C",
"i$	c #1B2A34",
"j$	c #202F3C",
"k$	c #233440",
"l$	c #1D2C36",
"m$	c #21303B",
"n$	c #21313D",
"o$	c #21333F",
"p$	c #385268",
"q$	c #1E4864",
"r$	c #137BB9",
"s$	c #2B4B61",
"t$	c #273C4C",
"u$	c #303941",
"v$	c #2F4A5E",
"w$	c #296489",
"x$	c #236389",
"y$	c #2F4F66",
"z$	c #30485D",
"A$	c #243543",
"B$	c #233441",
"C$	c #21303D",
"D$	c #1F2D39",
"E$	c #243542",
"F$	c #21303C",
"G$	c #283D4C",
"H$	c #1E4966",
"I$	c #0F7CC1",
"J$	c #2B4A61",
"K$	c #283D4D",
"L$	c #2B404F",
"M$	c #363A3D",
"N$	c #313B43",
"O$	c #28658A",
"P$	c #23668D",
"Q$	c #2F5067",
"R$	c #2E475A",
"S$	c #334C5F",
"T$	c #233643",
"U$	c #223440",
"V$	c #263745",
"W$	c #2E4253",
"X$	c #385368",
"Y$	c #1F4966",
"Z$	c #0E7DC4",
"`$	c #2C4B62",
" %	c #36393D",
".%	c #313A43",
"+%	c #2A6488",
"@%	c #22668F",
"#%	c #2F5069",
"$%	c #283A4A",
"%%	c #263848",
"&%	c #243646",
"*%	c #2A3E50",
"=%	c #365267",
"-%	c #1E4765",
";%	c #1279C2",
">%	c #2D4A61",
",%	c #303A44",
"'%	c #2A668B",
")%	c #216690",
"!%	c #2F526B",
"~%	c #2C4456",
"{%	c #32485B",
"]%	c #253848",
"^%	c #365167",
"/%	c #1277C2",
"(%	c #2F485D",
"_%	c #2B658A",
":%	c #206692",
"<%	c #30526B",
"[%	c #31495E",
"}%	c #273B4B",
"|%	c #293F50",
"1%	c #233745",
"2%	c #354F65",
"3%	c #1E4967",
"4%	c #107AC4",
"5%	c #2E4C63",
"6%	c #363A3E",
"7%	c #313B45",
"8%	c #293E4D",
"9%	c #1B2B36",
"0%	c #2F495E",
"a%	c #2B658C",
"b%	c #1F6693",
"c%	c #30536D",
"d%	c #223441",
"e%	c #2C4457",
"f%	c #344F64",
"g%	c #0F7BC7",
"h%	c #2D4C63",
"i%	c #2F3A43",
"j%	c #2C658B",
"k%	c #1F6692",
"l%	c #30526C",
"m%	c #2D4458",
"n%	c #26394A",
"o%	c #1E4763",
"p%	c #0F7AC6",
"q%	c #2C4C63",
"r%	c #2F4A5F",
"s%	c #21668F",
"t%	c #2F5169",
"u%	c #2C4255",
"v%	c #283C4D",
"w%	c #283D4E",
"x%	c #204763",
"y%	c #0F7CC6",
"z%	c #303B44",
"A%	c #216790",
"B%	c #2A4152",
"C%	c #1F4763",
"D%	c #0E7DC5",
"E%	c #2C4D64",
"F%	c #2F3B45",
"G%	c #2B4253",
"H%	c #304A5F",
"I%	c #22658F",
"J%	c #2F4759",
"K%	c #1F4864",
"L%	c #0D7EC7",
"M%	c #2D4E65",
"N%	c #2B6386",
"O%	c #23648C",
"P%	c #1D445F",
"Q%	c #127CBC",
"R%	c #2B4B62",
"S%	c #18252E",
"T%	c #36393C",
"U%	c #2F3A44",
"V%	c #2E4559",
"W%	c #2D475B",
"X%	c #2B6081",
"Y%	c #266083",
"Z%	c #2B4A60",
"`%	c #2A3F52",
" &	c #1F3A4E",
".&	c #2A5875",
"+&	c #253F53",
"@&	c #254A62",
"#&	c #224862",
"$&	c #1C3040",
"%&	c #253A49",
"&&	c #2C4759",
"*&	c #244055",
"=&	c #254F69",
"-&	c #243C4E",
";&	c #2E3A43",
">&	c #2A4050",
",&	c #273E50",
"'&	c #25485E",
")&	c #254962",
"!&	c #294458",
"~&	c #304758",
"{&	c #1D4561",
"]&	c #1B73A7",
"^&	c #28485F",
"/&	c #37393C",
"(&	c #293F51",
"_&	c #294356",
":&	c #2A5F80",
"<&	c #255F83",
"[&	c #2C4960",
"}&	c #293F4F",
"|&	c #1D4764",
"1&	c #127BBD",
"2&	c #2A4B62",
"3&	c #2C475B",
"4&	c #236289",
"5&	c #2E4D65",
"6&	c #1E4A67",
"7&	c #107CC4",
"8&	c #2A4A62",
"9&	c #293E4C",
"0&	c #2E3A46",
"a&	c #2C485D",
"b&	c #29668C",
"c&	c #216590",
"d&	c #1E4866",
"e&	c #107BC4",
"f&	c #2D3A44",
"g&	c #29668A",
"h&	c #206792",
"i&	c #2D4F68",
"j&	c #304859",
"k&	c #1E4A68",
"l&	c #107BC3",
"m&	c #2A4961",
"n&	c #37393B",
"o&	c #2D3943",
"p&	c #2B475B",
"q&	c #263949",
"r&	c #1D4966",
"s&	c #1279BD",
"t&	c #2A485F",
"u&	c #2D3A45",
"v&	c #17242D",
"w&	c #2B4559",
"x&	c #296386",
"y&	c #236489",
"z&	c #2D4F67",
"A&	c #2B4252",
"B&	c #1579B5",
"C&	c #29485E",
"D&	c #2B4558",
"E&	c #296082",
"F&	c #256083",
"G&	c #2A3D4C",
"H&	c #263B4C",
"I&	c #1D2F3B",
"J&	c #1A384C",
"K&	c #21526E",
"L&	c #253E51",
"M&	c #2C3842",
"N&	c #214962",
"O&	c #204962",
"P&	c #2B4457",
"Q&	c #1A2A37",
"R&	c #1A3040",
"S&	c #2C3742",
"T&	c #1D303F",
"U&	c #1C2E3D",
"V&	c #263845",
"W&	c #17232E",
"X&	c #2C3944",
"Y&	c #273B4A",
"Z&	c #253A48",
"`&	c #38393B",
" *	c #2D3B45",
".*	c #15212A",
"+*	c #37393A",
"@*	c #2B3944",
"#*	c #152029",
"$*	c #1F303B",
"%*	c #213442",
"&*	c #213340",
"**	c #273C4A",
"=*	c #18242D",
"-*	c #273A48",
";*	c #38393A",
">*	c #2C3945",
",*	c #20313F",
"'*	c #172B39",
")*	c #182833",
"!*	c #2B3844",
"~*	c #172936",
"{*	c #213647",
"]*	c #253845",
"^*	c #284155",
"/*	c #1B3F56",
"(*	c #255A77",
"_*	c #1F394B",
":*	c #273B49",
"<*	c #293F4E",
"[*	c #2A3843",
"}*	c #223746",
"|*	c #285773",
"1*	c #1B445D",
"2*	c #223E53",
"3*	c #294357",
"4*	c #1D4159",
"5*	c #1973A8",
"6*	c #24648A",
"7*	c #2B495F",
"8*	c #293642",
"9*	c #275471",
"0*	c #0F7DC0",
"a*	c #1E4964",
"b*	c #264257",
"c*	c #294153",
"d*	c #1D3F56",
"e*	c #1C6F9F",
"f*	c #1E6D9C",
"g*	c #2D536D",
"h*	c #293743",
"i*	c #304D64",
"j*	c #285E81",
"k*	c #0980C9",
"l*	c #1E4863",
"m*	c #264055",
"n*	c #273C4D",
"o*	c #1B3648",
"p*	c #1A72A5",
"q*	c #2D5570",
"r*	c #192833",
"s*	c #2A3844",
"t*	c #24638A",
"u*	c #147AB2",
"v*	c #1C3E54",
"w*	c #273C4B",
"x*	c #1A3141",
"y*	c #1D3B4F",
"z*	c #285D7C",
"A*	c #2B536D",
"B*	c #293844",
"C*	c #2F4D65",
"D*	c #285A78",
"E*	c #1F425A",
"F*	c #1A3346",
"G*	c #253C4E",
"H*	c #1B394F",
"I*	c #275876",
"J*	c #285A77",
"K*	c #2A4C62",
"L*	c #293845",
"M*	c #2D4A60",
"N*	c #224D68",
"O*	c #206A96",
"P*	c #1C4057",
"Q*	c #253F52",
"R*	c #253946",
"S*	c #263B4A",
"T*	c #1D3C53",
"U*	c #275777",
"V*	c #127DBD",
"W*	c #2C4E65",
"X*	c #1971A8",
"Y*	c #216692",
"Z*	c #1B3E56",
"`*	c #263E51",
" =	c #283E51",
".=	c #1E3D54",
"+=	c #265474",
"@=	c #2D5774",
"#=	c #2B465B",
"$=	c #182630",
"%=	c #21323E",
"&=	c #383939",
"*=	c #263641",
"==	c #2C4559",
"-=	c #2E526D",
";=	c #1474B3",
">=	c #236189",
",=	c #1B3D56",
"'=	c #263C4F",
")=	c #253A4A",
"!=	c #283F50",
"~=	c #1D3C54",
"{=	c #234E6C",
"]=	c #0782D3",
"^=	c #2B5B7B",
"/=	c #2C485E",
"(=	c #15222A",
"_=	c #263440",
":=	c #141F27",
"<=	c #2C4458",
"[=	c #2D5470",
"}=	c #0E7ABF",
"|=	c #265B7D",
"1=	c #1A3A4F",
"2=	c #243A4B",
"3=	c #1E3B50",
"4=	c #1F4C6A",
"5=	c #0382DA",
"6=	c #2A5C7E",
"7=	c #2C4A60",
"8=	c #24323F",
"9=	c #233642",
"0=	c #141E26",
"a=	c #0E7CC3",
"b=	c #275676",
"c=	c #193549",
"d=	c #25394B",
"e=	c #243948",
"f=	c #1E3241",
"g=	c #193950",
"h=	c #295F82",
"i=	c #2C4A62",
"j=	c #1E2E39",
"k=	c #1C2933",
"l=	c #151F27",
"m=	c #2B5471",
"n=	c #1A2C3A",
"o=	c #213341",
"p=	c #253A4B",
"q=	c #162936",
"r=	c #1A3447",
"s=	c #2B516C",
"t=	c #2D4B61",
"u=	c #1C2C37",
"v=	c #333537",
"w=	c #282D32",
"x=	c #284F69",
"y=	c #1E4256",
"z=	c #162733",
"A=	c #162835",
"B=	c #283C4A",
"C=	c #101C25",
"D=	c #141D26",
"E=	c #353738",
"F=	c #252E35",
"G=	c #24394A",
"H=	c #1A2D3A",
"I=	c #172430",
"J=	c #16242E",
"K=	c #182732",
"L=	c #152531",
"M=	c #122C3E",
"N=	c #103C55",
"O=	c #383839",
"P=	c #212F3A",
"Q=	c #17252F",
"R=	c #273D4C",
"S=	c #1C303D",
"T=	c #162C3B",
"U=	c #124361",
"V=	c #11688D",
"W=	c #103447",
"X=	c #35383A",
"Y=	c #29343E",
"Z=	c #1A2933",
"`=	c #1B3140",
" -	c #153143",
".-	c #134B6C",
"+-	c #0B729B",
"@-	c #10394F",
"#-	c #35383B",
"$-	c #293640",
"%-	c #2C4558",
"&-	c #273D4E",
"*-	c #213645",
"=-	c #245570",
"--	c #27455C",
";-	c #263C4D",
">-	c #163449",
",-	c #144D6E",
"'-	c #0A749E",
")-	c #103B52",
"!-	c #283641",
"~-	c #284255",
"{-	c #263F52",
"]-	c #205371",
"^-	c #233B4D",
"/-	c #233B4C",
"(-	c #127CA8",
"_-	c #274F6C",
":-	c #263D4F",
"<-	c #153449",
"[-	c #154D6F",
"}-	c #0774A3",
"|-	c #103B53",
"1-	c #29495F",
"2-	c #0E7BAD",
"3-	c #234358",
"4-	c #1B2B37",
"5-	c #243E4F",
"6-	c #0A84B7",
"7-	c #28516F",
"8-	c #273E51",
"9-	c #294051",
"0-	c #1B303F",
"a-	c #153247",
"b-	c #144C6E",
"c-	c #0675A5",
"d-	c #0F3A52",
"e-	c #284256",
"f-	c #283E4D",
"g-	c #2A4B61",
"h-	c #0783B8",
"i-	c #24455B",
"j-	c #0E81B0",
"k-	c #28506C",
"l-	c #153347",
"m-	c #144C6D",
"n-	c #0973A0",
"o-	c #28343F",
"p-	c #274053",
"q-	c #2A495F",
"r-	c #0C7EAC",
"s-	c #233848",
"t-	c #275E7C",
"u-	c #29475D",
"v-	c #1C3141",
"w-	c #153043",
"x-	c #144A6B",
"y-	c #0975A1",
"z-	c #103B51",
"A-	c #284154",
"B-	c #275B77",
"C-	c #243C4F",
"D-	c #263F51",
"E-	c #1D3241",
"F-	c #152D3D",
"G-	c #144764",
"H-	c #0D7299",
"I-	c #11384D",
"J-	c #35373A",
"K-	c #28323C",
"L-	c #283F51",
"M-	c #273F51",
"N-	c #16222D",
"O-	c #15364A",
"P-	c #124D69",
"Q-	c #212F3B",
"R-	c #1B2D3A",
"S-	c #172A3A",
"T-	c #2D373F",
"U-	c #1E2C37",
"V-	c #1C2D39",
"W-	c #2F3439",
"X-	c #333639",
"Y-	c #1E3749",
"Z-	c #27526E",
"`-	c #27455B",
" ;	c #2F363C",
".;	c #204A63",
"+;	c #214A60",
"@;	c #1B2E3C",
"#;	c #2E4759",
"$;	c #224259",
"%;	c #0880D0",
"&;	c #285C7E",
"*;	c #254259",
"=;	c #33363A",
"-;	c #2E343A",
";;	c #24526F",
">;	c #088ACD",
",;	c #254E68",
"';	c #2A4254",
");	c #2F4C62",
"!;	c #285372",
"~;	c #008AE3",
"{;	c #275675",
"];	c #254156",
"^;	c #2E3439",
"/;	c #283F53",
"(;	c #244E69",
"_;	c #0683D2",
":;	c #276083",
"<;	c #2F5168",
"[;	c #295979",
"};	c #0087E2",
"|;	c #265270",
"1;	c #253F54",
"2;	c #17252E",
"3;	c #33373A",
"4;	c #2E353B",
"5;	c #273D4F",
"6;	c #254A63",
"7;	c #0A7ECC",
"8;	c #216997",
"9;	c #294E68",
"0;	c #2B4356",
"a;	c #2B4E66",
"b;	c #266088",
"c;	c #0188DB",
"d;	c #25516E",
"e;	c #263F53",
"f;	c #34373B",
"g;	c #2F353C",
"h;	c #1479B7",
"i;	c #1B71A7",
"j;	c #284E68",
"k;	c #2D475C",
"l;	c #2B4F67",
"m;	c #236692",
"n;	c #117EBB",
"o;	c #234C66",
"p;	c #274052",
"q;	c #34373A",
"r;	c #2E353C",
"s;	c #26475D",
"t;	c #1D6F9E",
"u;	c #1577B4",
"v;	c #28506B",
"w;	c #2D485D",
"x;	c #2D485B",
"y;	c #2B4F68",
"z;	c #226994",
"A;	c #256487",
"B;	c #213E51",
"C;	c #2B3F4E",
"D;	c #213A4C",
"E;	c #205571",
"F;	c #137AB1",
"G;	c #274F69",
"H;	c #304D63",
"I;	c #2E495D",
"J;	c #27465C",
"K;	c #224358",
"L;	c #224A66",
"M;	c #234258",
"N;	c #1B2B35",
"O;	c #264256",
"P;	c #1E4B64",
"Q;	c #204157",
"R;	c #24465C",
"S;	c #2E4C61",
"T;	c #244155",
"U;	c #0C7EC5",
"V;	c #23648E",
"W;	c #24435A",
"X;	c #16212A",
"Y;	c #34383B",
"Z;	c #2E363C",
"`;	c #274357",
" >	c #235572",
".>	c #0886C7",
"+>	c #23475E",
"@>	c #2F4B60",
"#>	c #26516F",
"$>	c #0083DD",
"%>	c #265C82",
"&>	c #234157",
"*>	c #152129",
"=>	c #2D353C",
"->	c #264054",
";>	c #224F6C",
">>	c #0588D4",
",>	c #265471",
"'>	c #2F4D63",
")>	c #0181DA",
"!>	c #255372",
"~>	c #0882CF",
"{>	c #27597A",
"]>	c #2C4C64",
"^>	c #2E516A",
"/>	c #245170",
"(>	c #1774AD",
"_>	c #1E3C51",
":>	c #2D343B",
"<>	c #1E3546",
"[>	c #206A99",
"}>	c #294D66",
"|>	c #213441",
"1>	c #1D2D38",
"2>	c #2A485C",
"3>	c #203E52",
"4>	c #192A38",
"5>	c #172733",
"6>	c #1F3C4F",
"7>	c #28455A",
"8>	c #1F313E",
"9>	c #2C353B",
"0>	c #2C333B",
"a>	c #203340",
"b>	c #343739",
"c>	c #2C333A",
"d>	c #223443",
"e>	c #15222D",
"f>	c #1D2E3A",
"g>	c #182834",
"h>	c #1E2F3C",
"i>	c #353739",
"j>	c #182632",
"k>	c #213342",
"l>	c #162D3D",
"m>	c #17455B",
"n>	c #1D3342",
"o>	c #18384B",
"p>	c #16394E",
"q>	c #23394A",
"r>	c #163E57",
"s>	c #1A7198",
"t>	c #204054",
"u>	c #2B3239",
"v>	c #243544",
"w>	c #253D4F",
"x>	c #255673",
"y>	c #1F5978",
"z>	c #244257",
"A>	c #223342",
"B>	c #17425D",
"C>	c #147AAD",
"D>	c #204359",
"E>	c #295D7D",
"F>	c #235E7F",
"G>	c #25455B",
"H>	c #184461",
"I>	c #107CB7",
"J>	c #22445B",
"K>	c #2A3239",
"L>	c #2A5E7F",
"M>	c #225F82",
"N>	c #18435F",
"O>	c #107CB8",
"P>	c #21445B",
"Q>	c #263847",
"R>	c #2A323A",
"S>	c #2A5F7F",
"T>	c #235F83",
"U>	c #24445B",
"V>	c #18425E",
"W>	c #0F7DBB",
"X>	c #21445C",
"Y>	c #14212B",
"Z>	c #243F53",
"`>	c #295F7F",
" ,	c #236084",
".,	c #20323F",
"+,	c #17415D",
"@,	c #117CB9",
"#,	c #131D26",
"$,	c #243E52",
"%,	c #2A5F7E",
"&,	c #226084",
"*,	c #25394A",
"=,	c #17405B",
"-,	c #147AB1",
";,	c #204257",
">,	c #293138",
",,	c #121D26",
"',	c #223C4E",
"),	c #2A5E7C",
"!,	c #234359",
"~,	c #173D57",
"{,	c #1677AA",
"],	c #204155",
"^,	c #2A3139",
"/,	c #121C25",
"(,	c #2A5C79",
"_,	c #255D7D",
":,	c #214055",
"<,	c #1D2F3D",
"[,	c #17354A",
"},	c #21607E",
"|,	c #1D394C",
"1,	c #293139",
"2,	c #121D25",
"3,	c #203646",
"4,	c #204F6A",
"5,	c #1E506B",
"6,	c #1A3345",
"7,	c #182D3B",
"8,	c #1F3E52",
"9,	c #1C2F3D",
"0,	c #1F3340",
"a,	c #1E384B",
"b,	c #1F394D",
"c,	c #1A2B39",
"d,	c #213241",
"e,	c #1A3F57",
"f,	c #1C6A8D",
"g,	c #1D3C4F",
"h,	c #293038",
"i,	c #21394A",
"j,	c #23536F",
"k,	c #1F5471",
"l,	c #27455A",
"m,	c #153F59",
"n,	c #1578A7",
"o,	c #1F4055",
"p,	c #283038",
"q,	c #2A5C7A",
"r,	c #225978",
"s,	c #224258",
"t,	c #263A4B",
"u,	c #16415C",
"v,	c #137AB0",
"w,	c #363739",
"x,	c #233C4E",
"y,	c #2A5E7E",
"z,	c #235A7A",
"A,	c #253849",
"B,	c #127BB1",
"C,	c #223B4D",
"D,	c #225B7C",
"E,	c #234257",
"F,	c #17425E",
"G,	c #117CB4",
"H,	c #20445A",
"I,	c #273037",
"J,	c #2B5F7F",
"K,	c #235D7E",
"L,	c #107DB7",
"M,	c #272F37",
"N,	c #223A4C",
"O,	c #245C7E",
"P,	c #244359",
"Q,	c #107DB9",
"R,	c #20435A",
"S,	c #223C4D",
"T,	c #24445A",
"U,	c #192730",
"V,	c #17405C",
"W,	c #363738",
"X,	c #272F36",
"Y,	c #111C23",
"Z,	c #233C4D",
"`,	c #2B607F",
" '	c #235C7F",
".'	c #163F5B",
"+'	c #127AB7",
"@'	c #204258",
"#'	c #262E35",
"$'	c #111B23",
"%'	c #235B7E",
"&'	c #224157",
"*'	c #152028",
"='	c #1B2832",
"-'	c #18232C",
";'	c #153E59",
">'	c #1379AF",
",'	c #1E4156",
"''	c #121C24",
")'	c #225C7E",
"!'	c #17222B",
"~'	c #17232C",
"{'	c #19252E",
"]'	c #142129",
"^'	c #143D57",
"/'	c #1279A9",
"('	c #1D4056",
"_'	c #242C33",
":'	c #223A4B",
"<'	c #2B5E7B",
"['	c #225B7D",
"}'	c #223F54",
"|'	c #162129",
"1'	c #19262F",
"2'	c #273946",
"3'	c #133A51",
"4'	c #167198",
"5'	c #1C3D51",
"6'	c #232B32",
"7'	c #21384A",
"8'	c #205978",
"9'	c #213C4F",
"0'	c #293B49",
"a'	c #142B3C",
"b'	c #184057",
"c'	c #1B2E3D",
"d'	c #17384E",
"e'	c #294050",
"f'	c #243848",
"g'	c #253C4C",
"h'	c #142430",
"i'	c #232C33",
"j'	c #172835",
"k'	c #1F3749",
"l'	c #182F3E",
"m'	c #263D4E",
"n'	c #263D4D",
"o'	c #233846",
"p'	c #111F2A",
"q'	c #0F1A23",
"r'	c #242C34",
"s'	c #1B2A37",
"t'	c #131F29",
"u'	c #15232D",
"v'	c #12202A",
"w'	c #111C25",
"x'	c #373738",
"y'	c #232B34",
"z'	c #14212A",
"A'	c #111D25",
"B'	c #232B33",
"C'	c #22313F",
"D'	c #202F3D",
"E'	c #222B33",
"F'	c #373838",
"G'	c #16232E",
"H'	c #233240",
"I'	c #222A32",
"J'	c #1F2E3C",
"K'	c #202A32",
"L'	c #21303F",
"M'	c #23333F",
"N'	c #202931",
"O'	c #1F272E",
"P'	c #111B24",
"Q'	c #17222C",
"R'	c #202E3B",
"S'	c #111C24",
"T'	c #0F1920",
"U'	c #0E181F",
"V'	c #0E161C",
"W'	c #0F171F",
"X'	c #0F1820",
"Y'	c #0F1921",
"Z'	c #111E28",
"`'	c #1E262D",
" )	c #121F28",
".)	c #111C26",
"+)	c #0D161E",
"@)	c #101A21",
"#)	c #131E28",
"$)	c #132029",
"%)	c #13222D",
"&)	c #132939",
"*)	c #162530",
"=)	c #1B2229",
"-)	c #142938",
";)	c #132431",
">)	c #14222C",
",)	c #141F29",
"')	c #283A48",
"))	c #25323D",
"!)	c #2B3E4D",
"~)	c #273746",
"{)	c #23313E",
"])	c #243440",
"^)	c #283845",
"/)	c #253441",
"()	c #24333F",
"_)	c #24313F",
":)	c #263442",
"<)	c #283744",
"[)	c #273643",
"})	c #263542",
"|)	c #253542",
"1)	c #263643",
"2)	c #263543",
"3)	c #253440",
"4)	c #24313E",
"5)	c #23323E",
"6)	c #24343F",
"7)	c #25343F",
"8)	c #242F38",
"9)	c #273543",
"0)	c #253541",
"a)	c #243441",
"b)	c #253442",
"c)	c #25333F",
"  .   + @ # . + + + $ + % % % & & * + = - * $ $ + + & $ + $ = - ; - - - > , ' ' ) ! ~ { { { { { { { { { { { { { { { { { { { { { { { { { { { { { { { { { { { { { { { { { { { { { { { ~ ] - - ' ' ' ^ ' , / = - - ( - = + _ : + - + + + + & + + + + $ + + + + + < . . [ } ",
"| 1 2 3 2 4 5 6 7 7 8 9 7 6 6 9 9 9 2 0 a a 9 9 7 9 b c d 8 d e f e f g h i h j k l m { { { { { { { { { { { { { { { { { { { { { { { { { { { { { { { { { { { { { { { { { { { { { { { m n o p j k q i g g a 8 f o f 9 7 7 0 3 9 o d b 9 7 8 r r 9 b a 9 r s s t u v w 1 1 ",
"x y z z A A A z z B C C D D D C E C F z G H C C I E G H G J K L M N M O P Q R S S T U { { { { { { { { { { { { { { { { { { { { { { { { { { { { { { { { { { { { { { { { { { { { { { { V W X Y Z P X X ` M  .G L N L ....G G G +.J G C C D @.D ..C G G ..#.E E $.%.z z A F ",
"&.*.=.=.-.=.=.=.;.>.,.,.=.,.,.,.,.'.;.).!.'.!.!.!.'.'.!.,.,.,.!.!.~.'.{.].^./.(._.:.<.{ { { { { { { { { { { { { { { { { { { { { { { { { { { { { { { { { { { { { { { { { { { { { { { [.}.|.1.2.3.4.5.5.5.~.!.~.5.5.!.'.'.'.'.5.6.!.,.!.=.).,.!.!.~.~.!.,.!.!.,.,.,.,.,.).",
"7.8.9.0.8.0.0.a.b.8.c.c.d.9.0.d.0.7.0.d.0.a.7.e.0.8.0.d.f.g.5.6.g.h.0.0.i.j.k.l.m.T n.{ { { { { { { { { { { { { { { { { { { { { { { { { { { { { { { { { { { { { { { { { { { { { { { o.p.q.P r.s.t.u.d.d.c.g.g.u.0.a.b.v.w.e.a.w.b.8.0.8.0.8.x.w.a.8.8.8.7.y.z.z.b.w.7.e.",
"}._.A.A.A.|.|.B.C.D.D.D.E.F.F.F.G.G.D.D.H.y y I.J.$.K.J.z L ` S L.M.S N.O.P.Y t Q.R.S.{ { { { { { { { { { { { { { { { { { { { { { { { { { { { { { { { { { { { { { { { { { { { { { { T.U.V.O.W.X.Y.Z.`. +.+P S K.E J J G H E ++E x E.@+E.G.#+F.y $+H.%+D.B.D.D.D.(.&+|.&+",
"G $.F F F *+$.E =+-+M M Y M N.M -+-+E E M P P P S ;+Y..+S >+t ,+'+Q.)+Q.!+~+{+]+^+/+(+{ { { { { { { { { { { { { { { { { { { { { { { { { { { { { { { { { { { { { { { { { { { { { { { _+:+<+[+Z }+|+1+2+3+'+4+V.5+6+5+M.7+8+S P S N.9+Y Y 0+Z.Z.a+0+N.-+H E k.b+k.*+$.b+Y ",
"c+'+3+d+3+e+f+)+|+g+h+i+j+k+l+k+e+i+e+i+m+n+o+p+q+r+s+t+u+L ,+v+w+<+e+h+x+y+q.v+z+c+A+{ { { { { { { { { { { { { { { { { { { { { { { { { { { { { { { { { { { { { { { { { { { { { { { B+'+w+C+D+k+i+g+E+F+G+<+S R H+I+r+J+o+K+L+M+h+i+j+N+j+M+g+h+O+P+|+2+e+Q+1+O+O+R+)+3+",
"S+8 3+3+'+)+<+^+e+k+k+e+T+k+U+!+e+V+e+e+E+W+W+W+q+X+Y+Z+`+ @Q.^+.@Q.^++@@@#@>+$@%@&@*@{ { { { { { { { { { { { { { { { { { { { { { { { { { { { { { { { { { { { { { { { { { { { { { { =@-@%@;@>@@@x+,@!+)+!+e+'@U.D+Q.)@q+N+,@!@~@h+{@M+W+N+x+!@k+e+|+Q+Q+G+^+]@e+O+2+p 8+",
"l.L R+Q+^+2+2+2+e+^@,@j+M+W+M+,@/@E+k+(@M+r+p+_@_@:@<@[@}@|@]+w+w+v+$@1@2@3@4@z+5@6@7@{ { { { { { { { { { { { { { { { { { { { { { { { { { { { { { { { { { { { { { { { { { { { { { { 8@.@!+5@9@0@2@@@a@Q.b@%@c@d@e@]+f@0@g@h@N+N+M+!@W+i@W+q+W+j@!@!+5@!+e+V+%@k+k+N+8+`.",
">+Q k@l@^+e+e+2+m@N+i@q+n@o@2@q+2@j@j@,@2@p+p@:@f@p@<@q@D.|@[+V+%@r@s@E+f@;@4@%@!@u 7@{ { { { { { { { { { { { { { { { { { { { { { { { { { { { { { { { { { { { { { { { { { { { { { { t@G+m@%@u@2@v@n@r@v+x+G+p.a+w@[+x@+@q+p@q+y@q+N+p+q+i@z@p@:@q+N+A@M+~@!+%@E+j+B@5+4@",
"w p.C@D@e+h+m@e+{@M+E@F@G@F@o@p@:@q+q+q+q+y@F@F@H@I@J@K@*+L@M@%@5@%@%@N@2@3@O@!+E+u P@{ { { { { { { { { { { { { { { { { { { { { { { { { { { { { { { { { { { { { { { { { { { { { { { Q@%@E+%@R@2@f@M+!+!+n@z+S@D+T@$@p@W+:@v@p@z@z@U@F@q+q+V@V@G@F@p@y@q+i@M+!+h+M+W@M.X@",
"d@'@J+Y@k+E+M+M+N+q+q+z@V@F@o@p@Z@p@p@o@:@v@F@Z@`@ #.#+#W.@#,+%@+@,@5@E+_@;@4+##E+s $#{ { { { { { { { { { { { { { { { { { { { { { { { { { { { { { { { { { { { { { { { { { { { { { { %#%@/@!+&#@@+@x+5@E+i@e+X@c@*#^+Z@=#-#:@Z@;#V@>#,#:@q+F@'#)#,#G@G@z@p+,@m@E+N+!#~#w ",
"{#]#^#r+k+M+i@q+F@X+z@z@F@p@,@q+p@V@H@o@p@H@Z@`@Z@/#(#_#:#<#w G++@0@+@j@2@C+w [#/@p }#{ { { { { { { { { { { { { { { { { { { { { { { { { { { { { { { { { { { { { { { { { { { { { { { |#!+/@%@1#2#Y+;@Y+0@2@3#~+4#t+v+H@F@_@5#'#6#G@7#8#`@:@H@Z@'#)#)#V@V@F@M+m@h+N+9#0#t ",
"<+a#b#L+m@k+A@W+y@F@J+F@F@g@/@Y+0@F@p@f@F@Z@o@=#`@c#d#e#:#f#X@F+N@n@/@+@+@a@4@Y++@p g#{ { { { { { { { { { { { { { { { { { { { { { { { { { { { { { { { { { { { { { { { { { { { { { { h#k+j@i#Z ;@;@C++@f@W+2+j#4#t+^+V@6#:@:@`@G@7#G@)#X+f@f@q+z@Z@Z@`@'#z@+@5@m@W+k#1 '+",
"]+l#o+E@m#%@!+5@+@p+y@y@z@W+!@+@2@p@p+o@H@Z@p@H@n# #o#_#p#q#r#F+b@,@_@+@Y+$@4@x+N@c }#{ { { { { { { { { { { { { { { { { { { { { { { { { { { { { { { { { { { { { { { { { { { { { { { %#!@M+z+s#t#;@u#2@2@/@z+v#}@D+w+'#'#I@`@Z@`@G@q+z@F@2@p+2@q+y@p@o@:@o@0@m@5@W+w#X@Q.",
",+]#L+,@e+z+V+V+z+u#q+o+p+q+,@+@W+p+W+f@o@p@x#6#I@`@-#y#9+z#w a@b@2@:@q+j@A#a#5@E+o B#{ { { { { { { { { { { { { { { { { { { { { { { { { { { { { { { { { { { { { { { { { { { { { { { C#E+u#D#E#2#Y++@2@j@A@%@F# @&#F+Z@)#V@G@H@H@p@q+G@X+i@2@g@0@h@q+2@G#q+f@N@m@+@H#4@Q.",
"U.~#I#L+z+F+<+a+@+J#$.$.z F y y I.F F $.J O@f@`@p@Z@d#K#0#]+d@%@Y+L#g@p@_@i#J#w V+o M#{ { { { { { { { { { { { { { { { { { { { { { { { { { { { { { { { { { { { { { { { { { { { { { { N#b@z+E O#2@0@0@/@E+x+%@f#@#P#Q+n#V@V@H@2+a+E k.E E F J#J#Q#$.$.*+J.p#E+E+<+m@G@0#R#",
",+4@v 5+9+9+9+9+.+S S#Y S#S+S#T#a+S {+R >+R N+z@H@H@U#V#W#X#[++@0@2@2@f@_@a@Y#F V+Z#M#{ { { { { { { { { { { { { { { { { { { { { { { { { { { { { { { { { { { { { { { { { { { { { { { C#!+4@J#`#x@2@0@N@3#E+5@ $.$+$p@F@F@Z@`@5+q.p.T#@$Y.S#S##$Z T#.+`.$$Z p.R %$8+4+X@)+",
",+d@Y@-@@#`+M.$$6+&$4@p.8+p.p..+m.7+l.O@*$c M+q+p@=$Z@-$;$>$,$Y+0@n@_@n@+@'$)$p#V+3+M#{ { { { { { { { { { { { { { { { { { { { { { { { { { { { { { { { { { { { { { { { { { { { { { { !$2+]+~${$_@j@Y+N@!+N@]$^$/$($_$G@:@f@z@:$g+U.R `.p.7+~#R Q M.4@R+ +`.X@w '+1+L+Q.v+",
"<$4#D@Q.[$d@l#q.}$|$4#1 1$2$+.3$4$C }$P <+@#M+-#-#L#H@5$6$7$8$9$Y++@N@N@;@0$~$p#z+*$g#{ { { { { { { { { { { { { { { { { { { { { { { { { { { { { { { { { { { { { { { { { { { { { { { N#z+v+%$a$A@Y+;@5@;@+@b$c$d$e$H@2@j@=$z@X@m#Y.}$%.6+|$+.f$C 4#X@:$M.~#g$,+h$1+M+<#)+",
"L@4#L+^+R#4@i$:$q.j$S g$P 1$k$l$m$n$K o$z+d@!@2@-#@@x@p$q$r$s$N@!@5@%@E+%@t$)$E 2+|+g#{ { { { { { { { { { { { { { { { { { { { { { { { { { { { { { { { { { { { { { { { { { { { { { { u$%@)+%$=+j@2#N@5@9$j@v$w$x$y$z$@@@@_@`@4@e+O.i$6+P f$ ++.}$q.~#}$O@O@6+A$Q.)+N+t <+",
"]+O.J+e+]+[$g$6+:$B$C$`.~#7+D$E$6+F$E$Z.G$@#{@_@=$@@_@p$H$I$J$;@E+b@b@5@5@K$)$K.P+L$M${ { { { { { { { { { { { { { { { { { { { { { { { { { { { { { { { { { { { { { { { { { { { { { { N$%@)+T#J +@j@+@2#+@+@d#O$P$Q$.#R$@@x@S$X@!+.+T$S#5+c+|$U$L.X@p.t '+U$:$<+Q.m#L+,+v+",
"<+X@b#e+]+]+G$g$S 4@V$}$4@{#e+W$g+N+i+<+V+]+{@_@=$L#=$X$Y$Z$`$N@Y+;@C+5@m@]+)$%.|+*$ %{ { { { { { { { { { { { { { { { { { { { { { { { { { { { { { { { { { { { { { { { { { { { { { { .%2+<+0+E 1@j@+@u#j@0@v$+%@%#%.#L#L#_@p@w {@^+V+i#e+}+1+^+{#l#'+]+A$>+^+<+<+k+r+,+]+",
"v+X@n+}+F+<+<+z+O@@#$%%%&%*%5@5@5@x+Y+C+C+L@h+:@:@-#(#=%-%;%>%+@0@N@;@;@V+]+)$F Q+1+ %{ { { { { { { { { { { { { { { { { { { { { { { { { { { { { { { { { { { { { { { { { { { { { { { ,%%@<+Y E 1@@@@@Y++@2@d#'%)%!%.#_@L#(#y@4#V+E+~%;@k+u#m@%@z+X@<+G+'+%@r@z+G+;@{%d@@#",
"<+d@r+k+^+z+z+e+V+G$]+@#z#z+5@E+m@b@9$C+V+]%!@2@f@G#=$^%H$/%>%n@W+j@u#V+V+]+=+J#)+]@ %{ { { { { { { { { { { { { { { { { { { { { { { { { { { { { { { { { { { { { { { { { { { { { { { ,%e+<+Y E 1@Y+Y+;@Y+x@(%_%:%<%H@[%L#0@h@X@;@N@Y+;@u#u#/@V+z+w ^+i#%@!+%@D#V+/@i@,+K$",
"K$}%'+e+%@C+5@E+Y+V+G+v+@#%@E+2#A@Y+;@|%|%1%e+/@,@A@_@2%3%4%5%g@q+,@+@N@~%G$-+J.)+)+6%{ { { { { { { { { { { { { { { { { { { { { { { { { { { { { { { { { { { { { { { { { { { { { { { 7%s+8%9%G 1@N@Y+Y+2@-#0%a%b%c%H@5#L#L#:@X@;@j@j@+@+@N@N@V+%@d@%@%@%@!+5@i#%@E+^+L@F+",
"[+[$d%V+z+%@5@;@;@N@x+z+]%V+5@~%2#e%9$a@r@F#e+N@##n@_@f%3%g%h%0@f@q+0@j@N@F+9+F )+3+ %{ { { { { { { { { { { { { { { { { { { { { { { { { { { { { { { { { { { { { { { { { { { { { { { i%V+G$9++.1@+@+@0@L#L#v$j%k%l%H@z$m%L#y@S@;@j@@@j@1@N@5@!+%@4+V+e+5@E+E+%@!+h+a#X.$@",
"<$[+d@!+z+*%V+5@5@Y++@r@n%%@5@5@9$;@9$a@a@0#z+E+##[#2@'#o%p%q%@@2@2@W+1@5@<+-+I.^+)+ %{ { { { { { { { { { { { { { { { { { { { { { { { { { { { { { { { { { { { { { { { { { { { { { { i%%@'+-+E 3@~%~%j@L#(#r%j%s%t%5#@@Y+@@y@r#u%L#L#+@;@;@!+%@z+,+!+5@;@E+!+i#%@!@f#v%F+",
"<$w%[+!+z+z+V+5@+@,@W+i#<$r@5@;@9$C+C+|%a@F#)+b@E+E+0@V@x%y%q%j@W+i@,@u#;@<+-+J#^+^+M${ { { { { { { { { { { { { { { { { { { { { { { { { { { { { { { { { { { { { { { { { { { { { { { z%i#}%=+++!+C+C++@2@=$0%j%A%t%5#m%@@0@y@X@N@-#L#j@;@3@V+a@s@$%G+%@;@E+V+z+z+!@<$K$K$",
"M@w%[+e+2+i#5@5@u#j@0@V+<$i#5@3@3@3@B%|%|%X@G+5@C+C+0@V@C%D%E%G#i@W+x+Y+;@-@-+F ^+^+M${ { { { { { { { { { { { { { { { { { { { { { { { { { { { { { { { { { { { { { { { { { { { { { { F%%@V.=+%.G%V+%@Y+@@_@H%_%I%Q$:@Y+j@L#p@O@u#0@J%L#m%3@C+a@r@z#$@C+!+N@V+r@V+E+]%]+F+",
"[+$@K$i+2+i#!+;@E+x++@V+M@|%i#|%C+5@C+a@a@F#%@5@r@V+,@`@K%L%M%0@N+,@u#;@G%G$-+F Q+^+ %{ { { { { { { { { { { { { { { { { { { { { { { { { { { { { { { { { { { { { { { { { { { { { { { + 2+'+=+$.V+V+a@N@j@2@b$N%O%y$=$2#j@2@z@X@u#2@g@j@Y+C+a@i#r@f#z+C+C+Y+V+s@a@l+L@K$G$",
"F+K$[+e+z+i#%@!+u#+@+@V+M@F+a@G%s+5@C+B%$@S@z+!+V+1@n@@@P%Q%R%m%+@/@E+E+C+}%-+S%z+3+T%{ { { { { { { { { { { { { { { { { { { { { { { { { { { { { { { { { { { { { { { { { { { { { { { U%z+,+p#E ;@a@r@E++@V%W%X%Y%Z%2@0@+@_@z@4@N@,@0@0@u#3@B%z+s@w *%a@V+E+a@$@s@k+}%K$K$",
"[+]+]+P+w%v+%@;@+@x+x+%@M@z+%@s+5@t#a@`%$@0#v+5@C+u#@@Z+ &.&+&3@u#/@E+s+a@]+-+I.^+3+T%{ { { { { { { { { { { { { { { { { { { { { { { { { { { { { { { { { { { { { { { { { { { { { { { . ^+,+9+++s+V+V+;@;@s+'$@&#&$&i#0@1@0@p+`+u#+@+@j@Y+G%G%a@i#4@F+z+%@;@%@K$z+m#@#$@]+",
"[+F+<+i+i#$@i#+@x+1@1@a@%&G%!+5@Y+;@a@r@$@P#v+5@V+;@_@&&*&=&-&%@!+k+!+5@V+<#E y ^+8%T%{ { { { { { { { { { { { { { { { { { { { { { { { { { { { { { { { { { { { { { { { { { { { { { { ;&>&4+-+F s+s+5@k+!+a@,&'&)&!&@@j@;@@@q+X@u#+@5@Y+3@s+s+s+z+>+v+*%r@!+G+F+i#P+X.F+]+",
"$@K$<+O+z+]+z+E+u#u#Y+z+M@;@;@3@1@3@a@s@$@0#w+G%a@5@~&5#{&]&^&E+h+5@V+V+V+O@E I.v+-@/&{ { { { { { { { { { { { { { { { { { { { { { { { { { { { { { { { { { { { { { { { { { { { { { { < ^+U.=+z x+Y+u#u#;@(&_&:&<&[&g@+@;@+@p+ @;@Y+i#B%~%5@a@G%z+4@%@V+z+V+z+r@w+|+<$K$t$",
"|%K$]+|+$@]+>&s+N@Y+;@}&%&C+Y+Y+2#;@V+a@|%j#v+V+V+!++@`@|&1&2&2#+@E+2+%@G+w E y )+Q./&{ { { { { { { { { { { { { { { { { { { { { { { { { { { { { { { { { { { { { { { { { { { { { { { _ z+U.=+z h+u#V+;@u#G%3&w$4&5&0@j@u#x+q+0#5@;@|%|%V+3@a@a@i#X@2+5@i#a@z+V+i#e+X.0$t$",
"|%K$[+1+^+[+a@;@;@{@;@<+f#i#s+s+~%m%;@V+$@0#v+%@V+!+x+'#6&7&8&e%M+!@e+V+w+X@k.x )+9&/&{ { { { { { { { { { { { { { { { { { { { { { { { { { { { { { { { { { { { { { { { { { { { { { { 0&v+U.E F k+V+i#!+{@;@a&b&c&t%R$0@+@+@J%~#V+G%a@|%C+5@C+C+$@0#z+%@%@a@$@r@V+V+@#K$t$",
"K$K$@#3+8%]+i#;@E+u#!+]+v#K$z+i#a@V+a@r@F+P#^+V+a@C+1@:@d&e&8$;@Y+5@5@%@z+X@b+@+8%-@/&{ { { { { { { { { { { { { { { { { { { { { { { { { { { { { { { { { { { { { { { { { { { { { { { f&<+4+E F !+i#|%V+s+;@V#g&h&i&R$A@E+x+j&a#a@!+G%V+C+V+a@i#K$ @2+m#i#$@$@$@V+P+f#]+G$",
"G$]+@#3+^+v+v+V+%@G%i#X.j#K$F+s@|%|%(&F+0$F#]+$@z+V+;@=$k&l&m&V+5@%@i#%@i#d@k.@+v+'+n&{ { { { { { { { { { { { { { { { { { { { { { { { { { { { { { { { { { { { { { { { { { { { { { { o&<+4+E F !+z+$@%@5@5@p&g&s%i&o#g@s+Y+W+S@|%%@a@B%!+r@$@|%K$ @V+V+G+i#F+K$e+R+q&[+G$",
"]+}%@#)+Q+z+F+v+F+i#^+f#r#K$K$]+0$w%s@V+(&F#q#t$i#i#V+(#r&s&t&i#V+%@%@a@V+4+E $+8%@#n&{ { { { { { { { { { { { { { { { { { { { { { { { { { { { { { { { { { { { { { { { { { { { { { { u&^+t E v&{@a@$@i#V+5@w&x&y&z&R$j@;@5@,@S@i#V+a@i#A&z+|%$@y+4#G+V+z+$@<+F+2+f+O@[+w%",
"]+[+<$)+^+v+v+v+z+!+|+f#S@t$X.<$X.[+z+G%0$u@<#$@a@i#V+q+6$B&C&|%a@V+V+V+V+f#E x -@t n&{ { { { { { { { { { { { { { { { { { { { { { { { { { { { { { { { { { { { { { { { { { { { { { { f&^+t =+J#;@V+F+$@i#V+D&E&F&E%@@u#~%x+~&|@>&5@%@K$i#$@^+$@t$~#2+%@v+v+K$<+<+|+L@<+w+",
"[+t$L@G&8%G$G$v+w+V+2+L@}@t$K$]+[+[+%@V+H&I&]+G+V+s@!+N+J&K&L&^+2+z+i#a@a@]%k.x -@V.n&{ { { { { { { { { { { { { { { { { { { { { { { { { { { { { { { { { { { { { { { { { { { { { { { M&v+,+E v&s+a@F+w+%@A&#@N&O&P&+@5@5@x+A@p.^+!+%@t$$@z+}&<+X.a#Q+z+]+F+K$]+<+P+4+{#]+",
"}%t$f#-@-@]+K$<+^+>&$@f#S@G$F+F+X.v%i#$@}@q#2+e+%@%@m#m#Q&R&d@$@z+a@i#V+z+d@I y 8%c n&{ { { { { { { { { { { { { { { { { { { { { { { { { { { { { { { { { { { { { { { { { { { { { { { S&^+<#k.v&;@s+a@G+V+!+<+T&U&^++@1@a@V+k+|+d%)+i#[+H&$@$@$@$@4@^+z+F+<+F+]+<+3+X@@#]+",
"[+[+]%9&)+]+]+v+v+$@$@L@S@$@$@>&v#X@F+S@a#)+}+e+2+i#|+5+y =+V&>&%@V+C+G%%@,+I W&Q+c n&{ { { { { { { { { { { { { { { { { { { { { { { { { { { { { { { { { { { { { { { { { { { { { { { X&Q+O@E F ;@G%C+!+E+E+^+N.K.N.m#E+r@C+E+h+Q.~#<+f#d%]+F+z+$@>+v+v+v+v+G$[+<+<+d@[$]+",
"K$]+f#-@]+Y&]+G$F+^+$@<$S@0$z+]+#$q#a#:$}%V+!+k+m#K$d%D.$.P P+G%%@C+s+s+V+Z&E v&^+'+`&{ { { { { { { { { { { { { { { { { { { { { { { { { { { { { { { { { { { { { { { { { { { { { { {  *^+w E S%!+G%!+;@Y+x+!@>+i$D.P V+V+G%!+{@k+<#o$]+8+`+v+<+]+A$-@K$K$<+K$[+K$^+d@@#F+",
"]+}%X@}%L@f#%&<$K$<+F+f#}@K$}%Y.O@1%4#G$$@i#k+m#^+a#.*b+1$G$z+i#V+i#V+%@i#X@E I.]+V.+*{ { { { { { { { { { { { { { { { { { { { { { { { { { { { { { { { { { { { { { { { { { { { { { { @*w+4@K.S%V+a@;@N@;@5@x+k+m.i$#*D$z+2+V+e+k+i#U.m.<#$*O.@#X.~#<+v+w%]+t$G$]+<+X@@#G$",
"X.@#d@<#f#X@v#[$K$K$<+L@%*f#.+<$d@&*z+i#$@i#!+V+g$G.F P **F+]+F+%@0$|%z+<+X@E =*]+-*;*{ { { { { { { { { { { { { { { { { { { { { { { { { { { { { { { { { { { { { { { { { { { { { { { >*)+ @b+S%P+|%C+C+5@;@V+2+P+M.E D.Y.)+k+m#s+V+v+`+q.<#P d%M@4#<+G$[+X.H&X.@#<+X@L@@#",
"X.<$d@<#f#L@<$]+]+]+$@Z&4#S#X@v#,*[+V+i#z+i#!+,&'*)*S#8%K$F+$@$@2+^+>&K$4+E $.%.3+U.;*{ { { { { { { { { { { { { { { { { { { { { { { { { { { { { { { { { { { { { { { { { { { { { { { !*)+:$K.J#q.}%B%a@a@s+%@i#^+V+L.-+~*{*5@V+!+}&G+v+4#M.]*i$f#~#@#X.t$X.}%L@L@G$S@]%4+",
"}%@#~+<#L@]+]+@#X.t$K$4+d%q#X@`.L@G$i#F+e+m@^*/*(*_*)+|+]+K$a@a@V+V+2+@#%.J#J :*<*U.;*{ { { { { { { { { { { { { { { { { { { { { { { { { { { { { { { { { { { { { { { { { { { { { { { [*8%e+S#J.|.d%}&C+C+~%5@V+G$P+k+}*|*1*2*N@k+v+i#2+$@|@d%]*@#B$f#X.t$]+]+[$4+]+}@X@X@",
"<$L@X@Y&<$H&]+L@@#@#t$L@U.]*#$}%F+K$<+F+V+3*4*5*6*7*2+Q+v+|%i#B%%@%@-@E @+p#U.^+<+U.;*{ { { { { { { { { { { { { { { { { { { { { { { { { { { { { { { { { { { { { { { { { { { { { { { 8*8%V+z+T#J#.*4@V+r@C+u#s+i#Q+U+d#9*0*a*b*5@^+}&$@|%>&`.q.Q.d%L@[+X.H&X.X.@#R#4#X@F#",
"~+f#F#4+L@}%L@d@@#}%L@p.M.Y.f#D#]+[+K$z+c*d*e*f*g*e%e+V+z+F+}&z+i#8%+.C.E O@2+2+<+U.;*{ { { { { { { { { { { { { { { { { { { { { { { { { { { { { { { { { { { { { { { { { { { { { { { h*F+2+a@A&a+$+H.q#z+V+G%a@s+%@V++@i*j*k*l*m*w+^+F+]+>&G$1#U$`.X@X.<$]+]+]%<$@#4#S@S@",
"X@f#r#'+<#}%L@<$Y&<#d%v i#0$<+[+]+]+w%n*o*A%p*q*<@!+%@B%a@z+|%$@K$p#B.r*a#Q+i#i#K$U.;*{ { { { { { { { { { { { { { { { { { { { { { { { { { { { { { { { { { { { { { { { { { { { { { { s*w+%@$@%@^+T#$+@+X@i#V+i#B%G%G%!++@e$t*u*v*M@F+G$]+F+K$G$B%**M.d@<${#[+f#<$w*0#w d@",
"X@d@0#Y&w*]+X.t$L@4#g$]*G$v+]+L@K$K$y+x*y*z*A*]${@m#V+a@a@0$0$<+Y B.$.a#z+$@F+z+<+U.;*{ { { { { { { { { { { { { { { { { { { { { { { { { { { { { { { { { { { { { { { { { { { { { { { B*z+V+i#a@i#8%Y @+y '+^+|%(&s+;@s+!+2#C*D*E*F*G*$@<+<+]+K$<+v#o$,*X@}%@#f#q#]+S@f#@#",
"~+d@a#t R#@#}%<$a#f#q#}%]+]+[+[+K$,&H*I*J*K*]$i#%@%@a@a@z+v+v+S#D.*+q.>&v+}&z+|%<+U.;*{ { { { { { { { { { { { { { { { { { { { { { { { { { { { { { { { { { { { { { { { { { { { { { { L*%@!+V+a@z+2+-@N.E.F Y&v+v+i#N@;@V+r@;@M*N*O*P*Q*z+^+[+]+]+]+`+X@R d@@#@#<$'+0#f#@#",
"f#f#r#Y&@#<$@#4#R*X@S*t$[+]+K$[+,&T*U*V*A*D&a@|%%@B%i#V+z+^+8+.*K.M.z+r@v+>&a@i#F+O@;*{ { { { { { { { { { { { { { { { { { { { { { { { { { { { { { { { { { { { { { { { { { { { { { { B*2+m#G%C+i#z+P+<#=+H.%.R#v+K$i#G%a@|%a@;@W*X*Y*Z*`*$@G$t$<#L@@#a#>+L.L@<$<$-@ @q&f#",
"%&L@0#]+%&<$%&0#K$j#<$t$}%<+z+ =.=+=L%@=#=i#K$|%r@a@i#V+<*o$G.$=%=2+<+$@z+|%i#i#$@g$&={ { { { { { { { { { { { { { { { { { { { { { { { { { { { { { { { { { { { { { { { { { { { { { { *=%@!+V+;@%@$@$@A&t E D.E G$}&0$a@a@z+$@s@==-=;=>=,='={#K$@#@#@#`+<+4#,+~+<$8%a#X@d@",
"q&d@^+v+}%X.L@)=t$4#<$}%]+K$!=~={=]=^=/=s@v+G$|%r@$@i#a@q.(=F Y.P+v+t$$@i#a@%@%@$@a#&={ { { { { { { { { { { { { { { { { { { { { { { { { { { { { { { { { { { { { { { { { { { { { { { _=^+A&V+5@a@i#0$<+m#q#$.:=J G$0$0$z+%@|%z+$@<=[=}=|=1=2=[+<$@#@#0#<+`+f#X@f#G$3+P#X@",
"L@X@G$w*L@f#f#S@M@5+v#}%[$w%3=4=5=6=7=a@$@K$t$s@i#z+v+4@.*v&S ^+$@t$[+K$v+%@V+i#]+ +{ { { { { { { { { { { { { { { { { { { { { { { { { { { { { { { { { { { { { { { { { { { { { { { { 8=]+V+G%%@r@z+$@t$z+m#9=J.0=` G$s@C+z+i#i#K$i#==[=a=b=c=d=f#X.L@4#X@0#]%~+~+'+]+q#X@",
"e=4#]%L@X@.+`+X@S@@$d@L@%&f=g=e&h=i=B%v+K$G$0$}&$@0$`+$+y j=d+>&K$<$X.F+}&2+>&<*4+L &={ { { { { { { { { { { { { { { { { { { { { { { { { { { { { { { { { { { { { { { { { { { { { { { k= @^+V+a@a@z+$@$@z+8%P+q.v&l=S F+G%%@|%a@z+F+F+w&m=V*N&n=v#G$,+d%&*c@}%Y P#d@@#a#0#",
"M@a#f#f#o=9%4+X@j#.+d@4+p=q=r=s=t='$F+w%]+0$|%|%K$q#v&@+Z.e+^+K$F+X.t$i#>&>&G$R#u=++v={ { { { { { { { { { { { { { { { { { { { { { { { { { { { { { { { { { { { { { { { { { { { { { { w=J Y&v+i#A&|%K$F+$@G$v+V+`.I.#* +%@B%$@i#z+$@]+K$w&x=y=z=Y&'+@#d%m.m.f#a+#$v#f#>+4@",
"]%`+Z&<$&*q#Y&d@%*2$d@@#M@A=Q&e=<+]+}%H&t$$@r@|%[+}@z J B=<+]+G$K$t$[+|%<*K$v+.+=+C=D=E={ { { { { { { { { { { { { { { { { { { { { { { { { { { { { { { { { { { { { { { { { { { { { { { F=Z.G$^+2+$@K$K$$@K$@#G$|+-+J.P <+A#F+i#|%K$X.R#G$G=H=I=@#V.q#o=c@4#@#f#Q L@@#`+}@",
"o=d@X.4+]+@#~+0#S@M.L@X.d@J=K=B$'+X.)=<$X.K$K$0$]+4#p#K.u <#X.t$K$0$v%^+8%K$%@T@L=M=N=E O={ { { { { { { { { { { { { { { { { { { { { { { { { { { { { { { { { { { { { { { { { { { { { { &=P=V+a@|%}&K$0$G$G$<$L@V+$.b+J v+z+F+K$w%[+<$<#@#4@k.$+A$<#L@}@q.d%L@%&G$}%Y&>+,*",
"v+A&Y&O@%&@#f#a#S@M.L@)+'+Q=K.B$Q.]+[+X.[+K$K$$@F+d%p#F O@R#]+@#H&K$R=G$v+G$a@S=T=U=V=W=X={ { { { { { { { { { { { { { { { { { { { { { { { { { { { { { { { { { { { { { { { { { { { { { { Y=@@A&>&v+t$K$t$t$X.f#^+Q#K.i$)+v+v+[+K$G$X.<#'+>+K.F.B$<#@#0#q.,*L@}%]+]+}%]+V+",
",+<*t$<$%&@#@#>+E S R#z+R#J#Z=q.$@$@K$]+[+w%t$K$z+m.-+J.V&w*Y&X.<$t$G$<+R#t$(&`= -.-+-@-#-{ { { { { { { { { { { { { { { { { { { { { { { { { { { { { { { { { { { { { { { { { { { { { { { $-%-|%[+<+G$G$G$<$M@L@<+Q#=+K 3+G$G$]+G$K$X.<$&-r#b+F.5+4+{#4#F R @#}%]+}%'+t <+",
"L@<+]+@#}%@#Y&O.J..+]+Q.U.$+r**-=---;-H&0$$@t$X.v+M.=+J.4@@#t$t$<$X.X.@#.+r##@x*>-,-'-)-#-{ { { { { { { { { { { { { { { { { { { { { { { { { { { { { { { { { { { { { { { { { { { { { { { !-~-t$F G$t$[+H&f#~+M@G$J#Z=K R#K$K$$@v+K$H&{-]-^-E $+j$<#@#c@$+5+@#]+}%]+]+,+G$",
"}%]+]+]+X.Y&<$4#*+Z.4+<$U.J#)$/-(-_-:-H&[+F+t$)=<+p.Z=J.4@L@[+X.<$]+G$<#%$}@3@x*<-[-}-|-#-{ { { { { { { { { { { { { { { { { { { { { { { { { { { { { { { { { { { { { { { { { { { { { { { !-^*K$Y#$@G$<$%&M@d@L@G$y E E Y&}%$@$@K$t$n*1-2-3-9+Q#p.4+4+,*$.6+@#]+@#}%@#4+}%",
"]+Y&@#@#L@L@f#d%*+Y w 4+t J#4-5-6-7-8-X.X.F+G$X.8%M.-+F :$L@]+]+G$K$F+R#.+a#9-0-a-b-c-d-#-{ { { { { { { { { { { { { { { { { { { { { { { { { { { { { { { { { { { { { { { { { { { { { { { !-e-v+*+>&<+X.<$%&<$X.8%$+E K ]+8%K$$@v+]+f-g-h-i-9+I.p.4+4+M.$.Y.<#@#}%@#<#4@,+",
",+4+Y&]+L@4+4+4#*+a+4+}%U.J.Y 5-j-k-&-L@v%$@F+t$^+q.N.J.:$L@]+]+<+<+v+Q.`.S@|%q@l-m-n-)-#-{ { { { { { { { { { { { { { { { { { { { { { { { { { { { { { { { { { { { { { { { { { { { { { { o-p-f-Z=>&G$G$t$y+H&X.v+y E N.)+v+F+<+z+]+t$q-r-i-9+J#q.,+'+M.J.}$V.@#'+}%,+4@w ",
"&*>+Y&]+L@4+4+&**+P t [$w y 9+s-t-u-y+<$]+$@]+K$v+q.=+y :$L@]+G$8%v+G$Q.P+K$B%v-w-x-y-z-#-{ { { { { { { { { { { { { { { { { { { { { { { { { { { { { { { { { { { { { { { { { { { { { { { o-`*R=]+}&@#G$K$X.<$<$8%y E i$)+v+]+F+v+K$H&A-B-C--+F ~#]+'+M.F M.V.}%@#@#,+>+A$",
"k.8+4+R#L@@#<#a#X@Y.4+[$1 $+-+m.D-w%X.X.X.F+<+s@z+:$J y T$L@[+G$G$v+G$G$>&}&3@E-F-G-H-I-J-{ { { { { { { { { { { { { { { { { { { { { { { { { { { { { { { { { { { { { { { { { { { { { { { K-L-0$K$K$'+]+<+}%L@L@^+J#E L )+K$K$v+0$t$X.X.M-X@J Q#:$'+,+c@p.a#@#@#}%}%4+`.Y ",
"q.B$,+]+@#@#@#0#4@5+4+X.O@N-=+M.@#}%X.X.f#G$<+^+v+:$=+F A$@#[+G$<+^+v+<+K$<+^+T@n=O-P-q@O={ { { { { { { { { { { { { { { { { { { { { { { { { { { { { { { { { { { { { { { { { { { { { { { Q-L@K$H&K$-@]+v+]+,+@#1+F H L )+z+v+2+F+t$~+L@Q.4@E S%B$'+4+m.p.M.4+@#<#[$<#M.4#",
">+A$t }%a#d@L@a#4#5+<#@#4@F.-+q.V.]+M@M@<$t$}&<+]+a#=+J.>+4+]+}%G$v+]+<+G$^+K$<$O.R-S-#-{ { { { { { { { { { { { { { { { { { { { { { { { { { { { { { { { { { { { { { { { { { { { { { { T-g$8%v+G$v+]+]+^+<+Y&]+R#F J U-)+z+)+z+v+]+f#@#Q.g$E $+B$Y&'+q.8+`.<#f#p.w 4+&*`+",
"X@~#@#4+o$.+&%q.~#Q ,+,+g$Y#V-P#<+]+@#f#X.t$[+]+]+4+9+b+i$d@]+G$t$[+@#G$)+<+[+Y&R#,*W-{ { { { { { { { { { { { { { { { { { { { { { { { { { { { { { { { { { { { { { { { { { { { { { { X-V&G&}%G$^+<+L@@#v+G$@#Y&Q J#-+M.)+^+<+$@]+]+@#Q.3+]%{$Y#A$@#<#L.8+5+d@5+S w d@M.O.",
"0#q.]+w O@M.d@q.o=R t <#Q.E#Y-Z-`-H&f#f#[+L@<$<$[+m#R*Y %+J 4+]+}%}%X.]+-@v+G$<+]+O.7@{ { { { { { { { { { { { { { { { { { { { { { { { { { { { { { { { { { { { { { { { { { { { { { {  ;p R#[$^+v+<+@#@#G$<+,+`..*k.`.e+)+v+t$G$}%'+'+F+~-.;+;@;'+t d@5+.+Q ,+$$d@X@f#M.d%",
" @M.<#@#X@f#q#d%0#Q d@s s #;$;%;&;*;H&}%X.L@X.X.X.G$!+O.E |.O @#G$}%]+G$v+v+v+G$4+5+=;{ { { { { { { { { { { { { { { { { { { { { { { { { { { { { { { { { { { { { { { { { { { { { { { -;q#}%<+v+K$<+@#Y&R#-@d%.*Q=#$|+8%G$F+]+}%X.{#]+e-;;>;,;';Q.g$O@`.`.Q q#X@X@X@L@,*o=",
"a#M.d@]+d@4+O@4#]+c@t t O@w+);!;~;{;];y+<$H&H&[+<$<$]+V+,*%.|..+@#]+G$-@^+<+G$<+@#`.X-{ { { { { { { { { { { { { { { { { { { { { { { { { { { { { { { { { { { { { { { { { { { { { { { ^;4+8%v+}&K$F+'+]+Q.a#H.$+p#3+)+<+]+<+<+<+]+[+/;(;_;:;m&a@,+>+w ,*O@`.X@X@X@X@f#M.4#",
"%*$$Y.@#'+4+4@m.}%m.t t d@t a@<;[;};|;1;X.X.t$H&t$X.@#}%>&$$2;B.5+}%R#-@)+G$G$]+@#q.3;{ { { { { { { { { { { { { { { { { { { { { { { { { { { { { { { { { { { { { { { { { { { { { { { 4;,+]+]+v+v+v+R#]+>+x y J V.}%}%K$]+<+]+Q.}%5;6;7;8;9;]$R#t d@X@,*d@c@X@O@X@d@q.@$o=",
"0#c@0+ @,+4+q#:$t >+O@,+,+U.4+0;a;b;c;d;e;A#$@K$K$t$]+@#Y&|+S#y |.5+U.]+<+]+<+G$q#m.f;{ { { { { { { { { { { { { { { { { { { { { { { { { { { { { { { { { { { { { { { { { { { { { { { g;V.]+]+]+Q.Q.R#a#@+H.=+u 4+<$G$v+<+]+L@<+(&)&h;i;j;k;[+f#<#f# @M.q#4#f#X@S@`+4-D+0#",
"0#P#&*0#,+4+4+Y&`+q#d%O@,+4+d@L@e%l;m;n;o;p;0$K$K$K$]+]+<#]+8%9%$+}.Q 4+'+Q.G$]+X@m.q;{ { { { { { { { { { { { { { { { { { { { { { { { { { { { { { { { { { { { { { { { { { { { { { { r;<#R#'+]+G$@#X@v&H.+.U.R#w f#]+)+G$G$}%G$s;t;u;v;w;]+z#M@@#v#o=q#X@}%L@d@X@S@1#%*S@",
"X@X@P#>+d@4@d@<#}%X@g$q.X@L@@#@#}%x;y;z;A;B;w%F+]+X.}%X.@#,+V.C;p#.*}.M.<#Y&@#@#X@q.q;{ { { { { { { { { { { { { { { { { { { { { { { { { { { { { { { { { { { { { { { { { { { { { { { r;-*}%]+<+G$X@F E.E g$'+}%d@,+]+K$X.K$K$D;E;F;G;H;K$L@4@d@f#4#O.X@f#%&d@X@X@a#,*}@4@",
"X@X@P#O.X@S@w U.4+,+`+:$q.d@@#}%@#]+I;J;K;L;M;,&]+@#}%}%]+@#,+R#R#N;H.B.m.,+@#Y&w 4#q;{ { { { { { { { { { { { { { { { { { { { { { { { { { { { { { { { { { { { { { { { { { { { { { { r;<#@#]+]+4+$.%+K.~#'+V.L@4+@#}%G$v+s@O;P;Q;R;S;$@d@d@d@X@O.:$d%v#d@X@X@X@S@~#c@0#0#",
"S@P#4#a#X@S@X@d@4@X@@#V&o$q.q#Y&X.f#Y&~%T;U;V;W;y+Y&4+Y&]+@#Y&'+V.V.Y .*X;:$<#Y&O@~#Y;{ { { { { { { { { { { { { { { { { { { { { { { { { { { { { { { { { { { { { { { { { { { { { { { Z;t @#@#4+E C.r*:$Q.R#@#@#@#,+]+v+0$`; >.>+>R$K$d@X@X@X@d%d%;+O@R*O.S@X@j#S@X@M.O.X@",
"r#0#4#a#X@S@X@4@a# @4+R#>+j=5+`+f#d@w ,+@>#>$>%>&>0$@#R#R#]+]+'+-*I+u +.*>H.~#@#X@d%q;{ { { { { { { { { { { { { { { { { { { { { { { { { { { { { { { { { { { { { { { { { { { { { { { =>U.4+4+p#D.K.q.-@@#Y&,+'+@#R#G$}&->;>>>,>'>G$`+X@d@X@d%0+O@`+O@O.0#`+X@0#0#O.,*a#X@",
"0#0#o=a#X@w X@&%4@a#g$~#,*T$N.5+r#X@]%w n*z&+=)>!>1;X.R#V.@#@#<#4+<#Q.4@E |.@+>+4@m.q;{ { { { { { { { { { { { { { { { { { { { { { { { { { { { { { { { { { { { { { { { { { { { { { { =>g$U.N.:=$.q.)+<#d@4+@#]+G$]+K$5;x%~>{>]>|%X@v#X@4@m.p#4#0#Q ~#}@0#d@F#r#4@0#,*4#0#",
"}@}@,*a#O@w w S@`+>+4@p.@$M.&*p#p.w ,+U.q#|%^>/>(>_>0#t '+@#'+@#q#U.U.Q.>+K.l=I.>+m.q;{ { { { { { { { { { { { { { { { { { { { { { { { { { { { { { { { { { { { { { { { { { { { { { { :>t Y.(.Q=2$|+4+w d@<#<#'+}%@#t <>[>{>}>G%4+X@X@w q.-+|>q.o=S#4#0#4@d@X@0#S@~#H+c@0#",
"4#%*,*m.X@4@g$0#S@X@w m.R 1>q.4#J  +w t t L@(&2>3>4>J#~#,+L@<#V.<#,+X@O@]+M.S%|.O.d%q;{ { { { { { { { { { { { { { { { { { { { { { { { { { { { { { { { { { { { { { { { { { { { { { { :>U.P F.E |+t w q#'+]+}%<#<#4+N.5>6>7>3@<#4+d@4@>+N.q.O.N.&*P 4#O.4@S@S@a#4@~#*#o=}@",
"o=D+$$M.X@X@d@X@X@4@g$4#8>:*8+4#d%J M.d@4+d@<#<+R#Y F.S%>+O@<#<#<#U.g$g$O@.+y D.d%M.q;{ { { { { { { { { { { { { { { { { { { { { { { { { { { { { { { { { { { { { { { { { { { { { { { 9>w 0+y @+O@4+q#f#}%G$@#:*q#a+$+-+f#%@G$@#4+4@m.Y ,*>+#$q#4#S#a#0#0#0#S@0#S@~#*#c@o=",
"c@`.Q p. @0#d@d@X@O@U.a#&#X@t 5+a#~#p#p.4@w X@,+*$U.p#@+%.>+4+<#,+d@w X@g$P $+D.m.q.q;{ { { { { { { { { { { { { { { { { { { { { { { { { { { { { { { { { { { { { { { { { { { { { { { 0>O@Y F.|.4@X@X@d@@#]+,+t P $+E o$z+'+}%@#w m.N.&*O.S `+4@4#S#~#0#}@0#0#0# @4#*#c@&*",
"o=a>&#`.&*d%0#S@4@X@<#a#Q 0#q#-@j=4#D+E p.4@O@w ,+8%O@E D.C w @#Y&d@X@q#O@a+$+|.l#}$b>{ { { { { { { { { { { { { { { { { { { { { { { { { { { { { { { { { { { { { { { { { { { { { { { c>V$N.F.|.4@d@4@S@4+h$<#`..*r*q.e+]+L@~+]%4@Y 5+4@Y g$4@O.d%a+4#}@ @4@X@r#0#4#*#D+o=",
"4#d>c@M.0#0#4@4@w q#U.q.@$}@X@L@<#X@X@`.N.a#U.O.4@V.1+`+*+D.8+q#t d@O@q#4+Q e>(.q.M.b>{ { { { { { { { { { { { { { { { { { { { { { { { { { { { { { { { { { { { { { { { { { { { { { { c>w p#F.|.X@X@0#0#X@,+4@x F @$^+Q.<#d@O@X@5+.+X@U.a#g$a#}@o=O 4#}@a#0#O.X@4#~#`.c@o=",
"}@}@D+D+ @ @`+X@O@w O@q.f>&*}@X@X@0#X@}@$$Y O@d@X@4+V.)+r*g>S U.q#1%4@w w h>F._.m.,*i>{ { { { { { { { { { { { { { { { { { { { { { { { { { { { { { { { { { { { { { { { { { { { { { { c>4@E G.(.`+S@S@>+>+4+>+j>W.}%<+]+f#d@4+5+.+}@X@d@}@4@S@4#o=a+4#4#o=c@4#}@D+d%M.4#o=",
"k>c@&#M. @0#0#>+`+w `+p.a+&*4#X@X@ @X@O.|>V-~#g$w g$,+{#l>m>n>O@O@4@>+w X@S#F.}.q.M.i>{ { { { { { { { { { { { { { { { { { { { { { { { { { { { { { { { { { { { { { { { { { { { { { { c>4@E E._.>+`+S@X@d@<#~+o>p>q>@#[$L@4+d@J c@0#X@d@ @ @0#4#4#a+m. @4#o=4#4#c@m.,*}@0#",
"c@,*&#M.a#0#4@X@`+4@X@c@T#m.}@4@X@0#0#|@4#f>$$ @X@`+,+$@r>s>t>1 O@O@X@d@X@Z $+_.m.p.b>{ { { { { { { { { { { { { { { { { { { { { { { { { { { { { { { { { { { { { { { { { { { { { { { u>v>E %+A.a#X@S@X@f#@#w>x>y>z>]+q&v#d@X@9+&*}@d@q#a#A>}@|@d%S#4# @}@4#o=c@c@q.M.a#0#",
",*D+l.p.a#0#4@4@`+X@X@M.S#4#O.&%X@S@}@k>%*#$R  @O.a#O@F+B>C>D>X@U.t U.O@O@S $+A.q.L.i>{ { { { { { { { { { { { { { { { { { { { { { { { { { { { { { { { { { { { { { { { { { { { { { { u>4@J E._.a#X@4@j#X@4+Q*E>F>G>[+f#1%S@S@%$d% @d@q#}@o=4#4#m.S#q.O.`+`+4#&*c@d%M.0#}@",
",*D+$$L.a#0#4#m.m.0#>+`.f>P#0#0#X@S@}@}@4#S#p.`+a#4#d@w+H>I>J>S@1 t U.,+U.S#$+(.q.8+i>{ { { { { { { { { { { { { { { { { { { { { { { { { { { { { { { { { { { { { { { { { { { { { { { K>>+E e>_.a#X@O.S@4@w Q*L>M>G>X.X@S@4@X@Y a#X@f#d@ @4#4#4#m..+q.0#X@w 0#4#o=m.M.4#o=",
",*p.H+L.:$m.4#m.4#a#4@p.S#o= @0#S@S@0#}@4#a+5+a# @0#O@F+N>O>P>r#g$t Q>4+t Y @+(.}$7+i>{ { { { { { { { { { { { { { { { { { { { { { { { { { { { { { { { { { { { { { { { { { { { { { { R>>+E F._.a#O. @a#a#X@Q*S>T>U><$X@S@0#`+=+0#4@X@w a#4#m.a#~#S#4#0#X@w 4@c@ @m.,*M.D+",
"c@p.H+5+~#q.o=~#d%0#X@c@{+c@4#F#X@X@1%}@4#T#Q 4#O.`+a#{#V>W>X>r#g$U.4+f#4+0+F.}.7+5+i>{ { { { { { { { { { { { { { { { { { { { { { { { { { { { { { { { { { { { { { { { { { { { { { { R>X@E Y>A.~# @4#a# @F#Z>`> ,U>)=X@S@0#4@J >+O.S@4@4#a#0#a#m.P q.0#a#`+}@o=O. @$$8>D+",
".,p.H+8+q.q.4#m.q.a#4@M.R m.4#S@v#X@S@ @o=a+j$]#0#O.0#[++,@,J>F#4@X@,+f#X@a+F.#,L.Y.i>{ { { { { { { { { { { { { { { { { { { { { { { { { { { { { { { { { { { { { { { { { { { { { { { K>4@E C._.4# @O.0# @F#$,%,&,U>*,X@}@P#4@J 0#4@a#4#d%]#a#4#&*P m.4# @4#4#&*4#~#l.,*&#",
"c@m.5+5+q.~# @d%~#m.4#,*.+&*a#4@`+r#}@4#d%T#7+>+0#}@4@@#=,-,;,}@`+O@4+d@4@a+#+#,p.5+i>{ { { { { { { { { { { { { { { { { { { { { { { { { { { { { { { { { { { { { { { { { { { { { { { >,4@J G.,,~#0#S@X@X@F#',),T>!,d@0#d>S@w H 0#1 0#4#q.m.~#&*p.0+M.~#4#d%d%D+4#~#`.q.c@",
"c@D+5+L.m.d%a#4#0#4#M.Q .+4#O.a#S@0#4#4#m.S#L.4@a#4#w @#~,{,],d>O.g$q#X@4@@$#+#,}$5+i>{ { { { { { { { { { { { { { { { { { { { { { { { { { { { { { { { { { { { { { { { { { { { { { { ^,v>p#G./,~#1%4@X@4@P#^-(,_,:,X@4@}@4@4@E ~#1 >+m.m.4#q.&*p.Y d%d%0#a#c@8>q.m.`.m.~#",
",*,*H+5+q.m.a#0#4@4#M.$$a+4#4@a#0#a# @4#4#0+p.1 >+4@d@<,[,},|,d%a#4@g$w 4@@$F.#,}$j$i>{ { { { { { { { { { { { { { { { { { { { { { { { { { { { { { { { { { { { { { { { { { { { { { { 1,>+p#D.2,a#X@O.&%0#a#3,4,5,6,}@4@4# @0#E q.4@>+q.m.4#m.&*p.O M.4#O.0#c@,*q.m.5+q.m.",
"M.p.H+8+q.q.q.4#>+~#4#Q 0+M.r#O.4@}@ @}@&*%$j$>+1 4@4@w@7,8,9,m.a#~#0#S@`+R N-/,M.6+i>{ { { { { { { { { { { { { { { { { { { { { { { { { { { { { { { { { { { { { { { { { { { { { { { >,>+p#|./,4@X@0#4@ @4#0,a,b,c,m.>+4#m.a#E q.4@a#q.m. @0#4#`.O c@c@4#d%d,l.p.l#Q p.p.",
"p.,*`.Y.M.M.m.4#>+a#a#5+Y ,* @}@O.4#4#m.c@4-D$~#4@X@f#w&e,f,g,d,a#~#a#}@a#S#F.#, +5+i>{ { { { { { { { { { { { { { { { { { { { { { { { { { { { { { { { { { { { { { { { { { { { { { { h, @J &+2,>+X@`+0#a#`+i,j,k,l,n*O.d% @a#E m.`+a#m.M.4#0#4#p.a+p.M.p.p.,*$$,*q.Q p.c@",
"m.p.`.5+M.p.d%~#a# @m.R 9+,*d%4#}@o=&*o=c@9+S a#~#4#O.y+m,n,o,m.a#v>O.O.q.Y G.#,q.C$i>{ { { { { { { { { { { { { { { { { { { { { { { { { { { { { { { { { { { { { { { { { { { { { { { p,B$G :=2,>+d@X@4@X@X@-&q,r,s,~+4#o=&*~#E ~#O.d%c@,*q. @m.L.` p.p.M.,*,*$$,*q.R M.m.",
"d%M.5+5+M.p.d%4# @d%M.R 9+`.p.4# @c@c@4#c@9+S a#4#d%a#t,u,v,;,4#]#]#~#>+d%p#%+2,M.5+w,{ { { { { { { { { { { { { { { { { { { { { { { { { { { { { { { { { { { { { { { { { { { { { { { p,B$E D.,,>+d@S@4@`+X@x,y,z,M;X@m.4#&*a#E M.m.|>4#D+p.m.o$R J 5+,*p.,*`.l.`. +R p.q.",
"m.q.H+5+M.p.m.c@p.,*,*.+-+Q l.p.&*M.o=4#c@p#Y.m.d%d%a#A,u,B,D>}@A$v>~#~#q.)$C./,j$6+w,{ { { { { { { { { { { { { { { { { { { { { { { { { { { { { { { { { { { { { { { { { { { { { { { p,~#b+D.,,:$S@}@a# @S@C,%,D,E,r#m. @d%c@b+`.c@&*M.D+M.M.p.Z E 5+`.,*,*`.H+5+M.Y.7+p.",
"d%M.Q 8+M.p.p.,*$$H+5+S#-+Q ,*l.,*D+o=c@,*)$8+M.m. @ @t,F,G,H,X@O@4@>+~#M.=+G./,C$6+w,{ { { { { { { { { { { { { { { { { { { { { { { { { { { { { { { { { { { { { { { { { { { { { { { I,m.*+|./,m.~#d%4#m.4#D;J,K,!,X@}@O.0#m.*+$$p.M.`.M.M.p.Q a+I Q 5+,*,*`.5+`.q.S Q 5+",
"q.p.Y.A$d%p.l.$$Q `.,*.+-+Q $$H+p.&*c@D+,*-+j$'@m. @ @H&+,L,H,X@g$v>>+0#m.J %+/,L.L.w,{ { { { { { { { { { { { { { { { { { { { { { { { { { { { { { { { { { { { { { { { { { { { { { { M,m.J.(./,q.~#4#c@D+4#N,J,O,P,e=0#S@ @~#$.p.p.&*`.m.p.,*Q S#E $$,*`.`.l.5+M.:$2$5+p.",
"M.5+B$q.p.5+Q .+p#Q 7+O 9+5+,*Q `.M.&*D+M.N.8+q.m.m. @H&+,Q,R,r#1 A$~#a#m.N.X;#,M.n$w,{ { { { { { { { { { { { { { { { { { { { { { { { { { { { { { { { { { { { { { { { { { { { { { { M,:$z |./,q.d%&*q.m.|>S,J,O,T,e=O.a#0#0#b+M.p.q.5+M.p.p.l.a+E ;+5+J Q l.`.`.m.>+R p.",
"M.a+L.M.`.R .+U,i$.+S+F -+J N.-+k.Y 9+-+R Y Q q.4#m.0#H&V,@,D>}@4@4@A$B$q.0+#*/,%=j$W,{ { { { { { { { { { { { { { { { { { { { { { { { { { { { { { { { { { { { { { { { { { { { { { { X,m.F _.Y,q.c@M.d%m.}@Z,`, '!,j#a#>+4@0#K.`.E a+` E N.N.E 9+=*Z.S#E F R l.`.q.:$N.`.",
"H+9+5+p.5+.+%.+.Y.0+F E J#+.D.y #.@+U,F.5+9+.+M.o=q.>+X..'+'@'4#v>4@a#~#m.Y %+/,L.6+W,{ { { { { { { { { { { { { { { { { { { { { { { { { { { { { { { { { { { { { { { { { { { { { { { #'B$z }.$'q.o=M.m.d%d%S,%,%'&'F#a# @~#a#K.5+++I.*'='-'=*B H.E y Y X E F S l.q.~#J Q ",
".+9+5+`.Q Y F P p#=*K.9+E B.%.=*X;U,B.=*%$=+.+q.c@M.4#q&;'>','4#v>>+~#4#d%N.%+/,5+8+W,{ { { { { { { { { { { { { { { { { { { { { { { { { { { { { { { { { { { { { { { { { { { { { { { F=q.J._.''m.d%d%a#a# @^-%,)'&'S@~#m.m.~#K.S y !'B l=='S%~'{'$.K.y p#Z.F Y p.M.l#E Q ",
"R 9+8+`..+Y..+N.F %.N.p#]'=*v&H.U,0=S%@+S#=+Y.a#d%&*a#]%^'/'('4#>+4@m.m.,*9%C./,C$|$W,{ { { { { { { { { { { { { { { { { { { { { { { { { { { { { { { { { { { { { { { { { { { { { { { _'}$I.:=2,q.m.a#>+>+0#:'<'['}'4@4#c@q.~#C R J.v&|'U,X;1'v&0=J.p#Y S%E Y l.Q p.l#E .+",
"R 0+}$M..+0+N.J.C 2'S Y 9%Z.%$0+p#N.N.-+2$P p.>+4#a#4@X@3'4'5'm.a#>+q.m.p.=+%+}.L.P W,{ { { { { { { { { { { { { { { { { { { { { { { { { { { { { { { { { { { { { { { { { { { { { { { 6'p.F D.A. +q.d%~#>+}@7'J*8'9'g$~#c@~#a#$.:$N.N;9+a+u=N.-+J -+O 0'i$y 9+S#$$`.a#=+S#",
".+a+L@$@X.L@G$Q 9+N.k.k.E K.K.k.$=*+J.++E J :$a#m.>+1 m.a'b'c'm.~#m.M.q.p.=+F.P B$D$W,{ { { { { { { { { { { { { { { { { { { { { { { { { { { { { { { { { { { { { { { { { { { { { { { 6'7+Q y A.7+m.q. @a#m.y#g=d'f=A$l#q. @A$N;p#E $+$=$.K.C K.$.b+K.E b+Y }%H&K$e'B%Y a+",
"S#E 6+ +q.q.a#Z&y+0$G$t$L@f#e=M@e=<$%&f'g'O@B$~#q.4@p.h'R&9,Z=p.m.M.p.M.,*-+G d@m.P W,{ { { { { { { { { { { { { { { { { { { { { { { { { { { { { { { { { { { { { { { { { { { { { { { i'5+~#P D.,*q.4#0#4#,*V-j'k'l'P ~# @>+a#4#m'n'o'S@%&L@Z&G$<*8%X.)=H&X.u :$q. @a#K.a+",
"#$G 6+p.M.c@M.~#O.m.a#4@>+m.q.q.l.M.,*,*m.q.m.~#m.4@`.p'q'$=E p.m.p.,*,*`.=+z M.q.P W,{ { { { { { { { { { { { { { { { { { { { { { { { { { { { { { { { { { { { { { { { { { { { { { { r'M.}$N.|.p.M.&*a#a#,*s't'u'v'N.A$>+>+v>c@m.m.4# @4#M. @4@a#~#M.M.M.d%q.p.p.M.m.J.S#",
"@$E j$B$q.M.M.q.~#p.~#4@ @~#m.m.p.M.p.p.~#>+M.q.m.~#Q Y>w'*+J p.q.p.,*`.`.=+F ,*M.X x'{ { { { { { { { { { { { { { { { { { { { { { { { { { { { { { { { { { { { { { { { { { { { { { { y'p.M.p#_.p.p.M.4#a#,*4-Y>y Y>G m.a#a# @>+~#m.m.a#~#p.q.m.~#q.'@M.5+`.M.`.`.q.q.J.O ",
"S#E 8+q.M.p.M.p.}$p.m.m.m.}$p.q.p.p.m.a#>+m.M.p.'@q.S z'A'K.J p.m.p.5+7+5+E F `.p.` x'{ { { { { { { { { { { { { { { { { { { { { { { { { { { { { { { { { { { { { { { { { { { { { { { B'p.p.G _.`.M.`.q.~#p.a+e>J#C.J }$~#m.a#v>A$ @a#v>~#p.q.'@l#p.p.5+Q ,*M.q.p.d%l#$.0+",
"S#I C$q.o$`.`.p.5+`.}$C'q.M.}$}$'@q.a#4@~#q.q.p.p.p.S C.,,r*+.7+p.p.5+5+D'E J.Q p.L x'{ { { { { { { { { { { { { { { { { { { { { { { { { { { { { { { { { { { { { { { { { { { { { { { E'C$7+H _.`.p.5+L.~#p.O $+J#G.p# @ @~#l#~#q.1 a#a#m.M.q.p.q.}$}$5+p.&*M.4#M.q.~#J.0+",
"#$E C$q.p.5+5+M.j$5+p.q.~#q.}$p.p.q.a# @m.q.'@p.`.L.P D.w'*+C 8+p.l.Q 5+5+E I.R j$G F'{ { { { { { { { { { { { { { { { { { { { { { { { { { { { { { { { { { { { { { { { { { { { { { { E'p.7+G #,Q 5+D'`.p.`.O G'y .*J q.l#l#]#l#0#4@A$q.M.`.q.}$q.}$}$5+l.&*M.p.m.q.~#J.Y ",
"a+E 6+q.p.`.}$q.5+5+7+m.A$A$}$7+p.p.l#l#q.m.m.q.M.`.S#D.,,$.E R `.Q .+R ;+E v&R j$G F'{ { { { { { { { { { { { { { { { { { { { { { { { { { { { { { { { { { { { { { { { { { { { { { { E'p.5+E ,,Q `.5+l.Q .+9+$+J#.*E 7+p.p.q.'@]#~#B$}$p.M.q.p.q.}$}$m.p.~#}$M.m.q.A$J.Y ",
"a+K.F$p.5+M.m.M.,*p.p.p.H'l#}$7+p.p.M.m.m.q.p.7+p.7+P v&$+J E S j$Q S Q S K.y S R G F'{ { { { { { { { { { { { { { { { { { { { { { { { { { { { { { { { { { { { { { { { { { { { { { { I'8+Q E }.Y.5+R {+.+.+p#y C %.J 5+5+p.p.'@q.A$~#m.p.p.q.p.p.p.p.'@}$l#q.q.q.q.1 J.9+",
"Y E  +L.L.p.p.M.`.p.p.}$}$'@p.p.p.m.p.7+}$q.7+j$`.7+P $+E N.G S J'R .+R a+K.I.P S G F'{ { { { { { { { { { { { { { { { { { { { { { { { { { { { { { { { { { { { { { { { { { { { { { { K'S S E _..+Y..+{+.+P p#E D$$.J 5+R Q 5+`.M.q.}$~#L'7+p.`.7+D'l.7+p.'@p.7+p.`.m.J J ",
"E  +p.p.5+p.`.p.j$`.p.p.C'7+7+7+p.p.p.p.}$`.5+R 6+6@P J#M'X E P R u+S+R u+$.y D$S G F'{ { { { { { { { { { { { { { { { { { { { { { { { { { { { { { { { { { { { { { { { { { { { { { { N'S S E _..+Q R .+R .+Y G R.J.i$V$Q Q R Q `.`.p.M.j$5+j$5+J'J'D'l.5+5+7+j$p.Q 5+M.Z=",
"S Y.S S P R S S P S R R R R S S S S R R R R S P D$|$G @+%.=*S#S#S S+O S#R F x P S C F'{ { { { { { { { { { { { { { { { { { { { { { { { { { { { { { { { { { { { { { { { { { { { { { { O'D$S $.2,Q R .+R R a+S#F v&$+K.C$P a+S#S Y.R S+.+P P .+P S+P R S P P P P P O ` O Q ",
"E D.#,''$'P'''/,/,2,#,/,/,2,2,2,2,#,/,,,:=#*@+H.X;E.@+K.=+S a+Y M N.p##.X x Q'P S C F'{ { { { { { { { { { { { { { { { { { { { { { { { { { { { { { { { { { { { { { { { { { { { { { { O'S R'C ,,5+J E 0+Z.N.Z.P k.=+y H.D.D.E.%+|._.2,''S'/,/,P'$'''''P'S'''/,,,/,/,2,_.J.",
"T'U'b.U'y.V'w.W'z.W'X'T'X'T'X'z.b.b.b.X'X'T'X'X'W'X'T'X'W'X'b.y.x.w.b.b.Y'Z'y a+O z F'{ { { { { { { { { { { { { { { { { { { { { { { { { { { { { { { { { { { { { { { { { { { { { { { `'O O ++ ).)U'b.y.+)y.b.U'X'@)@)@)T'X'X'W'b.y.U'X'z.z.X'X'X'X'W'y.w.b.U'b.U'b.W'X'@)",
"1.&+D._.1.,,A._._._.|.C.&+_.1.,,1.1.1.#)#)_._._._.&+&+_._.D.F.Y>$)&+&+t'%)&)*)b+F X;F'{ { { { { { { { { { { { { { { { { { { { { { { { { { { { { { { { { { { { { { { { { { { { { { { =)S%z Q=-);)>)Y>D.$)(.#)&+$)D.C.#+C.D.1.#)&+_._.&+#)&+,)C.C.D.&+_.1.1._.1.(._.1.1.$)",
"1 V$a ')1 1 V$3 3 s o G&a s U.4@O@g$g$v v u V.s V.s V.c V.c V.V.t v V$g$w d@U.t V.-*&={ { { { { { { { { { { { { { { { { { { { { { { { { { { { { { { { { { { { { { { { { { { { { { { ))]*t <#R#4+U.'+V.p s :*<#<#@#<#!)p s v ~)7 O@g$X@g$<#s s a ')t V.-*-*<#s R#-*O@4@4@",
"{)])^)/)()_)8=()/):)^)<)[)}):)()8=8=8=()8=()})|)1)|)2)2)2)3)/)/)()8=4)5)8=8=8=6)1)7)O={ { { { { { { { { { { { { { { { { { { { { { { { { { { { { { { { { { { { { { { { { { { { { { { 8)()6)6)])])])/)})9)0)/)|)a)])/)2)b)})3)c)/)()8=8=8=3)2)})})/)])/)])1)b)|)2)/)3)8=8="};
