/* XPM */
static char * ea_tex_xpm[] = {
"132 132 4898 2",
"  	c #0D1317",
". 	c #10181D",
"+ 	c #0F171C",
"@ 	c #1D2B32",
"# 	c #162125",
"$ 	c #10171B",
"% 	c #0C1317",
"& 	c #0A1014",
"* 	c #212F35",
"= 	c #213036",
"- 	c #213037",
"; 	c #23323A",
"> 	c #22333B",
", 	c #24343D",
"' 	c #26373F",
") 	c #273942",
"! 	c #2B3E47",
"~ 	c #30454F",
"{ 	c #162228",
"] 	c #2A4049",
"^ 	c #243A43",
"/ 	c #243A45",
"( 	c #243C47",
"_ 	c #273E4A",
": 	c #263D48",
"< 	c #243D49",
"[ 	c #27424E",
"} 	c #29424E",
"| 	c #2B434F",
"1 	c #29414D",
"2 	c #2C4551",
"3 	c #28404C",
"4 	c #2A4451",
"5 	c #27414D",
"6 	c #243E4B",
"7 	c #243F4C",
"8 	c #253F4C",
"9 	c #243D48",
"0 	c #253D48",
"a 	c #213843",
"b 	c #1E333C",
"c 	c #1D3039",
"d 	c #21343E",
"e 	c #142027",
"f 	c #273B45",
"g 	c #1E2D36",
"h 	c #1F303A",
"i 	c #1C2A32",
"j 	c #040709",
"k 	c #111A20",
"l 	c #2E454F",
"m 	c #25363E",
"n 	c #223139",
"o 	c #1D2C33",
"p 	c #22343C",
"q 	c #233239",
"r 	c #22333A",
"s 	c #22323A",
"t 	c #23343D",
"u 	c #24363E",
"v 	c #253942",
"w 	c #243842",
"x 	c #223843",
"y 	c #233A46",
"z 	c #1E3641",
"A 	c #203A47",
"B 	c #203C4B",
"C 	c #203F4F",
"D 	c #1F3F4F",
"E 	c #1F4051",
"F 	c #1D3F50",
"G 	c #1C4255",
"H 	c #1B4255",
"I 	c #1D4354",
"J 	c #1E4455",
"K 	c #1E4355",
"L 	c #1F4557",
"M 	c #1F475A",
"N 	c #1F495E",
"O 	c #1D455A",
"P 	c #1D4559",
"Q 	c #1E4659",
"R 	c #1D465A",
"S 	c #1E4559",
"T 	c #1E4558",
"U 	c #1D465B",
"V 	c #1D495F",
"W 	c #1F4A61",
"X 	c #1E495E",
"Y 	c #1E485D",
"Z 	c #1F495F",
"` 	c #204D63",
" .	c #1E495F",
"..	c #1E485B",
"+.	c #1E485C",
"@.	c #1E475D",
"#.	c #1D4458",
"$.	c #1E465A",
"%.	c #1E3F51",
"&.	c #1D3D4D",
"*.	c #1F3D4D",
"=.	c #1E3745",
"-.	c #1F3642",
";.	c #213641",
">.	c #1E303A",
",.	c #21323C",
"'.	c #20313A",
").	c #1F2E36",
"!.	c #1E2E36",
"~.	c #162329",
"{.	c #142025",
"].	c #1E2C33",
"^.	c #1C2B31",
"/.	c #1D2B33",
"(.	c #1D2B31",
"_.	c #152025",
":.	c #121C21",
"<.	c #19252C",
"[.	c #19262C",
"}.	c #19262B",
"|.	c #1C282F",
"1.	c #151F23",
"2.	c #0F151A",
"3.	c #162127",
"4.	c #223239",
"5.	c #31454F",
"6.	c #4D6976",
"7.	c #18262C",
"8.	c #0E1417",
"9.	c #222F35",
"0.	c #1B282F",
"a.	c #1E2F38",
"b.	c #1D2D35",
"c.	c #22333C",
"d.	c #24363F",
"e.	c #273A44",
"f.	c #253740",
"g.	c #293F4B",
"h.	c #152229",
"i.	c #213A44",
"j.	c #203843",
"k.	c #223C49",
"l.	c #1F3845",
"m.	c #243D4A",
"n.	c #264351",
"o.	c #264250",
"p.	c #254150",
"q.	c #25404E",
"r.	c #223C4A",
"s.	c #233E4B",
"t.	c #223D4A",
"u.	c #25414D",
"v.	c #24414E",
"w.	c #233F4B",
"x.	c #254350",
"y.	c #233D49",
"z.	c #233E4A",
"A.	c #213B47",
"B.	c #1E343F",
"C.	c #203742",
"D.	c #243A46",
"E.	c #0F1B22",
"F.	c #1F343F",
"G.	c #243742",
"H.	c #2C404C",
"I.	c #11191F",
"J.	c #304752",
"K.	c #25373F",
"L.	c #202F37",
"M.	c #1F2D34",
"N.	c #213239",
"O.	c #23343C",
"P.	c #21323A",
"Q.	c #23404D",
"R.	c #1D3B4A",
"S.	c #1E4153",
"T.	c #1E4358",
"U.	c #204F68",
"V.	c #1F536F",
"W.	c #1D5775",
"X.	c #1B5676",
"Y.	c #1C5977",
"Z.	c #195B79",
"`.	c #1A5B7A",
" +	c #1E5C7B",
".+	c #1C5A79",
"++	c #1A5A7A",
"@+	c #195C7C",
"#+	c #185978",
"$+	c #1A5C7B",
"%+	c #1C5C7A",
"&+	c #1B5978",
"*+	c #1C5F7F",
"=+	c #1E6181",
"-+	c #1F6181",
";+	c #1D5E7F",
">+	c #1B6081",
",+	c #1D6183",
"'+	c #206283",
")+	c #1F6383",
"!+	c #206282",
"~+	c #1E5F7D",
"{+	c #1D5B78",
"]+	c #1D5A79",
"^+	c #1D5C7A",
"/+	c #1F5F7D",
"(+	c #20607E",
"_+	c #1E5D7B",
":+	c #1D5C78",
"<+	c #1B5976",
"[+	c #1B5874",
"}+	c #19506B",
"|+	c #184A64",
"1+	c #18485F",
"2+	c #1A445A",
"3+	c #1E4359",
"4+	c #1F3E4F",
"5+	c #213A47",
"6+	c #223540",
"7+	c #1F323A",
"8+	c #1C2B33",
"9+	c #1C2B32",
"0+	c #17242A",
"a+	c #1E2D33",
"b+	c #1D2A32",
"c+	c #1E2D34",
"d+	c #18252C",
"e+	c #1B2931",
"f+	c #1B292F",
"g+	c #19252B",
"h+	c #1A262D",
"i+	c #1A272E",
"j+	c #1A272D",
"k+	c #0E161A",
"l+	c #151E24",
"m+	c #1E2A30",
"n+	c #405966",
"o+	c #354851",
"p+	c #141E24",
"q+	c #0F191D",
"r+	c #182328",
"s+	c #192328",
"t+	c #121A1F",
"u+	c #18272D",
"v+	c #1F2F37",
"w+	c #1D2C34",
"x+	c #20323B",
"y+	c #1D2F38",
"z+	c #20343F",
"A+	c #1C3440",
"B+	c #1C3542",
"C+	c #1E3845",
"D+	c #1F3B49",
"E+	c #1E3A48",
"F+	c #1E3A4A",
"G+	c #1D3948",
"H+	c #1E3D4D",
"I+	c #1C3948",
"J+	c #1E3C4A",
"K+	c #1E3E4E",
"L+	c #1E3D4E",
"M+	c #1E3A49",
"N+	c #1F3C4B",
"O+	c #203E4D",
"P+	c #203C4A",
"Q+	c #203B49",
"R+	c #213C4A",
"S+	c #1F3946",
"T+	c #1D3745",
"U+	c #1D3643",
"V+	c #1F3745",
"W+	c #203844",
"X+	c #111F27",
"Y+	c #19313D",
"Z+	c #1B323E",
"`+	c #1A2C35",
" @	c #203139",
".@	c #111B21",
"+@	c #05070B",
"@@	c #121A20",
"#@	c #2E434D",
"$@	c #24353D",
"%@	c #212F36",
"&@	c #131E22",
"*@	c #1A282E",
"=@	c #25363F",
"-@	c #25343C",
";@	c #213139",
">@	c #233740",
",@	c #263A45",
"'@	c #314D5C",
")@	c #152832",
"!@	c #0C2631",
"~@	c #072938",
"{@	c #072E41",
"]@	c #052E42",
"^@	c #073349",
"/@	c #073853",
"(@	c #07405E",
"_@	c #05405F",
":@	c #053F5D",
"<@	c #043C5A",
"[@	c #06405E",
"}@	c #054363",
"|@	c #064869",
"1@	c #054465",
"2@	c #044262",
"3@	c #054464",
"4@	c #064666",
"5@	c #064768",
"6@	c #064866",
"7@	c #084864",
"8@	c #074764",
"9@	c #084A69",
"0@	c #084C6B",
"a@	c #074C6B",
"b@	c #084C6C",
"c@	c #0A4C6B",
"d@	c #094A68",
"e@	c #074866",
"f@	c #074968",
"g@	c #054365",
"h@	c #054565",
"i@	c #06486B",
"j@	c #05486C",
"k@	c #054264",
"l@	c #064364",
"m@	c #054463",
"n@	c #043C59",
"o@	c #043A56",
"p@	c #043953",
"q@	c #06354C",
"r@	c #062D43",
"s@	c #062333",
"t@	c #0D2430",
"u@	c #0D1C25",
"v@	c #275064",
"w@	c #1D2E37",
"x@	c #1D2D34",
"y@	c #1F3039",
"z@	c #1D303B",
"A@	c #1B2D37",
"B@	c #0F171A",
"C@	c #202E37",
"D@	c #1C2930",
"E@	c #172328",
"F@	c #0C1216",
"G@	c #131D22",
"H@	c #1F2B31",
"I@	c #3F5864",
"J@	c #2F444F",
"K@	c #131F24",
"L@	c #0F171B",
"M@	c #162025",
"N@	c #1E2B32",
"O@	c #19252A",
"P@	c #202F36",
"Q@	c #1E2F36",
"R@	c #1F313B",
"S@	c #1E313A",
"T@	c #223A48",
"U@	c #14252E",
"V@	c #1C3A4A",
"W@	c #1E3F4F",
"X@	c #1E3D4F",
"Y@	c #1E4052",
"Z@	c #1E4458",
"`@	c #1B3F52",
" #	c #1A4458",
".#	c #1A475C",
"+#	c #1B475C",
"@#	c #1C465B",
"##	c #1F475C",
"$#	c #1E4457",
"%#	c #1F4255",
"&#	c #1E4051",
"*#	c #1E3F50",
"=#	c #1E3E4F",
"-#	c #203C4C",
";#	c #152631",
">#	c #1C3341",
",#	c #1A2D37",
"'#	c #233640",
")#	c #121D24",
"!#	c #060A0E",
"~#	c #121B21",
"{#	c #324752",
"]#	c #1C292E",
"^#	c #24333B",
"/#	c #25353E",
"(#	c #263842",
"_#	c #263A46",
":#	c #284453",
"<#	c #132834",
"[#	c #2E5E73",
"}#	c #08374E",
"|#	c #034D71",
"1#	c #01577C",
"2#	c #025B7D",
"3#	c #026386",
"4#	c #026890",
"5#	c #026C97",
"6#	c #016C97",
"7#	c #026B95",
"8#	c #026A93",
"9#	c #026B94",
"0#	c #026D96",
"a#	c #026C95",
"b#	c #02678F",
"c#	c #026991",
"d#	c #026D98",
"e#	c #016D99",
"f#	c #016F9B",
"g#	c #02739D",
"h#	c #03769C",
"i#	c #03799F",
"j#	c #0379A0",
"k#	c #047EA5",
"l#	c #047CA3",
"m#	c #037AA2",
"n#	c #0378A0",
"o#	c #02779D",
"p#	c #01779C",
"q#	c #017A9F",
"r#	c #01779D",
"s#	c #01749C",
"t#	c #01749B",
"u#	c #027298",
"v#	c #027198",
"w#	c #026E99",
"x#	c #016892",
"y#	c #01648D",
"z#	c #015E87",
"A#	c #015C86",
"B#	c #015780",
"C#	c #015076",
"D#	c #014A72",
"E#	c #013D5F",
"F#	c #1B5069",
"G#	c #0B1F2A",
"H#	c #21536A",
"I#	c #1D2F39",
"J#	c #1F3139",
"K#	c #1D313B",
"L#	c #1C2E37",
"M#	c #1D2C32",
"N#	c #1F2D35",
"O#	c #172329",
"P#	c #1B2930",
"Q#	c #1A262C",
"R#	c #0A1013",
"S#	c #212E34",
"T#	c #3E5460",
"U#	c #2F424D",
"V#	c #121D22",
"W#	c #0C1518",
"X#	c #1F3038",
"Y#	c #1E3038",
"Z#	c #1E313B",
"`#	c #1E333E",
" $	c #11252F",
".$	c #1D4257",
"+$	c #1B485E",
"@$	c #1C485F",
"#$	c #1D495E",
"$$	c #1A4E67",
"%$	c #1A4B63",
"&$	c #1B4F67",
"*$	c #18546C",
"=$	c #19546D",
"-$	c #174C63",
";$	c #1B526A",
">$	c #1C526B",
",$	c #1C536D",
"'$	c #1C4E66",
")$	c #1C5068",
"!$	c #1B4D64",
"~$	c #1C475C",
"{$	c #1C465A",
"]$	c #1C4356",
"^$	c #1D4356",
"/$	c #1F3F51",
"($	c #172F3C",
"_$	c #1F3E4D",
":$	c #1C3340",
"<$	c #1D3340",
"[$	c #213642",
"}$	c #111B20",
"|$	c #060B0E",
"1$	c #101A1F",
"2$	c #2D434E",
"3$	c #203038",
"4$	c #213138",
"5$	c #25353D",
"6$	c #23333B",
"7$	c #24343B",
"8$	c #283941",
"9$	c #2B3E49",
"0$	c #253B46",
"a$	c #233945",
"b$	c #254352",
"c$	c #0F2531",
"d$	c #195A74",
"e$	c #044A68",
"f$	c #09B4D8",
"g$	c #41CEDF",
"h$	c #4DD0E0",
"i$	c #48CCDF",
"j$	c #3FCCE0",
"k$	c #3CCEE2",
"l$	c #3ED2E4",
"m$	c #46D3E5",
"n$	c #4CD0E3",
"o$	c #5FD0E0",
"p$	c #67D0DF",
"q$	c #68D0DF",
"r$	c #67D0DE",
"s$	c #69D1E0",
"t$	c #5DD0E0",
"u$	c #4FCDDF",
"v$	c #41C9DD",
"w$	c #37CBE0",
"x$	c #2DCCE3",
"y$	c #2ECBE4",
"z$	c #3ACEE4",
"A$	c #4FCEE2",
"B$	c #53D0E3",
"C$	c #4FCEE3",
"D$	c #4DCEE3",
"E$	c #4CCEE3",
"F$	c #50D0E3",
"G$	c #4FD1E4",
"H$	c #52D3E5",
"I$	c #52D3E3",
"J$	c #54D2E2",
"K$	c #5CD2E1",
"L$	c #60CEE1",
"M$	c #43C6DD",
"N$	c #30C3D9",
"O$	c #2FC7DB",
"P$	c #2CC8DB",
"Q$	c #29CADC",
"R$	c #23C9DB",
"S$	c #1EC9DB",
"T$	c #0BAFD2",
"U$	c #025374",
"V$	c #13617F",
"W$	c #0A232E",
"X$	c #1A5168",
"Y$	c #1E3542",
"Z$	c #1D303A",
"`$	c #1E333D",
" %	c #1D313A",
".%	c #1B2830",
"+%	c #162126",
"@%	c #1C2A30",
"#%	c #1C2A31",
"$%	c #1B272E",
"%%	c #18242A",
"&%	c #090D10",
"*%	c #151E23",
"=%	c #212F37",
"-%	c #425964",
";%	c #2F4149",
">%	c #21323B",
",%	c #1E3037",
"'%	c #1C2F39",
")%	c #1B3543",
"!%	c #1B4154",
"~%	c #15384A",
"{%	c #18516D",
"]%	c #184C66",
"^%	c #19516E",
"/%	c #175370",
"(%	c #175371",
"_%	c #175573",
":%	c #165877",
"<%	c #135F80",
"[%	c #156082",
"}%	c #135F81",
"|%	c #136283",
"1%	c #146385",
"2%	c #14678A",
"3%	c #13678A",
"4%	c #14698B",
"5%	c #146687",
"6%	c #166281",
"7%	c #186382",
"8%	c #175F80",
"9%	c #155878",
"0%	c #195877",
"a%	c #1A5573",
"b%	c #194B64",
"c%	c #1A4C65",
"d%	c #1C4E6A",
"e%	c #1A3948",
"f%	c #1C3644",
"g%	c #213944",
"h%	c #060C0F",
"i%	c #121D23",
"j%	c #243943",
"k%	c #253A45",
"l%	c #1E323C",
"m%	c #234455",
"n%	c #0F232E",
"o%	c #13506B",
"p%	c #054666",
"q%	c #0B90B3",
"r%	c #3EAFC6",
"s%	c #43B2CC",
"t%	c #37AECB",
"u%	c #31AECA",
"v%	c #38AFC9",
"w%	c #40B4CB",
"x%	c #3BB5CE",
"y%	c #11ACCD",
"z%	c #16ADCE",
"A%	c #12AFCF",
"B%	c #11AFCF",
"C%	c #10AECF",
"D%	c #1AB3D2",
"E%	c #2FB1CF",
"F%	c #44B3CC",
"G%	c #4DB7CF",
"H%	c #50BCD2",
"I%	c #4EBED6",
"J%	c #54BED7",
"K%	c #5ABED4",
"L%	c #5DBCD2",
"M%	c #58BCD2",
"N%	c #59BCD3",
"O%	c #57BBD2",
"P%	c #53BBD3",
"Q%	c #53B8D3",
"R%	c #55B8D2",
"S%	c #56BAD4",
"T%	c #53BBD6",
"U%	c #4DBCD8",
"V%	c #4BBBD5",
"W%	c #54B6CD",
"X%	c #5FB3CB",
"Y%	c #49B2CE",
"Z%	c #3FB4CD",
"`%	c #2DB2CC",
" &	c #139FBF",
".&	c #0A9EBC",
"+&	c #06A1BD",
"@&	c #03A7C5",
"#&	c #0195BD",
"$&	c #03506F",
"%&	c #125471",
"&&	c #0A2430",
"*&	c #174B61",
"=&	c #1E323D",
"-&	c #1E3039",
";&	c #1B2C34",
">&	c #182930",
",&	c #1A2830",
"'&	c #18242B",
")&	c #1A252C",
"!&	c #10161A",
"~&	c #151D21",
"{&	c #1F2A31",
"]&	c #384E58",
"^&	c #3B535E",
"/&	c #182429",
"(&	c #131C22",
"_&	c #091012",
":&	c #172126",
"<&	c #223138",
"[&	c #203847",
"}&	c #1E3E50",
"|&	c #102E3E",
"1&	c #0B2C3E",
"2&	c #0A3D56",
"3&	c #09405A",
"4&	c #0A4563",
"5&	c #084B6E",
"6&	c #0A5279",
"7&	c #0B5279",
"8&	c #0A557D",
"9&	c #0B5A81",
"0&	c #0B5A82",
"a&	c #0E5C83",
"b&	c #0C5B81",
"c&	c #0F5F84",
"d&	c #0D6389",
"e&	c #075980",
"f&	c #0D6287",
"g&	c #065A7E",
"h&	c #085C80",
"i&	c #085A7F",
"j&	c #075A81",
"k&	c #05577E",
"l&	c #065278",
"m&	c #094F71",
"n&	c #084867",
"o&	c #0A4460",
"p&	c #0B3B53",
"q&	c #0C2939",
"r&	c #0D2937",
"s&	c #214C61",
"t&	c #213947",
"u&	c #132229",
"v&	c #04090C",
"w&	c #111D24",
"x&	c #273F4C",
"y&	c #21333B",
"z&	c #172429",
"A&	c #23333A",
"B&	c #22343E",
"C&	c #233843",
"D&	c #213845",
"E&	c #26495C",
"F&	c #132A36",
"G&	c #0D3041",
"H&	c #052D44",
"I&	c #013E61",
"J&	c #005279",
"K&	c #015E89",
"L&	c #01608C",
"M&	c #015F8A",
"N&	c #015F89",
"O&	c #01638E",
"P&	c #016590",
"Q&	c #01638F",
"R&	c #01628B",
"S&	c #016690",
"T&	c #016D97",
"U&	c #027098",
"V&	c #016890",
"W&	c #016691",
"X&	c #016792",
"Y&	c #016B97",
"Z&	c #016C99",
"`&	c #016C9A",
" *	c #016E99",
".*	c #016C96",
"+*	c #01709B",
"@*	c #01739D",
"#*	c #0176A2",
"$*	c #016A97",
"%*	c #016A98",
"&*	c #016B98",
"**	c #016992",
"=*	c #02648E",
"-*	c #01628F",
";*	c #016492",
">*	c #016491",
",*	c #015887",
"'*	c #02537F",
")*	c #035278",
"!*	c #03537C",
"~*	c #014C74",
"{*	c #053E5F",
"]*	c #0C3B52",
"^*	c #071D28",
"/*	c #184257",
"(*	c #1C2E38",
"_*	c #1C2D35",
":*	c #1A2A31",
"<*	c #1A272F",
"[*	c #162226",
"}*	c #10181C",
"|*	c #1A242A",
"1*	c #202C32",
"2*	c #374E58",
"3*	c #2B3E46",
"4*	c #17252C",
"5*	c #10171C",
"6*	c #172025",
"7*	c #1F2E34",
"8*	c #1B2C35",
"9*	c #203641",
"0*	c #1F3B4A",
"a*	c #1C4257",
"b*	c #153E55",
"c*	c #16465B",
"d*	c #004A6F",
"e*	c #016386",
"f*	c #016A91",
"g*	c #016D96",
"h*	c #016F97",
"i*	c #017199",
"j*	c #00759B",
"k*	c #007499",
"l*	c #00759A",
"m*	c #00739A",
"n*	c #0079A1",
"o*	c #017BA5",
"p*	c #0178A0",
"q*	c #0277A0",
"r*	c #00759C",
"s*	c #01779E",
"t*	c #00789E",
"u*	c #007AA2",
"v*	c #0079A4",
"w*	c #01749F",
"x*	c #016C94",
"y*	c #01678E",
"z*	c #014160",
"A*	c #185168",
"B*	c #062331",
"C*	c #1C566F",
"D*	c #1D3947",
"E*	c #1F3947",
"F*	c #111F26",
"G*	c #03070B",
"H*	c #101C24",
"I*	c #253F4D",
"J*	c #16242B",
"K*	c #1A272C",
"L*	c #1F2E35",
"M*	c #1F333E",
"N*	c #1F3643",
"O*	c #213E4D",
"P*	c #244B5F",
"Q*	c #1B475D",
"R*	c #1C4F69",
"S*	c #215E7B",
"T*	c #1E5F7C",
"U*	c #226688",
"V*	c #1E688B",
"W*	c #206B8D",
"X*	c #20698B",
"Y*	c #1B6485",
"Z*	c #286F8F",
"`*	c #216D8E",
" =	c #247596",
".=	c #227799",
"+=	c #247899",
"@=	c #227696",
"#=	c #1F7496",
"$=	c #22779B",
"%=	c #24799C",
"&=	c #22789B",
"*=	c #1F7597",
"==	c #1C7597",
"-=	c #197395",
";=	c #1A7194",
">=	c #1E779A",
",=	c #1E7595",
"'=	c #207495",
")=	c #277A9A",
"!=	c #247797",
"~=	c #277799",
"{=	c #206F90",
"]=	c #267495",
"^=	c #217093",
"/=	c #207396",
"(=	c #207295",
"_=	c #227395",
":=	c #237091",
"<=	c #216C8C",
"[=	c #206B8C",
"}=	c #226D8E",
"|=	c #1F6C90",
"1=	c #19688C",
"2=	c #145E7F",
"3=	c #185B7B",
"4=	c #15516E",
"5=	c #164B65",
"6=	c #143E52",
"7=	c #1D4154",
"8=	c #193644",
"9=	c #1C3541",
"0=	c #1B303A",
"a=	c #121E25",
"b=	c #172228",
"c=	c #121B1F",
"d=	c #1B2A32",
"e=	c #182327",
"f=	c #0F161A",
"g=	c #182227",
"h=	c #374F5B",
"i=	c #202F39",
"j=	c #141F25",
"k=	c #0B1215",
"l=	c #1F2C33",
"m=	c #213038",
"n=	c #1B2F39",
"o=	c #204052",
"p=	c #1E4D66",
"q=	c #082D42",
"r=	c #0E5874",
"s=	c #0093B7",
"t=	c #6DD0DF",
"u=	c #79D8E6",
"v=	c #7BD7E6",
"w=	c #7CD6E6",
"x=	c #83D7E6",
"y=	c #85D9E9",
"z=	c #82D8E9",
"A=	c #83D9EA",
"B=	c #87D9EA",
"C=	c #8BDAEA",
"D=	c #89D8E7",
"E=	c #87D7E6",
"F=	c #89D6E4",
"G=	c #8CD9E7",
"H=	c #90D8E6",
"I=	c #89D6E6",
"J=	c #85D6E7",
"K=	c #84D4E5",
"L=	c #83D4E5",
"M=	c #83D3E5",
"N=	c #83CFE1",
"O=	c #7FD0E1",
"P=	c #59CDDE",
"Q=	c #0A83A1",
"R=	c #154E68",
"S=	c #051E2B",
"T=	c #1C5873",
"U=	c #1D3B4B",
"V=	c #1C3746",
"W=	c #0F1D24",
"X=	c #04080C",
"Y=	c #101D25",
"Z=	c #264452",
"`=	c #23353E",
" -	c #111C23",
".-	c #263740",
"+-	c #23333C",
"@-	c #233946",
"#-	c #223947",
"$-	c #1D3644",
"%-	c #1C3949",
"&-	c #193D4E",
"*-	c #1C4A61",
"=-	c #18485E",
"--	c #17475D",
";-	c #1A485E",
">-	c #164B64",
",-	c #13516C",
"'-	c #145370",
")-	c #145471",
"!-	c #135471",
"~-	c #135876",
"{-	c #125878",
"]-	c #105676",
"^-	c #125776",
"/-	c #135773",
"(-	c #145A78",
"_-	c #155C7A",
":-	c #165D7B",
"<-	c #165C79",
"[-	c #125774",
"}-	c #145A77",
"|-	c #155E7C",
"1-	c #145D7A",
"2-	c #145976",
"3-	c #145674",
"4-	c #125572",
"5-	c #135977",
"6-	c #135B79",
"7-	c #115977",
"8-	c #115473",
"9-	c #125876",
"0-	c #125977",
"a-	c #155977",
"b-	c #125672",
"c-	c #12506B",
"d-	c #15516B",
"e-	c #144F6C",
"f-	c #135170",
"g-	c #104965",
"h-	c #11455E",
"i-	c #124159",
"j-	c #143F54",
"k-	c #143849",
"l-	c #173544",
"m-	c #183340",
"n-	c #19303C",
"o-	c #1A2E39",
"p-	c #1B2F38",
"q-	c #1A2D38",
"r-	c #15222B",
"s-	c #19262D",
"t-	c #18232A",
"u-	c #1B272F",
"v-	c #0A1012",
"w-	c #131A1E",
"x-	c #1A242B",
"y-	c #233139",
"z-	c #0F181C",
"A-	c #070B0F",
"B-	c #070C0F",
"C-	c #1F323C",
"D-	c #1F3742",
"E-	c #203B4A",
"F-	c #1F4053",
"G-	c #1D4B63",
"H-	c #062F46",
"I-	c #084763",
"J-	c #01648A",
"K-	c #2290B9",
"L-	c #2297C0",
"M-	c #2096BC",
"N-	c #2096BB",
"O-	c #2296BC",
"P-	c #209BC3",
"Q-	c #21A0C5",
"R-	c #219CC1",
"S-	c #1F9EC5",
"T-	c #209FC5",
"U-	c #1D9CC1",
"V-	c #1B9DC1",
"W-	c #1C9EC2",
"X-	c #1FA0C5",
"Y-	c #23A4C6",
"Z-	c #20A2C6",
"`-	c #1F9DC2",
" ;	c #22A0C4",
".;	c #229EC2",
"+;	c #1F9EC3",
"@;	c #2195BD",
"#;	c #2095BC",
"$;	c #1389B0",
"%;	c #025F83",
"&;	c #124D69",
"*;	c #072333",
"=;	c #1C5872",
"-;	c #1B3746",
";;	c #0F1D25",
">;	c #050B10",
",;	c #0F1C24",
"';	c #121F24",
");	c #0E181D",
"!;	c #142127",
"~;	c #131E24",
"{;	c #162227",
"];	c #17262D",
"^;	c #182831",
"/;	c #14252D",
"(;	c #142631",
"_;	c #122834",
":;	c #123241",
"<;	c #102F3E",
"[;	c #0F2D3C",
"};	c #0E2A39",
"|;	c #0F2E3F",
"1;	c #0F3244",
"2;	c #0F3548",
"3;	c #11374B",
"4;	c #0E3347",
"5;	c #113548",
"6;	c #0E3246",
"7;	c #0E374C",
"8;	c #0E364D",
"9;	c #10384D",
"0;	c #0C354A",
"a;	c #0C364C",
"b;	c #0D384E",
"c;	c #0D3A51",
"d;	c #0D3C54",
"e;	c #0D3950",
"f;	c #0E3D54",
"g;	c #0F3F57",
"h;	c #0F3F58",
"i;	c #0E3E55",
"j;	c #0E3B53",
"k;	c #0D3B53",
"l;	c #0D3A52",
"m;	c #0B364E",
"n;	c #0E3D57",
"o;	c #0E394F",
"p;	c #0D374D",
"q;	c #0F394F",
"r;	c #0F394E",
"s;	c #10374B",
"t;	c #0E3447",
"u;	c #0F3547",
"v;	c #0D3347",
"w;	c #0C3245",
"x;	c #0C2D40",
"y;	c #0C2A3A",
"z;	c #0F2937",
"A;	c #0E242F",
"B;	c #0F212B",
"C;	c #11242D",
"D;	c #11222A",
"E;	c #122129",
"F;	c #15242B",
"G;	c #132027",
"H;	c #131D23",
"I;	c #151F25",
"J;	c #121C22",
"K;	c #0E181C",
"L;	c #0F181B",
"M;	c #10191D",
"N;	c #121B20",
"O;	c #131B20",
"P;	c #121C20",
"Q;	c #030608",
"R;	c #04070A",
"S;	c #111A1F",
"T;	c #28393F",
"U;	c #0B1416",
"V;	c #080C0F",
"W;	c #070C10",
"X;	c #162026",
"Y;	c #1E2C34",
"Z;	c #1B282E",
"`;	c #1F343E",
" >	c #1E3743",
".>	c #1E3B4A",
"+>	c #224B61",
"@>	c #051E2D",
"#>	c #022E43",
"$>	c #013D5B",
"%>	c #014E73",
"&>	c #005174",
"*>	c #015477",
"=>	c #025678",
"->	c #02597D",
";>	c #01587E",
">>	c #02587C",
",>	c #02567A",
"'>	c #01567A",
")>	c #01587C",
"!>	c #015C7E",
"~>	c #015B7D",
"{>	c #01597B",
"]>	c #01587A",
"^>	c #015A7E",
"/>	c #015E83",
"(>	c #025B80",
"_>	c #015579",
":>	c #015276",
"<>	c #015176",
"[>	c #014D71",
"}>	c #013856",
"|>	c #083E59",
"1>	c #061E2D",
"2>	c #215771",
"3>	c #1D3A48",
"4>	c #1C3643",
"5>	c #0E1E25",
"6>	c #081319",
"7>	c #0E1C23",
"8>	c #1B2B32",
"9>	c #16232A",
"0>	c #19282F",
"a>	c #1E2E35",
"b>	c #1E2D35",
"c>	c #1A2931",
"d>	c #1C2D36",
"e>	c #1E313C",
"f>	c #1B2F3A",
"g>	c #1A2F3A",
"h>	c #1E3746",
"i>	c #1A3849",
"j>	c #1A3A4C",
"k>	c #1A394B",
"l>	c #17384A",
"m>	c #173A4D",
"n>	c #1A4157",
"o>	c #193E54",
"p>	c #1A3E53",
"q>	c #1C4158",
"r>	c #1C465D",
"s>	c #1B465E",
"t>	c #19465E",
"u>	c #1C4E68",
"v>	c #1B4D68",
"w>	c #1C4E69",
"x>	c #1C4F6A",
"y>	c #1D506C",
"z>	c #1B4F6A",
"A>	c #1B4E69",
"B>	c #1C4D69",
"C>	c #1A4B65",
"D>	c #184862",
"E>	c #174660",
"F>	c #16455F",
"G>	c #174762",
"H>	c #15455F",
"I>	c #16445E",
"J>	c #16445D",
"K>	c #16425A",
"L>	c #164057",
"M>	c #153E54",
"N>	c #154159",
"O>	c #14415A",
"P>	c #153F56",
"Q>	c #173C51",
"R>	c #153A4F",
"S>	c #163C52",
"T>	c #153B51",
"U>	c #16374A",
"V>	c #183647",
"W>	c #193444",
"X>	c #18313F",
"Y>	c #18303F",
"Z>	c #182F3D",
"`>	c #1A323F",
" ,	c #1C323E",
".,	c #19272E",
"+,	c #1B2A31",
"@,	c #152227",
"#,	c #141E23",
"$,	c #151F24",
"%,	c #040609",
"&,	c #070A0D",
"*,	c #2B3F49",
"=,	c #0D1519",
"-,	c #0D161B",
";,	c #0D1418",
">,	c #152026",
",,	c #111C22",
"',	c #1F3844",
"),	c #203C49",
"!,	c #1D3C4B",
"~,	c #24536A",
"{,	c #1A506B",
"],	c #1C6182",
"^,	c #1E6C8F",
"/,	c #186E92",
"(,	c #157298",
"_,	c #1B769D",
":,	c #1D78A0",
"<,	c #2082A9",
"[,	c #1D7FA4",
"},	c #2381A6",
"|,	c #2885A9",
"1,	c #2887AB",
"2,	c #2484AB",
"3,	c #248AB2",
"4,	c #2182A9",
"5,	c #2886AC",
"6,	c #288BB3",
"7,	c #1E84AE",
"8,	c #2087AF",
"9,	c #1D7FA5",
"0,	c #1A7CA2",
"a,	c #207DA4",
"b,	c #1D6F93",
"c,	c #1D6B8D",
"d,	c #20688C",
"e,	c #225B79",
"f,	c #284756",
"g,	c #1B3948",
"h,	c #1D3744",
"i,	c #1C333E",
"j,	c #071016",
"k,	c #0E1C24",
"l,	c #1B2932",
"m,	c #182830",
"n,	c #182A33",
"o,	c #182A34",
"p,	c #19323F",
"q,	c #183240",
"r,	c #173240",
"s,	c #152E3C",
"t,	c #1A3646",
"u,	c #173648",
"v,	c #163647",
"w,	c #153445",
"x,	c #183A4D",
"y,	c #173A4E",
"z,	c #15384B",
"A,	c #163749",
"B,	c #15384D",
"C,	c #1C4359",
"D,	c #163C51",
"E,	c #133A4F",
"F,	c #154158",
"G,	c #144258",
"H,	c #133F55",
"I,	c #123F55",
"J,	c #154258",
"K,	c #164056",
"L,	c #154055",
"M,	c #154057",
"N,	c #143E55",
"O,	c #163F55",
"P,	c #123B52",
"Q,	c #144057",
"R,	c #133B4F",
"S,	c #12384C",
"T,	c #153B4F",
"U,	c #13374A",
"V,	c #143749",
"W,	c #133344",
"X,	c #153C4F",
"Y,	c #103445",
"Z,	c #133446",
"`,	c #113244",
" '	c #123445",
".'	c #13303F",
"+'	c #142E3D",
"@'	c #152C39",
"#'	c #162D3A",
"$'	c #162C3A",
"%'	c #152935",
"&'	c #14242D",
"*'	c #162732",
"='	c #172832",
"-'	c #17262E",
";'	c #17232A",
">'	c #172229",
",'	c #141D22",
"''	c #172128",
")'	c #131C20",
"!'	c #030507",
"~'	c #11181C",
"{'	c #040608",
"]'	c #0B1216",
"^'	c #1A292F",
"/'	c #1F2F38",
"('	c #16242C",
"_'	c #0F191E",
":'	c #080E11",
"<'	c #0D181E",
"['	c #213D4A",
"}'	c #1D3847",
"|'	c #1B3A49",
"1'	c #194052",
"2'	c #174358",
"3'	c #194C64",
"4'	c #164E67",
"5'	c #165471",
"6'	c #175A78",
"7'	c #185A79",
"8'	c #145977",
"9'	c #145875",
"0'	c #195E7C",
"a'	c #185D7A",
"b'	c #175B79",
"c'	c #165A78",
"d'	c #155B7A",
"e'	c #185E7D",
"f'	c #155B7B",
"g'	c #165A79",
"h'	c #185A7A",
"i'	c #195471",
"j'	c #17516C",
"k'	c #184F6A",
"l'	c #1B516B",
"m'	c #1A4B62",
"n'	c #1B4358",
"o'	c #1D3F52",
"p'	c #1E3D4C",
"q'	c #1A3340",
"r'	c #193240",
"s'	c #112129",
"t'	c #070F14",
"u'	c #0C161C",
"v'	c #0A1316",
"w'	c #203039",
"x'	c #1B2C33",
"y'	c #1F3843",
"z'	c #23404C",
"A'	c #1D3944",
"B'	c #1F3F4C",
"C'	c #224353",
"D'	c #173845",
"E'	c #1E4654",
"F'	c #1A4553",
"G'	c #1B4757",
"H'	c #194657",
"I'	c #1A4C5D",
"J'	c #184A5A",
"K'	c #1B5062",
"L'	c #184D5E",
"M'	c #184E5E",
"N'	c #1D5666",
"O'	c #1C5261",
"P'	c #1C4E5D",
"Q'	c #1F5767",
"R'	c #225A6B",
"S'	c #205766",
"T'	c #1F5969",
"U'	c #1D5969",
"V'	c #1E5C6C",
"W'	c #1E5867",
"X'	c #1B5464",
"Y'	c #195564",
"Z'	c #185667",
"`'	c #175567",
" )	c #175565",
".)	c #185465",
"+)	c #164F60",
"@)	c #184F61",
"#)	c #154A5C",
"$)	c #134859",
"%)	c #124A5B",
"&)	c #134454",
"*)	c #184656",
"=)	c #153E4E",
"-)	c #163E4E",
";)	c #143B4A",
">)	c #144457",
",)	c #124051",
"')	c #123D4E",
"))	c #143B4B",
"!)	c #153B4A",
"~)	c #173B49",
"{)	c #1A3B4A",
"])	c #16323E",
"^)	c #1A3744",
"/)	c #1A313C",
"()	c #1C333F",
"_)	c #1C313B",
":)	c #192A32",
"<)	c #1B272D",
"[)	c #172127",
"})	c #172226",
"|)	c #060A0C",
"1)	c #090E11",
"2)	c #405359",
"3)	c #162024",
"4)	c #080F11",
"5)	c #060A0D",
"6)	c #172830",
"7)	c #20333D",
"8)	c #1D3845",
"9)	c #1E3947",
"0)	c #1D3A49",
"a)	c #1A3F51",
"b)	c #1A4357",
"c)	c #194357",
"d)	c #1A4A61",
"e)	c #184B63",
"f)	c #174C65",
"g)	c #194C65",
"h)	c #1A4F68",
"i)	c #184C64",
"j)	c #1C536C",
"k)	c #194F67",
"l)	c #1B506A",
"m)	c #1A516A",
"n)	c #1A5069",
"o)	c #194F68",
"p)	c #184F67",
"q)	c #1A506A",
"r)	c #194A61",
"s)	c #194961",
"t)	c #194358",
"u)	c #184256",
"v)	c #1A3F52",
"w)	c #193A4A",
"x)	c #193646",
"y)	c #193340",
"z)	c #192F3B",
"A)	c #1E3744",
"B)	c #13242C",
"C)	c #0B141B",
"D)	c #13232B",
"E)	c #314754",
"F)	c #3A515C",
"G)	c #293E48",
"H)	c #354B55",
"I)	c #2D424C",
"J)	c #314751",
"K)	c #314852",
"L)	c #2F4550",
"M)	c #2E4550",
"N)	c #375968",
"O)	c #335666",
"P)	c #385D6F",
"Q)	c #325362",
"R)	c #345C6D",
"S)	c #3D6B80",
"T)	c #2F5D72",
"U)	c #366F85",
"V)	c #306A80",
"W)	c #316E86",
"X)	c #2F6E86",
"Y)	c #2F7189",
"Z)	c #2C6D85",
"`)	c #30748B",
" !	c #2C758E",
".!	c #2D768E",
"+!	c #2D7B93",
"@!	c #2F7F97",
"#!	c #307C96",
"$!	c #32849D",
"%!	c #3687A0",
"&!	c #35859D",
"*!	c #338AA3",
"=!	c #308AA3",
"-!	c #2F8CA7",
";!	c #308DA6",
">!	c #2E8DA7",
",!	c #2D8BA5",
"'!	c #2D8DA9",
")!	c #2C89A5",
"!!	c #2C88A4",
"~!	c #2D87A3",
"{!	c #2A7D97",
"]!	c #2E829F",
"^!	c #2E7D98",
"/!	c #2A768F",
"(!	c #25748E",
"_!	c #2B6D86",
":!	c #2F748F",
"<!	c #27647D",
"[!	c #2A617A",
"}!	c #2C5C72",
"|!	c #2D728F",
"1!	c #245C73",
"2!	c #235C73",
"3!	c #295C73",
"4!	c #27586E",
"5!	c #2A5B71",
"6!	c #33647A",
"7!	c #2B5161",
"8!	c #305669",
"9!	c #304F5E",
"0!	c #325161",
"a!	c #314F5E",
"b!	c #2E4551",
"c!	c #344B56",
"d!	c #324955",
"e!	c #2A3D47",
"f!	c #2C404A",
"g!	c #2C4049",
"h!	c #30434C",
"i!	c #26373E",
"j!	c #283940",
"k!	c #24353C",
"l!	c #26363E",
"m!	c #050609",
"n!	c #0A0F13",
"o!	c #101A20",
"p!	c #3A535D",
"q!	c #405A65",
"r!	c #1F2F36",
"s!	c #080E12",
"t!	c #1D2E38",
"u!	c #1D3542",
"v!	c #1B3441",
"w!	c #184054",
"x!	c #194459",
"y!	c #1B4A60",
"z!	c #194A63",
"A!	c #1A4D65",
"B!	c #1A4D67",
"C!	c #184D67",
"D!	c #184E68",
"E!	c #18506A",
"F!	c #18516C",
"G!	c #1A546F",
"H!	c #1B5471",
"I!	c #184D68",
"J!	c #1B5673",
"K!	c #195470",
"L!	c #174F6A",
"M!	c #18506B",
"N!	c #1D536E",
"O!	c #1B4D66",
"P!	c #194C67",
"Q!	c #194B66",
"R!	c #1A455D",
"S!	c #184157",
"T!	c #194056",
"U!	c #1C4054",
"V!	c #193647",
"W!	c #1A3543",
"X!	c #1F3A49",
"Y!	c #182933",
"Z!	c #0A1219",
"`!	c #14222A",
" ~	c #35505E",
".~	c #243740",
"+~	c #1F3037",
"@~	c #22343D",
"#~	c #283B44",
"$~	c #2B3F48",
"%~	c #2A3D46",
"&~	c #2C3F49",
"*~	c #2E434F",
"=~	c #2D4450",
"-~	c #2A414E",
";~	c #305262",
">~	c #2B4959",
",~	c #2C4E5F",
"'~	c #2B4E60",
")~	c #2E5468",
"!~	c #2A4F61",
"~~	c #295062",
"{~	c #295164",
"]~	c #295368",
"^~	c #2A566D",
"/~	c #28556A",
"(~	c #255369",
"_~	c #255D76",
":~	c #25607A",
"<~	c #25607B",
"[~	c #245F7A",
"}~	c #255F7A",
"|~	c #255F7B",
"1~	c #246380",
"2~	c #226683",
"3~	c #20617D",
"4~	c #236684",
"5~	c #276786",
"6~	c #25617C",
"7~	c #25607D",
"8~	c #265F7A",
"9~	c #265C76",
"0~	c #255974",
"a~	c #255871",
"b~	c #26556B",
"c~	c #26546B",
"d~	c #275065",
"e~	c #285268",
"f~	c #275165",
"g~	c #284E61",
"h~	c #284B5D",
"i~	c #294C5E",
"j~	c #244555",
"k~	c #264757",
"l~	c #264555",
"m~	c #284555",
"n~	c #294452",
"o~	c #273D48",
"p~	c #2A404A",
"q~	c #2A3E48",
"r~	c #263942",
"s~	c #293C45",
"t~	c #23353D",
"u~	c #24353E",
"v~	c #25343B",
"w~	c #202D32",
"x~	c #020206",
"y~	c #050709",
"z~	c #0C1215",
"A~	c #263B45",
"B~	c #405E6C",
"C~	c #060D11",
"D~	c #0E1B23",
"E~	c #11212A",
"F~	c #0E1D26",
"G~	c #0F202A",
"H~	c #10232D",
"I~	c #0F2836",
"J~	c #0E2836",
"K~	c #0D2B3C",
"L~	c #0E2C3D",
"M~	c #0D2C3E",
"N~	c #0C2E40",
"O~	c #0C2E3F",
"P~	c #0A3145",
"Q~	c #0A3043",
"R~	c #092C3F",
"S~	c #092C3E",
"T~	c #0A3347",
"U~	c #0A3045",
"V~	c #0A2D40",
"W~	c #0C3346",
"X~	c #0A2E41",
"Y~	c #0B3042",
"Z~	c #0C3043",
"`~	c #0D2F41",
" {	c #0C3144",
".{	c #0F2D3F",
"+{	c #0B2736",
"@{	c #0E2939",
"#{	c #0F2938",
"${	c #0D212C",
"%{	c #0E222C",
"&{	c #11242F",
"*{	c #11212B",
"={	c #0E181F",
"-{	c #070C11",
";{	c #121F26",
">{	c #334E5B",
",{	c #273A43",
"'{	c #202F35",
"){	c #30444E",
"!{	c #2A3F48",
"~{	c #293E47",
"{{	c #283A44",
"]{	c #2D414A",
"^{	c #2B404A",
"/{	c #2A3D48",
"({	c #2A404B",
"_{	c #2A414D",
":{	c #2B4858",
"<{	c #2D4C5E",
"[{	c #2B4D5E",
"}{	c #2B5062",
"|{	c #2A4E61",
"1{	c #274D60",
"2{	c #284E63",
"3{	c #285064",
"4{	c #285369",
"5{	c #285267",
"6{	c #25556C",
"7{	c #25566C",
"8{	c #255A73",
"9{	c #235D76",
"0{	c #225B74",
"a{	c #235C76",
"b{	c #245F7B",
"c{	c #225E7B",
"d{	c #215F7B",
"e{	c #23607B",
"f{	c #23607C",
"g{	c #245C76",
"h{	c #27607B",
"i{	c #23546C",
"j{	c #23546B",
"k{	c #24566E",
"l{	c #245369",
"m{	c #234F65",
"n{	c #274F64",
"o{	c #284F62",
"p{	c #274C5F",
"q{	c #274A5D",
"r{	c #27495B",
"s{	c #254757",
"t{	c #244454",
"u{	c #264252",
"v{	c #25404F",
"w{	c #263E4C",
"x{	c #253C48",
"y{	c #263C48",
"z{	c #263C47",
"A{	c #263A44",
"B{	c #263943",
"C{	c #243741",
"D{	c #273944",
"E{	c #24343C",
"F{	c #223037",
"G{	c #26353D",
"H{	c #24333A",
"I{	c #070E13",
"J{	c #0A1114",
"K{	c #090C0F",
"L{	c #050708",
"M{	c #0E1519",
"N{	c #2C4957",
"O{	c #050D10",
"P{	c #091319",
"Q{	c #0D1A22",
"R{	c #0B1921",
"S{	c #0D1E27",
"T{	c #0B1C26",
"U{	c #0B1E29",
"V{	c #0C212E",
"W{	c #091E2A",
"X{	c #081E2B",
"Y{	c #07202E",
"Z{	c #07202F",
"`{	c #082334",
" ]	c #082231",
".]	c #082536",
"+]	c #062739",
"@]	c #052537",
"#]	c #062436",
"$]	c #052435",
"%]	c #06283A",
"&]	c #062637",
"*]	c #06293B",
"=]	c #052638",
"-]	c #062538",
";]	c #062434",
">]	c #062232",
",]	c #082435",
"']	c #082332",
")]	c #072537",
"!]	c #072231",
"~]	c #0A2230",
"{]	c #092230",
"]]	c #091D2A",
"^]	c #091C27",
"/]	c #0B1B26",
"(]	c #0A1820",
"_]	c #0B171F",
":]	c #070E14",
"<]	c #111E25",
"[]	c #283E49",
"}]	c #334A55",
"|]	c #2D424A",
"1]	c #2A3E47",
"2]	c #2C414B",
"3]	c #2C424C",
"4]	c #2B3F4B",
"5]	c #2B424E",
"6]	c #283E4B",
"7]	c #2B4552",
"8]	c #2A4656",
"9]	c #2B4B5C",
"0]	c #2B4D5F",
"a]	c #2B4E5F",
"b]	c #274B5D",
"c]	c #274E61",
"d]	c #285063",
"e]	c #29556A",
"f]	c #244E62",
"g]	c #235066",
"h]	c #24556D",
"i]	c #225870",
"j]	c #21576F",
"k]	c #205770",
"l]	c #235872",
"m]	c #245B76",
"n]	c #245C77",
"o]	c #225B76",
"p]	c #235D77",
"q]	c #225A74",
"r]	c #235E79",
"s]	c #235A73",
"t]	c #265B74",
"u]	c #265C74",
"v]	c #24586F",
"w]	c #24556B",
"x]	c #235269",
"y]	c #214E62",
"z]	c #224D62",
"A]	c #254D61",
"B]	c #264D60",
"C]	c #24485B",
"D]	c #244658",
"E]	c #274A5C",
"F]	c #234557",
"G]	c #234150",
"H]	c #253E4C",
"I]	c #233C49",
"J]	c #233B47",
"K]	c #243B47",
"L]	c #253944",
"M]	c #23353F",
"N]	c #20303A",
"O]	c #0C1318",
"P]	c #223038",
"Q]	c #0E1317",
"R]	c #020405",
"S]	c #05080A",
"T]	c #010202",
"U]	c #354B57",
"V]	c #070D10",
"W]	c #060D12",
"X]	c #070F13",
"Y]	c #070F15",
"Z]	c #071219",
"`]	c #08171F",
" ^	c #081721",
".^	c #081822",
"+^	c #071923",
"@^	c #061722",
"#^	c #051824",
"$^	c #041824",
"%^	c #041825",
"&^	c #031724",
"*^	c #031826",
"=^	c #041B29",
"-^	c #041A28",
";^	c #021927",
">^	c #031A28",
",^	c #031C2A",
"'^	c #031A29",
")^	c #041D2B",
"!^	c #031927",
"~^	c #041927",
"{^	c #041724",
"]^	c #061C29",
"^^	c #05202F",
"/^	c #051D2A",
"(^	c #061A26",
"_^	c #071A26",
":^	c #081A25",
"<^	c #071721",
"[^	c #07161F",
"}^	c #09171F",
"|^	c #071017",
"1^	c #05090D",
"2^	c #060C10",
"3^	c #15232B",
"4^	c #405C68",
"5^	c #2B3D46",
"6^	c #2B414A",
"7^	c #2C424D",
"8^	c #2B424D",
"9^	c #375361",
"0^	c #2C4652",
"a^	c #2F4D5C",
"b^	c #2D4C5C",
"c^	c #2E5264",
"d^	c #325F74",
"e^	c #2C576C",
"f^	c #2E5C74",
"g^	c #2B5D76",
"h^	c #2D607A",
"i^	c #2F6A84",
"j^	c #2C6781",
"k^	c #2A6884",
"l^	c #296D8A",
"m^	c #2A7290",
"n^	c #2A728E",
"o^	c #266D8B",
"p^	c #26708E",
"q^	c #28718E",
"r^	c #276E8B",
"s^	c #287593",
"t^	c #226A87",
"u^	c #297897",
"v^	c #28728F",
"w^	c #286E8A",
"x^	c #2D738F",
"y^	c #276B87",
"z^	c #276B88",
"A^	c #266784",
"B^	c #29637D",
"C^	c #296480",
"D^	c #276681",
"E^	c #25617D",
"F^	c #275D76",
"G^	c #276582",
"H^	c #296885",
"I^	c #26556C",
"J^	c #275267",
"K^	c #2A5369",
"L^	c #254C60",
"M^	c #214456",
"N^	c #264A5E",
"O^	c #294E61",
"P^	c #254759",
"Q^	c #28485A",
"R^	c #294656",
"S^	c #27404F",
"T^	c #28414F",
"U^	c #27404E",
"V^	c #273D4A",
"W^	c #284150",
"X^	c #273E4C",
"Y^	c #253741",
"Z^	c #2B3E48",
"`^	c #2D404A",
" /	c #2C3E48",
"./	c #091014",
"+/	c #273841",
"@/	c #0B1012",
"#/	c #070A0C",
"$/	c #040607",
"%/	c #203037",
"&/	c #324D59",
"*/	c #070E11",
"=/	c #050B0E",
"-/	c #091217",
";/	c #0C171E",
">/	c #0B161C",
",/	c #0A151B",
"'/	c #0A161D",
")/	c #0A1A23",
"!/	c #0B1F2B",
"~/	c #081C26",
"{/	c #091E29",
"]/	c #081F2B",
"^/	c #0A202C",
"//	c #0A202D",
"(/	c #09202D",
"_/	c #09222F",
":/	c #0C2330",
"</	c #0B2330",
"[/	c #0B222F",
"}/	c #0A1D29",
"|/	c #0A1E2A",
"1/	c #091D29",
"2/	c #081B26",
"3/	c #071B25",
"4/	c #071A24",
"5/	c #0A1A24",
"6/	c #0A1720",
"7/	c #0A171F",
"8/	c #0A151C",
"9/	c #0A141A",
"0/	c #0A1319",
"a/	c #0C151A",
"b/	c #091116",
"c/	c #16252D",
"d/	c #253B47",
"e/	c #273C46",
"f/	c #283C45",
"g/	c #293A44",
"h/	c #2A3C45",
"i/	c #2D3F48",
"j/	c #2D3F47",
"k/	c #374B55",
"l/	c #131E23",
"m/	c #0F181D",
"n/	c #0E1A1F",
"o/	c #0B171B",
"p/	c #0D1A20",
"q/	c #0D1A21",
"r/	c #0A1920",
"s/	c #0A1A21",
"t/	c #07151C",
"u/	c #07161D",
"v/	c #081B24",
"w/	c #081A22",
"x/	c #081D27",
"y/	c #071E28",
"z/	c #07202C",
"A/	c #08202B",
"B/	c #09212C",
"C/	c #08202A",
"D/	c #07202A",
"E/	c #07212C",
"F/	c #07212B",
"G/	c #051F2A",
"H/	c #051D27",
"I/	c #07202B",
"J/	c #08212B",
"K/	c #08222C",
"L/	c #061D26",
"M/	c #061E28",
"N/	c #061E27",
"O/	c #071B23",
"P/	c #081C25",
"Q/	c #071A22",
"R/	c #061822",
"S/	c #081A23",
"T/	c #061923",
"U/	c #05161F",
"V/	c #06161F",
"W/	c #08151C",
"X/	c #071218",
"Y/	c #071118",
"Z/	c #071319",
"`/	c #071117",
" (	c #081217",
".(	c #081318",
"+(	c #0A1419",
"@(	c #09141A",
"#(	c #071217",
"$(	c #080F14",
"%(	c #0A1217",
"&(	c #0C161A",
"*(	c #0C161B",
"=(	c #1F2B32",
"-(	c #1C272E",
";(	c #23363F",
">(	c #0B0F12",
",(	c #06090D",
"'(	c #06090B",
")(	c #10191E",
"!(	c #2D4753",
"~(	c #091015",
"{(	c #111B22",
"](	c #122029",
"^(	c #0F1E26",
"/(	c #13262F",
"((	c #11242E",
"_(	c #102734",
":(	c #0F2B3A",
"<(	c #0F2C3B",
"[(	c #0F2D3D",
"}(	c #0D2936",
"|(	c #123648",
"1(	c #123547",
"2(	c #0F3142",
"3(	c #133749",
"4(	c #0F2E3D",
"5(	c #0E2D3D",
"6(	c #0E2734",
"7(	c #102B39",
"8(	c #0F2B38",
"9(	c #112C3B",
"0(	c #0F2834",
"a(	c #112937",
"b(	c #10212B",
"c(	c #11222B",
"d(	c #101F28",
"e(	c #102028",
"f(	c #111E26",
"g(	c #0F1A20",
"h(	c #0C171D",
"i(	c #0A1115",
"j(	c #15232A",
"k(	c #2F4753",
"l(	c #283A43",
"m(	c #283A42",
"n(	c #2A3E46",
"o(	c #2D3E46",
"p(	c #27373F",
"q(	c #293D46",
"r(	c #2D4551",
"s(	c #0D1A1F",
"t(	c #081218",
"u(	c #080F13",
"v(	c #050C10",
"w(	c #040A0D",
"x(	c #03080A",
"y(	c #04090D",
"z(	c #050A0F",
"A(	c #050A0E",
"B(	c #040A0E",
"C(	c #060E13",
"D(	c #060E14",
"E(	c #050E12",
"F(	c #050D12",
"G(	c #050D11",
"H(	c #03090D",
"I(	c #040A0F",
"J(	c #040B10",
"K(	c #050C12",
"L(	c #050C11",
"M(	c #040C10",
"N(	c #03080C",
"O(	c #060B0F",
"P(	c #081013",
"Q(	c #070E12",
"R(	c #050B0F",
"S(	c #070D11",
"T(	c #070E10",
"U(	c #080D10",
"V(	c #05080B",
"W(	c #05090B",
"X(	c #05090C",
"Y(	c #040708",
"Z(	c #04080A",
"`(	c #0E171C",
" _	c #080D11",
"._	c #0D1114",
"+_	c #020304",
"@_	c #030404",
"#_	c #38525F",
"$_	c #101B21",
"%_	c #12232C",
"&_	c #192A34",
"*_	c #203744",
"=_	c #1D333F",
"-_	c #1E3541",
";_	c #1D3442",
">_	c #19313F",
",_	c #1C3D51",
"'_	c #1B3E53",
")_	c #183C51",
"!_	c #163C53",
"~_	c #184560",
"{_	c #1A4F6A",
"]_	c #1A4D68",
"^_	c #184F6C",
"/_	c #174F6C",
"(_	c #19506C",
"__	c #19506D",
":_	c #1B4D65",
"<_	c #1D4B62",
"[_	c #193F52",
"}_	c #19445B",
"|_	c #1A3F54",
"1_	c #173B4F",
"2_	c #193D53",
"3_	c #173545",
"4_	c #1E3643",
"5_	c #112029",
"6_	c #0B1317",
"7_	c #142128",
"8_	c #33505E",
"9_	c #283E47",
"0_	c #293E46",
"a_	c #293B44",
"b_	c #283E4A",
"c_	c #14232A",
"d_	c #091115",
"e_	c #0E161C",
"f_	c #0F161B",
"g_	c #0E151A",
"h_	c #0D151A",
"i_	c #0E171D",
"j_	c #10181E",
"k_	c #0E181E",
"l_	c #0E1920",
"m_	c #0D181F",
"n_	c #101B22",
"o_	c #0E1921",
"p_	c #0D1820",
"q_	c #0D1821",
"r_	c #0C171F",
"s_	c #0C1820",
"t_	c #0D1921",
"u_	c #0E1A22",
"v_	c #0D1A23",
"w_	c #0D1B25",
"x_	c #0F1B24",
"y_	c #101C25",
"z_	c #111C24",
"A_	c #0F1B23",
"B_	c #0F1A22",
"C_	c #0E1A21",
"D_	c #0F171E",
"E_	c #0D151C",
"F_	c #0B1115",
"G_	c #1C2C34",
"H_	c #1E2C35",
"I_	c #090F13",
"J_	c #253841",
"K_	c #06090A",
"L_	c #2F434D",
"M_	c #101C22",
"N_	c #1B2E38",
"O_	c #192831",
"P_	c #1F333D",
"Q_	c #203541",
"R_	c #213946",
"S_	c #1E3642",
"T_	c #1F3846",
"U_	c #204051",
"V_	c #1F3F50",
"W_	c #1E4152",
"X_	c #1E4255",
"Y_	c #1C4254",
"Z_	c #1C3F52",
"`_	c #1A3D4D",
" :	c #1A3E4F",
".:	c #1B3E4E",
"+:	c #1C3D4D",
"@:	c #1F4052",
"#:	c #1F3C4C",
"$:	c #1F3A4A",
"%:	c #203A49",
"&:	c #203845",
"*:	c #192B34",
"=:	c #13232D",
"-:	c #0A1116",
";:	c #142126",
">:	c #385867",
",:	c #293F49",
"':	c #293C44",
"):	c #293C46",
"!:	c #375561",
"~:	c #0D1417",
"{:	c #162128",
"]:	c #0D1920",
"^:	c #0B1B23",
"/:	c #0C1B24",
"(:	c #0A1C26",
"_:	c #091A24",
"::	c #0E202B",
"<:	c #0F1D27",
"[:	c #0C1A24",
"}:	c #0B1C27",
"|:	c #0A1D28",
"1:	c #0A1F2D",
"2:	c #0A1F2C",
"3:	c #0A2231",
"4:	c #0A2333",
"5:	c #0B1F2C",
"6:	c #0B202D",
"7:	c #0A202E",
"8:	c #0A212F",
"9:	c #0D2635",
"0:	c #092332",
"a:	c #092331",
"b:	c #09202E",
"c:	c #0A212E",
"d:	c #0B212E",
"e:	c #0C1F2B",
"f:	c #091D28",
"g:	c #0B1B25",
"h:	c #0B1D28",
"i:	c #091B25",
"j:	c #0A1B26",
"k:	c #0B1A23",
"l:	c #0A1A25",
"m:	c #0A1C27",
"n:	c #05141F",
"o:	c #06141F",
"p:	c #06141C",
"q:	c #091820",
"r:	c #0C1A23",
"s:	c #0C1B26",
"t:	c #0B1821",
"u:	c #0C1821",
"v:	c #0B1720",
"w:	c #0B181F",
"x:	c #0B1418",
"y:	c #10171D",
"z:	c #080C11",
"A:	c #030406",
"B:	c #030607",
"C:	c #131C21",
"D:	c #395B6B",
"E:	c #050A0D",
"F:	c #0F1B20",
"G:	c #223944",
"H:	c #203947",
"I:	c #214151",
"J:	c #204152",
"K:	c #1F4151",
"L:	c #204354",
"M:	c #214253",
"N:	c #1F4253",
"O:	c #204253",
"P:	c #204456",
"Q:	c #1D3F4F",
"R:	c #1F4050",
"S:	c #214354",
"T:	c #1F3D4C",
"U:	c #203E4E",
"V:	c #1F3A48",
"W:	c #203642",
"X:	c #223945",
"Y:	c #20353F",
"Z:	c #203540",
"`:	c #17262F",
" <	c #131F25",
".<	c #0A1216",
"+<	c #375565",
"@<	c #2C4048",
"#<	c #283C46",
"$<	c #162229",
"%<	c #2E424C",
"&<	c #091216",
"*<	c #15252C",
"=<	c #031722",
"-<	c #020A12",
";<	c #010A12",
"><	c #010E18",
",<	c #010E19",
"'<	c #01101C",
")<	c #000F1B",
"!<	c #000B16",
"~<	c #010A13",
"{<	c #02111D",
"]<	c #011625",
"^<	c #011A2B",
"/<	c #011A2C",
"(<	c #01192A",
"_<	c #001728",
":<	c #011728",
"<<	c #011627",
"[<	c #011829",
"}<	c #011727",
"|<	c #00182A",
"1<	c #01192B",
"2<	c #001627",
"3<	c #00111F",
"4<	c #001220",
"5<	c #001322",
"6<	c #01111F",
"7<	c #000F1D",
"8<	c #010F1A",
"9<	c #010C17",
"0<	c #000B15",
"a<	c #02121E",
"b<	c #01101B",
"c<	c #010F1B",
"d<	c #010D18",
"e<	c #010D17",
"f<	c #010A14",
"g<	c #010B15",
"h<	c #010B13",
"i<	c #010C16",
"j<	c #020F19",
"k<	c #020E19",
"l<	c #020E18",
"m<	c #02070E",
"n<	c #031829",
"o<	c #09141B",
"p<	c #142129",
"q<	c #04070B",
"r<	c #1F313A",
"s<	c #33474E",
"t<	c #090E10",
"u<	c #06090C",
"v<	c #121A1E",
"w<	c #223741",
"x<	c #3B5F6F",
"y<	c #101C23",
"z<	c #213844",
"A<	c #203743",
"B<	c #204151",
"C<	c #1D3E4E",
"D<	c #204050",
"E<	c #203E4F",
"F<	c #203D4C",
"G<	c #233C4A",
"H<	c #243B46",
"I<	c #253A44",
"J<	c #223641",
"K<	c #18272F",
"L<	c #17242B",
"M<	c #2E4755",
"N<	c #283B45",
"O<	c #2A3F49",
"P<	c #0C1519",
"Q<	c #1A2930",
"R<	c #061E2C",
"S<	c #032D45",
"T<	c #010910",
"U<	c #01070E",
"V<	c #01080E",
"W<	c #010810",
"X<	c #010811",
"Y<	c #010911",
"Z<	c #000A14",
"`<	c #000C18",
" [	c #000D19",
".[	c #000E1B",
"+[	c #00101E",
"@[	c #01101E",
"#[	c #010F1D",
"$[	c #011221",
"%[	c #011120",
"&[	c #011220",
"*[	c #010E1A",
"=[	c #000D18",
"-[	c #000D17",
";[	c #010B14",
">[	c #020B14",
",[	c #020E17",
"'[	c #01080F",
")[	c #00080F",
"![	c #01070F",
"~[	c #021525",
"{[	c #021A2C",
"][	c #0D1A24",
"^[	c #152129",
"/[	c #0D171C",
"([	c #101D23",
"_[	c #202D35",
":[	c #27363D",
"<[	c #243944",
"[[	c #395E6E",
"}[	c #16252B",
"|[	c #1D323D",
"1[	c #1D2E39",
"2[	c #21353F",
"3[	c #213744",
"4[	c #1E3440",
"5[	c #1F3E4E",
"6[	c #1F3A47",
"7[	c #223946",
"8[	c #233741",
"9[	c #18262E",
"0[	c #131D24",
"a[	c #152128",
"b[	c #304B58",
"c[	c #273840",
"d[	c #415E6B",
"e[	c #0D1518",
"f[	c #041522",
"g[	c #032F49",
"h[	c #020B13",
"i[	c #010A11",
"j[	c #020D14",
"k[	c #020910",
"l[	c #020C15",
"m[	c #020D16",
"n[	c #010D16",
"o[	c #01111C",
"p[	c #010F1C",
"q[	c #011423",
"r[	c #011322",
"s[	c #011222",
"t[	c #001729",
"u[	c #001526",
"v[	c #011729",
"w[	c #011626",
"x[	c #011424",
"y[	c #011320",
"z[	c #01111E",
"A[	c #01101D",
"B[	c #03101A",
"C[	c #03111C",
"D[	c #02111C",
"E[	c #02101B",
"F[	c #02111B",
"G[	c #030E18",
"H[	c #010F19",
"I[	c #01090F",
"J[	c #020A10",
"K[	c #030B11",
"L[	c #010B17",
"M[	c #011E34",
"N[	c #0E161B",
"O[	c #0B1015",
"P[	c #060B0D",
"Q[	c #020203",
"R[	c #344F5D",
"S[	c #0F1B21",
"T[	c #1A2B34",
"U[	c #20343E",
"V[	c #203946",
"W[	c #1F3945",
"X[	c #1F3948",
"Y[	c #1F3D4E",
"Z[	c #223A47",
"`[	c #17252D",
" }	c #2F4653",
".}	c #2E424B",
"+}	c #273B44",
"@}	c #3B5764",
"#}	c #081015",
"$}	c #15252D",
"%}	c #052336",
"&}	c #022641",
"*}	c #010C14",
"=}	c #010A10",
"-}	c #020C13",
";}	c #020B12",
">}	c #020F1A",
",}	c #03111B",
"'}	c #03111A",
")}	c #02101A",
"!}	c #011420",
"~}	c #01121E",
"{}	c #01131F",
"]}	c #011624",
"^}	c #011928",
"/}	c #001929",
"(}	c #001D2F",
"_}	c #001D30",
":}	c #001E32",
"<}	c #002035",
"[}	c #001F36",
"}}	c #00223B",
"|}	c #002743",
"1}	c #002742",
"2}	c #002641",
"3}	c #002844",
"4}	c #00253F",
"5}	c #002238",
"6}	c #021E30",
"7}	c #011D2F",
"8}	c #011C2E",
"9}	c #021B2C",
"0}	c #011726",
"a}	c #010C13",
"b}	c #020C14",
"c}	c #020F18",
"d}	c #020A11",
"e}	c #02090F",
"f}	c #02080F",
"g}	c #0C141A",
"h}	c #081118",
"i}	c #2A424D",
"j}	c #233539",
"k}	c #090F10",
"l}	c #365360",
"m}	c #142026",
"n}	c #1A282F",
"o}	c #1C2F38",
"p}	c #20333F",
"q}	c #1F3540",
"r}	c #1F3743",
"s}	c #1B3745",
"t}	c #203D4D",
"u}	c #203D4B",
"v}	c #1E3C4B",
"w}	c #1F3C4A",
"x}	c #213E4E",
"y}	c #213B49",
"z}	c #22353F",
"A}	c #18262D",
"B}	c #090E13",
"C}	c #152127",
"D}	c #314955",
"E}	c #2D4049",
"F}	c #111C21",
"G}	c #032E47",
"H}	c #00080E",
"I}	c #01080D",
"J}	c #01070D",
"K}	c #00050A",
"L}	c #00070D",
"M}	c #00070E",
"N}	c #00070F",
"O}	c #000910",
"P}	c #000A13",
"Q}	c #000C17",
"R}	c #000E1A",
"S}	c #000F1C",
"T}	c #001422",
"U}	c #001B2E",
"V}	c #001C32",
"W}	c #001A2F",
"X}	c #001A2E",
"Y}	c #000A11",
"Z}	c #000911",
"`}	c #000810",
" |	c #01060C",
".|	c #02070D",
"+|	c #021522",
"@|	c #02080D",
"#|	c #02070C",
"$|	c #031926",
"%|	c #030A11",
"&|	c #131F26",
"*|	c #0B161E",
"=|	c #27404C",
"-|	c #2F3D41",
";|	c #090F11",
">|	c #090D0F",
",|	c #030506",
"'|	c #34505D",
")|	c #1B2A33",
"!|	c #21333D",
"~|	c #203846",
"{|	c #1F3744",
"]|	c #1E3948",
"^|	c #192F3A",
"/|	c #213A48",
"(|	c #213945",
"_|	c #20323C",
":|	c #17242C",
"<|	c #121C23",
"[|	c #2E4651",
"}|	c #314A56",
"||	c #0E1A20",
"1|	c #0B151A",
"2|	c #143243",
"3|	c #00050B",
"4|	c #01121F",
"5|	c #00101C",
"6|	c #00101D",
"7|	c #001221",
"8|	c #001626",
"9|	c #001829",
"0|	c #00192D",
"a|	c #012035",
"b|	c #002039",
"c|	c #00223C",
"d|	c #00233D",
"e|	c #002642",
"f|	c #002B4B",
"g|	c #002138",
"h|	c #002E4D",
"i|	c #002D4C",
"j|	c #002845",
"k|	c #001F39",
"l|	c #002038",
"m|	c #00182B",
"n|	c #001A2D",
"o|	c #001C2E",
"p|	c #001B2F",
"q|	c #011421",
"r|	c #000E19",
"s|	c #011422",
"t|	c #02121F",
"u|	c #010912",
"v|	c #02131F",
"w|	c #062233",
"x|	c #0A1016",
"y|	c #25414E",
"z|	c #354348",
"A|	c #0B1316",
"B|	c #111A1E",
"C|	c #36505D",
"D|	c #1E2F39",
"E|	c #1C323D",
"F|	c #1E3846",
"G|	c #192E38",
"H|	c #203A48",
"I|	c #1F3B48",
"J|	c #1E3946",
"K|	c #203A46",
"L|	c #20333C",
"M|	c #21333C",
"N|	c #101A21",
"O|	c #2D4550",
"P|	c #2E434B",
"Q|	c #314A57",
"R|	c #0A1317",
"S|	c #16232B",
"T|	c #143041",
"U|	c #00111E",
"V|	c #000C15",
"W|	c #001321",
"X|	c #011321",
"Y|	c #001D31",
"Z|	c #00233B",
"`|	c #003051",
" 1	c #013553",
".1	c #00385E",
"+1	c #024C78",
"@1	c #03527C",
"#1	c #034B74",
"$1	c #01395D",
"%1	c #002E50",
"&1	c #002E4E",
"*1	c #012C49",
"=1	c #01233A",
"-1	c #001726",
";1	c #011B2C",
">1	c #010C15",
",1	c #000811",
"'1	c #032336",
")1	c #152833",
"!1	c #0A1218",
"~1	c #23414E",
"{1	c #1C2C35",
"]1	c #081116",
"^1	c #020306",
"/1	c #111A1D",
"(1	c #1D2A31",
"_1	c #39515C",
":1	c #132026",
"<1	c #22363F",
"[1	c #213640",
"}1	c #1D333E",
"|1	c #1F3D4B",
"11	c #213D4C",
"21	c #1D3846",
"31	c #1E3A47",
"41	c #1F3641",
"51	c #16242A",
"61	c #152027",
"71	c #304B56",
"81	c #273A42",
"91	c #365767",
"01	c #0C1920",
"a1	c #16222B",
"b1	c #133143",
"c1	c #000A12",
"d1	c #01111D",
"e1	c #001B2D",
"f1	c #001D32",
"g1	c #012843",
"h1	c #002B47",
"i1	c #00385A",
"j1	c #002D4D",
"k1	c #016692",
"l1	c #2DB4DC",
"m1	c #62D7E4",
"n1	c #33BBDF",
"o1	c #0382A6",
"p1	c #002F50",
"q1	c #012C48",
"r1	c #01263D",
"s1	c #011C31",
"t1	c #011323",
"u1	c #001625",
"v1	c #000D16",
"w1	c #020E16",
"x1	c #00101B",
"y1	c #021F31",
"z1	c #172834",
"A1	c #0C1922",
"B1	c #294755",
"C1	c #1C272B",
"D1	c #010204",
"E1	c #121F25",
"F1	c #21343C",
"G1	c #1C313C",
"H1	c #1D3641",
"I1	c #1E3843",
"J1	c #1D3541",
"K1	c #203F4E",
"L1	c #213F4D",
"M1	c #1A323E",
"N1	c #1D3742",
"O1	c #1C3540",
"P1	c #090F14",
"Q1	c #37505B",
"R1	c #283C44",
"S1	c #2C3F48",
"T1	c #315161",
"U1	c #0C1C23",
"V1	c #081216",
"W1	c #17242D",
"X1	c #143548",
"Y1	c #011524",
"Z1	c #030C14",
"`1	c #01121D",
" 2	c #002037",
".2	c #003456",
"+2	c #012F50",
"@2	c #0298C9",
"#2	c #3EC4E2",
"$2	c #4CD5E7",
"%2	c #0AB9E2",
"&2	c #004A7A",
"*2	c #012946",
"=2	c #002440",
"-2	c #012136",
";2	c #011B2E",
">2	c #01182B",
",2	c #01182A",
"'2	c #001424",
")2	c #000C16",
"!2	c #01101A",
"~2	c #000914",
"{2	c #042C44",
"]2	c #162733",
"^2	c #264857",
"/2	c #0E171B",
"(2	c #2C3D46",
"_2	c #314956",
":2	c #20313B",
"<2	c #21343D",
"[2	c #1F333C",
"}2	c #296578",
"|2	c #30798C",
"12	c #338295",
"22	c #214350",
"32	c #1F3A45",
"42	c #254E5D",
"52	c #347C92",
"62	c #367F96",
"72	c #203F4D",
"82	c #2B6A7F",
"92	c #2F7E96",
"02	c #307287",
"a2	c #203D48",
"b2	c #296B82",
"c2	c #2B7690",
"d2	c #2F7E99",
"e2	c #2B7693",
"f2	c #2A6F8C",
"g2	c #1F323D",
"h2	c #22333D",
"i2	c #090E12",
"j2	c #37505A",
"k2	c #304E5D",
"l2	c #0D1C23",
"m2	c #15374B",
"n2	c #03121D",
"o2	c #01070C",
"p2	c #000B14",
"q2	c #001A30",
"r2	c #01223D",
"s2	c #012039",
"t2	c #003359",
"u2	c #004677",
"v2	c #005485",
"w2	c #00578D",
"x2	c #00558B",
"y2	c #003056",
"z2	c #002843",
"A2	c #00192C",
"B2	c #001423",
"C2	c #000E18",
"D2	c #000913",
"E2	c #002036",
"F2	c #020D15",
"G2	c #001523",
"H2	c #042B44",
"I2	c #142633",
"J2	c #091016",
"K2	c #0C1C25",
"L2	c #264A5A",
"M2	c #273740",
"N2	c #0A0E10",
"O2	c #070B0C",
"P2	c #1D2A30",
"Q2	c #2D414C",
"R2	c #245D71",
"S2	c #225060",
"T2	c #1F343D",
"U2	c #1E3A46",
"V2	c #234551",
"W2	c #2C7791",
"X2	c #245666",
"Y2	c #2D7387",
"Z2	c #2B6C81",
"`2	c #2C829E",
" 3	c #254A57",
".3	c #19303A",
"+3	c #23586A",
"@3	c #224754",
"#3	c #224F61",
"$3	c #2F7F9B",
"%3	c #213C48",
"&3	c #364E58",
"*3	c #2C4855",
"=3	c #0E1D23",
"-3	c #16242D",
";3	c #12364A",
">3	c #021320",
",3	c #021421",
"'3	c #021725",
")3	c #011F34",
"!3	c #00243E",
"~3	c #00233C",
"{3	c #002846",
"]3	c #002E4F",
"^3	c #002C49",
"/3	c #033351",
"(3	c #002340",
"_3	c #003053",
":3	c #002F52",
"<3	c #002541",
"[3	c #001E36",
"}3	c #001F37",
"|3	c #001B30",
"13	c #00121F",
"23	c #001C2D",
"33	c #000F18",
"43	c #000F1A",
"53	c #021C2D",
"63	c #021523",
"73	c #000710",
"83	c #03273F",
"93	c #152632",
"03	c #0A1117",
"a3	c #0D1D26",
"b3	c #274B5B",
"c3	c #263840",
"d3	c #010203",
"e3	c #11191D",
"f3	c #395260",
"g3	c #131E25",
"h3	c #1B2B33",
"i3	c #243841",
"j3	c #29667B",
"k3	c #2D738B",
"l3	c #276273",
"m3	c #255C6A",
"n3	c #1B303B",
"o3	c #27586A",
"p3	c #2E7E97",
"q3	c #204250",
"r3	c #234D5B",
"s3	c #35839C",
"t3	c #172E37",
"u3	c #296B81",
"v3	c #2C657A",
"w3	c #2B6177",
"x3	c #285A6C",
"y3	c #1F3944",
"z3	c #1F3741",
"A3	c #317790",
"B3	c #223D48",
"C3	c #223B47",
"D3	c #18252B",
"E3	c #334954",
"F3	c #283841",
"G3	c #293B43",
"H3	c #2F505F",
"I3	c #0E1D24",
"J3	c #13384B",
"K3	c #00172A",
"L3	c #00223A",
"M3	c #002741",
"N3	c #00253E",
"O3	c #000912",
"P3	c #032235",
"Q3	c #00060D",
"R3	c #042A42",
"S3	c #162633",
"T3	c #0B1117",
"U3	c #2A5163",
"V3	c #202E36",
"W3	c #2B4450",
"X3	c #283C47",
"Y3	c #1D2B34",
"Z3	c #1F323B",
"`3	c #296074",
" 4	c #2C677C",
".4	c #265766",
"+4	c #245260",
"@4	c #235261",
"#4	c #2A7892",
"$4	c #2F819C",
"%4	c #2F809B",
"&4	c #2D7A94",
"*4	c #162C34",
"=4	c #1C3B46",
"-4	c #265465",
";4	c #28586B",
">4	c #307993",
",4	c #25586A",
"'4	c #2E748A",
")4	c #1E353F",
"!4	c #1D323C",
"~4	c #1E2F37",
"{4	c #101B1F",
"]4	c #2A3B43",
"^4	c #2C3E47",
"/4	c #273941",
"(4	c #2A3C44",
"_4	c #263841",
":4	c #315362",
"<4	c #0E1C22",
"[4	c #1A2B35",
"}4	c #163F54",
"|4	c #010F18",
"14	c #011929",
"24	c #001E33",
"34	c #001E38",
"44	c #00223D",
"54	c #01223B",
"64	c #012844",
"74	c #012D4C",
"84	c #022C49",
"94	c #01243D",
"04	c #001E35",
"a4	c #001F35",
"b4	c #011F35",
"c4	c #001525",
"d4	c #011523",
"e4	c #020D17",
"f4	c #01131E",
"g4	c #011525",
"h4	c #012139",
"i4	c #022137",
"j4	c #032E46",
"k4	c #172633",
"l4	c #0A1B24",
"m4	c #274F5F",
"n4	c #04080B",
"o4	c #1F2E37",
"p4	c #273F4B",
"q4	c #1E2E37",
"r4	c #265566",
"s4	c #244652",
"t4	c #203D47",
"u4	c #203E4A",
"v4	c #203D49",
"w4	c #235161",
"x4	c #286E83",
"y4	c #215263",
"z4	c #255B70",
"A4	c #2B7C97",
"B4	c #182D35",
"C4	c #26677F",
"D4	c #1B3944",
"E4	c #1D3C48",
"F4	c #2E7389",
"G4	c #25586B",
"H4	c #287086",
"I4	c #1D3540",
"J4	c #3D5561",
"K4	c #2D4855",
"L4	c #0C1A21",
"M4	c #1D2D36",
"N4	c #174359",
"O4	c #010E17",
"P4	c #01060E",
"Q4	c #000C19",
"R4	c #000E1C",
"S4	c #000F1E",
"T4	c #001222",
"U4	c #001628",
"V4	c #001426",
"W4	c #001427",
"X4	c #01172A",
"Y4	c #00080D",
"Z4	c #042D46",
"`4	c #192834",
" 5	c #0A1C25",
".5	c #285060",
"+5	c #203640",
"@5	c #0F1619",
"#5	c #030405",
"$5	c #10181B",
"%5	c #314752",
"&5	c #15242A",
"*5	c #1D2F37",
"=5	c #27596B",
"-5	c #2E6C83",
";5	c #2B748D",
">5	c #2A6479",
",5	c #244F60",
"'5	c #236074",
")5	c #192E37",
"!5	c #1F3C48",
"~5	c #2E6D82",
"{5	c #1D333C",
"]5	c #22556A",
"^5	c #266880",
"/5	c #26667E",
"(5	c #2A6376",
"_5	c #213D49",
":5	c #1F3541",
"<5	c #1E2E39",
"[5	c #2B6F84",
"}5	c #21313A",
"|5	c #1C2931",
"15	c #324A54",
"25	c #253840",
"35	c #314E5B",
"45	c #134156",
"55	c #030C15",
"65	c #00131F",
"75	c #001A2B",
"85	c #011D30",
"95	c #001C2F",
"05	c #011B2F",
"a5	c #001527",
"b5	c #00070C",
"c5	c #063149",
"d5	c #172733",
"e5	c #0B1218",
"f5	c #284E5D",
"g5	c #060A0B",
"h5	c #080D0F",
"i5	c #121B1E",
"j5	c #081115",
"k5	c #19242B",
"l5	c #21323D",
"m5	c #1D2C35",
"n5	c #22323B",
"o5	c #22313A",
"p5	c #364D59",
"q5	c #253842",
"r5	c #263941",
"s5	c #355664",
"t5	c #123F54",
"u5	c #001324",
"v5	c #00192B",
"w5	c #001629",
"x5	c #011C2C",
"y5	c #07344E",
"z5	c #192A38",
"A5	c #0C1319",
"B5	c #274B5A",
"C5	c #091114",
"D5	c #06080A",
"E5	c #081014",
"F5	c #121E24",
"G5	c #1D2E36",
"H5	c #1B2B34",
"I5	c #365764",
"J5	c #0E1B22",
"K5	c #133D50",
"L5	c #001E37",
"M5	c #00182C",
"N5	c #011526",
"O5	c #07344F",
"P5	c #1A2B38",
"Q5	c #071E29",
"R5	c #244755",
"S5	c #1A262B",
"T5	c #0E1619",
"U5	c #090F12",
"V5	c #080C0E",
"W5	c #1C2D37",
"X5	c #324853",
"Y5	c #314B57",
"Z5	c #0D1B22",
"`5	c #153E51",
" 6	c #00111D",
".6	c #010B12",
"+6	c #006577",
"@6	c #00A5BA",
"#6	c #00A6B9",
"$6	c #009DB1",
"%6	c #0099B0",
"&6	c #0098B4",
"*6	c #0095B3",
"=6	c #0085A3",
"-6	c #013048",
";6	c #010D19",
">6	c #021825",
",6	c #021521",
"'6	c #00192A",
")6	c #001E34",
"!6	c #01101F",
"~6	c #01060D",
"{6	c #021726",
"]6	c #062F48",
"^6	c #182936",
"/6	c #0E1A23",
"(6	c #061E2B",
"_6	c #244653",
":6	c #293941",
"<6	c #2E404A",
"[6	c #2D3F49",
"}6	c #26363F",
"|6	c #24353F",
"16	c #1E2C36",
"26	c #101A1E",
"36	c #20323A",
"46	c #1B2D35",
"56	c #1A2A32",
"66	c #1B2C36",
"76	c #314753",
"86	c #23363E",
"96	c #36515D",
"06	c #0B1920",
"a6	c #010D15",
"b6	c #00101F",
"c6	c #002441",
"d6	c #00375B",
"e6	c #00375A",
"f6	c #003E61",
"g6	c #004569",
"h6	c #00486F",
"i6	c #013D5E",
"j6	c #013852",
"k6	c #000D1B",
"l6	c #011A29",
"m6	c #021B29",
"n6	c #042F49",
"o6	c #142531",
"p6	c #274957",
"q6	c #293A42",
"r6	c #23333D",
"s6	c #344753",
"t6	c #1C2B34",
"u6	c #22414F",
"v6	c #25505E",
"w6	c #2E6072",
"x6	c #30697B",
"y6	c #306D81",
"z6	c #306576",
"A6	c #2E6071",
"B6	c #2E6172",
"C6	c #306476",
"D6	c #30677A",
"E6	c #326B7F",
"F6	c #2F6679",
"G6	c #1F3D49",
"H6	c #182329",
"I6	c #2E434E",
"J6	c #375562",
"K6	c #0B151B",
"L6	c #00162A",
"M6	c #00182E",
"N6	c #001B32",
"O6	c #001D35",
"P6	c #00213C",
"Q6	c #001524",
"R6	c #011827",
"S6	c #011324",
"T6	c #023450",
"U6	c #02263A",
"V6	c #031625",
"W6	c #06334D",
"X6	c #172935",
"Y6	c #0D1922",
"Z6	c #041D2A",
"`6	c #254552",
" 7	c #1E2E38",
".7	c #1B2E39",
"+7	c #1C2E39",
"@7	c #1E303C",
"#7	c #22333E",
"$7	c #0D161A",
"%7	c #111B1F",
"&7	c #1E3139",
"*7	c #22404C",
"=7	c #2E6373",
"-7	c #2C6274",
";7	c #2F6879",
">7	c #1E3842",
",7	c #2C6B7F",
"'7	c #2A6374",
")7	c #2D6678",
"!7	c #2D6375",
"~7	c #2F687B",
"{7	c #2F677B",
"]7	c #2E687C",
"^7	c #2D687D",
"/7	c #29667A",
"(7	c #20424F",
"_7	c #1C2C33",
":7	c #365361",
"<7	c #144156",
"[7	c #001F33",
"}7	c #001727",
"|7	c #001425",
"17	c #011F32",
"27	c #001C31",
"37	c #00273F",
"47	c #00050C",
"57	c #003353",
"67	c #002B48",
"77	c #012036",
"87	c #000B13",
"97	c #021624",
"07	c #00111C",
"a7	c #083651",
"b7	c #182937",
"c7	c #041E2C",
"d7	c #254451",
"e7	c #061A25",
"f7	c #052233",
"g7	c #032132",
"h7	c #031F2F",
"i7	c #162A34",
"j7	c #234350",
"k7	c #2D6476",
"l7	c #2E6476",
"m7	c #2F6677",
"n7	c #1B323B",
"o7	c #2B657A",
"p7	c #2C6476",
"q7	c #2E697D",
"r7	c #2D657A",
"s7	c #2E6477",
"t7	c #2C667A",
"u7	c #2B667B",
"v7	c #21424F",
"w7	c #202F38",
"x7	c #141F26",
"y7	c #0C1217",
"z7	c #334955",
"A7	c #324F5D",
"B7	c #0B181E",
"C7	c #17445A",
"D7	c #010913",
"E7	c #002239",
"F7	c #002941",
"G7	c #00060C",
"H7	c #001930",
"I7	c #002A4B",
"J7	c #013458",
"K7	c #021E32",
"L7	c #031524",
"M7	c #08354F",
"N7	c #1A2A37",
"O7	c #0E1821",
"P7	c #031E2D",
"Q7	c #1D323B",
"R7	c #06293D",
"S7	c #05486A",
"T7	c #035076",
"U7	c #023C59",
"V7	c #0C1417",
"W7	c #1C2E35",
"X7	c #22424E",
"Y7	c #2D6577",
"Z7	c #2E6878",
"`7	c #1D3741",
" 8	c #234958",
".8	c #254D5B",
"+8	c #274F5D",
"@8	c #264E5D",
"#8	c #264D5B",
"$8	c #234A58",
"%8	c #234A57",
"&8	c #244C5A",
"*8	c #254D5D",
"=8	c #1E3540",
"-8	c #213039",
";8	c #344852",
">8	c #273842",
",8	c #335160",
"'8	c #0C191F",
")8	c #154459",
"!8	c #001D34",
"~8	c #001827",
"{8	c #001120",
"]8	c #00213B",
"^8	c #002543",
"/8	c #002744",
"(8	c #00203C",
"_8	c #001528",
":8	c #00385F",
"<8	c #01416D",
"[8	c #013256",
"}8	c #002E51",
"|8	c #00325B",
"18	c #003763",
"28	c #002E54",
"38	c #03131E",
"48	c #1A2935",
"58	c #041F2F",
"68	c #244350",
"78	c #1B2B35",
"88	c #173340",
"98	c #022843",
"08	c #03779A",
"a8	c #4DBAC6",
"b8	c #39AEC9",
"c8	c #026385",
"d8	c #0B2B3D",
"e8	c #20404D",
"f8	c #306B7D",
"g8	c #202E35",
"h8	c #263741",
"i8	c #0B171D",
"j8	c #142028",
"k8	c #0F435A",
"l8	c #000D1A",
"m8	c #001323",
"n8	c #011828",
"o8	c #002237",
"p8	c #013250",
"q8	c #003A5B",
"r8	c #003D62",
"s8	c #013656",
"t8	c #00375C",
"u8	c #012A47",
"v8	c #02273E",
"w8	c #011E33",
"x8	c #013251",
"y8	c #013050",
"z8	c #01446D",
"A8	c #004B7D",
"B8	c #00518B",
"C8	c #004F85",
"D8	c #005F8D",
"E8	c #0074A4",
"F8	c #00547B",
"G8	c #00090F",
"H8	c #01121C",
"I8	c #062E44",
"J8	c #101A23",
"K8	c #244451",
"L8	c #1A2A34",
"M8	c #1A2C34",
"N8	c #163543",
"O8	c #022D4A",
"P8	c #0484A1",
"Q8	c #6CD8DA",
"R8	c #50C9D9",
"S8	c #036180",
"T8	c #0A2535",
"U8	c #0A1215",
"V8	c #19272D",
"W8	c #2B6173",
"X8	c #2E6678",
"Y8	c #316F81",
"Z8	c #21404B",
"`8	c #0B4259",
" 9	c #00121E",
".9	c #021422",
"+9	c #011D31",
"@9	c #00263F",
"#9	c #002D49",
"$9	c #00233A",
"%9	c #00304F",
"&9	c #00243F",
"*9	c #010F17",
"=9	c #010E16",
"-9	c #00192E",
";9	c #012641",
">9	c #013359",
",9	c #004371",
"'9	c #005488",
")9	c #005B90",
"!9	c #006B9D",
"~9	c #0194BF",
"{9	c #009AC8",
"]9	c #009ACA",
"^9	c #0084B7",
"/9	c #00527C",
"(9	c #002948",
"_9	c #01111B",
":9	c #000C14",
"<9	c #052F45",
"[9	c #192833",
"}9	c #0F1921",
"|9	c #071F2D",
"19	c #22414E",
"29	c #192933",
"39	c #192A33",
"49	c #132B35",
"59	c #022B44",
"69	c #026A89",
"79	c #1E93AF",
"89	c #0F8FB1",
"99	c #055772",
"09	c #0B222D",
"a9	c #1B2F3B",
"b9	c #2D6273",
"c9	c #1F3B46",
"d9	c #1A2B33",
"e9	c #1C2A33",
"f9	c #080D12",
"g9	c #2E4C5B",
"h9	c #0D445B",
"i9	c #001C30",
"j9	c #011C30",
"k9	c #000A16",
"l9	c #012037",
"m9	c #001A33",
"n9	c #002745",
"o9	c #00487C",
"p9	c #0178AC",
"q9	c #02A1D1",
"r9	c #03A7D3",
"s9	c #02A2CC",
"t9	c #028FB8",
"u9	c #006598",
"v9	c #005588",
"w9	c #004D82",
"x9	c #003C69",
"y9	c #002847",
"z9	c #05334B",
"A9	c #172A36",
"B9	c #0E171F",
"C9	c #061F2D",
"D9	c #26424F",
"E9	c #152831",
"F9	c #06273C",
"G9	c #093149",
"H9	c #043149",
"I9	c #052F44",
"J9	c #0D2E3E",
"K9	c #0D1D27",
"L9	c #1C303B",
"M9	c #1F2D33",
"N9	c #21424E",
"O9	c #2D6275",
"P9	c #2C6173",
"Q9	c #2B6274",
"R9	c #2C6171",
"S9	c #2F6678",
"T9	c #2E687A",
"U9	c #306A7D",
"V9	c #30697C",
"W9	c #2C697D",
"X9	c #152126",
"Y9	c #283B46",
"Z9	c #305365",
"`9	c #0E465D",
" 0	c #011B2D",
".0	c #011628",
"+0	c #005579",
"@0	c #001320",
"#0	c #001D33",
"$0	c #001C36",
"%0	c #004674",
"&0	c #0183B2",
"*0	c #0076AE",
"=0	c #00659E",
"-0	c #0067A1",
";0	c #006DA6",
">0	c #005C94",
",0	c #004B7F",
"'0	c #004B7A",
")0	c #002544",
"!0	c #031C2E",
"~0	c #03344E",
"{0	c #172A38",
"]0	c #0C151D",
"^0	c #071E2B",
"/0	c #21353E",
"(0	c #1D303C",
"_0	c #192B37",
":0	c #1F313D",
"<0	c #21313B",
"[0	c #1D2D37",
"}0	c #1B2A30",
"|0	c #22404B",
"10	c #2F6274",
"20	c #2D5F6F",
"30	c #2A6071",
"40	c #2A6072",
"50	c #2C6275",
"60	c #2D6578",
"70	c #2C6073",
"80	c #263944",
"90	c #2C4D5E",
"00	c #0D191F",
"a0	c #0A141B",
"b0	c #10475D",
"c0	c #006E9A",
"d0	c #010812",
"e0	c #001828",
"f0	c #011C2F",
"g0	c #002643",
"h0	c #004473",
"i0	c #00649E",
"j0	c #038AB9",
"k0	c #006CA4",
"l0	c #006AA4",
"m0	c #0073AB",
"n0	c #007FBA",
"o0	c #0176AB",
"p0	c #005A89",
"q0	c #003562",
"r0	c #021423",
"s0	c #03334E",
"t0	c #162937",
"u0	c #0B151C",
"v0	c #264453",
"w0	c #17252A",
"x0	c #172730",
"y0	c #1A2A33",
"z0	c #1C2D39",
"A0	c #141F24",
"B0	c #081114",
"C0	c #21404C",
"D0	c #2F6273",
"E0	c #2F6474",
"F0	c #2C6273",
"G0	c #2B6172",
"H0	c #2E6374",
"I0	c #2D6274",
"J0	c #316375",
"K0	c #2B6071",
"L0	c #2A5E6F",
"M0	c #213C47",
"N0	c #293D49",
"O0	c #2A4756",
"P0	c #11465B",
"Q0	c #011528",
"R0	c #010711",
"S0	c #002137",
"T0	c #03354E",
"U0	c #001F34",
"V0	c #011A2A",
"W0	c #00203A",
"X0	c #00406C",
"Y0	c #017BB0",
"Z0	c #0173A4",
"`0	c #0481AA",
" a	c #005384",
".a	c #0178AD",
"+a	c #017AB4",
"@a	c #00629B",
"#a	c #005E96",
"$a	c #003E6C",
"%a	c #002342",
"&a	c #03304B",
"*a	c #152A37",
"=a	c #264352",
"-a	c #141E25",
";a	c #203E49",
">a	c #2C6072",
",a	c #2D6374",
"'a	c #254752",
")a	c #223E49",
"!a	c #213F4B",
"~a	c #223E4A",
"{a	c #11181D",
"]a	c #263742",
"^a	c #243640",
"/a	c #274150",
"(a	c #09131A",
"_a	c #114459",
":a	c #023044",
"<a	c #013D56",
"[a	c #0188A5",
"}a	c #012535",
"|a	c #011E32",
"1a	c #021F32",
"2a	c #012B44",
"3a	c #002A47",
"4a	c #003F6B",
"5a	c #00669C",
"6a	c #006EA1",
"7a	c #006F9F",
"8a	c #005E8C",
"9a	c #016693",
"0a	c #015C89",
"aa	c #003E6E",
"ba	c #00355F",
"ca	c #002F55",
"da	c #00213D",
"ea	c #011A2F",
"fa	c #032D47",
"ga	c #152936",
"ha	c #091E2B",
"ia	c #020506",
"ja	c #060C0E",
"ka	c #070D0F",
"la	c #19262E",
"ma	c #2D5F70",
"na	c #2C5F70",
"oa	c #1F3942",
"pa	c #1A2B32",
"qa	c #11191E",
"ra	c #273943",
"sa	c #294352",
"ta	c #111D23",
"ua	c #114258",
"va	c #011F30",
"wa	c #012638",
"xa	c #00182D",
"ya	c #001D36",
"za	c #003A64",
"Aa	c #006096",
"Ba	c #006196",
"Ca	c #004474",
"Da	c #005182",
"Ea	c #00436B",
"Fa	c #00335C",
"Ga	c #002E53",
"Ha	c #00294A",
"Ia	c #01172C",
"Ja	c #032C44",
"Ka	c #162834",
"La	c #09202C",
"Ma	c #1A282C",
"Na	c #080E10",
"Oa	c #10191F",
"Pa	c #19252D",
"Qa	c #2F6172",
"Ra	c #2E6070",
"Sa	c #2F6574",
"Ta	c #1F3A44",
"Ua	c #2B404D",
"Va	c #2A424E",
"Wa	c #114054",
"Xa	c #02101C",
"Ya	c #002F4A",
"Za	c #004166",
"`a	c #004069",
" b	c #001A31",
".b	c #003859",
"+b	c #013549",
"@b	c #012135",
"#b	c #002D52",
"$b	c #003860",
"%b	c #013B66",
"&b	c #005E93",
"*b	c #014B7B",
"=b	c #005C95",
"-b	c #01689E",
";b	c #035986",
">b	c #04577D",
",b	c #002749",
"'b	c #01192E",
")b	c #01192C",
"!b	c #053048",
"~b	c #182834",
"{b	c #08212E",
"]b	c #11181B",
"^b	c #080F12",
"/b	c #1E2B33",
"(b	c #213D48",
"_b	c #2F5F6F",
":b	c #2F6070",
"<b	c #306676",
"[b	c #203B44",
"}b	c #2B414C",
"|b	c #2A434F",
"1b	c #132028",
"2b	c #0E3B4F",
"3b	c #022131",
"4b	c #013047",
"5b	c #00121D",
"6b	c #001A2C",
"7b	c #001B31",
"8b	c #002645",
"9b	c #004773",
"0b	c #003B68",
"ab	c #003E6B",
"bb	c #004574",
"cb	c #00325D",
"db	c #003059",
"eb	c #002B4F",
"fb	c #002240",
"gb	c #01223C",
"hb	c #182833",
"ib	c #081F2D",
"jb	c #233B48",
"kb	c #10171A",
"lb	c #38505B",
"mb	c #2D6272",
"nb	c #1E3741",
"ob	c #2C6174",
"pb	c #2A5A6A",
"qb	c #2D5C6C",
"rb	c #2C5D6D",
"sb	c #2D6070",
"tb	c #2E606F",
"ub	c #2D5D6C",
"vb	c #2E5E6D",
"wb	c #2D6071",
"xb	c #1F3C47",
"yb	c #2D434F",
"zb	c #2C4552",
"Ab	c #0E3B50",
"Bb	c #021A2A",
"Cb	c #01233C",
"Db	c #022132",
"Eb	c #002A41",
"Fb	c #001E31",
"Gb	c #01172B",
"Hb	c #002A48",
"Ib	c #052F48",
"Jb	c #182732",
"Kb	c #081D29",
"Lb	c #243B48",
"Mb	c #0F1618",
"Nb	c #040405",
"Ob	c #121E23",
"Pb	c #18252D",
"Qb	c #2F5F6E",
"Rb	c #2B5E6E",
"Sb	c #1A313B",
"Tb	c #285F6F",
"Ub	c #295B6B",
"Vb	c #2B5B6B",
"Wb	c #2C5E6F",
"Xb	c #2D5E70",
"Yb	c #2B5C6D",
"Zb	c #2C5C6D",
"`b	c #2D5D6D",
" c	c #2A5C6C",
".c	c #1F3A46",
"+c	c #2A3C47",
"@c	c #2B4652",
"#c	c #0E3C51",
"$c	c #011C2D",
"%c	c #002139",
"&c	c #002034",
"*c	c #002640",
"=c	c #002946",
"-c	c #00233E",
";c	c #063049",
">c	c #172631",
",c	c #081C28",
"'c	c #1C323F",
")c	c #0E1416",
"!c	c #060D10",
"~c	c #1E2C32",
"{c	c #203842",
"]c	c #2E5C6B",
"^c	c #295968",
"/c	c #2B5F6E",
"(c	c #182F38",
"_c	c #265866",
":c	c #285968",
"<c	c #295A69",
"[c	c #2A5B6A",
"}c	c #2B5B6C",
"|c	c #2C5D6E",
"1c	c #2B5969",
"2c	c #28586A",
"3c	c #1E3844",
"4c	c #294450",
"5c	c #081117",
"6c	c #0D3A4F",
"7c	c #032335",
"8c	c #021420",
"9c	c #02131E",
"0c	c #001624",
"ac	c #001121",
"bc	c #011224",
"cc	c #011426",
"dc	c #06304A",
"ec	c #162631",
"fc	c #0B171E",
"gc	c #0F1518",
"hc	c #020305",
"ic	c #020404",
"jc	c #2C414D",
"kc	c #19282E",
"lc	c #254753",
"mc	c #244651",
"nc	c #23444F",
"oc	c #234651",
"pc	c #254754",
"qc	c #254653",
"rc	c #254755",
"sc	c #264A57",
"tc	c #244753",
"uc	c #19272F",
"vc	c #27414E",
"wc	c #0A161B",
"xc	c #0A1318",
"yc	c #0F3B4F",
"zc	c #032234",
"Ac	c #021622",
"Bc	c #011522",
"Cc	c #021826",
"Dc	c #00172B",
"Ec	c #014B73",
"Fc	c #05304A",
"Gc	c #0D171E",
"Hc	c #0A1E29",
"Ic	c #213745",
"Jc	c #0D1316",
"Kc	c #132025",
"Lc	c #141D23",
"Mc	c #1C292F",
"Nc	c #284250",
"Oc	c #09151A",
"Pc	c #113C4F",
"Qc	c #011826",
"Rc	c #03131F",
"Sc	c #002539",
"Tc	c #036376",
"Uc	c #03546E",
"Vc	c #055768",
"Wc	c #011521",
"Xc	c #062F49",
"Yc	c #091C28",
"Zc	c #1E3342",
"`c	c #020303",
" d	c #0C1214",
".d	c #141E22",
"+d	c #29424F",
"@d	c #0A151A",
"#d	c #113B4F",
"$d	c #000E17",
"%d	c #011B30",
"&d	c #015F85",
"*d	c #01364F",
"=d	c #00213A",
"-d	c #002C43",
";d	c #00556C",
">d	c #00253D",
",d	c #021828",
"'d	c #062E47",
")d	c #15252F",
"!d	c #0E1820",
"~d	c #1B303C",
"{d	c #040507",
"]d	c #0F1A1F",
"^d	c #0F171D",
"/d	c #2A4250",
"(d	c #091318",
"_d	c #123749",
":d	c #011D33",
"<d	c #012038",
"[d	c #011C33",
"}d	c #013B5A",
"|d	c #012238",
"1d	c #01586E",
"2d	c #072D44",
"3d	c #15242E",
"4d	c #0E171E",
"5d	c #19282D",
"6d	c #22323C",
"7d	c #2A4452",
"8d	c #113649",
"9d	c #021321",
"0d	c #02182A",
"ad	c #012944",
"bd	c #021625",
"cd	c #000509",
"dd	c #05283E",
"ed	c #15232C",
"fd	c #213A46",
"gd	c #192930",
"hd	c #05080C",
"id	c #2A3B44",
"jd	c #17252B",
"kd	c #28424C",
"ld	c #24414F",
"md	c #285261",
"nd	c #2A5362",
"od	c #2C5462",
"pd	c #2A4A57",
"qd	c #1B333D",
"rd	c #255363",
"sd	c #2A5869",
"td	c #2A5A6B",
"ud	c #2B5C6C",
"vd	c #2A515E",
"wd	c #1E343C",
"xd	c #2A5564",
"yd	c #295463",
"zd	c #295665",
"Ad	c #275261",
"Bd	c #19242C",
"Cd	c #28414E",
"Dd	c #0B161A",
"Ed	c #14374A",
"Fd	c #021A29",
"Gd	c #023A53",
"Hd	c #011B2B",
"Id	c #031727",
"Jd	c #01233B",
"Kd	c #013657",
"Ld	c #033D62",
"Md	c #013658",
"Nd	c #003557",
"Od	c #013B5C",
"Pd	c #012746",
"Qd	c #012138",
"Rd	c #031421",
"Sd	c #05293F",
"Td	c #14232D",
"Ud	c #0C151B",
"Vd	c #051621",
"Wd	c #233C48",
"Xd	c #1D2A33",
"Yd	c #253742",
"Zd	c #0F181E",
"`d	c #162328",
" e	c #295767",
".e	c #2C5765",
"+e	c #284953",
"@e	c #1D3842",
"#e	c #275564",
"$e	c #295666",
"%e	c #285566",
"&e	c #285666",
"*e	c #2A505B",
"=e	c #275565",
"-e	c #275364",
";e	c #285464",
">e	c #2C515D",
",e	c #012234",
"'e	c #03273A",
")e	c #030D16",
"!e	c #062D44",
"~e	c #04131D",
"{e	c #233A47",
"]e	c #080D0E",
"^e	c #213E49",
"/e	c #275464",
"(e	c #285564",
"_e	c #2A4D58",
":e	c #213B43",
"<e	c #2D5A69",
"[e	c #275160",
"}e	c #285362",
"|e	c #2B5765",
"1e	c #284B55",
"2e	c #22404A",
"3e	c #265363",
"4e	c #265464",
"5e	c #2A5667",
"6e	c #28505F",
"7e	c #1F333B",
"8e	c #293E49",
"9e	c #0B141A",
"0e	c #153849",
"ae	c #021728",
"be	c #022032",
"ce	c #030E16",
"de	c #072D43",
"ee	c #152530",
"fe	c #05121B",
"ge	c #121D21",
"he	c #18252A",
"ie	c #203C47",
"je	c #254F5E",
"ke	c #254B58",
"le	c #22383F",
"me	c #2C5564",
"ne	c #2A5767",
"oe	c #2B5665",
"pe	c #284C58",
"qe	c #1C2D34",
"re	c #18272E",
"se	c #25424A",
"te	c #295464",
"ue	c #275262",
"ve	c #28505D",
"we	c #1C323C",
"xe	c #0B161B",
"ye	c #133343",
"ze	c #00060E",
"Ae	c #021E31",
"Be	c #01060B",
"Ce	c #01243C",
"De	c #02273D",
"Ee	c #02192A",
"Fe	c #040F18",
"Ge	c #02060B",
"He	c #072A3F",
"Ie	c #15232E",
"Je	c #243C48",
"Ke	c #080C10",
"Le	c #0D1215",
"Me	c #101C21",
"Ne	c #1F3943",
"Oe	c #234855",
"Pe	c #274A57",
"Qe	c #1B2D36",
"Re	c #275362",
"Se	c #2B5868",
"Te	c #2E535F",
"Ue	c #1D2F36",
"Ve	c #213B44",
"We	c #295160",
"Xe	c #285363",
"Ye	c #2A5465",
"Ze	c #2D5463",
"`e	c #192B33",
" f	c #20353C",
".f	c #203741",
"+f	c #091218",
"@f	c #133242",
"#f	c #032842",
"$f	c #010509",
"%f	c #01080C",
"&f	c #01060A",
"*f	c #072A3E",
"=f	c #15232D",
"-f	c #071722",
";f	c #253D4A",
">f	c #020505",
",f	c #18242C",
"'f	c #244654",
")f	c #1A2A30",
"!f	c #1F3842",
"~f	c #2A5969",
"{f	c #255161",
"]f	c #2B515E",
"^f	c #223B46",
"/f	c #244F5E",
"(f	c #2A5260",
"_f	c #18282E",
":f	c #1B2D34",
"<f	c #294F5D",
"[f	c #2A3942",
"}f	c #152329",
"|f	c #28404D",
"1f	c #153546",
"2f	c #000B12",
"3f	c #021626",
"4f	c #021A2B",
"5f	c #022438",
"6f	c #011F31",
"7f	c #011725",
"8f	c #07283C",
"9f	c #14222C",
"0f	c #0A131A",
"af	c #263D49",
"bf	c #070C0E",
"cf	c #0E1618",
"df	c #223841",
"ef	c #295565",
"ff	c #26505F",
"gf	c #244D5C",
"hf	c #285463",
"if	c #2A4F5D",
"jf	c #1C3038",
"kf	c #28515F",
"lf	c #275260",
"mf	c #284F5D",
"nf	c #1A2D35",
"of	c #1C2E36",
"pf	c #2A4F5C",
"qf	c #1B353F",
"rf	c #071015",
"sf	c #163748",
"tf	c #020911",
"uf	c #010D14",
"vf	c #03101B",
"wf	c #07273A",
"xf	c #020406",
"yf	c #1B272C",
"zf	c #284955",
"Af	c #224654",
"Bf	c #244857",
"Cf	c #244855",
"Df	c #284D5A",
"Ef	c #192830",
"Ff	c #284B57",
"Gf	c #2D505D",
"Hf	c #2A4C5B",
"If	c #254654",
"Jf	c #244551",
"Kf	c #203841",
"Lf	c #070B0E",
"Mf	c #283F4B",
"Nf	c #15222A",
"Of	c #123142",
"Pf	c #010B11",
"Qf	c #08273A",
"Rf	c #16232E",
"Sf	c #061723",
"Tf	c #192932",
"Uf	c #0B1013",
"Vf	c #293B45",
"Wf	c #17262C",
"Xf	c #29404B",
"Yf	c #131F27",
"Zf	c #102E3F",
"`f	c #021520",
" g	c #001F38",
".g	c #00060B",
"+g	c #02121D",
"@g	c #030C13",
"#g	c #01050A",
"$g	c #010609",
"%g	c #02090E",
"&g	c #07283A",
"*g	c #0B1319",
"=g	c #08131B",
"-g	c #1A2730",
";g	c #090D11",
">g	c #142229",
",g	c #18232B",
"'g	c #283840",
")g	c #02080E",
"!g	c #021B2B",
"~g	c #002C50",
"{g	c #012440",
"]g	c #030B12",
"^g	c #040B11",
"/g	c #072436",
"(g	c #13222B",
"_g	c #20333E",
":g	c #19262F",
"<g	c #0C1418",
"[g	c #152228",
"}g	c #17232B",
"|g	c #142F3E",
"1g	c #030F19",
"2g	c #003054",
"3g	c #002947",
"4g	c #030B14",
"5g	c #030F17",
"6g	c #020B11",
"7g	c #072233",
"8g	c #13212B",
"9g	c #0E1518",
"0g	c #080E13",
"ag	c #18323F",
"bg	c #072C3D",
"cg	c #01070B",
"dg	c #01355A",
"eg	c #03121E",
"fg	c #02060C",
"gg	c #010508",
"hg	c #112D38",
"ig	c #17303F",
"jg	c #1E323E",
"kg	c #1B323F",
"lg	c #062E43",
"mg	c #02121C",
"ng	c #02111E",
"og	c #002849",
"pg	c #002F57",
"qg	c #002F56",
"rg	c #031422",
"sg	c #03111D",
"tg	c #082030",
"ug	c #193E50",
"vg	c #0C131A",
"wg	c #091117",
"xg	c #172227",
"yg	c #0C1114",
"zg	c #2F414B",
"Ag	c #091215",
"Bg	c #182B37",
"Cg	c #03121C",
"Dg	c #00101A",
"Eg	c #002443",
"Fg	c #00294E",
"Gg	c #002C53",
"Hg	c #002547",
"Ig	c #002542",
"Jg	c #000D15",
"Kg	c #020F1B",
"Lg	c #061B28",
"Mg	c #133E56",
"Ng	c #1E3B49",
"Og	c #1F333F",
"Pg	c #0E171A",
"Qg	c #1E2B31",
"Rg	c #1D2930",
"Sg	c #0D1216",
"Tg	c #070A0E",
"Ug	c #2A3E49",
"Vg	c #183545",
"Wg	c #1B4760",
"Xg	c #0E3042",
"Yg	c #001B2C",
"Zg	c #012134",
"`g	c #002339",
" h	c #002C47",
".h	c #003252",
"+h	c #003152",
"@h	c #013353",
"#h	c #002842",
"$h	c #002B45",
"%h	c #00263E",
"&h	c #01263E",
"*h	c #012339",
"=h	c #021D2D",
"-h	c #021928",
";h	c #011623",
">h	c #031F2E",
",h	c #031B29",
"'h	c #021A28",
")h	c #021724",
"!h	c #011724",
"~h	c #030D15",
"{h	c #071E2A",
"]h	c #0C1419",
"^h	c #17252E",
"/h	c #223745",
"(h	c #000101",
"_h	c #101B20",
":h	c #16222A",
"<h	c #0F1419",
"[h	c #080B0F",
"}h	c #344F5C",
"|h	c #1C4258",
"1h	c #122833",
"2h	c #142933",
"3h	c #122732",
"4h	c #112833",
"5h	c #142A37",
"6h	c #152B37",
"7h	c #142B37",
"8h	c #112A36",
"9h	c #112C39",
"0h	c #122E3B",
"ah	c #13313F",
"bh	c #12313F",
"ch	c #103547",
"dh	c #10374C",
"eh	c #113B50",
"fh	c #103B51",
"gh	c #153D4F",
"hh	c #143A4D",
"ih	c #103849",
"jh	c #0F3443",
"kh	c #113443",
"lh	c #103141",
"mh	c #0F2F3E",
"nh	c #102E3C",
"oh	c #112E3E",
"ph	c #122E3C",
"qh	c #122C3A",
"rh	c #132A38",
"sh	c #122A37",
"th	c #132B37",
"uh	c #122936",
"vh	c #0F2734",
"wh	c #0E2936",
"xh	c #0F2A37",
"yh	c #0F2936",
"zh	c #0F2732",
"Ah	c #102530",
"Bh	c #132732",
"Ch	c #112631",
"Dh	c #102531",
"Eh	c #112834",
"Fh	c #122A36",
"Gh	c #102732",
"Hh	c #102630",
"Ih	c #10242E",
"Jh	c #091923",
"Kh	c #1C3947",
"Lh	c #0E191E",
"Mh	c #2C4758",
"Nh	c #233B49",
"Oh	c #0C1115",
"Ph	c #344E5B",
"Qh	c #1D2E35",
"Rh	c #182D38",
"Sh	c #1D3441",
"Th	c #1D3543",
"Uh	c #1D3645",
"Vh	c #1D3544",
"Wh	c #213C4C",
"Xh	c #223E4F",
"Yh	c #1E3C4C",
"Zh	c #1D3C4C",
"`h	c #1C3A4B",
" i	c #1C3B4B",
".i	c #1D3D4C",
"+i	c #1B3D4D",
"@i	c #1D3F4E",
"#i	c #1C3A49",
"$i	c #1C3646",
"%i	c #1B3646",
"&i	c #1E3645",
"*i	c #203948",
"=i	c #1E3644",
"-i	c #1F3542",
";i	c #1A303D",
">i	c #18303E",
",i	c #18313E",
"'i	c #16303E",
")i	c #173241",
"!i	c #142C3B",
"~i	c #1A3441",
"{i	c #0D181D",
"]i	c #15242D",
"^i	c #2F4C5C",
"/i	c #1E2930",
"(i	c #050608",
"_i	c #23323B",
":i	c #04090B",
"<i	c #0C1015",
"[i	c #0D1419",
"}i	c #2D4958",
"|i	c #0D171D",
"1i	c #0C151C",
"2i	c #0D161C",
"3i	c #0B1318",
"4i	c #0C161D",
"5i	c #0B161D",
"6i	c #0A161C",
"7i	c #080F15",
"8i	c #0D181C",
"9i	c #2E4C5D",
"0i	c #1B2C37",
"ai	c #141D24",
"bi	c #1D292F",
"ci	c #010102",
"di	c #223039",
"ei	c #2D444F",
"fi	c #182630",
"gi	c #0E191F",
"hi	c #0F191F",
"ii	c #0F181F",
"ji	c #0F1920",
"ki	c #0F1A21",
"li	c #294657",
"mi	c #212F38",
"ni	c #0B1419",
"oi	c #0D171B",
"pi	c #05070A",
"qi	c #334B57",
"ri	c #16262D",
"si	c #182931",
"ti	c #16272F",
"ui	c #142830",
"vi	c #1A313A",
"wi	c #1A3038",
"xi	c #1A323C",
"yi	c #172D36",
"zi	c #192F38",
"Ai	c #1C3139",
"Bi	c #182A32",
"Ci	c #172931",
"Di	c #14242C",
"Ei	c #13242D",
"Fi	c #16262F",
"Gi	c #162731",
"Hi	c #162831",
"Ii	c #182932",
"Ji	c #182B33",
"Ki	c #16262E",
"Li	c #16252C",
"Mi	c #18282F",
"Ni	c #203746",
"Oi	c #132127",
"Pi	c #142228",
"Qi	c #152028",
"Ri	c #212E36",
"Si	c #1A252B",
"Ti	c #293940",
"Ui	c #2A3C46",
"Vi	c #2A414C",
"Wi	c #324D5B",
"Xi	c #304A57",
"Yi	c #2E4854",
"Zi	c #29404C",
"`i	c #2A424F",
" j	c #2D4553",
".j	c #2D4653",
"+j	c #2D4756",
"@j	c #2C4856",
"#j	c #3B5A68",
"$j	c #2A4B5B",
"%j	c #2A4C5C",
"&j	c #274857",
"*j	c #264553",
"=j	c #264655",
"-j	c #294654",
";j	c #2D4A57",
">j	c #294351",
",j	c #29404E",
"'j	c #2E4956",
")j	c #2A4350",
"!j	c #2C424E",
"~j	c #2F4652",
"{j	c #2A3F4A",
"]j	c #273C47",
"^j	c #263B46",
"/j	c #243843",
"(j	c #223842",
"_j	c #253A47",
":j	c #233742",
"<j	c #0B1214",
"[j	c #23313A",
"}j	c #1C282E",
"|j	c #1A2831",
"1j	c #0F1519",
"2j	c #0A0F12",
"3j	c #151F26",
"4j	c #0B1116",
"5j	c #0A0E12",
"6j	c #1B262E",
"7j	c #18252E",
"8j	c #1B292E",
"9j	c #091013",
"0j	c #0C1116",
"aj	c #17222A",
"bj	c #0A0F11",
"cj	c #18242D",
"dj	c #162129",
"ej	c #1E2B34",
"fj	c #0B1217",
"gj	c #0A0E11",
"hj	c #131B21",
"ij	c #1D2A2F",
"jj	c #142024",
"kj	c #16252E",
"lj	c #182730",
"mj	c #0E1418",
"nj	c #111E24",
"oj	c #121D25",
"pj	c #24373F",
"qj	c #1A2D36",
"rj	c #1C2F3A",
"sj	c #1D313D",
"tj	c #1D323E",
"uj	c #1D313C",
"vj	c #202C33",
"wj	c #1A262E",
"xj	c #131C23",
"yj	c #121B22",
"zj	c #0B1113",
"Aj	c #070B0D",
"Bj	c #243A44",
"Cj	c #1F313C",
"Dj	c #213743",
"Ej	c #223743",
"Fj	c #1F353F",
"Gj	c #1A2932",
"Hj	c #2F4048",
"Ij	c #080B0E",
"Jj	c #32464E",
"Kj	c #253B45",
"Lj	c #223742",
"Mj	c #21343F",
"Nj	c #223845",
"Oj	c #213643",
"Pj	c #203643",
"Qj	c #233E4D",
"Rj	c #273D49",
"Sj	c #243743",
"Tj	c #2B4452",
"Uj	c #253C47",
"Vj	c #0D151B",
"Wj	c #0C1316",
"Xj	c #1F2F39",
"Yj	c #213541",
"Zj	c #243945",
"`j	c #324F5C",
" k	c #385868",
".k	c #335061",
"+k	c #223943",
"@k	c #2C4D5D",
"#k	c #294857",
"$k	c #2D5060",
"%k	c #31596B",
"&k	c #2F596B",
"*k	c #295063",
"=k	c #2D5467",
"-k	c #294C5D",
";k	c #305B70",
">k	c #336178",
",k	c #305D71",
"'k	c #2F5A6F",
")k	c #2D5366",
"!k	c #2E5163",
"~k	c #2F4F5F",
"{k	c #2D4F5F",
"]k	c #2E5161",
"^k	c #355B6C",
"/k	c #294552",
"(k	c #355666",
"_k	c #294653",
":k	c #2D4957",
"<k	c #2C4754",
"[k	c #2B4350",
"}k	c #29414C",
"|k	c #141E26",
"1k	c #141F27",
"2k	c #121C24",
"3k	c #1B313D",
"4k	c #1C3846",
"5k	c #1C3039",
"6k	c #131E26",
"7k	c #131D25",
"8k	c #0D1619",
"9k	c #0F1A1E",
"0k	c #162027",
"ak	c #283D48",
"bk	c #121A21",
"ck	c #060B0C",
"dk	c #050809",
"ek	c #050A0C",
"fk	c #050B0D",
"gk	c #030709",
"hk	c #030609",
"ik	c #03070A",
"jk	c #05090E",
"kk	c #040809",
"lk	c #283A45",
"mk	c #1F2C34",
"nk	c #1E2D37",
"ok	c #1F2F3A",
"pk	c #1E303D",
"qk	c #1E323F",
"rk	c #1B2D38",
"sk	c #1C2F3B",
"tk	c #1E313D",
"uk	c #162730",
"vk	c #1A2B36",
"wk	c #1A2B37",
"xk	c #1A2C37",
"yk	c #1B2E3A",
"zk	c #1C2D38",
"Ak	c #1D2D39",
"Bk	c #182731",
"Ck	c #1B2B36",
"Dk	c #17242E",
"Ek	c #192730",
"Fk	c #22353E",
"Gk	c #111A21",
"Hk	c #1D2F3A",
"Ik	c #203440",
"Jk	c #21333E",
"Kk	c #213846",
"Lk	c #1F3746",
"Mk	c #1E3441",
"Nk	c #1E3543",
"Ok	c #203644",
"Pk	c #1F3543",
"Qk	c #1D3440",
"Rk	c #1D303D",
"Sk	c #1C303D",
"Tk	c #1B2C38",
"Uk	c #1C2C36",
"Vk	c #0A1113",
"Wk	c #0B1014",
"Xk	c #223642",
"Yk	c #233743",
"Zk	c #1F323E",
"`k	c #1E2F3A",
" l	c #213440",
".l	c #1F3440",
"+l	c #1F3847",
"@l	c #1E3847",
"#l	c #1F3747",
"$l	c #1F3644",
"%l	c #1F3645",
"&l	c #1D3341",
"*l	c #1E3341",
"=l	c #1C303C",
"-l	c #1E3340",
";l	c #1A2933",
">l	c #1B2A34",
",l	c #334A53",
"'l	c #10181F",
")l	c #253A46",
"!l	c #263C49",
"~l	c #273F4D",
"{l	c #27414F",
"]l	c #2A4758",
"^l	c #244051",
"/l	c #1F3949",
"(l	c #223D4D",
"_l	c #233D4D",
":l	c #203543",
"<l	c #253C4B",
"[l	c #284050",
"}l	c #243947",
"|l	c #273E4D",
"1l	c #233A48",
"2l	c #233B4A",
"3l	c #203F51",
"4l	c #203E50",
"5l	c #223F4F",
"6l	c #224153",
"7l	c #244558",
"8l	c #21485D",
"9l	c #234F66",
"0l	c #254D63",
"al	c #214559",
"bl	c #24495E",
"cl	c #214052",
"dl	c #214051",
"el	c #224051",
"fl	c #233F4F",
"gl	c #254353",
"hl	c #254254",
"il	c #264354",
"jl	c #284556",
"kl	c #254151",
"ll	c #223C4D",
"ml	c #223D4C",
"nl	c #223D4E",
"ol	c #213A49",
"pl	c #253F4F",
"ql	c #223A49",
"rl	c #233845",
"sl	c #223746",
"tl	c #213542",
"ul	c #1E2F3B",
"vl	c #192A35",
"wl	c #1C2C37",
"xl	c #273A45",
"yl	c #2E444F",
"zl	c #2F454F",
"Al	c #283B43",
"Bl	c #0B1519",
"Cl	c #2B404B",
"Dl	c #243C4A",
"El	c #253E4D",
"Fl	c #223C4B",
"Gl	c #243B4A",
"Hl	c #203441",
"Il	c #203542",
"Jl	c #1E3442",
"Kl	c #1E3240",
"Ll	c #1D3443",
"Ml	c #1E3B4C",
"Nl	c #1C3A4C",
"Ol	c #1E4256",
"Pl	c #173848",
"Ql	c #153547",
"Rl	c #173749",
"Sl	c #1D3F53",
"Tl	c #1A3848",
"Ul	c #1D3B4C",
"Vl	c #1B3949",
"Wl	c #213E4F",
"Xl	c #213C4D",
"Yl	c #1B3545",
"Zl	c #192D39",
"`l	c #172D39",
" m	c #172C38",
".m	c #1B2F3C",
"+m	c #1B2E3B",
"@m	c #1A2E3A",
"#m	c #1A2E3B",
"$m	c #182C39",
"%m	c #1A2C38",
"&m	c #192935",
"*m	c #1A2A35",
"=m	c #1A2934",
"-m	c #192731",
";m	c #111D25",
">m	c #101920",
",m	c #111920",
"'m	c #141D21",
")m	c #101D24",
"!m	c #132129",
"~m	c #1B2831",
"{m	c #161F26",
"]m	c #1D2B35",
"^m	c #1D3342",
"/m	c #1C2F3D",
"(m	c #1E303B",
"_m	c #1F303C",
":m	c #1C2B35",
"<m	c #16232C",
"[m	c #15212A",
"}m	c #16242E",
"|m	c #17232C",
"1m	c #162028",
"2m	c #19242A",
"3m	c #0C171C",
"4m	c #07090C",
"5m	c #000001",
"6m	c #0A0E13",
"7m	c #010101",
"8m	c #182127",
"9m	c #000102",
"0m	c #030508",
"am	c #020204",
"bm	c #040506",
"cm	c #0B0F14",
"dm	c #0B1114",
"em	c #06080B",
"fm	c #111D22",
"gm	c #030407",
"hm	c #0A1015",
"im	c #0E1419",
"jm	c #010304",
"km	c #171F24",
"lm	c #020407",
"mm	c #1E2A32",
"nm	c #161F24",
"om	c #12191F",
"pm	c #0D1318",
"qm	c #11181E",
"rm	c #121920",
"sm	c #18262F",
"tm	c #020507",
"um	c #151D23",
"vm	c #182026",
"wm	c #11171C",
"xm	c #020202",
"ym	c #030505",
"zm	c #010103",
"Am	c #172026",
"Bm	c #12191E",
"Cm	c #141C21",
"Dm	c #060A0F",
"Em	c #131C24",
"Fm	c #0E151B",
"Gm	c #0C1218",
"Hm	c #14212A",
"Im	c #141C22",
"Jm	c #19232A",
"Km	c #131A20",
"Lm	c #030305",
"Mm	c #161E23",
"Nm	c #060B10",
"Om	c #060C11",
"Pm	c #161F25",
"Qm	c #090F15",
"Rm	c #131B1F",
"Sm	c #141C20",
"Tm	c #010305",
"Um	c #151E25",
"Vm	c #13191D",
"Wm	c #04060A",
"Xm	c #0D1217",
"Ym	c #0F161C",
"Zm	c #06080C",
"`m	c #151F28",
" n	c #152029",
".n	c #1D2A34",
"+n	c #1E2D38",
"@n	c #1C2A35",
"#n	c #1D2A35",
"$n	c #21313F",
"%n	c #243544",
"&n	c #223341",
"*n	c #1D2C36",
"=n	c #1D2D38",
"-n	c #1E2E3A",
";n	c #1C2B36",
">n	c #20303C",
",n	c #1C2932",
"'n	c #1C2832",
")n	c #1A262F",
"!n	c #1A242C",
"~n	c #141B1F",
"{n	c #0A0F14",
"]n	c #161E25",
"^n	c #000000",
"/n	c #0E161D",
"(n	c #131B22",
"_n	c #222F38",
":n	c #1F2D36",
"<n	c #1D2B36",
"[n	c #1D2C37",
"}n	c #1D2F3B",
"|n	c #203241",
"1n	c #21323F",
"2n	c #21313D",
"3n	c #21313C",
"4n	c #1F2D37",
"5n	c #1E2B35",
"6n	c #1C2933",
"7n	c #1C2830",
"8n	c #1B262D",
"9n	c #1D282E",
"0n	c #1B262B",
"an	c #10161B",
"bn	c #11181F",
"cn	c #030304",
"dn	c #172027",
"en	c #0D1319",
"fn	c #111C20",
"gn	c #070D12",
"hn	c #15242C",
"in	c #16252F",
"jn	c #13222C",
"kn	c #12212B",
"ln	c #152733",
"mn	c #132631",
"nn	c #142530",
"on	c #14242F",
"pn	c #12212A",
"qn	c #12222B",
"rn	c #101F27",
"sn	c #121F28",
"tn	c #1A2F3B",
"un	c #1A303E",
"vn	c #1B3240",
"wn	c #1B3241",
"xn	c #1B3747",
"yn	c #183343",
"zn	c #1A3342",
"An	c #1A3240",
"Bn	c #1B313E",
"Cn	c #192C38",
"Dn	c #192B35",
"En	c #192B36",
"Fn	c #1E2A31",
"Gn	c #1D282F",
"Hn	c #253943",
"In	c #1F3441",
"Jn	c #1D3746",
"Kn	c #1D3C4D",
"Ln	c #204154",
"Mn	c #1F4559",
"Nn	c #1F465B",
"On	c #204E66",
"Pn	c #1E5068",
"Qn	c #1D4960",
"Rn	c #1F4F66",
"Sn	c #225068",
"Tn	c #224B60",
"Un	c #1B3B4A",
"Vn	c #1C4154",
"Wn	c #1F4458",
"Xn	c #1D3D4E",
"Yn	c #1B3342",
"Zn	c #1D3848",
"`n	c #19303D",
" o	c #1D3747",
".o	c #1C3442",
"+o	c #20323D",
"@o	c #1B2730",
"#o	c #0D141A",
"$o	c #121E26",
"%o	c #111F28",
"&o	c #13232E",
"*o	c #12222D",
"=o	c #12232E",
"-o	c #11232D",
";o	c #102430",
">o	c #112531",
",o	c #112A38",
"'o	c #112835",
")o	c #122734",
"!o	c #11232F",
"~o	c #10222D",
"{o	c #132632",
"]o	c #12222C",
"^o	c #101E26",
"/o	c #101D26",
"  . + @ # $ % & * = - ; > , ' ) ! ~ { ] ^ / ( _ : < [ } | 1 2 3 4 5 5 6 7 8 9 0 a b c d e f g h i + j k l m n o p q r s t u v w x y z A B C D E F G H I J K L M N O P Q R P S T U V W X Y Z ` Y  .U R ..+.@.#.$.%.&.&.*.=.-.;.>.,.'.).).!.~.{.].^./.(._.:.~.<.[.}.<.|.1.",
"2.3.4.5.6.7.$ 8.9.q 0.a.b.c.d.e.f.g.h.i.j.k.l.6 m.n.o.p.q.r.s.t.u.v.w.x.t.s.y.z.A.B.C.D.E.a F.G.H.I.j I.J.K.L.M.N.O.> r P.f.e.0 7 Q.R.S.T.U.V.W.X.Y.Z.`. +.+++@+#+$+%+&+*+=+=+-+;+>+,+'+)+!+~+{+]+^+/+(+_+:+<+[+}+|+1+2+3+4+5+D.6+7+a.8+9+0+M.a+b+c+c+d+e+f+0.|.g+h+i+j+",
"k+l+m+n+o+a+p+q+r+s+t+u+v+w+a.x+y+z+E.A+B+C+=.D+B E+F+G+H+I+J+K+L+M+N+O+P+Q+R+S+T+U+V+W+X+Y+Z+`+ @.@+@@@#@$@%@&@*@=@=@-@;@>@,@'@)@!@~@{@]@^@/@(@_@:@<@[@}@|@1@2@2@3@4@5@6@7@8@9@0@a@0@b@c@d@e@f@g@h@i@j@k@l@h@m@n@o@p@q@r@s@t@u@v@d w@x@y@z@A@a+@ o <.B@C@D@D@D@0.i+<.E@",
"F@G@H@I@J@f+K@L@M@N@O@P@Q@ @y+R@S@T@U@V@R.W@S.X@F Y@Z@`@ #.#+#@#U U $.##$#%#&#*#D =#I+-#;#D+>#,#'#)#!#~#{#L.n ]#^#, /#4.(#w _#:#<#[#}#|#1#2#3#4#5#6#7#8#9#0#a#b#c#d#e#f#g#h#i#j#k#l#m#n#o#p#q#r#s#t#u#v#w#x#y#z#A#A#B#C#D#E#F#G#H#;.I#J#w@K#L#M#f+].N#O#;@D@D@D@P#Q#O@g+",
"R#~#S#T#U#i+V#W#G@9+D@;@X#Y#Y#Z#`#B+ $.$S.@#+$@$#$@$$$%$&$*$=$-$;$>$,$'$)$!$~${$]$^$$#/$($_$:$<$[$}$|$1$2$3$$@4$5$6$7$8$9$0$a$b$c$d$e$f$g$h$i$j$k$l$m$n$o$p$q$r$s$t$u$v$w$x$y$z$A$B$C$D$E$D$F$G$H$I$J$K$L$M$N$O$P$Q$R$S$T$U$V$W$X$Y$Z$y@w@`$ %8+.%i+i++%3$@ @%D@#%$%h+%%",
"&%*%=%-%;%<.B@W#3.(.@ 3$>%,%7+'%)%!%~%{%]%^%/%(%_%:%<%[%}%|%1%2%3%4%5%6%7%8%9%0%a%b%c%d%.$e%f%B+g%h.h%i%j%P.O., O.6$, u k%l%;.m%n%o%p%q%r%s%t%u%v%w%x%y%z%A%B%C%D%E%F%G%H%I%J%K%L%M%N%O%P%Q%R%S%T%U%V%W%X%Y%Z%`% &.&+&@&#&$&%&&&*&A+=&-&;&K#>&P#,&l+'&:.c+$%@%0.)&h+%%'&",
"!&~&{&]&^&/&(&_&:&L.<&N.> y@-&[&}&|&1&2&3&4&5&6&7&8&9&0&a&b&c&d&e&f&g&h&i&j&k&l&m&n&o&p&q&r&s&R+t&u&v&w&x&y&z&}.6$A&' $@B&C&D&E&F&G&H&I&J&K&L&M&A#N&O&P&Q&R&S&T&U&V&W&X&Y&Z&`&Y& *.*+*@*#*e#$*$*%*`&&***=*-*;*>*,*'*)*!*~*{*]*^*/*:$K#(*S@y+_*:*0+<*i+:.c+].m+0.h+|.j+[*",
"}*|*1*2*3*4*5*R#6*7*n ;@y&8*9*0*a*b*c*d*e*f*g*h*i*j*k*l*m*n*n*o*p*q*r*s*j*t*u*v*w*x*y*z*A*B*C*D*E*F*G*H*I*J*K.K*3$s L*).P#M*N*O*P*Q*R*S*T*U*V*W*X*Y*Z*`* =.=+=@=#=$=%=&=*===-=;=>=,='=)=!=~={=]=^=/=(=_=:=<=[=}=|=1=2=3=4=5=6=7=8=9=0=(*I#a={ 8+}*b=P#c=t+d=i+<.[.h+)&e=",
"f=g=* h=i=j=k=k=_.l=m=> x+n=U+o=p=q=r=s=t=u=v=w=x=y=z=A=B=C=D=E=F=G=H=I=J=K=L=M=N=O=P=Q=R=S=T=U=V=W=X=Y=Z=`= -.-.-d.m +-L.@-#-$-%-&-*-=---;->-,-'-)-!-~-{-]-^-/-(-_-:-<-[-[-/-}-|-1-2-3-4-5-6-7-8-9-0-2-a-b-c-d-e-f-g-h-i-j-k-l-m-n-o-p-q-r- @/.i o d=,&$%s-t-Q#j+u-g+g+",
"v-w-x-y-|*z-A-B-G@N@3$ @C-D-E-F-G-H-I-J-K-L-M-N-O-P-Q-R-S-T-U-V-W-X-Y-Z-`- ;.;+;@;#;$;%;&;*;=;-;f%;;>;,;u&';);j=!;~.~;{;%%];^;/;(;_;:;<;[;};|;1;2;3;4;5;6;7;8;9;0;a;b;c;d;e;f;g;h;i;j;k;l;m;n;c;j;o;p;q;r;s;t;u;t;v;w;x;y;z;A;B;C;D;E;F;G;1$i%H;3.I;J;H;K;L;}*M;N;O;~#P;",
"Q;j R;S;T;U;V;W;X;Y;3$Z;`; >l..>+>@>#>$>%>&>*>=>->;>>>,>'>)>2#!>~>{>]>^>/>(>->_>:><>[>}>|>1>2>3>4>5>6>7>8>9>0>a>b>c>d>L#e>=&f>g>h>F+I+i>j>k>l>m>n>n>o>p>q>r>s>t>u>v>u>w>x>y>z>A>v>B>C>D>E>F>G>H>I>J>K>L>M>N>O>P>Q>R>S>T>U>V>W>X>Y>Z>`> ,e>h .,:*+,Z;d+d+0+O#E@0+@,#,$,M@",
"%,&,V;S;*,M#=,-,;,O#/.>,,,',l.),!,~,{,],^,/,(,_,:,<,[,},|,1,2,3,4,5,<,6,7,8,9,0,a,b,c,d,e,f,g,h,i,;;j,k,4*J*J*P#J*];~.l,8+m,n,o,Z+p,q,r,s,t,u,v,w,x,y,z,A,B,C,D,E,F,F,G,H,I,J,K,L,H,F,M,N,O,P,Q,R,S,T,U,V,W,X,Y,Z,`, '.'+'@'#'$'%'&'*'='-'^;-'{ ;'>','''b=b=<._._.G@N;)'",
"!'~'{']'$,^'/'('_':''&>.<'A ['C+}'|'1'2'3'4'5'6'7'8'9'0'a'b'c'd'e'f'c'g'h'0%i'j'k'l'm'n'o'p'q'r'4>s't'u'v's P#Y;@%P#6$s w'x'C.y'z'A'B'C'D'E'F'G'H'I'J'K'L'M'N'O'P'Q'R'S'T'U'V'W'X'Y'Z'`' ).)+)@)#)$)%)&)*)=)-);)>),)')))!)~){)])^)/)()_):)L#d>0+@ g+j+<)M@[)O#})r+O#{.)'",
"!#p+|)B-1)^.2)6$3)4)5)C-6)7)8)B+9)0)a)b)c)d)e)f)g)h)i);$j)k)l)m)n)o)p)q)q)r)s)s)t>t)u)v)w)x)y)z)A)B)C)D)E)F)G)H)I)*,J)K)L)M)N)O)P)Q)R)S)T)U)V)W)X)Y)Z)`) !.!+!@!#!$!%!&!*!=!-!;!>!,!'!)!!!~!{!]!^!/!(!_!:!<![!}!|!1!2!3!4!5!6!7!8!9!0!a!b!c!d!e!L)f!g!h!i!j!j!j!k!l!5$4$",
"A-_.|)m!n!o!t-p!q!r!s!t!N*Z+u!v!}'.>S w!x!y!z!]%A!B!C!D!E!F!G!H!I!J!K!L!M!N!O!P!Q!R!S!T!U!V!X>W!X!Y!Z!`! ~7+.~+~@~#~$~$~%~g!&~f!*~=~-~;~>~,~'~)~!~~~{~]~^~/~(~_~:~<~[~}~|~1~2~3~4~1~5~6~7~8~9~0~a~b~c~d~e~f~g~h~i~j~k~l~m~n~3 _ o~p~q~e.r~s~%~t~.~u~A&' A&A&m 5$v~1*Y;v+",
"W;w~1)x~y~R#z~A~B~d+C~E.D)D~E~F~G~H~I~J~K~L~M~N~O~P~Q~R~S~T~U~p;V~0;W~X~Y~Z~`~ {4;.{+{@{#{${%{&{*{={-{;{>{,{'{'{){!{$~~{{{f!]{^{/{({_{:{<{[{'~}{|{1{2{3{4{5{6{7{8{9{0{a{b{c{d{d{e{f{}~g{}~h{i{j{k{l{m{n{n{o{p{q{r{s{t{u{v{6 w{x{y{z{w A{B{C{D{m ,{`=E{$@^#A&F{G{H{F{L*c+",
"I{; J{%,K{L{M{ %N{t-O{P{Q{R{S{T{U{V{W{X{Y{Z{`{ ].]+]@]#]$]%]$]&]*]=]-];]>],]'])]!] ]~]{]]]^]/](]_]:]!#<][]r }]|]g!q~1]s~$~^{2]3]4]5]6]7]8]9]0]a]b]p{c]d]e]f]g]h]i]j]k]l]m]n]o]p]q]r]s]t]u]v]w]l{x]y]z]A]B]C]C]D]E]F]G]H]I]m.J]D.K]y{j%@~w L]B&M]N]c.u~=@, f.6$E{; m=P@L*",
"O]P]Q]R]S]T]k+*@U]#,V]W]X]Y]Z]`] ^.^+^@^#^$^%^&^*^=^-^;^>^,^'^,^)^=^!^~^{^$^]^^^/^(^_^:^<^[^}^|^|^1^2^3^4^G)B{s~*,%~5^e!! e!2]6^7^8^9^0^a^b^c^d^e^f^g^h^i^j^k^l^m^n^o^p^q^r^s^t^u^v^w^x^y^z^A^B^C^D^E^F^G^H^I^J^K^L^M^N^O^P^Q^u{R^S^T^U^V^W^X^Y^d.Z^`^s~ /f.m=F{P]=%c+r!",
"./+/@/+@#/$/z-%/&/s-*/V]h%=/-/u';/>/,/'/R{)/!/~/{/]/^///(/_/~]~]:/</[/}/|/1/2/3/4/5/6/7/8/9/0/a/b/s!-{c/d/e/f/#~! g/h/&~i/ /j/k/l/m/n/o/p/q/r/s/t/u/v/w/x/y/z/A/B/C/y/D/E/F/G/H/I/J/J/K/L/M/N/O/P/Q/R/S/T/R/U/V/<^)/}^W/6>X/Y/Z/`/6> (.(+(@(#($(%(+(&(*(-,=(6$-(n M.c+].",
":';(>(,(>('()(%/!(0+:']'s!~({(,,w&;{](^(/(((_(J~:(<([(}(|(1(2(3(4(5([(z;6(7(8(9(0(a(b(c(d(e(f(g(h(i(B-j(k(@~l(m(n(! h/o(p(q(r(s(t(u(v(w(x(y(z(1^y(A(B(y(B(>;C(D(E(F(F(F(G(B(H(I(B(J(K(J(L(F(M(B(y(N(y(O(B(B(2^P(Q(2^h%R(2^R(S(T(:'U(V(W(X(%,j Y(j R;Z(X(!'`(3.K.P#@ /&%@",
" _l(._+_R]@_)(, #_7../$_*(%_Y!&_*_=_-_;_>_,_'_)_!_~_{_]_v>^_/_(___g):_<_[_}_S!|_1_2_3_D*4_Y$o-U+5_6_V]7_8_9_0_g!f!Z^a_l(y&b_c_-/d_e_m/f_g_h_i_j_k_l_m_n_o_p_o_q_p_r_s_t_u_u_D~u_D~v_w_,;x_x_Y=<]H*H*y_z_H*,;;;A_B_E.m_B_B_o_C_n_g(D_i_e_e_E_h_g_-,-,% =,F_V]);8+'.G_H_y-",
"I_J_F@5)8.K_k=a+L_j=_&M_6)N_j=O_P_F.Q_R_S_T_E-U_V_D W_X_F ^$Y_Z_`_ :.:+:@:&#!,O+#:$:D+%:&:&:*:,#=:o!-:;:>:,:':$~g!$~8$):!:F*;/n!~:{:<*=,]:D~^:/:(:_:::<:[:}:|:1:2:3:4:5:6:7:8:8:9:0:']a:b:7:c:d:e:2/f:g:h:i:T{j:k:l:1/m:<^n:o:p:q:r:s:t:u:v:_]w:u_-,x:e y:& 1^a/).d M;L.",
"z:s-  A:1)B:C:-&D:E@E:F:];'%8*b.7);.G:R_&:H:B I:C J:K:L:J:M:N:*#O:P:Q:J:R:S:D T:U:T:V:I*W:X:Y:Z:`: <.<7.+<p~@<%~1]#<$<%<m,&<u(5*d+*<Z{=<-<;<><,<'<)<!<;<~<{<]<^</<(<_<:<<<[<:<[<}<|<1<2<3<4<5<4<6<7<8<9<0<0<8<a<b<c<d<e<f<f<g<h<~<i<d<j<k<k<l<j<l<m<n<o<p<k S(q<i_!.r<N#",
"A-s<t<u<S]$/v<w<x<0+*/y<J*K#`+c P_;.9*z<A<&:V:D+B 0*E O:B<D R:*#&#C<*#E D<E<F<#:#:-#l.G<H<I<M*J<K<l/i(L<M<p~%~1]N<q~O<o!x:I_P<i%Q<R<S<T<U<V<W<T<X<Y<Y<-<~<f<f<g<i<Z<`< [.[+[@[#[+[$[%[&[*[,<=[-[9<f<~<;<;[h<;<Y<T<T<Y<T<W<Y<>[~<Y<Y<,[T<'[U<U<'[)[![~[{[][^[/[2^I{([`^_[",
"F_:[1)U(z~j ~'<[[[[.:'D~}[|[1[Z$P_2[A<3[&:4[E*Q+P+P+R:U:V_H+4+0)*#C<=#*#5[C 6[0*0*V:S+5+7[H<J<8[9[0[s!a[b[2]c[$~%~q~d[m/e[i_)#3^f[g[h[i[j[k[Y<l[m[n[;[;[b<o['<><e<e<=[*[p[q[r[s[t[_<u[v[w[x[y[z[A[k<d<d<i<g<B[C[D[E[F[G[{<,<H[><i<n[m[g<'[i[I[J[K[I[U<L[M[P{<]N[O[b/^{P@",
"O(M;P[Q['(+_L@> R[/&h%S[z&T[1[C-U[l%9*9*`#V[W[E*X[D+5[C 5[*.H+4>L+C<K+=#Y[#:0*0*F<A H:5+Z[w<d d `[J;s!j= }.}]{q(%~+}@}}$#}d+$}%}&}*}T<=}-};}>},}'})}j<!}~}{}]}^}/}(}_}:}<}[}}}|}1}1}2}3}4}5}6}7}8}9}0}q[r[q[j<a<H[j<a}j<e<><n[b}l[c}e<,[,[d}>[-}J[e}V<f}p[9}9/w&g}h}i} @",
"I_j}k}S]#/Y()'p l}}.V]m}n}o}I#d z+P_F.p}q}A r}T_E*G+s}`>t}u}v}w}F<T:D<4+*.N+x}y}r.r.R_D&x 2[7)z}A}.@B}C}D}L_E}%~*,e.l}F}a/d+F~G}T<H}I}J}'[K}L}'['[L}M}N}M}L}O}P}Q}><8<R}S}T}2<U}V}W}X}X}w[p[h<Y}Z}=}i[Y<T<'[I[T<`}'[U<'[M}L}J} |V<V<I['[T<.|+|J}@|#|I[b}n[$|%|&|.<*|=| @",
"g_-|z~;|>|,|N;t~'|#, _w&A}2[)|r<!|7)U[l%q}~|{|9)9)]|^|B E-V:H:A A  >U+h,0*0*S+/|X:(|D&a w<_|_|N]:|<|1)a[[|g!$~Z^%~1]}|||1|9[2|3|;<*}d<4|d<5|6|z[q[7|8|9||<0|a|[}b|b|c|d|e|f|g|h|i|j|c|k|j|l|m|t[n|o|p|n|9|}<q|T}T}r|8<1<s|]}t|,<d<n[g<;<u|W<z[v|I}I[a}*}*}`}w|*'x|6/y|G_",
"m/z|+ + :&A|B|;@C|V#:'w&d+`;D|y@z}j%U[P_q}z E|T_F|()G|C+H:E*H|I|9)9)J|M+N+E+X!K|V[5+W:[$C&L|-&M|:|N| _!;O|P|`^`^$~`^Q|h(R|S|T|K}i[c<U|M}h<e< |*}n[W<V|8<*[z[W|X|n|Y|[}Z|`| 1.1+1@1#1$1%1&1*1=1a|(<-1^<4|z[8<><,<u|;[;1>}>1i<*};}i[O}V<V<V<V<I}T<e<;}b}-},[,1'1)1!1r:~1{1",
"]1L<=,|)&%^1/1(1_1:1P(j(,&d w@>%B& @<1;.[1F.}14_E*Z+A+A+ >S_6[|111E*F|F|D*2131U+l.',41;.U[L|w@L|51n_s!617181! $~Z^s~9101P{a1b1'[>1-<w[c1n[ [u|P}><;}c<~}d1&[:<<<e1f1g1h1i1j1k1l1m1n1o1p1q1r1s1m|t1u18<U|z[)<r|Z}f<^<e<V|v1n[T<V<I[L}O}~<V<I[h<d<k[w1)}j<x1Z<y1z1~(A1B1w@",
"V]C1R#D1D1D1B|a>k(';*/E1*@8+w@'.>%F1d L|L|o}G1 >6[C+H1E|E|I1J1K1L1),T+M1B+9=B+J|N1O1F.7)L|_|D|>%d+ -P1>'Q1R15^! S1&~T1U1V1W1X1O}h<-<Y1h<T<-[!<~<e<Z1c<`1c<]}u[w[n| 21}i|.2+2@2#2$2%2&2*2=2-2;2>2,2'2d16|H[,<u|h<6}b<)2V|n[T<T<T<'[i[*}I[V<>1d<b}8<~}T}!2b<~2{2]2x|v_^2y+",
"/2(2k R;:'W(}*)._2V#V]S|~..~8*:2M|@~<2[2L|}2`)|21222324252626[7282$!9202a2b2c2d2e2f2g2R@L|M|h2c.d+/2i261j2! 5^5^,{$~k2l2 (`[m2Z}i[k[m[n2o2'[)2J[i[T<h<><g<p2R}A[t[n|q2r2s2t2u2v2w2x2y2z2A2q[B2&[|<C2,<m[h[D2g<E2d<l[p2h<'[W<h<'[i[F2h<h<;<f<;[a<z[G2W|b<q|,<H2I2J2K2L2a.",
"+ M2. &,N2O2k+P2Q2G@*/$<A}C{d>'.x+'.7)r<L|R2S2T2z U2V2W2X2Y2Z2J1`2 3.3+3@3K##3$3%3y'7)L|r<X#>%,.d+H;W;j=&3! p(l(s~s~*3=3 (-3;3)[*}V<;<d1Y<;[-[e<d1{}>3,3Y1'3[<s1)3!3!33}~3{3]3^3/3(3_3:3<3[3}30||39|]<135|D223'<)<8<3343n[i[U<T<n[T<>1l[h<*[A[y[~}s|5363>373839303a3b3D|",
"m/c3L@d3Q[+_e3M.f3j=u(g30+.~h3_|y@:2L|L|i3j3k3l3m3n3o3p3q3r3s3t3u3v3w3x3y3z3l%A3B3C3U[R@!|t r<c.D3i%S(m}E3%~F3a_G3+/H3I3+(^;J3W<T<U<V<~<n[ |I[I[V<i[O},1;<c1d< [r|S}S}.[K3L3M3N3|30|V}v[4|.[,1c1p2Z}P}O3Z<[<d1n[*}c1h<;[O}M}I[;<i[l[k<>}A[d13<X|P3[<e<'[M}Q3R3S3T3g:U3!|",
"m/K.B@!'{'$/B|V3W361./a[d+X3Y3Z3/''.P.v+L|`3 4.4+4G1@4#4$4%4&4*4=4-4;4>4,4j.I#'4)4!4S@_|x+~4y@6$>,:../K@{4]4^4/4(4_4:4<4u'[4}4)[Y}'[U<*}C2T<h[H[|48<R}s|}<14}<:<A2243444546474849404[3a4b4,2c4y[8<S})<Z<d4z[><*}U<Z}'[U<U<T<h<i[H[e4f4X|r[g4h4i4d1I}V<I[I[U<j4k4x|l4m4[1",
"/2m M{n48.j e3o4p4{ d_a[d+i3_*q4v+;@M|<2_|r4s4t4u4v4w4x4y4z4A4B4C4D4E4F4G441t!H4I4`;S@r<X#w'J#6+];G@I_j=J4l() l(s~K.K4L4u'M4N4M}i<h<U<i[O4C2'[h<i[P4N};<~<;[Q}!<Q4R4S4T4U4;20|0|V4W4+[S}A[8<d<;[u|Z<c1i<)<;[h<Y<;<W<Y<J}T<v1h<o[x1j<8|T}x[X4c<W<T<I}Y4h<H}Q3Z4`4x| 5.5+5",
"/2E{@5!'$/#5$5- %5&5b/&|d+=@M4!.X#>%:2*5J#v4=5-5;5>5,5'5)5!5~5{5]5^5/5(5_5:5<5[541>.-&w'x+}5|5y@c>C::'.@15p ' _425v 35Q{0/d+45~<c<>1X<V<5565V<U<M} |N}'[T<Y<V|=[S}6|4<5<758595[<05a5+[z[h<g<*}~<Y},1p2C2p2Z}i[i[T<)[b5U<;<O4h[{<~}8<-1s|y[~<n[h<h<J}Y<e<Y}M}c5d5e5(:f52[",
"P<E{L@R]g5h5i5].q~];j5g3k5#~M4/'~4}5X#w'~4M4P#L./'<2l5m5c _*q4;.R@~4e+8*Z$ %d n5v+3$q4>%M|o5$@!.$<k i(~;p5q5K.P@r5l(s5q/t(`[t5g<8<'<,<'[-<H[T<H}V<'[;[Y<g<e<Q}S}+[7|u5X}X}v5t[U4w5'2S}'<)<><,<e<n[O3Q})[H})[U<V<'[I[;<>1i<!}e<G2G2d4(<x5)<'[>1O4n['[R}a<;<P}y5z5A52/B5z}",
"C5<&$5&%@5D5*%'{q~q+E5F5H;):b.G_~4/'G5> H5a.~4'.y@y@-&~4y+T[Z3[2R@_|D|d>w@r<_|:2>%>% @3$P.L.3$G5C}k ~(C}E3i3K.O.d.{{I5J5P{&|K5n[8<&[0};<V<V<d1i[h[;<i<0<=[=[ [4<u10|L52}!3g|}}}3V}M55<z[b<H[e<h<O};[;<i[O}T<V<'[V<;[p2`1~}d4~}'314]<N5755<X<i<v1>1W<6|'3~<i<O5P5E_Q5R5R@",
"n!S5T5S]U5V5v<O@r!_'2^}$>,`={1!.w+b.{1b.G5M4-&a.y@M4a.w@W5y+y@q4h :2c -&D|a.~4X# @ @v+v+v+/'~4v+>'(&./C}X525=@u _4=@Y5Z59/G;`5*} 60}/}i<'[V<X|.6i[n[e<b<b<d17|5<A2+6@6#6$6%6&6*6=6u[-6B26|y[;6O3v14|'[u|P}l<T<T<*}V|b<~}y[>6,6d4'6)6!695'2~6~}i<;['[%[{6p2Q}]6^6/6(6_6y@",
")&y-:6i/<6[6M2}6|61626)(e Y^G_d=w+G_b.{1!.y@36a.b.8+M4a.S@46568*66;&L#y+G5+,x@v+>%'.b.!.~4~4!.v+{ )(I_C}7686.-f.) c.96060/~.6=;[,<;2n|G2'[;[,<'<I[|4><~};[a6b67|_<c6d6e6f6g6h6i6j6n|U4+[#[k6Z}-<{}P}O3p2n[>1W<i[n[H[)<y[l6m6y[(<75[},2'6|<O3,<T<i[H}$[63-[=[n6o6q//^p6'.",
"q6d+r!M]r6`=i=Y3b>s6P<=,:._*c>b.G_t6G_G_G_!.G5-&u6v6w6x6I1y6z6A6B6C6D6E6F6(5G6~4X#q4o4~4!.v+b.P@H6k ~(O#I6`=+/$@f.f.J606K6L<K5c<s|x[n|Y1'[Z};['<M}T<;<Y<c1P}-[c<7|L6M6N6O6P644b|t[Q65<'<)<!<W<F2T<I[V<I[T<'[;[h<!2x1)<W|Q675:<s|z[}<R64<S6z[T6U6a6)[;<V6L}x1W6X6Y6Z6`6 7",
"9+c3_|z+.7+7@7I##7@ $7k+%7r<)|8+9+P#~48+8+M4M4&7*7=7-7;7>7,7'7)7!7~7{7]7^7/7(7y@M4/'!.q4).L._7m=H;(&]'%%U]`==@/#u~t~:7w:u'9><7R}-18|[7}7W<h< 6L}O3>1e<Z}P}c1e<,<)<+[u5|7U4X}M5<<5<U|S}v1;[O}'[T<'[k[O4;}h['[e<g<d1[<17$[5<!}27b4376|4727i|576777!287I[97J}07a7b7u_c7d7D|",
"@ ^.e7f7g7y1h7i7x L.=,/2F}368++,_7c>+,d=8+d=b.G5j7k7l7m7n7o7p7q7r7s7s7r7t7u7v7~4G5G5/'w'w7).v++-x7k y761z7;(c.u~' $@A7B7,/a[C7D7c<E7F7}7G7Y<y[M})[;<O}9<)[i<H[d1$[c4A2|377p|m|a5g44<6|r|=[Y<i<>1~<e4><>1h<'[r|8<y[w[0<><q[S}L6U4H7I7J7f|z2(3c|K7E[n[I[L7![-[M7N7O7P7~1t!",
"8>Q7R7S7j@T7U7q&&:e+V7);B|t~i +,8+d=8+8+/.G_G_W7X7Y7Y7Z7`7 8.8+8@8#8$8%8&8*8=8*5{1G5b.v+-8<&c+A&C}S;& ~;;8> $@=@.->8,8'89/e )8.[4<7<}3!8L}p2~8U<;[-[)2{8P}W|5<_<A2X}]8^8b|/8(8V}M5_8%[d<0<~<'6 [h<>1h<;<O}n[A[H[Y<87Z<0<-[r|j|:8<8[8}8|818284}85>}>1T<38b5>1y548B_586878",
"_*889808a8b8c8d8T_n}k=`(G@L*].d=+,n}P#/.+,x@h3_*e8-7Y7f8a2D|G5_*w@_*G_h3_*b.v+!.G_!.+~b>N#P]P@g8>,B|s!j=%~u ;@u h8.-9!i8P{j8k8l8/}S}5<8|O}V|}7;<n[r|`1m8C2n8}<Y|o8p8q8r8s8t8p1u8v8b4u[r[430<;16|*}p2n[i<-<b}*}T<>1e<0<w8&1x8y8z8A8B8C8D8E8F83}95H[87G8H8M}p2I848J8@>K8L8",
"M8N8O8P8Q8R8S8T8r.8+U8i_l/M.V8P#P#d=o #%8+d=_7;&e8W8X8Y8Z8M4_78>8+x@_78+_78+w+8+b.d=b.b>b>P@- %@X;S;s!j=):K., d.u~d.k2'8P{3^`8)<A2U4 9{}`}=[8|;<~<><.9+98<6<<<e1U}g|@9#9$9%9&9!8u55<%[c<'<-[;19<*9=9n[n[*}h<i<Y<h<'<-9;9>9,9'9)9!9~9{9]9^9/9(9!88<Q}H}_9`}:9<9[9}9|91929",
"3949596979899909a9e+% + H;P@e+n}#%Q<d=n}n}+,w+{1e8W8b9Y7c9d9>&A},&+,8+e9w+b>8+b.G_8+b.b>/.o - g8C}S;f9<|_4u s n5$@u g9i89/j(h9Q6i9L6|3'6Q3e<0|Z<O4b<d4j9!2O3R}=[r|7||7b6k9R4S4l8'<=[V|c1e4e<{8l9~}4|b<8<C2c1*[m[;[z[m9n9o9p9q9r9s9t9u9v9w9x9y924c<i<L}b<M}~<z9A9B9C9D9d>",
"^;E9F9G9H9I9J9K9L9g .<. #,M9n}#%0.0+Q<n}9+^'+,_*N9O9P9Q9R9S9X8X8T9U9V9W9G68+8>;&_7i o 9+L.b>L*M.X9~# _.@Y9p $@O.=@`=Z9i8P{j(`9B2 0.0+0n|X<R6Y|O3v14|T}p|87x1@0@013d4v5A2[<27-9c44|43z[8<>1e<m|#0W|W|b<>}=[O}!2><,<(<$0{3%0&0*0=0-0;0>0,0'0%0)0Y|)<p2b5!087!<~0{0]0^0q.(*",
"9>/0-&(0_0:0{1<0[0_7R|h_j=|.;'P##%9+@ <*}0*@9+b.|010203040-750k76070p7(5!5/.d=8+w+#%P#9+P#/.#%r!j=C:I_&|80t =@.-|6, 9000a0p<b0W|v5.0c0W}d0B2g|`}><y[r[U}Y<13B2@0_<i9N3V}A2l|v5e0c4U|'<o[>1>1m|!8y[X|6|q|;<M}b<~}8<f034g0h0i0j0k0l0m0n0o0p0q0^8278<87b5r0`}87s0t0u0X{v0'%",
"!;w0L#T[x0y0z0<0A0Y;B0% 1$<.'&[.*@*@i+n}P##%P#d=C0D0E0F0G0H0I0z6J0b9K0L0M0i c+#%D@@ 9+/.n}a+o c+I;N;I_~;N0O./#=@+/f.O0Z5@(;{P03<v5Q0c6M5R0d4S0O}r|E[z[i9Y}W|U|'6-2i9T0X}c4U0Q6V00}T},<{}~<h<|3}33<r|3<q|Z}W<b<@0)<8}W0/8X0Y0Z0`0 a.a+a@a#a$a%a27*[87I}8<M}V|&a*aC)X{=aI#",
"l/{ '&~.a[S|8+8+i+-a./% :.P#,&P#.,*@*@0.n}n}+,h3;a>aB6,a'a)a*7z.w.Z8!a~aX#i i+.%9+/.o s-D@#%P#(.{;{ai2i%]aP.> u~, ^a/a'8(a;{_aU|75:a<at[![X|:}c19<[a}ai9V|y[U|}7_<|<|ae14<Y|c4;11a|7c<{}e<|40|27<<2a5<{}i<W<8<X|r| 0W03a4a5a6a7a8a9a0aaabacadaea=[;['[&[M}p2faga]:han~Z$",
"iaQ;,|j jakah%U5_&S]B-k+,,|5laf+Z;*@*@0.i+*@P#c>!5ma20naoa8>paP#*@+,n}f+#%.%P#o 9+D@D@0.P#0.D@D@l+qaV]}$ra+-s $@, c.sai8P{tauaS}3<y[vat[)[8<U}O3Q}wa13e1Q}!}07Y1Q6:}'2Y|T}e1r[2<t[c4c<4|i<b<A2U}xa 2a55<p2Y<c<W| [v5ya|}za@aAaBaCaDaEaFaGaHaIa-9c<h<H}z[)[87JaKax_Lap}d=",
"P<MaNaR]A:+_|). s-/2:'OaF}#%Pai+g+V8s-*@V8P##%c>a2QaRaSaTa+,+,#%Q<i+i+P#P#P#f+P#D@P#i+P#*@d+*@%%O;)(O(`(Uaq4s s $@O.Va>/@(;{Wa)<y[/<14$['[Xa_}M}p[YaU|/}0<y[x185Za`a bU0u['6c<.b2<+bR}130<><t[@b|<|7{87|;[;<o[!2=[5<|3W0#b$b%b&b*b=b-b;b>b,b'b)bO4h<h['3i[;[!b~bA_{bT@66",
"~;;@]bA:&,,|;,X;N#X9^b.@~;/bs-i+i+0.s-i+j+n}n}^'(b_b:b<b[bi+[.[.<.s-d+V8i+*@n}#%#%n}n}(1[.[.n}b+:&+ B-F}}b @6$+-/#u~|bi89/1b2br|q|Y14|r|V<F[}7>1c<V0d1e0P}y[,<u1M6e|w5e1X|3b6|)6A24b435b0<8<6b6b 6437<4<V|'[|4z[ [3<L67b8b9b0babbbcbdbebfb(8gbt[=9;<T<b<![Y<H-hb,;ibjbq4",
"$7$@kb+_$/+_f_b>lbC}$( -,,0.lan}n}0.n}i+V8P#n}+,(b_b:bmbnbobpbqbrbsbtbubvbwbxb#%0.*@P##%j+D3*@i+S;M{!#)(yb~4O.E{6$+-zb>/+(j8Ab><z[}<p|_<i<j<0}8<;[>1m[BbP}~},<-1B2CbU|}7@0Dbp[t[Eb7|><b<;[;[o|Fbc45|g<3<0<i[l<o[)2U|a5GbW}b|g0/8j|Hb74%1Hbu8;92<O4>1'[8<;<;[IbJbY6KbLb>%",
"1$d.Mb+_,|Nb}*w+ }ObQ(<|.@#%Pblan}0.V80.f+P#0.8>)a_bQbRbSbTbUbVbWbXbYbZb`b c.c9+P#f+i+f+D@s-n}s-)(5*5)S;+c @;@P.O.r6@c>/0/7_#cf<e<Y1c4q[x[><'3{}8<q|!}$cD2f4e<u1'6M3u[Q6 [U47<E2%c{8-[5|*}e<n|75]<4<=[8<0<;<><o[)2135<&c:}*ci|=cc|!8-c=2f1w[ 0[<l[*}'[,<,1n[;c>c01,c'c8+",
"26N.)cn4R#5)B@Y;*~i%!c}$}$~cL<.%P#D@j+i+*@V8#%c>{c]c^c/c(c_c:c<c[c}cVb|c1c2c3cn}@%0.(1@%i+i+s-s-o!+ X(Oa%~;@s m=, > 4c,/5ch.6ci<d1q[7cG2`}>18c9cO4H[F[97O3~}e<0cQ6p|T4U|d<K3S}13j9+[e<43>1n[g4y[e<8<Z}e<*}h<><H[0<c<Q}=[.[{8m|T4acbcccx[+[!<i<W<J}U<T<o[u|n[dcecfc1/;_!.",
"k $@gchc,|ice[m5jc~;!c~#N;{ L<<*n}j+s-Z;i+D3kcQ<~4)alcmcpaZ8ncocpcqcrcsctc_6S@P#n}*@P#i+D@%%s-uc~#g_V(S;s~3$s ;@; }5vcwcxc%%yc)2><X|zc-1R};<b<v|l<f4AcX|P}'<b<}7B2}7}<d4=[q[]<G2Q6BcO4r|;[*}(<~}D[63'<b<>1.64|Cc0<)<-[N}DcEcS0U|V|n|b4a41<87Y<Y<U<U<b<H[;<i<Fc]2GcHcIcM4",
"M;E{kb%,h5$/Jc/.q~Kc!c~#Lc[.d+A}i+g+[.h+V8*@A}n}n}n}f+n}0.V8P#^'V8f+}0@%#%j+f+P#Mcs-i+s-h+s-d+s-S;f_X(OaZ^X# @3$s , NcOc-/laPc;[h<+[B2&[{8u|8<'<e<b}o[q|875|,<Qc85[<8|5<i<r[5<4<R}S}R}5|;[h<4<9c,[e<b}Rch<i[h<h<i<i<e<!6ScTcA26<85o8UcVc1<i<l<O4Y<W<Wc*}>1n[Xcec={YcZcc>",
"q+o5kbd3,|`c dw+B{i%2^m/.dQ#4*A}'&s-[.j+i+V8V80.^'.,h+0.@%0.0.V8s-[.j+0.f+P20.D@0.*@[.<.[.7.[.h+S;+ X(z-.-3$;@m=6$3$+d@d (9>#di<>1c<d<i<4<~<,<><h<b<c<y[i<><43$dC2=[Q}=[~<v1)2)2V|0<P})2.6T<+[d1>1S}g<>1*}Y<m[b<i<;[O3%d&d*dT4~<=d-d;d>d)<>1,di[~<;<y[>1V|-['d)d!d2/~dd=",
"B|6$]bA:S]{dF_l,80)#2^]dp+'&9>;''&.,A}.,n}s-s-s-P#.,i+*@0.Z;Z;*@Z;d+.,0.f+j+i+s-*@P#laV8d+s-s-<.k ^d,()(+/L.c+r!v+>%/d,/(d>'_d>1=9b}y[@0BcP}a6n[T<a6s|4<Y<r[4||a:d[}<d[d>2]8c4c48|-18<n[;[d<p[b<h[O4i[i[h<u|W<>1P};<}<)b}d8}87h<|d-61dFb9<u|{}h<i[f<'<e<)2)22d3d4d4/{|A}",
"S;, $5R],|R]]'b=_[J;2^~#p+'&'&d+d+d+d+.,V8[.d+.,Q<.,Q<[.P25dK*0.8+|5P#n}[.@%j+*@.,,&A}n}s-V8i+D@}$g_|$.@6dv+].4$ @%/7dwcxc3.8d>1!2m[o[n[d<`}W<O4)}e<8<b<'[y[9dd4Y10d)bv5s[,2&[z[d1z[><,<7|ad&[8<*}><&[r[n8 0BbO4i<>1@[}<bdA[cd4|w[:<M[A[Y<T<>1*}`}>}4|43p2`1ddedi_R/fdgd",
"B|P.L@hdJcW(I_N#id)(B-_'l/H67.[.d+jdD3kd.,ldmdndodpde+P#i+qdrdsdtdudvd0.n}.,wdxdydzdAdBds-0.i+i+1$+ !#o!Y^g w'L.;@N#CdDdV1a[Edu|F2k[_9u1X|,<9<b<B[*}F2Fd |e<a6,6b4GdHdc4c< 66|O4IdA[h<V|0<,<F2h<V<L}d<r[ 2Jd*1KdLdMdNdOdPdQdp|6b/<(<Rdc}l[-}*}>1h<j<'<d1A[=[SdTdUdVdWdh3",
"c=; M;D1R;R;M{XdYdl/i(ZdF}0.0+`d7.0+D3~.X7 ezd.e+e*@^'n}@e#e$e%e&e*e/.|5^'z =e-e;e>ec>s-7.s-s-i+Oa+ 5).@l(#%Y;N.;@).i3+(]1$<EdW<H[s|q[,ea56|N}Z}87,[h[D[L}O4*}~8O6Q6X|X|d<U|3<r[Qd5|;<87T48};[i['[o2=}T<W<3<c4$c7}e0^}'el<)eF2m[e<a6m[b}b}b}h[d}~<'[i<b<U<0<!eJbg}~e{e8+",
"C:q /1+_]eV(+ .%,../d_Zd:.<)~.O#D3'&%%^eyd/e(e_es-.,V8:e<e[e}e|e1e0>h3+,2e3e4e5e6e7e7..,s-D3D3laZdf_X(J;%~b>c+P@3$v+8e9e-/e 0e [43p2;[)2z[!}Z})2W<.6h<H[L}e<;<8<aes|4<'<e<'<!2b<{<'<Y<T<6<z[I[=[;[V<l[c1`}ben8q|R6H[A[ 0l[ceb}b}~<;<b}i[-}b}T<T< | |P}e<'[e<deeea/feH<d>",
"Lc^#M;d3R]5)k+ge{;_'S]k+J;r+hed+'&'&D3ie%8jekex'*@}.lemezdneoepeqem,resete-4ueveweQ<.,.,7.~.L<{:P<f_5)k S1w+c+L*!.v+X3xeUdx7yeze;[9d9dX|Ae)<W<P}U<Beg<><G7;<~<*}e<d<d<>1'[=9n[O4n[i<'[h<*[43I};<W<'[i<)[Z<a|CeDeWc@0Eeg<b}FeF2l[Y<;<i[T<J[V<-}Ge |I[i<e<k<,<HeIeE_ ^JeL#",
"B|6$$5KeLeB-5*Z;/.MeV]M{.@$<{ D3'&;''&NeOePeQe0>P#{cteRe&eSeTeUec>0>VeWeXeYeZe`eA}i+ f.fV8D30+L<_'f=u<)(ido 9+b.q4!.Vah(+f9>@fg<y[D[>1><{}i<'[*}T<h[;[i<L}'[N}>1e<*[*[e<>1~<c<><d<d<T<Y<;6d<b5T<Y<[<]<O3}<s|b<d1b<~}#f*}b};}b}-<V<$fU<I}@|%f@|#|&fBe;[r|e<><*f=fE_-f;fd>",
"S;4$L@V(&%>ff=/'[]Obs!a/267.lad+Pa,f%%^e'fP#Q<)f!f~frd{f&e]f'&c>:*^fte/fAd(fM8gd_f:f<fD4kcd+;'i+i_M{u<S;[f}fw+G_b.b>|f>/]1!;1fX<h<2f;[j<{})2I[;<V<T<U<h<3|o2U<T<.6a}*}P}`}M}O})[Y}i[I[V<'[e}o2Y}~6Y<)2>1{[+|s|]}Ae3f05b}b}-};}I[J}h<.94f5f6f]<7f8<e<=[r|p20<8f9f0f@^afH5",
"B|n }*T],|,|bfcf+%U(%,-,S;;'$<{:L<%%%%df[.*@*@7+efffgfhfif0+7.n}jf(fkflfmfnfP#}0ofpf@3qfd+[.{ '&/[f_5)S;c[d=i w+o4b.j%>/rfa[sfX<87.6W<l<{<~<V<i[J}T<-<Y<P}g<n[b<d14|b<X|!<h<,<n[n[j<>1h<i[k[-};<'[e<V|U<^<,3.99cY1,d]<h<=}h[-<tfU<;<ufj[vfa<n28cF[T<T<F2V<u|wfIe9/@^X:39",
"S;%/B@xfV5xf$ yf /X;P[h_)(o!'&0+{ t-'&d+<.s--&zfAfBfCfDfs-4*~.EfR5pcFfGf*5d+D3reHfIfJfKfs-'&<.h+/[}*Lfz-' G_w+b>g +,Mf9/j5NfOfu|Z<U<'[n[m[;[;<I[-<*}m[c<z[d1s|Y1:<w[!8[3Dc|3m|t[Y1,<t| 9b<,[i['[J} |)2;<Y1{},3+|Y1bdv|Pfe}h[-<b}BeBeI}@|d}h[;}m[l<,<n[.6T<M}QfRf9eSf-_Tf",
"B|%@@5|)Ufja}*l=Vf!;|$% $77_m}a[{:b=/&D3d+0+0+0+D3jd0+L<d+d+~.Wf51d+4*d+d+0+d+A}jd/&E@;'g+0+$<d+Zd$ B-}*<&.,o !.G_i Xf@db/YfZfY<i[-<V<a}'[;<'[a6a6,[;[H[a<`fW|q[|<M5!8 gW}X}[<s|~}b<j<|4+|m[,<|4;[;<H}.g{<+g+|d4.9v|+g;}d}@g-}@g#gm<>}l[o2#|$g%g&fi[h<;<;<`}&g=f*g=gF.-g",
"qaL*M{'(;gX(B@~ch8}$jaO]=,>g~;;'{ ,g<.'&0+O#;'L<d+J*51:|jd519>h.51~.L<;'~.;'0+~.L<C}t-'&>''&{ PaOa$ |$k 'gY3w+n}m5w+):u'b/1bOfu|T<)g.|-}i[ |l[j<+gm[&[4|!g6|t[6b|3O6I7~g{gW0049|8|c44|y[s|63`1H[,<v1;[Z}h<,}38D[y[>3,}]gi[-}h[h[@|Bea<b<h[d}^ge}J[)gJ}BeJ}N}/g(g.<(a_g:g",
")(a>k=V(R#5)e[Q#6$_.ja<g/2G;>,;'O#;''&;'{ ;';'~.~.9>51L<;'jd[g9>h.9>$<$<$<{ ;'}gL<'&~.'&k5'&3.g+Oaf=B-1$l=w+/.i |5m5+}a/d_G;|gU<V<)g@|;})g1g'<a<>}a<B2s|9}_</<U}}3442gy2,b3g g#0|<_<w[ 6@0!2,60}'<,<x1i<V|=}T<>}>3v|j<d}k[-}e}4g&f#gn[T<BeI}o2Y<5gb}6g'[I[#g7g8gb/a0`#c/",
"z-P#F_W(f_Y(g_+,H.l/P[h_. g3j=A0#,{:t-I;>,$<{ %%$<$<;'9>~.[g~.0+a[$<~.a[$<~.'&'&O#0+$<'&H6%%H6[.)(9gLfm/G{o e+d=Y;t6e.1|0gx7agbgZ1cgGe#|B[38C[vfXa4|~}.997]<}<14w8=22gdg+22}V}271<X|(<z[97U|><147|~}e<ege<h<O}J}U<p[i<i[cg@|o2fgggBe;[h<m[T<'['[=}d}h[d}>}hgig>cb/+fjg9[",
"N[^'F@%,y7,|-,9>Z#:.jaP<L@j8>,>,I;t-j=p+61$<>'3.$<a[[g;'9>$<9>0+$<;'{ ;'$<L<L<;'O#{ { 3.>'b=3.t-j_  u<ZdZ;0+].n}b>~.801|I{~;kgw!lg'[O}5g)}mg+g>[ngX|Q64fs|v5U}i9}}ogpgbaqgn9P6l|#0|3[<w[rgn813j<s|4<13'<+g8cH[n[.6V<J}.|)g)gGeo2b5J}V<*}8<u|E[F[b}J[d}sgtgug^fg3vgwge>:|",
"`(#%  %,j V(k+xg 7}$h%<gL@&|~;j=a[j=~.G@>'3.{ { {:{ m}C}619>~;[g~.C}{:;'{ O#9>;';'X;$<I;>';'>'{ }*ygu<k+zg9+w+i i n}e/*(E5AgB|BgF,t;CgDg`fB[l<a<q|s|T}6<8|_<U4p|04EgFgGgHgIgl|#004A2g4u1$[+|G2d19<13W| 9d1j<BcH[a6>1Jg-<V<I}o2e}I}U<V<T<Y<'[e}>1Kgl<j<LgMgNgF59eO(K6OgPb",
"PgQg~:V(u<%,& RgP.o!E:<g. j=p+~;x7p+3.m}j=j=m}>,A0p+~;H;{ { m}[g[g9>~.a[$<>,j=$<x761{ j=>,>,61{:m/SgTgf_e.b>,&e+D@<*UgJ*F5%(R|}$VgWgXgl<b<E[v|!}QcR6}<Y1Yge185Zg`g h.h+h@h#h$h%h&h*hZgva6f7}=h53^}-h;hP7>h,h8c'h=hV0Bc)h+|`1)h!h`1;<b}*}d}#|@|e}e}~h{h2+J+M;]hi(F5^h/hNf",
"/2QgM{(h#5d3x:j+>%_hX(=,N[N[.@0[I;j={.p+j=C}{.>,C}j=m}m}{:a[a[m}a[$<>,{ { { m}:h61 <61~;}$S;-a61)(<h[h`(s w+i+la.,%%b>}hg F56_W#G@q'|h1hH~2h3h4h_;5h6h7h8h9h0hahbhchdhehfh#dK5ghhhihjhkhlhmhnhohphqhrhshthuh_(vhwhxhyhzhn%AhBh1hChDhEhFhuh4hGhHhIhJhw!KhLh~(I_LhEfMhNhm}",
"f_Qgk+T]Lf,|6_[.s 1$W(<g`(ZdF}N;{ K@>,x7I;>,>,I;x7j=j=$<e j=m}a[m}m}a[{:{:a[a[61e j=x7>,~#p+.@k + Oh5)m/E{/.<*d+.,s-n}t PhQhG@F_I_/2Rhz ^|Sh<$ThUhVh~|T_V:WhXhx}#:YhL+Zh`hg, i.i&.+i@i#i$i%iV=X!9)h,&iE*V+~|*i=iThT_w}R+r}C.A<-i<$;i>i,i>i,i'i)i'i!i~iq+u(& {i]i^iCd61h.",
"=,/iM{T](i,|.<'&_i1$:iF_/2`(26M@{ }$j=j=3.3.>,>,j=J;H;m}~;x7)#e x7~;m}61e e e ~;$<a[C}G@}$<|_'_.qa<i,([i, e+la,&'&Pb<.%%/ }i78~;i_V]k=x:+f+f9e|i9/*(u'K6;/h(u01iUdUd2ia/u'Ud2i`(9e*g3i]h3i+(xcg}Udwg9e1i4iGcp_r_5ia0o<6i(dP{9/K6P{wg-/!17iJ2~(u(X]././^b _8i299i0iaix7{ ",
"h_bi% ci$/ic./H6di1$v&U5K;`(S;}$x7$<. ~;j=p+>,H;~;j=I;j=g3F5&| <g3!;:1i%~;~;x7e -ap+j=~;<|.@j_)([iI_V(% -8.,PbL<d+s-d+d+<.i+eifigi]d`(-,<g.<`(<gA|3i!1*g3i!1|iu'u'i_higihihio!hiiijiN|i__'tag(/[<'l_-,*gK6|i|ia/g}]h3ix:3i9e/[gi<'kiK6!1*gwg]h[id_]'.<./g(7_liX:&|>,a[C}",
"/2McF_ci!'@_J{h+mi)(X(NaO]U5k=h_=,m/+ O]N[=,N[h_6_k+.d%7N[-,1$_'_'F}o!ni1$}$m/m/}$)();_'-,oii(O]S(V;piO]D@s->,'&b=/&'&[.'&D3 @qiP#n}+,x')fv+G_pa:*d9M8`e0>ri-'sih3si:)ti46uiviwixiyiziAi46BiCitiDiEiFiGiHiIinfJiKiK<F;LiWfh3kcEfgd:*];Q<-'Mi.,519>4*51@,NfNi7[9>[g,,m}$<",
"5*M9n!Q[S]$/./,&Y;m/X(% L@$,$,#,''g3{:m}>,:.1$A09>D3;:V8:|F;OiLiF;Pij(51j(4*/2e ]hS|g3Qia=1$V#i%g_B}R;h_RiL<<*d+.,<.[)h+D3SiO#TiUi#<X3[]ViWiXiYizb+d5 |fZib_`i jr(.j+j@j#j$j%jHf&j*j=j-j;j>j>j+dw{Nhw{w{w{,j'jzb)jXii}_{!j~jp~{j{j8e]j^jL],@/j(j^j_j:jZ3>.p}O#$<{:>'$<{:",
"{aM.k=Q[{d+_<jQ#[jS;X(& . L@. B|%7m/~#:.S;3.b=:.0[~;i%~;J;i%V#)#,,.@J;H;H;-a.@x7e5<|}$~#k j_)(k [in!hd=,Y39>L<d+}g>'}jj+<.[.O#Z;s-L<'&n}<.;'d+i+4*9[.,e+n}9[:|.,|jucuc9[9[`[4*A}-'K<red+s-ucA}:|:|L<`[:|L<:|la<*<.<.$<L<$<S|9>}gL<:|L<4* <$<$<L<0+D3>';'L<;'l/$<{:>'{:>'",
"1j}j2j+_V5T]i({;w7)(W(F_z-qaqav<e3k k J;k J;S;{(J;.@i%i%J;{(J;$_,,i%~;i%p+3j-ag34jx7}$.@.@~#. j_% 5j,(h_l,J*q+>,;'d+s-g+6j<.%%g+d+<.L<;'}gj+d+s-L<:|A}:|9[.,n}laPbla:|7jA}L<L<`[A}A}('s-4*Pb:|4*A}d+A}0+L<L<L<;''&L<$<9>d+Pb9>;'PbS|9>>';'$<{ a[0+$<61h.~.;'{:C}I;{:C}j=",
"M{8j>(D1(iA:9j}g/')(|)R#z-z~e3e3S;)(S;(&k 1$Oa}$F}1$$_.@OaJ;,,$_o!$_H;(&H;p+,,)#i(i%o!.@k m/M;)([i0ju<]h<*S|5126$<$<O#b=%%'&g+'&d+L<;'}g,f9>L<d+9>:|4*:|d+h.laA}lalaPbPbd+9>L<S|:|Pbd+Pb9>NfL<9>9>S|J*d+<.;'619>$<$<$<;'aj$<:hO#[g9>;'$<C}9>;'$<{ ;'C}a[$<6161>,_._.{ >,",
"M{~cbjd3V(,|u(9>b>k+R;I_O]% M{I.Oa)(S;L@hik_`(j_$_N|g(`(-,`();_h,,$_o!J;,,J;}$J;./,,}$L@_'1$. _'A5& pi% Y;e ,&a[,fH;<.'&,gi+,gPb:|d+;'O#{:d+A}d+J*9>:|4*7j:gPblalad+Pb~;$<.,A}4*cjPbPb:|:|cj9>L<:|9>L<d+}g'&<.$<;'$<a[$<O#$<$<;'$<~.}g:h:|S|7_9>h.x7a[^[h.{:j={:>,N;-aj=",
"M{bi;|ciy~R]u(djej}*E:|$U5V;n!z~OhR#F_i2U8*/fjn!]hx:<g3i6_i(6_<g% ]'z~F@z~~:V7Uf!#O];,R#]'F@& 0jgjA-j & e3^dN;S;(&H;S;N;S;qaqa~#OaS;Oam/t+q+1$_'/[e_}$$_<|J;C:(&~#N;p+a/,,. + S;I.)()(j_. . I.m/)(. )()()(m/(&I.1$Oa#,$,k N;}$hj{a. L@+ z-k+N[/2m/% e_k+L@M{+ . I.=,. y:",
"=,|.2jhcy~#5^bA0ijm/!c% v<f_j_>,.dxg{;)&g+jj{ $<$<[g7j:|:|J*9[9[Likjlj^;29Ki-'`[*<m,,,red+.@]di_q+s!!'i2F_;,[iM{O]`(M{N[mjl/hita.@<|ta)#g(i%~;i%a=i%ta&|;{E1j8w&F5w&tag(njojw&F5g3~;~; < <{.V#~;j=H;>,m}H;,,taM_g(F}$_k_hi}$F}o!1$S;{(.@)(Oa -$_{(.@J;}$}$-,.@]'N[N[[i5*",
"]h#%bj{'&,{'d_C}pj`(W;his-m}L<9[,&i c>H5{1Liqj:)W5Z#rjz@e>f>n3n3_)sjG1tjOgujN_ujn=!4F;o}-&)|)|];J*_'!#F_L.J;e_f_[ih_g_e_F@vj~;E1C}$<C}.,i+<.0.Q<|jA}e+i+u-.,e+|jb.{1H5e+d=66y0H556Efucuce++,e+e+m5b>9+8+lai d=t6.,n}wjL<s-wjs-Pa:|;'$<9>,f~;:|Pb,fPbJ*h.a[1$e + . xjOayj",
"M{/.zj!'AjY(i(,,51xcv&E1)|>,L|56d>P#a.y+c {5BjZ$e>Cje>=&`#&:=84[4[Y$-.-.DjEjF.:5G1Fj*:`$g2_|-&G_GjPbW;% + ]'S]U5g_F_h5>(q+{ m}617_e e C}61a[a[m}m}e a[e m}&|a[[ge 7_7_C}[g!;e !;F5:1:1a[7_e a[e ^[h.j(S|e m}!;!;7_[g <m}C}C}C}x7j=H;H; <g3)#x7g3 <~;Obi%0[:.:|l/bfJ{]'O]",
"b=HjL@V(Iju<.dO@JjF}P[]dre$<8>{1 7y@-&<[Kjc 8eZ:LjMjNjOjq}DjPj&:H|QjZ[7[3[a$EjRjSjTjp-Uj;.:jx+B&/'a>n!fjyjj=W;<gh_Vj% ]'Pba[>,617_&|e a[61!;x7g3&| <e C}e 61a[^[j8h.h.a[a[ <x7a[m}e &|7_e e e e a[Nfh.p<e G;E1e Yfe 61Qia[61>,g3-ax7x7 <g3g3g3g3J;)#i%H;p+-aH;~;Wj6_h_]h",
"k+M.F@$/!'m!OaO#Q@-,h%a/hiXje/YjZj`j k.k+k@k#k$k%k&k*k=k-k;k>k;k,k'k)~)k!k~k{k]k^ku./k(k_k:k<k[k}kL)P;x:61{()#|k^[Pa)&Paa[m}6161e 0[m}&|m}e C}a[&|x7g3&|j8C}m}e e a[61x7&|&|&| <e e &|e e e j8a[ <x761e a[G;e g3 <1ki%e C}p+~;ai2k61j=-ax7J;.@~#1$)#i%0[-aH;H;J;(&aja[|k",
"z-`=+ X(k=:'OaD3J#o!^b|$,|.@{:7j)|@~C{x+:1C-Y!qjL93k0=}1!4n-4kA+B.3k ,3kG1K#uj5kWdI#y+w<o} %-&;&l,b>3i2i$<x7e :.}$H;I;C}61>,m}j=>,i%m}!;C}m}e &| <g3i% <)#g3m}~;~;~;g3~; <&|6k&|e &| <:1e a[j8a[a[e C}e 7_j81ke a= <g3i%~;j=i%~;0[g3H;~;7ki%<|~#J;J;i%)(,,k ~#.@<|k )#p+",
"h_0+8k<g9k./<gG@}.6_a/9>]'+ $<,,$<;'m}}gm})#a[^[a[$<dj0+L<9>h.^[9>J*S|S|9>:h:h;'$<C}$_[g9>d+9>;'G@a[~(niO#~;J;p+,,~;j={ '&dj3ja[613.X9$<9>h.{ 3.$<[g!; <7_>g7_G;7_ <&|a[x71k610k{:m}e !;e $<h.3j$<~.9>L<L<^[7_e j8e &| <G;e x7~;-a~; <0[|k~;>,-a613j-a1$ -_',,{(yjOaOa1$",
"N[x:E@D@n}{.9g<j9j/2PaakI_bkK<>,!;e 61a[e 9>j8j8a[a[a[$<a[7_e a[:hNfh.:h:h^[a[a[~;;'$<[ga[a[Qi,fX;<*6_Q;P[B-|$ckS]S]V(|);|#/dkS]Y($/$/S]S]Z(j V(ek!#v&:i:iX(ekfkE:X(R;n4E:w(:i:iW(ekW(n4gkhkZ(q<n4v&R;ikR;Z(n4X(5)|$|$X(1^1^jkE:X(R;R;Z(E:X(u<X(|)kkS]j kkY(S]{'S]S]B:Y(",
"+~|5^at y@t!lkr!9>d>>.mkU(5*Pb;'{:x7a[a[a[e &|g3a[7_C}m}$<e $<9>~;h.7_p<h.h.~;j={:;'[g$<a[a[61,fd+wj`(K<J*9>uc.,`[y0q4l,h3d+)&M@y0l,t6s-y0D|nk1[W5W5okt!662966+7z0pksjqkrkskrjtkuk+7I#vkwkvko,xkykvkvkvkzkzkW5Ak@7vkY!29BkW578t6Ck0iCkDk^h`[d=l,Ek'&$<~;J;x7Yf~#a[-aJ;,'",
"P.P.FkJ#X#R@Fk+,L|e>_gGkB-=,$<C}61>'$<e e g3 -g3 <~;)# -V#~;)#g3>,x7g3j=0k>,l/{:j={:9>!;C}61}gdjajd+[iHkTfZ$7)2[Ike>g2Jk0i66Mj39|[e>g2C-M*P_C-g2e>(0ykY$u!S_-.KkNiLk=i=.[&V+MkY$NkNkOkPkPkOk=_tjQkY$Mk=&.7yk(0RkSksjtkL9rkvk[4vkzk[4Tkxkrk(*J*8*Pbuc,&Gjla{1Uk7_ 77j|j,&",
"<&f..~P.L|Y#x+'./jDjA~h_Lf;,3.x7>';'>'x7)#+ s!1):'././J{J{U5U5& Vk9j& F_]';,gj]'F@Wkla9>h.9>a[61dj;'x:7)XkOg7)Cj[$Ykz+Zk`k+7:5`ke>Z: lz+e>p}`#.l|[=_Shu!=iH:u!h>+lF|@lh>UhLk#l=i;_ShY$$l%lPk&l*lSh<$NkMk-_4[jgsjsk=ljgjg-lsk+7+7+7HkHkrkzkW5;lA@78l,GjGjy0;'>l]id=:|7je9",
"p(f B{r~]jd.y@F1!jb_,l*gW;O])#g3:ha[m}x7'l./N|1$1$,,i%g3{ X;3.;'0+ <~;j=j=>'I.p+. Wj -a[619>^[{:Qi9>_'5]V^V^)l!l~l{l]l^l/l(l_l:l<l[l}l|l1l2lXht}3l4l5l6l7lC]d~c]8l9l0lalblcldlclelflglhliljlkl(lllmlnlolplqlKkrl}lsl*lMk:l:ltlg2[$Ik[$@7@7rjHkxkulN]1[8*0ivlvkxk3^Hk29wl",
"+-N<h8xlyl9$jc^{O<zlAl]h|$Kem/);Oao!-,Oa6_1^e5BlLhK6|il_S[N|giS[ <f(A_giGcgigikiP1|$a/S;D_F}o!k )(hi-,Clw <[:jJ<EjDlElFlPkGlOkHljgQ_IlJl:lKlLl4_=.&i@lMlNlOlR PlQl..S RlSl%iTlUlY[YhVlX@Wl^lXl%iYlLl&i&l;_Jl~d-lZl`l mRh.myk0i+mtj@m#m$m%m&mhb='*m=mUk^hBkBk1b`:n_ lFi-m",
"+%I;C:{ %%[)[.g+x7S|9>./ek./_.L<.%i .@9[P#<*8>].Y;w+=%6$n n ;@o4V3w'w'-84.<&_ic.'.:2i .%Hk)|x7s-i%t-./9+61:1L<L<;'9>g3a[a[p+)(p+0[)#_'w&7kp+~#}${()#)#a=ii)# -,,H*{(;my<w&a=;m;my<H*)#<|{(2ko! -)#0[J;N|o!ji,,$_ -$_{(k_o!{(ji>mo!N|N|o!,mhiOaOaOaZdO]^diiOai_o!s!C}O]. ",
"}*:.c=#,'mN;)'z-k=i%7_i(,(i(B|S;.@H;]'E.)#)mnj -.@ -)#)#a[&|Yf&|x7j8j=g3&|i%)#&|&|Yfx7e e x7~;x7  0[s!e+>,%%i+9>'&h.{:s-.,i%p+l/X(|$A(n4X=n4A(|$O(z(z(R(R(w(w(R(R(n4Z(X(E:O(A(h%2^A(A(E:1^E:2^O(E:!#X=E:1^y(E:=/y(y(X=X=X=q<n4X=X(X=X(E:E:X=R;n4hdv&X=n4V(Vji_1$h_a[N;c=",
"l+C:,'*%*%#,&@61J;$<!m-:1^./F}}$S;k o!hi)#S[w&n_z_oj;{F5i%I;j=)#F5~;-aj=a=-ai%a=!;J;e 3j)#a=i%i%x7~#s!~mL<PaO#a[$<dj61d+A}J;{mLf1)%@,&]mq4o4m5nkw@I#d LjjgZ$=&OgSk*l^mLl/mZk(m_mL829TfGj:my0l,:mm5t6]m)|^h<m[m1b}m[mNf|me [m:|Pa;':h1m3.3.''|*#,hjOa)({amjLfe_Gk;,j8@@@@",
"#,t+_.,'I;M@p+Lc-a-a&|F_ekF_S;S;J;J;;,C5U5kkW(X(X(5)5)ekW(X(W(Z(n4S]j n4Z(S]y~S]S]X(LfAjN;x7i%0[0[m/ _i+{:$<>'>,;'{ >'L<>'yjn!z~2mm/Oai_i_/[-,`(a/9/@du0K6|i3mu'4i>/9/,/u'2i);|i<'|i3m|iu'*(*(UdGcniA53i3i3i-:J2*gd_%(-:]'fj3ifjfj%(-:]hO][i<gO]O].<4jO][iA-5)~#% djqat+",
"B@. c=C:#,N;}*S;.@p+7_]'X(i(I.z-N;3.h%A5T]d3+_1)(hT]y~4mci$/|$5mQ[6m5m+_|),|7mciV]Q[ciX(X(.,H;0[i%S;S().O#{ ~.X;[.C}dj$<Oay7s!8mxgo!u<T]d3(h+_T]7mci(h(h(hciT](hci(h9m(hd3R](h(hci7m7mT]ci7m(h(h(h(hT]d37mcici(h(hciciT]0md3(hcicid3T]7m7m7md37mciciQ[A-i(F_A:.@6_<mk )(",
"icW(X(Lf|)P[|)]'a[61a[]'n4F_N;}$:.D3u(fjamX(bmB}ci!'5)>|+_n4 _+_{dcmci%,LfB:y~d3dmciemV(B-0>i%0[i%i%V('&{ 0+{ ;'>'{:>';'fmxjI_M{*%,(9mA:hkR]R;Q;D1D1D1A:xfd3!'gmV(A:xfhc%,A-7m+_,|A:R]xfxfgmam,|+_hc0m1^xfD1q<hk!'R;!'hcf9+_hc0mB:R;R;Q;xfci!#{'amhkhc7ms!F_^1~#3ir-Oa. ",
"Y(v-t<2jNa& Nai([ga[7_n!n4hm}$P;:.;'i(l+hcTgA:;,T]j n!dmR]V(fjR]{'im7mj k=W(S]jmf=ci#/X( _4*i%)#i%~;A-].3.C}>,3j{ I;3.'&ta~#s!;,kmdkjmxfR]hchd!'+_,|A:+_R]ciR]R]cid3R]+_V( _T]R]xfxfR]!'xfxfS]|)jmjmjmlmR]T]xfR]hcci+_,|4jA:D1jm,|R]Q;R]D17mhd%,ci!'!'T]03y7A:t+g}<mk k ",
"V3PaXdej|.(1mmg+~;{ $<i(n4& k }$~#;'J{hjR]Key~hjT]Z(f=[i!'u<o!+_V(ai(hY(1$*/'(xfp+D1i2./-:gd0[i%H;-a|$n}m}$<C}>,61C}>'a[hi(& _[inmS]!#% h_5*bk. Zdj_)(S;.@1$J;,,yj.@n_<|I.hj@@)(j_qa5*t+omomI.I.g_^dy:k ^d'lj_I.j_Gk.@y:t+pmy:y:y:qmqmI.rmg_+ f_2.y70gj %(y7!'G@J{smOa'l",
"U5& 9jU5R#R#& k+D3~;>,~(hdI_)(1$k { % @@xf1)piyjR]ekf=<gtm5))#`cTg-a(hj 1$*/y~!'F5`cn!$(-:`[H;p+~#0kA-N#{:C}C}I;X;N;m}{ .@k I_;,umR;7m+_R]#5y~+_d3cici#5,|T]d3jmhcd3d3d3A:V(cicid3d3T]ciciT]`c+_ciT]T]+_d3d3d3d3+_T]T]+_S]+_d3T]T]T]+_`cT]+_T]%,+_R]R]7mfj;,A:0[F@:h1$)(",
"icy~,|#5,|A:A::'C}{ j=-:X(i(S;1$}$h+i(vmxfi2V(~;+_X(wmN[R;|$g3+_,(djA:V(C::'u<R;3j,|R#b/%(ljF}j=H;0kO(/.3.>'{::.$<H;e }gG;.@f9pm*%j xm{'W(ymV;y~+_B:{d!'+_hc!'R]zmD1jmd3!#I_d3+_,|gm!'!'Q;j !',|0mQ;j S]Y(R;j hkQ;R]+_!'i2xfhc,|ia!'hk`c!'piQ[hdA:v&ikd3fj;,#5)#% ^hI.j_",
",|i2& J{& mjUfI_>,t-g3s!j 0gqaS;t+3.k=Amhcf9!#p++_5)Bm=,Q;LfH;,|u<1m#5S]CmNaX(V({:Q[i(#}y7ljG@H;H;Cm!#8+>'$<C}a[{. <~;>,,,_'s!dmnmS]Dm& h_+ . `(}$)(ZdOaN;J;.@o!Zd>m}9jiEm-am}-,k_hiD_-,^di_a/e_2i|ii_N[)(3i3ie_Fm6_[ig_h_A5e53ifj]'O]fjO];,I_Gmx|~(-{R]M{  A:S;6_HmOaq+",
"/[:.H;G@$,:&hjIm$,Lc3.P1j  _I.c=c=X;dmImhci2A-Jmd3E:Kmh_R;|)#,ciA-3j7mV(~#^bu<j %%Lmi(d_b/K<J;#,H;(&|$n}{:>'3.p+x7~;H;x7,,GkS(y7MmpihkR;n4X=1^!#NmR(v(>;R(O(O(A(S(O(A(R(X]$(#}R(W]C(W]v(OmQ(OmC~Q(C~I{C~Q(Om2^2^R(E:1^1^A(1^X=1^A(E:A(X(|$1^V(|$X(n4hkhcim% R],'./Hm)(. ",
"5)h5V5U(h5B-V;R#:.X;>,u(R;V]N;qat+Pm& LcR]i2Lf>'`ch%wm=,A(X(A0jmA-x7#5|$#,u(5)j ;'`cn!$(QmEf~#J;J;qa|$e+3.>,''Rmx7x761a[);k S(pmSm{'TmR;j xfE:X(`c{'Q;+_+_+_!'R]+_R]+_ciW;*/(hcihcj R;R;0mQ[R;5)d3+_!'A:icpiY(,|d3d3+_,|U5,|!'Q;xfxfV(R]n4xf,(Q;gmxfR]d3F_F@R])(i(Nfj_S;",
"#5|)&,u<Lfbf{'B-[)Um<|& hkU5qahjS;3.i(Lcxfs!u<I;+_P[{a=,!'pip+R]u<>,hcR;.d4)5)Q;>,,|i2s! _9[}$~#J;M;E:<*{:;'$<{:j=}$-a61I;<|-{F_  VmX(B:!'Wm!#1^+_%,B:R;Q;j R;R;+_Q;!'+_0g0gciB:hkj Q;y~R;A:%,;g{'{'V(hdxf{'Z(j B:,|hcA:U5B:tm%,V(n4X(#5V(0m1^xfhdR;hk!'imXmR]J;.<<mk $ ",
"5)F@Ymqmk+h_  UfN;I;k & R;s!I.t+S;3j]'Mm#5;gA-#,+_5)y:=,$/j J;+_Zm>,+_S]nmJ{+_Y(I;lmU50g0g:|}$k (&g_5)s-3j61H;-aI;j=j=g3-,e_U(S]z~F_t+J;g3`m n61aj>'Xd16.nXd+n@n#n$n%n&n*n=nCj-n;n=n>n 7]m|5n}Pa,n'n)ncj,fBd6jh+!n{ml+p+J;C:hjbk^dk I.S;^dFm+ + M{g_i(M{0jWkA:(&]'a1qa}*",
"e_Lc-axj_hJ;I.5*S;xjk i25)I_qaBmqaX;F_~nA:;gZm(&7m|$f_% 7mS]S;d3Tg3j(hB-*%_&LmQ;H;d3i2P1{n`[Oa~#.@N[1^la0[0kLc:.G@x7p+g3k_|i@@|)B-fjV]~(hm^bF@F_k=R#  ~(E5u(-:6_]hI_*/d_4)S(*/V]I_9jh5U59j^bU(U(U5./i(U8u(./& & i(I_I_:':'U5U5U( _I_R#R#:'F_-:& ]'F_s!hmI_2jPgqaV]^[. qa",
"xmbm+_icic`c#5u<Lc}$1${nhdI_5*. f=xgk=O;xf5j5)I.7m|$]'C5ciygZdd35)]n^nA-,'Vk!'{'C:T]U5 _i2('S;@@~#% R;Pap+j=61j=N;j=G@H;`(/n~#Mm#5Lfu<5)U(W(ekekP[ck|$E:|$|$|$h%V]jaE:|$E:ekw(E:j W('(W(j y~Y(Y(Y(V(W(W(W(X(|)|)P[W(V(X(W(S]S]j Y(|)X(n4ek|$V(S]X(5)R;u<IjN;L@I.9jx7. M;",
"#5gjWk2j&%dmUfV;(&(&1$Wku<F@f=)(qa[)F@KmR]U(V(omQ[P[O]k=ciUf. d3[h(n^nW;$5P[u<{'. jm1)B-B}ed)(}$S;k+X(0kLc:.H;H;hj61-ax7>,(&k N;g+Q#t-<)-(_ni+wj:nN#_[N@<n[n+n[0-gnk}n|nz0_m1n2n3n4n]m*nm55n.n.n6nm51616e+<*.%~m0.7n|.8n9n0nt-wj<)g+PaL<<.'&<.)&Sij+[)l+3.qa+ qa& g3B|}*",
":'Wj;,dmU5./R#z~G@I.1$1)u<i2z~M;. {admt+hcV;S]and3Q;y7i(Q[n!y:(h,(bn(hA:e3|$Tg+_M{d31)|$B}Nfk l+$ F@Lf{:yj:.S;G@C}-ax7-ak+m/}$C:C:qak 1$hi^dZd1$_'1$k )(m/I.)(k I.~#~#Oa)(m/m/26m/)(1$1$S;k N;~#~#S;@@qa)(}$C:N;c=N;B|v<)($7L@. + + m/}*e3. . + N[. f_T5L@L@+ f_U5g3{a5*",
",f%%Q#0kI;k5+%6*qa@@:. _hd4j]'N[)(~#B-Oh#5pi%,;,+_X(F_I_R]t<F_A:piYmR]kki(n4|)#5g_ciL{|$i2S;qa;,2jg_A-{ J;~#S;C:V#H;.@<|h_qa~#N;C:k k k }$1$o!Oak @@k )(j_.@k .@N;p+o!k k ~#}$_ho!1$_'I.N;N;N;(&C:t+N;N;N;I.k S;M;C:}*@@. . + . z-. . . t+. )(+ ^d. f=@5k++ mjf_ _j=+ z-",
"k+L@)(M;qa'm}*~'~'$ %7F_S]i2}*k+L@. LfWk,|LfpiF@7mZ(k=U5Q[2j% cn{'+ +_!'B}X(+_+_mj{'LfX(i21j}*F_[i[iKe3.N;S;k N;G@(&:.{(Udm/~#~#k J;.@S;GkOa1$)(k S;S;N;I.S;z-H;}*S;k S;)({(GkF})(.@k Oak (&~#N;~#N;t+N;N;S;I.~#S;t+z-f_{ae3$ f_L@}*}*e3v<}*5*. I.M;$ . . =,M{g_ _.@qa}*",
"M{+ L@qaL@. }*$ 2.@@F}z~S]LfU5z~+ dni(  u(u(I_J{& V7k+=,./<g<gU5hmO]6_d_i(O]x:d_% i(^bimR#3)j_f=imbfu<3.l+I;k C::.Lc61J;N[+ S;S;~#k k k )(o!o!@@}$k k ~#@@)(j_1$'l}$_'Oak .@k ~#@@.@k OaN;H;S;@@t+N;S;~#)(S;I.S;t+im|$bfU(V]{'ekbfU(|$U(5)1^E:bfI.m/5*L@5*=,f=$ ./0[5*w-",
";,+ $ {a$ . $ ~'O;y:Oat<V(F_% N[enf=g_% V#J;:.l/>,I;I;I;>,>,aiX;X;I;I;>,X;I;>,I;LcX;p+I;B-z~% Fmf_]'A-A0N;L@(&~#1$N;h_0[/2m/e3L@Oa}$)(I.g_k GkS;~#k @@~#~#k Oam/N[ZdhiN[S;k bkk Gkk }$~#k ~#N;qaS;S;)(. Oa}*M{}$f=I_L@R#fn/2S(ge{ay7JcH;I_)([i:'dm^df_f_f=t<}*g_:'~#f_9g",
"mj{a~'~'. }*+ @5f_mj% t<R;'(dmWkF@F@F@*g<g6_P<N[k+`(-,$7h_6_h_N[^da/$7-,h_N[]'% =,6_y7-:% % F_F_F@& pi1j5*N[f_g_N[N[Oam/y7g_k+^dM{=,M{g_Fmg_g_g_e_N[g_+ f_N[k+M{. S;h_m/. I.. y:'lZd1$m/Oa5*+ 5*f_L@k+=,+ f_M{. ,(K;P;Wk&@;,I_p+k+]hn!l/E5Oah_-:B-Wj<g% % g_k &%V;}*pm% ",
"8.  M{1jk+f=g_1j% dmWkV5,|,|S]V(u<A-piNmB-!#ekW;h%s!=/h%2^E:X(S(V]h%h%O(V]W;V]|$B-B- _1^O(,(|)%,hdS]Q[Ke1)U(W; _B-B-h5U(5)KeU(|$5)U(Lf|$pi&,X(W(E:|$ja|$5)E:O(jkgnQ;!#S(h%O(E:!#O(O(h%Z(O(W;h%|$|$E:A(!#O(O(-{!cxf2^W;Lf5)V]j |$h%S(V(V]V(O(B-A-j S]5)$/|)A-h%ek!'5)W(V(",
"D5h5t<;g>|'('( _bfLfU(U(P[ _M{~'{aqaO;RmO;'me3N;S;%7)(}${:,,$_)#{(,,yj.@,,J;i%J;,,.@.@(&H;L@h_Vjj_n!O(&|{( -)#-ax7j=x7e e h.NfNfr-`!`!r-r-hn!mE;E~Ei(ginjn!mknlnmnnnonU@Gipnjnqnqn](rnsnsn1bp<7_h.`!F;-3:|ajm}9>Pbm}g3)#{($_z_ -x7,,J;J;aiH;p+H;)(I.k ~;,,~#~#S;}$t++ N[",
"9ge3e3v<v<wmM{ZdM{26p+& S]F@5*N;C:c=l+_.$,#,%%O#Bd>,+,9>Nf:|c>c>|j,&<*.%s-<*.,;',f~.L<>'j=I;I;H;j_F@S(r<9><*uc,&8+-g>l56Qe0irk{1[4zkrkHkrkrkrjtn;iununvnwn%ixnW>ynt,znAnz)BnBn;ia9CnDnEnwk[4o}8*HkHko}I#>.y+w@)|Efucuc-gQ<K<Efuc:|9[PbPbPbsm:|}g:g7j:hS|Pa;'$<$<61p+0[yj",
"FnH@D@-(|*Gn8mk5{:(1/&I_W(f_{aI;M@# '&.,e+9+P#+,#%m5)|b.Uk9>rec/c>W5@7+7Uk[0H5)|w@M4Gj9[,&A}3.}ga[F_-:Hn8*{1Y;g q4D|{1+7jgHkIn.lN*InT_SkJn#:KnF-LnF-Mn^$NnOnPnQn` RnSnTnUnVnWnXnYnZnp'`n o.o.oY$NkPjuj:5Ej l>.+o>.>.[0 7:md>H5{1>lm5{1m5t6g h3i :g,&,&<*@oP#<.O#-g3j)n}g",
":.L@M{5*L@L@$ {aN[. }$U(#5:'gjM{;,% <gh_#o=,g_N[L@t+$ L@Zdh_/2m/Zd+ Zd-,h_h_[ie_h_F@Zd=,h_  0jFmN[B-piF5,,hi1$J; -i%.@<])# - -([f($of(H*%o8g&o*o=o%_-o;o>oa(,o'o'ouh)o!oH~~o{o]oY=f(^oD~/oy<;{([w&1ke &| -<|{(,,~#,,.@<|<|J;$_o!{(<|<|.@o!OaOaOa^d+ e3^d+ 5*N[g_(& _N[f_",
"5)Q;gk|$S]{''(bfk _'1$U(R]A-2jR#k=fjfjF_;,  ;,g_L@z~2jh_% =,$7h_k+[i;,O]6_6_]']']'F@fji(3ifjn!F_bfKe!'hi]'Zdi_Zd4d4dOao!Oaiii_Zdhii__'hi1$m/_'hig(gik_{(kiN|jikikigi={ZdhiOak_k_hiZdhi. OaS;_'/[]d_'hiZd_'Zd);Zd& hi`(:'W(h%]'y~V]V]B-|)e_h_$7`(N[YmL@N[Fm[ig_F_<ghmi(y7"};
