/* XPM */
static char * no_tex_xpm[] = {
"132 132 5126 2",
"  	c #1D2A30",
". 	c #28383F",
"+ 	c #243339",
"@ 	c #26373E",
"# 	c #25343A",
"$ 	c #24343B",
"% 	c #23333A",
"& 	c #172025",
"* 	c #233137",
"= 	c #25343B",
"- 	c #233238",
"; 	c #182227",
"> 	c #223037",
", 	c #223036",
"' 	c #060B0D",
") 	c #121B1E",
"! 	c #192529",
"~ 	c #19242A",
"{ 	c #192428",
"] 	c #162025",
"^ 	c #162126",
"/ 	c #172227",
"( 	c #1A252A",
"_ 	c #1A272D",
": 	c #18252C",
"< 	c #17242B",
"[ 	c #17262D",
"} 	c #18272F",
"| 	c #17282F",
"1 	c #13232B",
"2 	c #152830",
"3 	c #152831",
"4 	c #132832",
"5 	c #122A35",
"6 	c #122F3C",
"7 	c #112D3B",
"8 	c #143543",
"9 	c #153241",
"0 	c #112E3C",
"a 	c #13394B",
"b 	c #0E3343",
"c 	c #103A4E",
"d 	c #0F3649",
"e 	c #123C4F",
"f 	c #103C51",
"g 	c #113E53",
"h 	c #0F3D52",
"i 	c #0F3E54",
"j 	c #0D3D54",
"k 	c #0C394F",
"l 	c #0B3144",
"m 	c #0E3E54",
"n 	c #114055",
"o 	c #124157",
"p 	c #114056",
"q 	c #0F3D53",
"r 	c #113D52",
"s 	c #123E52",
"t 	c #123E53",
"u 	c #123E54",
"v 	c #133E53",
"w 	c #133F54",
"x 	c #144157",
"y 	c #123D53",
"z 	c #123C51",
"A 	c #123C50",
"B 	c #143C50",
"C 	c #11384A",
"D 	c #0D3142",
"E 	c #174154",
"F 	c #133747",
"G 	c #163A4B",
"H 	c #173949",
"I 	c #193746",
"J 	c #17313D",
"K 	c #172E39",
"L 	c #192D37",
"M 	c #15272F",
"N 	c #182830",
"O 	c #17252C",
"P 	c #16252B",
"Q 	c #18262C",
"R 	c #1A282E",
"S 	c #18262B",
"T 	c #19262B",
"U 	c #1A272C",
"V 	c #162227",
"W 	c #162026",
"X 	c #172228",
"Y 	c #172126",
"Z 	c #192328",
"` 	c #182126",
" .	c #151E22",
"..	c #131C20",
"+.	c #121A1E",
"@.	c #121A1D",
"#.	c #080C0F",
"$.	c #27353B",
"%.	c #223137",
"&.	c #32444C",
"*.	c #22333B",
"=.	c #293B44",
"-.	c #283840",
";.	c #27373F",
">.	c #2C3D44",
",.	c #2C3D45",
"'.	c #2B3A42",
").	c #27363E",
"!.	c #293940",
"~.	c #243138",
"{.	c #222F34",
"].	c #1D2C32",
"^.	c #25353C",
"/.	c #1D292E",
"(.	c #23343B",
"_.	c #233339",
":.	c #202D33",
"<.	c #233239",
"[.	c #223138",
"}.	c #24343C",
"|.	c #161F23",
"1.	c #27363D",
"2.	c #26343B",
"3.	c #26343A",
"4.	c #202E34",
"5.	c #23323A",
"6.	c #0C1418",
"7.	c #172328",
"8.	c #273840",
"9.	c #25363D",
"0.	c #263940",
"a.	c #273A42",
"b.	c #293D46",
"c.	c #2B3F48",
"d.	c #23363E",
"e.	c #2E4853",
"f.	c #213239",
"g.	c #324D59",
"h.	c #2F4754",
"i.	c #314A56",
"j.	c #2B434E",
"k.	c #2E4A57",
"l.	c #2C4856",
"m.	c #2C4A59",
"n.	c #264453",
"o.	c #284C5D",
"p.	c #275062",
"q.	c #275367",
"r.	c #29596F",
"s.	c #275C73",
"t.	c #265B73",
"u.	c #2B637D",
"v.	c #23576C",
"w.	c #245E76",
"x.	c #256078",
"y.	c #26617A",
"z.	c #24627C",
"A.	c #226784",
"B.	c #206885",
"C.	c #1F6986",
"D.	c #226B89",
"E.	c #226D8A",
"F.	c #246F8D",
"G.	c #277190",
"H.	c #27708E",
"I.	c #266F8C",
"J.	c #236D8A",
"K.	c #24708E",
"L.	c #2F7A96",
"M.	c #27708D",
"N.	c #2A6F8C",
"O.	c #286D88",
"P.	c #296C88",
"Q.	c #266B87",
"R.	c #266E8A",
"S.	c #256E8A",
"T.	c #266E8B",
"U.	c #236B87",
"V.	c #256B87",
"W.	c #236783",
"X.	c #216681",
"Y.	c #216682",
"Z.	c #23647E",
"`.	c #24617A",
" +	c #25607A",
".+	c #26637E",
"++	c #26647F",
"@+	c #1C526A",
"#+	c #205C76",
"$+	c #2A6884",
"%+	c #255467",
"&+	c #316377",
"*+	c #29576A",
"=+	c #2A5568",
"-+	c #2B5264",
";+	c #264858",
">+	c #2F5364",
",+	c #305263",
"'+	c #345566",
")+	c #355564",
"!+	c #345360",
"~+	c #314C59",
"{+	c #2A4451",
"]+	c #203641",
"^+	c #27404C",
"/+	c #283F4B",
"(+	c #273E4A",
"_+	c #28414D",
":+	c #23353D",
"<+	c #304852",
"[+	c #24363D",
"}+	c #25373D",
"|+	c #25363C",
"1+	c #283940",
"2+	c #2A3C44",
"3+	c #243136",
"4+	c #131D21",
"5+	c #091013",
"6+	c #152025",
"7+	c #25333A",
"8+	c #1F2E33",
"9+	c #213036",
"0+	c #28373E",
"a+	c #26363D",
"b+	c #28373F",
"c+	c #222F36",
"d+	c #27373E",
"e+	c #202D32",
"f+	c #1D2B32",
"g+	c #213037",
"h+	c #223239",
"i+	c #233138",
"j+	c #24333A",
"k+	c #243239",
"l+	c #1A2328",
"m+	c #27353C",
"n+	c #26333B",
"o+	c #25343C",
"p+	c #0F181D",
"q+	c #162228",
"r+	c #253840",
"s+	c #182328",
"t+	c #1B282F",
"u+	c #18252B",
"v+	c #263B44",
"w+	c #2D4753",
"x+	c #243841",
"y+	c #263D46",
"z+	c #263C47",
"A+	c #2F4A57",
"B+	c #2B4652",
"C+	c #294450",
"D+	c #284450",
"E+	c #2C4C5C",
"F+	c #2A4B5B",
"G+	c #2A5061",
"H+	c #2B576B",
"I+	c #29596D",
"J+	c #2A5F76",
"K+	c #2C6982",
"L+	c #296882",
"M+	c #2A6983",
"N+	c #2A6881",
"O+	c #29718E",
"P+	c #29738F",
"Q+	c #2B7592",
"R+	c #287794",
"S+	c #247998",
"T+	c #247A9A",
"U+	c #247B9B",
"V+	c #247C9B",
"W+	c #227998",
"X+	c #247B9C",
"Y+	c #237C9C",
"Z+	c #227D9D",
"`+	c #227D9E",
" @	c #247F9E",
".@	c #247FA0",
"+@	c #2681A2",
"@@	c #2881A1",
"#@	c #277C9C",
"$@	c #267D9D",
"%@	c #287C9B",
"&@	c #277A99",
"*@	c #267A99",
"=@	c #267998",
"-@	c #267796",
";@	c #257694",
">@	c #277794",
",@	c #277390",
"'@	c #27718E",
")@	c #26708D",
"!@	c #28718E",
"~@	c #29728F",
"{@	c #276C88",
"]@	c #266884",
"^@	c #296B86",
"/@	c #296A83",
"(@	c #2B6A81",
"_@	c #286076",
":@	c #295A6E",
"<@	c #2E5F76",
"[@	c #2E596D",
"}@	c #2D5669",
"|@	c #2B4F60",
"1@	c #2F4F5E",
"2@	c #2F4D5B",
"3@	c #2F4C5A",
"4@	c #304C59",
"5@	c #2A4350",
"6@	c #17262E",
"7@	c #1C2F38",
"8@	c #18282F",
"9@	c #1A282F",
"0@	c #2C424D",
"a@	c #1C2B32",
"b@	c #334A53",
"c@	c #2C4049",
"d@	c #2B3E46",
"e@	c #26373F",
"f@	c #2C3F47",
"g@	c #212F36",
"h@	c #283A43",
"i@	c #152126",
"j@	c #0B1417",
"k@	c #26353B",
"l@	c #223035",
"m@	c #243238",
"n@	c #26353C",
"o@	c #293A41",
"p@	c #1D2C31",
"q@	c #213138",
"r@	c #213137",
"s@	c #26353D",
"t@	c #1C262B",
"u@	c #24343A",
"v@	c #27363C",
"w@	c #10191D",
"x@	c #172329",
"y@	c #28383E",
"z@	c #263840",
"A@	c #263A42",
"B@	c #131B20",
"C@	c #1F2F36",
"D@	c #1E2C33",
"E@	c #1C2930",
"F@	c #273D46",
"G@	c #2B4550",
"H@	c #2D444F",
"I@	c #2D4651",
"J@	c #2C4652",
"K@	c #2C4855",
"L@	c #2E4E5B",
"M@	c #2D4E5D",
"N@	c #2C5060",
"O@	c #2F596C",
"P@	c #2C596D",
"Q@	c #2B5A6F",
"R@	c #2C5F76",
"S@	c #2C667F",
"T@	c #296883",
"U@	c #286B86",
"V@	c #266F8D",
"W@	c #247795",
"X@	c #247898",
"Y@	c #277C9B",
"Z@	c #267E9E",
"`@	c #217E9E",
" #	c #217D9E",
".#	c #2480A0",
"+#	c #2481A2",
"@#	c #2280A1",
"##	c #2280A0",
"$#	c #2180A3",
"%#	c #2081A3",
"&#	c #2181A3",
"*#	c #217FA1",
"=#	c #2281A3",
"-#	c #2285A9",
";#	c #2287AB",
">#	c #2385A9",
",#	c #2384A8",
"'#	c #2282A5",
")#	c #2484A7",
"!#	c #2483A5",
"~#	c #2683A5",
"{#	c #2581A2",
"]#	c #237FA0",
"^#	c #257E9E",
"/#	c #247B9A",
"(#	c #257A98",
"_#	c #257998",
":#	c #247897",
"<#	c #267897",
"[#	c #257593",
"}#	c #277491",
"|#	c #276E8B",
"1#	c #286E8A",
"2#	c #276D8A",
"3#	c #266D88",
"4#	c #266984",
"5#	c #2B6882",
"6#	c #316D86",
"7#	c #31657B",
"8#	c #2D5B70",
"9#	c #2D5569",
"0#	c #325568",
"a#	c #315161",
"b#	c #304E5D",
"c#	c #2F4C5B",
"d#	c #2C4754",
"e#	c #182831",
"f#	c #213945",
"g#	c #1A2C35",
"h#	c #1D2E36",
"i#	c #1C2E36",
"j#	c #1C2A31",
"k#	c #334B56",
"l#	c #2E424A",
"m#	c #2A3E46",
"n#	c #293B43",
"o#	c #293B42",
"p#	c #0D1519",
"q#	c #28363E",
"r#	c #1E2B30",
"s#	c #27373D",
"t#	c #29383F",
"u#	c #28363D",
"v#	c #29383E",
"w#	c #26363C",
"x#	c #2E3E46",
"y#	c #222E33",
"z#	c #232F35",
"A#	c #2A3940",
"B#	c #2B3D44",
"C#	c #2D4149",
"D#	c #2B3E47",
"E#	c #2E414B",
"F#	c #2D4049",
"G#	c #2A414B",
"H#	c #2B434D",
"I#	c #263C45",
"J#	c #2C4854",
"K#	c #2C4956",
"L#	c #2D4D5A",
"M#	c #2C4C5A",
"N#	c #2D5161",
"O#	c #2F5668",
"P#	c #2B5669",
"Q#	c #2C5E74",
"R#	c #2B6077",
"S#	c #2A667E",
"T#	c #276C86",
"U#	c #24708D",
"V#	c #21718F",
"W#	c #227899",
"X#	c #207A9B",
"Y#	c #2381A2",
"Z#	c #2183A5",
"`#	c #2085A7",
" $	c #1F84A5",
".$	c #2086A7",
"+$	c #238AAC",
"@$	c #228BAD",
"#$	c #2189AB",
"$$	c #1F85A7",
"%$	c #1E86A9",
"&$	c #1F88AC",
"*$	c #1F8BAE",
"=$	c #218BAE",
"-$	c #2089AB",
";$	c #1E89AD",
">$	c #1F89AC",
",$	c #208AAE",
"'$	c #1F8BAF",
")$	c #1D8AAD",
"!$	c #1D8BAD",
"~$	c #1E8DB1",
"{$	c #1F8AAC",
"]$	c #2187A9",
"^$	c #1E7FA1",
"/$	c #1F80A2",
"($	c #1E80A2",
"_$	c #1D7FA1",
":$	c #217897",
"<$	c #227999",
"[$	c #22799A",
"}$	c #247798",
"|$	c #237493",
"1$	c #247593",
"2$	c #257493",
"3$	c #2B6F8A",
"4$	c #2B667F",
"5$	c #2D637C",
"6$	c #2D5E75",
"7$	c #2F586C",
"8$	c #2E4F5F",
"9$	c #2F4E5C",
"0$	c #2E4C5A",
"a$	c #31515F",
"b$	c #31505E",
"c$	c #304B58",
"d$	c #314C58",
"e$	c #334E59",
"f$	c #324B56",
"g$	c #304650",
"h$	c #2D424B",
"i$	c #2F424A",
"j$	c #2C3E46",
"k$	c #2B3D45",
"l$	c #25353B",
"m$	c #182329",
"n$	c #283941",
"o$	c #253339",
"p$	c #1F2D33",
"q$	c #28373D",
"r$	c #31434B",
"s$	c #171F23",
"t$	c #27353D",
"u$	c #10181D",
"v$	c #2D4048",
"w$	c #2F434B",
"x$	c #2A3D46",
"y$	c #2A3E47",
"z$	c #2D434D",
"A$	c #2E4651",
"B$	c #2C444E",
"C$	c #2D4854",
"D$	c #2E4A56",
"E$	c #2E5363",
"F$	c #2D5466",
"G$	c #2D586C",
"H$	c #2A596D",
"I$	c #306B86",
"J$	c #266783",
"K$	c #257A9A",
"L$	c #227B9B",
"M$	c #1D81A2",
"N$	c #1980A4",
"O$	c #1C8AAF",
"P$	c #1D8EB5",
"Q$	c #1E90B7",
"R$	c #2397BE",
"S$	c #1C94BA",
"T$	c #1D98BE",
"U$	c #27A1C5",
"V$	c #25A1C6",
"W$	c #239FC4",
"X$	c #209BC0",
"Y$	c #239DC3",
"Z$	c #25A0C6",
"`$	c #24A0C6",
" %	c #28A5CA",
".%	c #27A5C9",
"+%	c #249EC2",
"@%	c #2CA8CC",
"#%	c #2AAACD",
"$%	c #2AACD0",
"%%	c #21A1C7",
"&%	c #29AACE",
"*%	c #2DAFD4",
"=%	c #1F9FC5",
"-%	c #20A1C7",
";%	c #20A1C6",
">%	c #22A2C6",
",%	c #23A2C5",
"'%	c #24A3C7",
")%	c #229FC4",
"!%	c #229FC3",
"~%	c #209CBF",
"{%	c #1F9CC1",
"]%	c #1C98BE",
"^%	c #1D95BA",
"/%	c #2093B8",
"(%	c #1A87AD",
"_%	c #1F8BB0",
":%	c #2189AF",
"<%	c #228AB1",
"[%	c #1D779B",
"}%	c #1D87AD",
"|%	c #1F81A5",
"1%	c #237C9E",
"2%	c #297899",
"3%	c #2D7594",
"4%	c #2C6884",
"5%	c #2F6580",
"6%	c #2F5C72",
"7%	c #2C4D5C",
"8%	c #30515F",
"9%	c #304E5C",
"0%	c #2F4752",
"a%	c #304751",
"b%	c #2E444E",
"c%	c #2F444D",
"d%	c #2F424B",
"e%	c #2E4049",
"f%	c #2B3E45",
"g%	c #2A3B43",
"h%	c #0D161A",
"i%	c #1A252B",
"j%	c #2A3941",
"k%	c #24323A",
"l%	c #1E2B31",
"m%	c #23343A",
"n%	c #293840",
"o%	c #2C3B42",
"p%	c #2B3B42",
"q%	c #0E1416",
"r%	c #29363C",
"s%	c #29373D",
"t%	c #25333B",
"u%	c #0E171B",
"v%	c #141E22",
"w%	c #2E4048",
"x%	c #30434B",
"y%	c #2C3F49",
"z%	c #2D414B",
"A%	c #2E4752",
"B%	c #2F4A56",
"C%	c #2E4956",
"D%	c #2F4D5A",
"E%	c #305362",
"F%	c #305A6E",
"G%	c #2C5B6F",
"H%	c #30657B",
"I%	c #081E2A",
"J%	c #092F3F",
"K%	c #043952",
"L%	c #054E6B",
"M%	c #055674",
"N%	c #035978",
"O%	c #03597A",
"P%	c #02587A",
"Q%	c #025A7C",
"R%	c #02597B",
"S%	c #025779",
"T%	c #035A7C",
"U%	c #035C7E",
"V%	c #045A7C",
"W%	c #045B7E",
"X%	c #035D81",
"Y%	c #046187",
"Z%	c #036186",
"`%	c #036083",
" &	c #045F80",
".&	c #035F81",
"+&	c #045D7F",
"@&	c #056183",
"#&	c #046082",
"$&	c #055E7E",
"%&	c #055F7F",
"&&	c #066081",
"*&	c #066284",
"=&	c #076183",
"-&	c #056083",
";&	c #045C80",
">&	c #035A7D",
",&	c #045C81",
"'&	c #045D80",
")&	c #055D7E",
"!&	c #055878",
"~&	c #04587A",
"{&	c #045C7D",
"]&	c #055D80",
"^&	c #055D7F",
"/&	c #045A7B",
"(&	c #03597B",
"_&	c #045B80",
":&	c #035E84",
"<&	c #025B7D",
"[&	c #025370",
"}&	c #024C6A",
"|&	c #034561",
"1&	c #06374D",
"2&	c #0C3346",
"3&	c #0D2937",
"4&	c #265A72",
"5&	c #2C5163",
"6&	c #2F505F",
"7&	c #2C4A57",
"8&	c #2F4B58",
"9&	c #2F4955",
"0&	c #304A56",
"a&	c #2F4751",
"b&	c #314751",
"c&	c #2D424A",
"d&	c #2E4149",
"e&	c #2B3C44",
"f&	c #293A43",
"g&	c #19252A",
"h&	c #0E171A",
"i&	c #1B282E",
"j&	c #24333B",
"k&	c #25323A",
"l&	c #233038",
"m&	c #233037",
"n&	c #253239",
"o&	c #212E35",
"p&	c #1D2B31",
"q&	c #1C292D",
"r&	c #263439",
"s&	c #161E21",
"t&	c #212C30",
"u&	c #11181B",
"v&	c #29373E",
"w&	c #0D161B",
"x&	c #141E23",
"y&	c #2D3F47",
"z&	c #2D414A",
"A&	c #2E424B",
"B&	c #2E434D",
"C&	c #2F4853",
"D&	c #2D4855",
"E&	c #2E4B58",
"F&	c #2F4E5D",
"G&	c #2A4B59",
"H&	c #234B5C",
"I&	c #296078",
"J&	c #255D73",
"K&	c #082533",
"L&	c #1A5F79",
"M&	c #014463",
"N&	c #0E98C0",
"O&	c #2CB6DC",
"P&	c #2EBBDC",
"Q&	c #29B9DC",
"R&	c #25B7D8",
"S&	c #23BBDD",
"T&	c #20BBDC",
"U&	c #23BEDE",
"V&	c #22BBDD",
"W&	c #21BADC",
"X&	c #20BBDD",
"Y&	c #22B9D9",
"Z&	c #23BBD9",
"`&	c #22BEDB",
" *	c #24BEDD",
".*	c #21BDDB",
"+*	c #23C1DD",
"@*	c #24C1DD",
"#*	c #25C1E1",
"$*	c #27C0E1",
"%*	c #26BEE1",
"&*	c #29BEE1",
"**	c #2AC2E4",
"=*	c #2BC3E2",
"-*	c #2BC2E1",
";*	c #2BC5E4",
">*	c #2BC5E3",
",*	c #2BC4E2",
"'*	c #2AC2E0",
")*	c #29C0E0",
"!*	c #28C0DF",
"~*	c #2BC1E2",
"{*	c #2CC1E1",
"]*	c #2AC0E0",
"^*	c #2BBFDD",
"/*	c #2DBDDC",
"(*	c #2CBDDC",
"_*	c #2BBEDE",
":*	c #28B9D8",
"<*	c #28B7D7",
"[*	c #29B7DA",
"}*	c #28B8DA",
"|*	c #27B3D5",
"1*	c #2AA8C9",
"2*	c #30A7C8",
"3*	c #1BA1C6",
"4*	c #046787",
"5*	c #1C6E91",
"6*	c #10394C",
"7*	c #194458",
"8*	c #2A4F61",
"9*	c #2D4F5E",
"0*	c #2E4D5C",
"a*	c #304C5A",
"b*	c #2D4652",
"c*	c #2B404A",
"d*	c #2E434C",
"e*	c #31454D",
"f*	c #2C3F46",
"g*	c #2D3E46",
"h*	c #2B3C45",
"i*	c #1A262B",
"j*	c #10171B",
"k*	c #10181B",
"l*	c #0F171A",
"m*	c #0E161A",
"n*	c #11191D",
"o*	c #0E1518",
"p*	c #0F171B",
"q*	c #0E1619",
"r*	c #0A0F12",
"s*	c #253338",
"t*	c #1F2D32",
"u*	c #222F35",
"v*	c #26343C",
"w*	c #212F34",
"x*	c #1B262B",
"y*	c #28363C",
"z*	c #0D151A",
"A*	c #141D22",
"B*	c #283A41",
"C*	c #2C3F48",
"D*	c #2F4650",
"E*	c #304854",
"F*	c #2D4A58",
"G*	c #2C4B59",
"H*	c #2D4E5C",
"I*	c #2B5161",
"J*	c #254C5C",
"K*	c #2A637B",
"L*	c #2F6F8A",
"M*	c #0A2A38",
"N*	c #206783",
"O*	c #024666",
"P*	c #48C1D5",
"Q*	c #7CDEE9",
"R*	c #7BE0EA",
"S*	c #77E1EC",
"T*	c #74E0EC",
"U*	c #76DEEB",
"V*	c #78E0EE",
"W*	c #7CE1EF",
"X*	c #7EE2EF",
"Y*	c #7CE3EF",
"Z*	c #78E4F0",
"`*	c #79E4F2",
" =	c #7BE4F3",
".=	c #79E4F1",
"+=	c #7BE4F1",
"@=	c #75E4EF",
"#=	c #75E4F0",
"$=	c #79E3F0",
"%=	c #7BE3F0",
"&=	c #7AE3F0",
"*=	c #77E4F0",
"==	c #77E3F0",
"-=	c #76E5F0",
";=	c #78E5F0",
">=	c #77E5F1",
",=	c #78E6F2",
"'=	c #7AE5F2",
")=	c #7BE4F2",
"!=	c #7DE5F2",
"~=	c #78E3F0",
"{=	c #78E1EF",
"]=	c #79DFEE",
"^=	c #77DEEC",
"/=	c #76DDEA",
"(=	c #77DCE9",
"_=	c #7ADCEA",
":=	c #7DDCEB",
"<=	c #7DDBE9",
"[=	c #7DD9E8",
"}=	c #7CDAE7",
"|=	c #7DD9E7",
"1=	c #74D8E4",
"2=	c #6FD6E2",
"3=	c #71D6E3",
"4=	c #7AD8E7",
"5=	c #56D2E9",
"6=	c #02718C",
"7=	c #136383",
"8=	c #0C2A39",
"9=	c #2E6D88",
"0=	c #2C5B70",
"a=	c #2D4755",
"b=	c #2D434E",
"c=	c #2A3E48",
"d=	c #2B3F49",
"e=	c #2E414A",
"f=	c #1B262C",
"g=	c #10181C",
"h=	c #131C21",
"i=	c #162024",
"j=	c #151F23",
"k=	c #212D34",
"l=	c #2B3940",
"m=	c #232F34",
"n=	c #1E292F",
"o=	c #1E2A30",
"p=	c #1F2C32",
"q=	c #0F1619",
"r=	c #29363D",
"s=	c #172226",
"t=	c #25353D",
"u=	c #2D3F48",
"v=	c #2F454F",
"w=	c #2F4651",
"x=	c #2A424D",
"y=	c #2B4856",
"z=	c #2E4D5B",
"A=	c #2E4E5C",
"B=	c #2B4D5C",
"C=	c #2C5263",
"D=	c #295264",
"E=	c #2D6075",
"F=	c #29647E",
"G=	c #163F50",
"H=	c #174E66",
"I=	c #014666",
"J=	c #0282AB",
"K=	c #0292BC",
"L=	c #0297BC",
"M=	c #029BBF",
"N=	c #029EC1",
"O=	c #02A0C5",
"P=	c #02A4C8",
"Q=	c #02A8CA",
"R=	c #02A7C8",
"S=	c #02A7C6",
"T=	c #02A8C8",
"U=	c #02ABCB",
"V=	c #03AECE",
"W=	c #04ACCB",
"X=	c #04ABC9",
"Y=	c #03ADCB",
"Z=	c #04B0D1",
"`=	c #03B1D0",
" -	c #03B0D0",
".-	c #03B0CD",
"+-	c #03AFCF",
"@-	c #03AECD",
"#-	c #03AFD0",
"$-	c #03AFCE",
"%-	c #03B0D1",
"&-	c #04B0D0",
"*-	c #03ADCD",
"=-	c #03AACC",
"--	c #02A6C9",
";-	c #03A4C5",
">-	c #03A4C6",
",-	c #03A6C8",
"'-	c #04A6C9",
")-	c #03A3C6",
"!-	c #02A1C5",
"~-	c #02A0C2",
"{-	c #03A0C5",
"]-	c #02A0C6",
"^-	c #029FC8",
"/-	c #029BC1",
"(-	c #0296BC",
"_-	c #0297BE",
":-	c #029AC3",
"<-	c #028DB8",
"[-	c #035474",
"}-	c #115671",
"|-	c #0C2A38",
"1-	c #275D74",
"2-	c #285366",
"3-	c #2F5363",
"4-	c #2B4551",
"5-	c #2F4753",
"6-	c #2C424B",
"7-	c #2B414B",
"8-	c #2D3E45",
"9-	c #1C272C",
"0-	c #0F161B",
"a-	c #151F25",
"b-	c #202C31",
"c-	c #1F2A30",
"d-	c #212D33",
"e-	c #263339",
"f-	c #27343A",
"g-	c #27333B",
"h-	c #222E35",
"i-	c #1B252C",
"j-	c #1C262C",
"k-	c #28353D",
"l-	c #1B262A",
"m-	c #202C32",
"n-	c #232E34",
"o-	c #212C32",
"p-	c #202B30",
"q-	c #1D282E",
"r-	c #1D282D",
"s-	c #233035",
"t-	c #1F2C33",
"u-	c #0F191E",
"v-	c #23343C",
"w-	c #2D404A",
"x-	c #2A4958",
"y-	c #2C4F5F",
"z-	c #2A5162",
"A-	c #2B5465",
"B-	c #2A5567",
"C-	c #2A6078",
"D-	c #296985",
"E-	c #225E76",
"F-	c #25708C",
"G-	c #28809E",
"H-	c #2583A2",
"I-	c #2884A3",
"J-	c #2380A0",
"K-	c #2685A4",
"L-	c #2A88A8",
"M-	c #2A8EAD",
"N-	c #258EAC",
"O-	c #228EAB",
"P-	c #238DA9",
"Q-	c #1989A8",
"R-	c #2290AF",
"S-	c #228EAF",
"T-	c #258DAB",
"U-	c #338EA9",
"V-	c #3790AC",
"W-	c #3793B0",
"X-	c #3B96B0",
"Y-	c #3B94AE",
"Z-	c #4699B1",
"`-	c #4899B1",
" ;	c #4B9AB4",
".;	c #489AB3",
"+;	c #529EB5",
"@;	c #4A9AB4",
"#;	c #4D9AB3",
"$;	c #4899B2",
"%;	c #4C99B2",
"&;	c #4A97B0",
"*;	c #4593AC",
"=;	c #4B96AF",
"-;	c #3A90AC",
";;	c #2F8CAB",
">;	c #298BAA",
",;	c #298BAE",
"';	c #288BAE",
");	c #258AAC",
"!;	c #2089AC",
"~;	c #1D86AA",
"{;	c #2186A8",
"];	c #2085A6",
"^;	c #1E7C9D",
"/;	c #1D7D9D",
"(;	c #207A9D",
"_;	c #207695",
":;	c #21718D",
"<;	c #246982",
"[;	c #28627B",
"};	c #25566B",
"|;	c #38697F",
"1;	c #305463",
"2;	c #2D4D5C",
"3;	c #2D4B58",
"4;	c #2B4855",
"5;	c #2C424C",
"6;	c #2D424C",
"7;	c #2E3E47",
"8;	c #232F36",
"9;	c #1F2B32",
"0;	c #283740",
"a;	c #1D292F",
"b;	c #202C33",
"c;	c #202D34",
"d;	c #212E36",
"e;	c #1E2A31",
"f;	c #1D2930",
"g;	c #1A262D",
"h;	c #19242B",
"i;	c #1D2830",
"j;	c #26333A",
"k;	c #253238",
"l;	c #10161A",
"m;	c #1D2A2F",
"n;	c #121C22",
"o;	c #203037",
"p;	c #283841",
"q;	c #2C3E48",
"r;	c #324953",
"s;	c #1E3139",
"t;	c #1E3540",
"u;	c #203B46",
"v;	c #1F3944",
"w;	c #23414F",
"x;	c #285062",
"y;	c #295163",
"z;	c #2A5467",
"A;	c #285569",
"B;	c #28637D",
"C;	c #23637F",
"D;	c #216E8C",
"E;	c #237C9D",
"F;	c #1F85AA",
"G;	c #1F88AF",
"H;	c #228EB4",
"I;	c #2694BB",
"J;	c #2799C0",
"K;	c #1F95BC",
"L;	c #1D97BC",
"M;	c #1D97BD",
"N;	c #1B97BF",
"O;	c #219CC3",
"P;	c #1C9AC0",
"Q;	c #1B97BE",
"R;	c #229AC2",
"S;	c #239BC2",
"T;	c #239FC6",
"U;	c #229FC5",
"V;	c #27A2C7",
"W;	c #2FA5CB",
"X;	c #2DA7CD",
"Y;	c #2DA8CE",
"Z;	c #2BA5CA",
"`;	c #36A8CC",
" >	c #2DA7CB",
".>	c #30AACF",
"+>	c #2CA7CC",
"@>	c #34A5C9",
"#>	c #32A2C7",
"$>	c #2D9FC4",
"%>	c #31A1C6",
"&>	c #269DC3",
"*>	c #2299C1",
"=>	c #1E92B9",
"->	c #2393BA",
";>	c #228FB6",
">>	c #218DB3",
",>	c #1E8CB2",
"'>	c #1C8AB0",
")>	c #1D8BB0",
"!>	c #1F8AAE",
"~>	c #1F85A9",
"{>	c #2281A4",
"]>	c #2284A8",
"^>	c #22809F",
"/>	c #2381A5",
"(>	c #217698",
"_>	c #206E8D",
":>	c #256985",
"<>	c #28667F",
"[>	c #295D73",
"}>	c #2E586C",
"|>	c #2A5062",
"1>	c #2E5160",
"2>	c #2D4E5E",
"3>	c #2B4753",
"4>	c #1F343D",
"5>	c #243B45",
"6>	c #233B45",
"7>	c #1F3138",
"8>	c #2C3E47",
"9>	c #182327",
"0>	c #233036",
"a>	c #1D282F",
"b>	c #1C272D",
"c>	c #131B1F",
"d>	c #0F1618",
"e>	c #182325",
"f>	c #131D1F",
"g>	c #10171A",
"h>	c #141E21",
"i>	c #131C1F",
"j>	c #141D20",
"k>	c #172024",
"l>	c #182125",
"m>	c #0F1517",
"n>	c #1C282D",
"o>	c #212E34",
"p>	c #1E2A2F",
"q>	c #0C1215",
"r>	c #1C292E",
"s>	c #1C282E",
"t>	c #222F37",
"u>	c #0F181C",
"v>	c #141D23",
"w>	c #1D2D34",
"x>	c #1F2E34",
"y>	c #2B3D46",
"z>	c #2C4048",
"A>	c #2E454F",
"B>	c #2A3F49",
"C>	c #192F38",
"D>	c #1F3F4D",
"E>	c #254757",
"F>	c #224150",
"G>	c #22414F",
"H>	c #285162",
"I>	c #294F62",
"J>	c #264E61",
"K>	c #26556A",
"L>	c #295D74",
"M>	c #255E77",
"N>	c #206986",
"O>	c #217191",
"P>	c #217495",
"Q>	c #227DA1",
"R>	c #2282A6",
"S>	c #2384A9",
"T>	c #2087AB",
"U>	c #1E86AB",
"V>	c #1D86AB",
"W>	c #1D8AB0",
"X>	c #1D8DB3",
"Y>	c #1C8EB3",
"Z>	c #1D8FB4",
"`>	c #188CB2",
" ,	c #1A8FB6",
".,	c #1B91B8",
"+,	c #1B94BA",
"@,	c #1A93B8",
"#,	c #1C95BA",
"$,	c #1E98BE",
"%,	c #1E9AC1",
"&,	c #1E9BC1",
"*,	c #1D9ABF",
"=,	c #1E9CC1",
"-,	c #269BC0",
";,	c #1C99BF",
">,	c #1D98BC",
",,	c #2397BB",
"',	c #2194B9",
"),	c #1C92B7",
"!,	c #1B8DB3",
"~,	c #1C87AC",
"{,	c #1E85AB",
"],	c #1D81A4",
"^,	c #1C82A5",
"/,	c #1C81A5",
"(,	c #1C7D9F",
"_,	c #1E7C9E",
":,	c #20799B",
"<,	c #227697",
"[,	c #237A9C",
"},	c #1E7294",
"|,	c #1F6C8C",
"1,	c #22647F",
"2,	c #245C73",
"3,	c #285B70",
"4,	c #2E5161",
"5,	c #253F4B",
"6,	c #27414D",
"7,	c #2A4756",
"8,	c #26414E",
"9,	c #1E323B",
"0,	c #273941",
"a,	c #0D1418",
"b,	c #1A242B",
"c,	c #2B3B45",
"d,	c #233139",
"e,	c #1E2B32",
"f,	c #1F2B31",
"g,	c #212D32",
"h,	c #222D33",
"i,	c #252E33",
"j,	c #27333A",
"k,	c #070C0F",
"l,	c #0C1316",
"m,	c #0B1215",
"n,	c #0D1416",
"o,	c #0D1517",
"p,	c #0B1316",
"q,	c #0C1216",
"r,	c #070D0F",
"s,	c #0D1417",
"t,	c #0B1115",
"u,	c #0A1013",
"v,	c #090F11",
"w,	c #0F1A1E",
"x,	c #2E424C",
"y,	c #324651",
"z,	c #2F444F",
"A,	c #314954",
"B,	c #2E434E",
"C,	c #2D4655",
"D,	c #284555",
"E,	c #294858",
"F,	c #274554",
"G,	c #2D4E5F",
"H,	c #265062",
"I,	c #274F61",
"J,	c #2A586F",
"K,	c #29586E",
"L,	c #2E627B",
"M,	c #275E77",
"N,	c #25637E",
"O,	c #246B88",
"P,	c #226C8A",
"Q,	c #226C8B",
"R,	c #257B9E",
"S,	c #237B9B",
"T,	c #2580A2",
"U,	c #207EA0",
"V,	c #1D7FA3",
"W,	c #2A8DB0",
"X,	c #217D9F",
"Y,	c #268DB1",
"Z,	c #1A86A9",
"`,	c #1888AA",
" '	c #1A89AC",
".'	c #218FB3",
"+'	c #1C8DB1",
"@'	c #1E8FB1",
"#'	c #1E90B0",
"$'	c #2295B9",
"%'	c #1E96BA",
"&'	c #2EA0C2",
"*'	c #2C9FC0",
"='	c #33A4C5",
"-'	c #2A9FC1",
";'	c #2EA4C7",
">'	c #31A4C5",
",'	c #279ABB",
"''	c #2797B9",
")'	c #1D92B6",
"!'	c #2091B4",
"~'	c #1A8AAF",
"{'	c #1B8AAF",
"]'	c #1D87AB",
"^'	c #228AAF",
"/'	c #268AAD",
"('	c #2283A5",
"_'	c #2785A7",
":'	c #2380A2",
"<'	c #247B9D",
"['	c #2E89A8",
"}'	c #236C89",
"|'	c #236E8B",
"1'	c #23708F",
"2'	c #246D8B",
"3'	c #276884",
"4'	c #27627B",
"5'	c #265B72",
"6'	c #2A5D74",
"7'	c #2C5162",
"8'	c #304D5A",
"9'	c #2E4C5B",
"0'	c #2D4957",
"a'	c #2A4351",
"b'	c #2C4452",
"c'	c #324954",
"d'	c #324650",
"e'	c #324852",
"f'	c #32454F",
"g'	c #30434D",
"h'	c #374A54",
"i'	c #31434C",
"j'	c #161F24",
"k'	c #151D22",
"l'	c #0F181B",
"m'	c #111B20",
"n'	c #111A1E",
"o'	c #0E1517",
"p'	c #0E1418",
"q'	c #0E1519",
"r'	c #0F151A",
"s'	c #0E1318",
"t'	c #0B1216",
"u'	c #0C1317",
"v'	c #0C1417",
"w'	c #0F161A",
"x'	c #141C21",
"y'	c #1D2A32",
"z'	c #233136",
"A'	c #21323A",
"B'	c #172429",
"C'	c #19252C",
"D'	c #1D2C34",
"E'	c #050A0D",
"F'	c #0D1317",
"G'	c #1B272C",
"H'	c #25363E",
"I'	c #202F37",
"J'	c #24353D",
"K'	c #283942",
"L'	c #253943",
"M'	c #1F343E",
"N'	c #1F3540",
"O'	c #1E353F",
"P'	c #213B48",
"Q'	c #1D3B48",
"R'	c #1E3A49",
"S'	c #214253",
"T'	c #1F4252",
"U'	c #21495C",
"V'	c #1C4457",
"W'	c #1B485C",
"X'	c #1A4C62",
"Y'	c #1A4A60",
"Z'	c #1A4D64",
"`'	c #1D5C78",
" )	c #1C576F",
".)	c #1D5A71",
"+)	c #19556C",
"@)	c #185D78",
"#)	c #1C617B",
"$)	c #175773",
"%)	c #1B607A",
"&)	c #135973",
"*)	c #145A73",
"=)	c #145D78",
"-)	c #186580",
";)	c #15617B",
">)	c #17617A",
",)	c #18627C",
"')	c #1E6D89",
"))	c #1B6C87",
"!)	c #27748D",
"~)	c #267189",
"{)	c #30798F",
"])	c #287289",
"^)	c #2C7990",
"/)	c #2D798F",
"()	c #226E88",
"_)	c #1E6D88",
":)	c #16647F",
"<)	c #1B6B87",
"[)	c #176884",
"})	c #156784",
"|)	c #166683",
"1)	c #19647E",
"2)	c #185B74",
"3)	c #175972",
"4)	c #1B5A73",
"5)	c #1D5B76",
"6)	c #1D5670",
"7)	c #164C63",
"8)	c #1C5D76",
"9)	c #15526E",
"0)	c #194E65",
"a)	c #1C4E62",
"b)	c #1B4B60",
"c)	c #19475C",
"d)	c #1A4659",
"e)	c #1A4356",
"f)	c #1B4255",
"g)	c #1E4355",
"h)	c #204557",
"i)	c #1F3D4A",
"j)	c #203944",
"k)	c #213742",
"l)	c #263E4B",
"m)	c #233A46",
"n)	c #21353F",
"o)	c #20333B",
"p)	c #20323B",
"q)	c #25373F",
"r)	c #11181D",
"s)	c #141C20",
"t)	c #050809",
"u)	c #070B0E",
"v)	c #090E10",
"w)	c #080D0F",
"x)	c #090E11",
"y)	c #080C0E",
"z)	c #090D0F",
"A)	c #070C0E",
"B)	c #070B0D",
"C)	c #040607",
"D)	c #263740",
"E)	c #26363F",
"F)	c #223238",
"G)	c #26363E",
"H)	c #1F2E36",
"I)	c #21313A",
"J)	c #040608",
"K)	c #0B1014",
"L)	c #1B272D",
"M)	c #19252B",
"N)	c #19272D",
"O)	c #152228",
"P)	c #17272F",
"Q)	c #162831",
"R)	c #142731",
"S)	c #142832",
"T)	c #142933",
"U)	c #142A35",
"V)	c #132B36",
"W)	c #132C38",
"X)	c #14303F",
"Y)	c #133242",
"Z)	c #133141",
"`)	c #143648",
" !	c #113444",
".!	c #0F374B",
"+!	c #113C50",
"@!	c #0F3549",
"#!	c #0E3042",
"$!	c #133649",
"%!	c #103343",
"&!	c #123849",
"*!	c #133749",
"=!	c #123648",
"-!	c #123548",
";!	c #143A4D",
">!	c #123A4E",
",!	c #113A4E",
"'!	c #123B50",
")!	c #113D51",
"!!	c #113A4D",
"~!	c #11384B",
"{!	c #133A4D",
"]!	c #12394C",
"^!	c #13384B",
"/!	c #13384A",
"(!	c #133547",
"_!	c #133546",
":!	c #123445",
"<!	c #133445",
"[!	c #133444",
"}!	c #123344",
"|!	c #143242",
"1!	c #0F2A38",
"2!	c #123545",
"3!	c #14313E",
"4!	c #132E3B",
"5!	c #142E3B",
"6!	c #132D3A",
"7!	c #142E3C",
"8!	c #142E3A",
"9!	c #142831",
"0!	c #182B35",
"a!	c #17252B",
"b!	c #18262D",
"c!	c #19262C",
"d!	c #19272C",
"e!	c #182429",
"f!	c #111A1F",
"g!	c #0C1114",
"h!	c #111B1E",
"i!	c #121B1F",
"j!	c #111A1D",
"k!	c #2A3C45",
"l!	c #283A42",
"m!	c #293A42",
"n!	c #2A3B44",
"o!	c #304651",
"p!	c #2F434D",
"q!	c #020506",
"r!	c #18242B",
"s!	c #19262D",
"t!	c #18262F",
"u!	c #15262F",
"v!	c #152730",
"w!	c #162934",
"x!	c #142730",
"y!	c #142934",
"z!	c #132934",
"A!	c #132935",
"B!	c #142A37",
"C!	c #142C39",
"D!	c #132E3D",
"E!	c #142E3D",
"F!	c #122D3B",
"G!	c #112E3D",
"H!	c #123242",
"I!	c #133544",
"J!	c #133648",
"K!	c #0E2937",
"L!	c #11303F",
"M!	c #113344",
"N!	c #123748",
"O!	c #11374A",
"P!	c #113648",
"Q!	c #12374A",
"R!	c #10374A",
"S!	c #11394D",
"T!	c #113749",
"U!	c #11394E",
"V!	c #113548",
"W!	c #123547",
"X!	c #113547",
"Y!	c #133344",
"Z!	c #123343",
"`!	c #123141",
" ~	c #12303F",
".~	c #122F3D",
"+~	c #102937",
"@~	c #143141",
"#~	c #142F3C",
"$~	c #152D3A",
"%~	c #152D39",
"&~	c #142B38",
"*~	c #152C38",
"=~	c #162B35",
"-~	c #172832",
";~	c #172127",
">~	c #182228",
",~	c #040709",
"'~	c #2C3B44",
")~	c #2A3A43",
"!~	c #30424B",
"~~	c #2D3D45",
"{~	c #2F4046",
"]~	c #2B3A41",
"^~	c #263841",
"/~	c #23353E",
"(~	c #24363F",
"_~	c #263741",
":~	c #364A54",
"<~	c #18242A",
"[~	c #17242A",
"}~	c #18252D",
"|~	c #19272F",
"1~	c #17272E",
"2~	c #16262F",
"3~	c #142630",
"4~	c #13242E",
"5~	c #152833",
"6~	c #14262F",
"7~	c #152A36",
"8~	c #132C39",
"9~	c #122C3A",
"0~	c #122D3C",
"a~	c #13303E",
"b~	c #0E2633",
"c~	c #112F3D",
"d~	c #113141",
"e~	c #123142",
"f~	c #103041",
"g~	c #113243",
"h~	c #113242",
"i~	c #123546",
"j~	c #123749",
"k~	c #133342",
"l~	c #13303F",
"m~	c #153444",
"n~	c #132F3D",
"o~	c #14303E",
"p~	c #152F3D",
"q~	c #162E3B",
"r~	c #142B37",
"s~	c #142A36",
"t~	c #152A34",
"u~	c #152A35",
"v~	c #172932",
"w~	c #17262F",
"x~	c #16252D",
"y~	c #17252D",
"z~	c #1A272E",
"A~	c #1A262C",
"B~	c #192429",
"C~	c #1F2A31",
"D~	c #04080B",
"E~	c #2C3D46",
"F~	c #202E35",
"G~	c #27383F",
"H~	c #162125",
"I~	c #141F24",
"J~	c #1C292F",
"K~	c #14242C",
"L~	c #152C39",
"M~	c #12252F",
"N~	c #122128",
"O~	c #152B36",
"P~	c #122933",
"Q~	c #142833",
"R~	c #162A36",
"S~	c #152229",
"T~	c #152026",
"U~	c #060A0E",
"V~	c #080F12",
"W~	c #19272E",
"X~	c #18272E",
"Y~	c #16252C",
"Z~	c #16242A",
"`~	c #162730",
" {	c #152832",
".{	c #132631",
"+{	c #132B38",
"@{	c #112B39",
"#{	c #122E3C",
"${	c #0D2532",
"%{	c #112F3E",
"&{	c #112D3C",
"*{	c #102B39",
"={	c #102E3F",
"-{	c #102E3E",
";{	c #102D3E",
">{	c #0F2E3F",
",{	c #113040",
"'{	c #113140",
"){	c #133241",
"!{	c #133140",
"~{	c #123345",
"{{	c #132F3C",
"]{	c #132F3E",
"^{	c #122B39",
"/{	c #132B37",
"({	c #152D38",
"_{	c #152B37",
":{	c #152B35",
"<{	c #162832",
"[{	c #16272F",
"}{	c #16232A",
"|{	c #162127",
"1{	c #192226",
"2{	c #060A0C",
"3{	c #1D2A31",
"4{	c #192329",
"5{	c #141D21",
"6{	c #11222C",
"7{	c #0D2330",
"8{	c #0D2836",
"9{	c #0D2B3B",
"0{	c #0E2736",
"a{	c #0E1E25",
"b{	c #142935",
"c{	c #0C2532",
"d{	c #0F2633",
"e{	c #112430",
"f{	c #14252D",
"g{	c #0E191E",
"h{	c #050A0C",
"i{	c #090F13",
"j{	c #15242D",
"k{	c #152934",
"l{	c #132833",
"m{	c #122833",
"n{	c #132D3B",
"o{	c #132E3C",
"p{	c #122E3D",
"q{	c #0F2836",
"r{	c #133040",
"s{	c #102C3A",
"t{	c #102D3B",
"u{	c #102F3F",
"v{	c #102C3C",
"w{	c #102C3B",
"x{	c #123140",
"y{	c #123040",
"z{	c #122F3F",
"A{	c #123243",
"B{	c #122E3B",
"C{	c #122F3E",
"D{	c #102A38",
"E{	c #112632",
"F{	c #0F2531",
"G{	c #122B37",
"H{	c #142C37",
"I{	c #142B36",
"J{	c #13262F",
"K{	c #13272F",
"L{	c #162932",
"M{	c #162830",
"N{	c #17272D",
"O{	c #19262E",
"P{	c #162329",
"Q{	c #05080B",
"R{	c #070C10",
"S{	c #1F2D34",
"T{	c #131D22",
"U{	c #102A36",
"V{	c #072433",
"W{	c #073247",
"X{	c #073045",
"Y{	c #0D2F42",
"Z{	c #12242E",
"`{	c #122A37",
" ]	c #0C2F3F",
".]	c #072E41",
"+]	c #07364B",
"@]	c #072B3C",
"#]	c #193645",
"$]	c #1A2F3B",
"%]	c #080E11",
"&]	c #030507",
"*]	c #080D10",
"=]	c #151F24",
"-]	c #152329",
";]	c #15242C",
">]	c #15252E",
",]	c #152630",
"']	c #162B37",
")]	c #132A36",
"!]	c #122C39",
"~]	c #0B1B24",
"{]	c #0E2531",
"]]	c #0A1E28",
"^]	c #0C222E",
"/]	c #0C2431",
"(]	c #0D2430",
"_]	c #102E3C",
":]	c #112C39",
"<]	c #112C3A",
"[]	c #102B38",
"}]	c #0F2B38",
"|]	c #102936",
"1]	c #112B38",
"2]	c #0F2834",
"3]	c #0E2532",
"4]	c #112936",
"5]	c #0D1F27",
"6]	c #112A37",
"7]	c #162C38",
"8]	c #15262E",
"9]	c #18262E",
"0]	c #1A242A",
"a]	c #212F35",
"b]	c #11191C",
"c]	c #0D1316",
"d]	c #0A0F11",
"e]	c #1C282F",
"f]	c #193C4C",
"g]	c #033045",
"h]	c #1194AB",
"i]	c #045B7F",
"j]	c #0E445F",
"k]	c #174055",
"l]	c #17313F",
"m]	c #1C3C4D",
"n]	c #134E67",
"o]	c #044D67",
"p]	c #20A4B8",
"q]	c #024363",
"r]	c #1E4B61",
"s]	c #20404F",
"t]	c #1F3541",
"u]	c #20323C",
"v]	c #04070A",
"w]	c #080D11",
"x]	c #0A0F13",
"y]	c #121C20",
"z]	c #141F25",
"A]	c #131F25",
"B]	c #131E24",
"C]	c #121E25",
"D]	c #132028",
"E]	c #12212A",
"F]	c #12232D",
"G]	c #11222B",
"H]	c #11232D",
"I]	c #122834",
"J]	c #102632",
"K]	c #102934",
"L]	c #112834",
"M]	c #102631",
"N]	c #0A1821",
"O]	c #0E2431",
"P]	c #0E2635",
"Q]	c #0F2B3B",
"R]	c #0F2B3C",
"S]	c #102C3D",
"T]	c #112D3E",
"U]	c #112C3C",
"V]	c #112D3D",
"W]	c #102D3D",
"X]	c #112E40",
"Y]	c #102D3F",
"Z]	c #0F2C3C",
"`]	c #112E3F",
" ^	c #142F3F",
".^	c #112A39",
"+^	c #112B3C",
"@^	c #102430",
"#^	c #0E1E27",
"$^	c #0E232D",
"%^	c #0F242E",
"&^	c #112733",
"*^	c #112631",
"=^	c #122530",
"-^	c #11242E",
";^	c #13252F",
">^	c #13222A",
",^	c #16242B",
"'^	c #142129",
")^	c #141E24",
"!^	c #182229",
"~^	c #121B20",
"{^	c #1A2428",
"]^	c #06090D",
"^^	c #05080C",
"/^	c #2B393F",
"(^	c #2E3F45",
"_^	c #2D3D44",
":^	c #2A3942",
"<^	c #28353B",
"[^	c #1F2B33",
"}^	c #174355",
"|^	c #044A66",
"1^	c #34C9DC",
"2^	c #157CA1",
"3^	c #11516E",
"4^	c #164459",
"5^	c #153342",
"6^	c #183C4D",
"7^	c #115A75",
"8^	c #0B617C",
"9^	c #56E0EF",
"0^	c #025275",
"a^	c #1D546E",
"b^	c #1E3D4C",
"c^	c #1D3745",
"d^	c #213642",
"e^	c #0C1419",
"f^	c #0A1114",
"g^	c #0B1113",
"h^	c #0D1419",
"i^	c #0E151A",
"j^	c #0E171D",
"k^	c #0D181F",
"l^	c #0D1921",
"m^	c #0D1A22",
"n^	c #0D1B23",
"o^	c #0C1A21",
"p^	c #0D1A21",
"q^	c #0C1921",
"r^	c #0B1820",
"s^	c #0C1A22",
"t^	c #0C1C24",
"u^	c #07141B",
"v^	c #07151D",
"w^	c #09171F",
"x^	c #091923",
"y^	c #091A24",
"z^	c #091B26",
"A^	c #0A1C26",
"B^	c #091C26",
"C^	c #091A23",
"D^	c #091820",
"E^	c #0A1D27",
"F^	c #0A1D29",
"G^	c #0A1A24",
"H^	c #091B25",
"I^	c #0B1D28",
"J^	c #0A1D28",
"K^	c #0A1C25",
"L^	c #0C1F29",
"M^	c #0B1E28",
"N^	c #0C1C25",
"O^	c #0B1A22",
"P^	c #0C1920",
"Q^	c #0D1B24",
"R^	c #0A151C",
"S^	c #09141B",
"T^	c #0B1921",
"U^	c #09161D",
"V^	c #0B161C",
"W^	c #0B161D",
"X^	c #0C171E",
"Y^	c #0D181D",
"Z^	c #0E191F",
"`^	c #0F191F",
" /	c #0F181E",
"./	c #0E181D",
"+/	c #0E171C",
"@/	c #0B1418",
"#/	c #0E161B",
"$/	c #0A1014",
"%/	c #060B0E",
"&/	c #090E12",
"*/	c #05090B",
"=/	c #243139",
"-/	c #22323A",
";/	c #15495D",
">/	c #034F6E",
",/	c #42CADC",
"'/	c #1882A6",
")/	c #105572",
"!/	c #174D64",
"~/	c #173B4D",
"{/	c #164053",
"]/	c #156481",
"^/	c #13607D",
"//	c #6DE2F0",
"(/	c #02597F",
"_/	c #185571",
":/	c #1F3E4D",
"</	c #1A323F",
"[/	c #1E333E",
"}/	c #090F12",
"|/	c #0A1113",
"1/	c #0E181C",
"2/	c #0D1A20",
"3/	c #0B181F",
"4/	c #0D1C24",
"5/	c #091A21",
"6/	c #08161E",
"7/	c #0C1B22",
"8/	c #0C1D26",
"9/	c #0B1E26",
"0/	c #071D27",
"a/	c #08212A",
"b/	c #09242D",
"c/	c #0B2934",
"d/	c #0B2A34",
"e/	c #0C2C36",
"f/	c #0D2D36",
"g/	c #0F2E37",
"h/	c #11323C",
"i/	c #11323B",
"j/	c #12323A",
"k/	c #15353D",
"l/	c #14343D",
"m/	c #153641",
"n/	c #10333E",
"o/	c #0B313E",
"p/	c #0B313D",
"q/	c #0B2E39",
"r/	c #092934",
"s/	c #0B2C39",
"t/	c #0D2E3B",
"u/	c #0D2A35",
"v/	c #0D2935",
"w/	c #0D2934",
"x/	c #0E2732",
"y/	c #0E2631",
"z/	c #0C212B",
"A/	c #0D1B22",
"B/	c #0C1A20",
"C/	c #0C191E",
"D/	c #0C171D",
"E/	c #0C161A",
"F/	c #0F191D",
"G/	c #091115",
"H/	c #06090C",
"I/	c #12191E",
"J/	c #030607",
"K/	c #040507",
"L/	c #121A1F",
"M/	c #141F22",
"N/	c #195167",
"O/	c #035573",
"P/	c #4AC9DA",
"Q/	c #197D9E",
"R/	c #0E5571",
"S/	c #17536B",
"T/	c #153A4D",
"U/	c #16445A",
"V/	c #156886",
"W/	c #155F7B",
"X/	c #79E3EF",
"Y/	c #025A83",
"Z/	c #135D7C",
"`/	c #1D3B4A",
" (	c #1D3643",
".(	c #1E333F",
"+(	c #0A1015",
"@(	c #10171D",
"#(	c #304148",
"$(	c #171F24",
"%(	c #1D282C",
"&(	c #243137",
"*(	c #283B45",
"=(	c #2C414C",
"-(	c #29414D",
";(	c #2A4553",
">(	c #2D4D5D",
",(	c #305365",
"'(	c #2F576B",
")(	c #27556B",
"!(	c #2A5B71",
"~(	c #244C5E",
"{(	c #316075",
"](	c #2C6078",
"^(	c #265F78",
"/(	c #2A6C89",
"((	c #2B7390",
"_(	c #2D7B99",
":(	c #2E829F",
"<(	c #2E85A3",
"[(	c #328BA9",
"}(	c #318DAB",
"|(	c #338EAA",
"1(	c #3895B1",
"2(	c #3B9AB7",
"3(	c #40A5C1",
"4(	c #41A4C0",
"5(	c #45A6C1",
"6(	c #4BA9C4",
"7(	c #47A9C5",
"8(	c #4BAAC6",
"9(	c #3598B6",
"0(	c #2898BC",
"a(	c #2894B6",
"b(	c #2D96B7",
"c(	c #288BAB",
"d(	c #237F9F",
"e(	c #2783A5",
"f(	c #2E81A2",
"g(	c #2F7693",
"h(	c #2D7290",
"i(	c #2C6E8B",
"j(	c #2C6B86",
"k(	c #2C6680",
"l(	c #30677F",
"m(	c #265469",
"n(	c #285166",
"o(	c #2A4D5F",
"p(	c #2C4E5E",
"q(	c #2C4B5B",
"r(	c #2C4A58",
"s(	c #2A414D",
"t(	c #304753",
"u(	c #304049",
"v(	c #2B3A40",
"w(	c #131C22",
"x(	c #3F535D",
"y(	c #40555F",
"z(	c #3B505A",
"A(	c #384B56",
"B(	c #334750",
"C(	c #344954",
"D(	c #334852",
"E(	c #334851",
"F(	c #344850",
"G(	c #354851",
"H(	c #354952",
"I(	c #374B55",
"J(	c #374A53",
"K(	c #364952",
"L(	c #364750",
"M(	c #32434C",
"N(	c #2E3F48",
"O(	c #2C3B43",
"P(	c #1A4C61",
"Q(	c #034E6A",
"R(	c #45C9D8",
"S(	c #1A7A9A",
"T(	c #0E516C",
"U(	c #164E65",
"V(	c #163D51",
"W(	c #194B65",
"X(	c #176C8B",
"Y(	c #0C5975",
"Z(	c #5CDCED",
"`(	c #01557D",
" _	c #115E7E",
"._	c #1F3F4E",
"+_	c #1D3441",
"@_	c #11181C",
"#_	c #1D292D",
"$_	c #2A393E",
"%_	c #22343D",
"&_	c #223842",
"*_	c #233A44",
"=_	c #253D49",
"-_	c #253C48",
";_	c #243E4A",
">_	c #264857",
",_	c #1C3845",
"'_	c #254859",
")_	c #224758",
"!_	c #244A5C",
"~_	c #234A5C",
"{_	c #234C5F",
"]_	c #224E61",
"^_	c #235266",
"/_	c #235469",
"(_	c #265970",
"__	c #255A70",
":_	c #265D74",
"<_	c #225B73",
"[_	c #235C74",
"}_	c #215F76",
"|_	c #1F647D",
"1_	c #1C5F77",
"2_	c #1F617B",
"3_	c #20647D",
"4_	c #1E5F77",
"5_	c #225B71",
"6_	c #21566C",
"7_	c #22566C",
"8_	c #25556A",
"9_	c #26566B",
"0_	c #245165",
"a_	c #234E60",
"b_	c #244C5D",
"c_	c #234756",
"d_	c #244757",
"e_	c #243F4B",
"f_	c #253F4A",
"g_	c #253E48",
"h_	c #253E49",
"i_	c #253C46",
"j_	c #233840",
"k_	c #0C1115",
"l_	c #223038",
"m_	c #202F36",
"n_	c #202F35",
"o_	c #184456",
"p_	c #034159",
"q_	c #23A3B6",
"r_	c #0B6381",
"s_	c #0D445A",
"t_	c #184255",
"u_	c #18394B",
"v_	c #1E495F",
"w_	c #1D637E",
"x_	c #024862",
"y_	c #13AFC7",
"z_	c #024A68",
"A_	c #184F65",
"B_	c #1F3A49",
"C_	c #203744",
"D_	c #223743",
"E_	c #0A1216",
"F_	c #070D10",
"G_	c #1F2C31",
"H_	c #283A40",
"I_	c #192327",
"J_	c #172125",
"K_	c #1E2C32",
"L_	c #1E2D33",
"M_	c #23363F",
"N_	c #233640",
"O_	c #233942",
"P_	c #223841",
"Q_	c #243D4A",
"R_	c #25404D",
"S_	c #264452",
"T_	c #234453",
"U_	c #1E3C4B",
"V_	c #254756",
"W_	c #244656",
"X_	c #24495A",
"Y_	c #23495A",
"Z_	c #254B5C",
"`_	c #264D5F",
" :	c #234E61",
".:	c #245064",
"+:	c #245366",
"@:	c #26566A",
"#:	c #25586D",
"$:	c #23576D",
"%:	c #21586E",
"&:	c #215B73",
"*:	c #1E5B72",
"=:	c #1D5D74",
"-:	c #1B627B",
";:	c #1E617B",
">:	c #1E5F78",
",:	c #205F78",
"':	c #225F77",
"):	c #205A70",
"!:	c #225A70",
"~:	c #23586E",
"{:	c #265367",
"]:	c #245266",
"^:	c #245062",
"/:	c #244B5D",
"(:	c #264B5C",
"_:	c #254858",
"::	c #244858",
"<:	c #233E4A",
"[:	c #233D49",
"}:	c #243A44",
"|:	c #243942",
"1:	c #243842",
"2:	c #23343D",
"3:	c #22343C",
"4:	c #23353C",
"5:	c #212E33",
"6:	c #182428",
"7:	c #070E11",
"8:	c #314750",
"9:	c #2E3D43",
"0:	c #1D3D4D",
"a:	c #0D3242",
"b:	c #0B465B",
"c:	c #0B3C4F",
"d:	c #173542",
"e:	c #1B3846",
"f:	c #183240",
"g:	c #204356",
"h:	c #1C4B5F",
"i:	c #0F3C50",
"j:	c #094D64",
"k:	c #0D3848",
"l:	c #1C3F4D",
"m:	c #1E3642",
"n:	c #203540",
"o:	c #223742",
"p:	c #2A3A40",
"q:	c #32434A",
"r:	c #152024",
"s:	c #1F2B30",
"t:	c #223139",
"u:	c #243A45",
"v:	c #233B46",
"w:	c #223B47",
"x:	c #244352",
"y:	c #234554",
"z:	c #1E3B4A",
"A:	c #234656",
"B:	c #234757",
"C:	c #234959",
"D:	c #254C5E",
"E:	c #255063",
"F:	c #255265",
"G:	c #275467",
"H:	c #255367",
"I:	c #265569",
"J:	c #25586E",
"K:	c #23596F",
"L:	c #215970",
"M:	c #1F5971",
"N:	c #215C74",
"O:	c #235E75",
"P:	c #1F5B73",
"Q:	c #1F5970",
"R:	c #21596F",
"S:	c #22586E",
"T:	c #24586D",
"U:	c #24566A",
"V:	c #245468",
"W:	c #244F62",
"X:	c #244959",
"Y:	c #244857",
"Z:	c #244756",
"`:	c #284959",
" <	c #223D4A",
".<	c #243E48",
"+<	c #233A43",
"@<	c #243943",
"#<	c #253842",
"$<	c #1C2B30",
"%<	c #202D31",
"&<	c #0D1619",
"*<	c #334952",
"=<	c #2B3A43",
"-<	c #090D10",
";<	c #30454D",
"><	c #29393F",
",<	c #1E3C49",
"'<	c #1D4251",
")<	c #1F4353",
"!<	c #284757",
"~<	c #1F3947",
"{<	c #172C37",
"]<	c #213F4E",
"^<	c #1D3D4C",
"/<	c #265168",
"(<	c #1D4559",
"_<	c #1D4153",
":<	c #1A323E",
"<<	c #1D323D",
"[<	c #1F3440",
"}<	c #213641",
"|<	c #31454E",
"1<	c #455F6B",
"2<	c #22333A",
"3<	c #233841",
"4<	c #223740",
"5<	c #233A45",
"6<	c #243E49",
"7<	c #244250",
"8<	c #21404F",
"9<	c #1F3B49",
"0<	c #244554",
"a<	c #224555",
"b<	c #234555",
"c<	c #234859",
"d<	c #244B5C",
"e<	c #274E61",
"f<	c #264F62",
"g<	c #265266",
"h<	c #25566D",
"i<	c #23576E",
"j<	c #23586F",
"k<	c #225970",
"l<	c #20586E",
"m<	c #1F5368",
"n<	c #215469",
"o<	c #25576D",
"p<	c #255569",
"q<	c #264F61",
"r<	c #244D5F",
"s<	c #254D5F",
"t<	c #254959",
"u<	c #294C5C",
"v<	c #244454",
"w<	c #234250",
"x<	c #243F4A",
"y<	c #243C47",
"z<	c #253B44",
"A<	c #22343B",
"B<	c #2C3E45",
"C<	c #151E23",
"D<	c #334A54",
"E<	c #29373F",
"F<	c #1B2529",
"G<	c #1B2C35",
"H<	c #1B2F39",
"I<	c #1B2F37",
"J<	c #1D323B",
"K<	c #15252C",
"L<	c #243D48",
"M<	c #1F3743",
"N<	c #1D3541",
"O<	c #1C323E",
"P<	c #172831",
"Q<	c #142128",
"R<	c #1E323C",
"S<	c #20353F",
"T<	c #0B1317",
"U<	c #32454E",
"V<	c #2A3C42",
"W<	c #1B2A30",
"X<	c #1E3037",
"Y<	c #1F333B",
"Z<	c #1D313A",
"`<	c #1D3038",
" [	c #182E38",
".[	c #172A33",
"+[	c #1D333E",
"@[	c #254351",
"#[	c #213E4C",
"$[	c #1E3B48",
"%[	c #203D49",
"&[	c #203D4A",
"*[	c #21414E",
"=[	c #22424F",
"-[	c #1F3F4C",
";[	c #1E3F4C",
">[	c #1D404E",
",[	c #1D4150",
"'[	c #1C4251",
")[	c #1C414F",
"![	c #1C4150",
"~[	c #1B4150",
"{[	c #1C404E",
"][	c #1D4250",
"^[	c #1D414F",
"/[	c #1F414D",
"([	c #20414E",
"_[	c #1E3F4D",
":[	c #22414D",
"<[	c #203B45",
"[[	c #1F3C47",
"}[	c #1F3842",
"|[	c #1F3B47",
"1[	c #223E4B",
"2[	c #1C313B",
"3[	c #22363F",
"4[	c #24383F",
"5[	c #22363D",
"6[	c #1F323A",
"7[	c #1F3038",
"8[	c #1E2C31",
"9[	c #354D57",
"0[	c #080B0E",
"a[	c #2E3F46",
"b[	c #253138",
"c[	c #243038",
"d[	c #243037",
"e[	c #1B2A31",
"f[	c #1E3039",
"g[	c #1D3039",
"h[	c #1E2F38",
"i[	c #1E313A",
"j[	c #1E303A",
"k[	c #1C2C34",
"l[	c #203139",
"m[	c #1C2D36",
"n[	c #1F3039",
"o[	c #0A1115",
"p[	c #060B0F",
"q[	c #202E33",
"r[	c #182226",
"s[	c #1C2C33",
"t[	c #1B2E36",
"u[	c #1A2E37",
"v[	c #1C3440",
"w[	c #1B333F",
"x[	c #1A3543",
"y[	c #18323F",
"z[	c #17303D",
"A[	c #15303C",
"B[	c #173E51",
"C[	c #143646",
"D[	c #153B4B",
"E[	c #143748",
"F[	c #153C4F",
"G[	c #173442",
"H[	c #173947",
"I[	c #183F50",
"J[	c #163C4E",
"K[	c #153746",
"L[	c #173D4E",
"M[	c #184051",
"N[	c #193F4F",
"O[	c #193F51",
"P[	c #1A3F51",
"Q[	c #193F52",
"R[	c #183D50",
"S[	c #183E51",
"T[	c #183D4E",
"U[	c #193E4F",
"V[	c #193949",
"W[	c #1A3949",
"X[	c #1B3947",
"Y[	c #1C3846",
"Z[	c #1A333E",
"`[	c #182F3A",
" }	c #162F39",
".}	c #18303C",
"+}	c #162E3A",
"@}	c #16313E",
"#}	c #1B3441",
"$}	c #172B34",
"%}	c #1A303A",
"&}	c #1A2E38",
"*}	c #192831",
"=}	c #1C2A32",
"-}	c #1C2B31",
";}	c #18272D",
">}	c #11191B",
",}	c #38515C",
"'}	c #090C0F",
")}	c #0B1318",
"!}	c #10191E",
"~}	c #11191E",
"{}	c #121A20",
"]}	c #161E22",
"^}	c #1E2F37",
"/}	c #1B2930",
"(}	c #1E2C34",
"_}	c #293941",
":}	c #2E444F",
"<}	c #273C44",
"[}	c #27363B",
"}}	c #212F37",
"|}	c #283B44",
"1}	c #28404C",
"2}	c #28434F",
"3}	c #294654",
"4}	c #294553",
"5}	c #234150",
"6}	c #224252",
"7}	c #254D60",
"8}	c #224759",
"9}	c #224A5D",
"0}	c #20485B",
"a}	c #234E62",
"b}	c #22495B",
"c}	c #225065",
"d}	c #224F63",
"e}	c #234C5E",
"f}	c #25566C",
"g}	c #225167",
"h}	c #22556A",
"i}	c #225369",
"j}	c #24566C",
"k}	c #23576F",
"l}	c #23536A",
"m}	c #235369",
"n}	c #23546A",
"o}	c #235165",
"p}	c #235065",
"q}	c #234B5D",
"r}	c #264E62",
"s}	c #254B5E",
"t}	c #254958",
"u}	c #244452",
"v}	c #254554",
"w}	c #254758",
"x}	c #284656",
"y}	c #26404D",
"z}	c #263D4A",
"A}	c #273A43",
"B}	c #253841",
"C}	c #2B3B43",
"D}	c #101A1E",
"E}	c #3F5965",
"F}	c #0A1012",
"G}	c #080B0F",
"H}	c #030405",
"I}	c #030506",
"J}	c #020203",
"K}	c #020404",
"L}	c #020304",
"M}	c #020405",
"N}	c #030406",
"O}	c #010102",
"P}	c #000001",
"Q}	c #010202",
"R}	c #060A0D",
"S}	c #273940",
"T}	c #273B43",
"U}	c #1E2D32",
"V}	c #213038",
"W}	c #1F2E35",
"X}	c #1D2F37",
"Y}	c #233943",
"Z}	c #243B47",
"`}	c #233C48",
" |	c #233D4A",
".|	c #23404D",
"+|	c #224250",
"@|	c #224251",
"#|	c #224352",
"$|	c #204352",
"%|	c #204353",
"&|	c #204354",
"*|	c #1F4455",
"=|	c #1D4353",
"-|	c #1E4354",
";|	c #1E4455",
">|	c #1E4657",
",|	c #1E4555",
"'|	c #1E4456",
")|	c #1E4558",
"!|	c #1D4455",
"~|	c #214858",
"{|	c #204251",
"]|	c #214251",
"^|	c #224351",
"/|	c #21414F",
"(|	c #213F4D",
"_|	c #213D4A",
":|	c #24404D",
"<|	c #253E4A",
"[|	c #243B46",
"}|	c #243944",
"||	c #233941",
"1|	c #253A43",
"2|	c #243840",
"3|	c #101A1F",
"4|	c #3E5B67",
"5|	c #2A3C43",
"6|	c #2A3B42",
"7|	c #030404",
"8|	c #05080A",
"9|	c #06090B",
"0|	c #07090C",
"a|	c #050709",
"b|	c #070A0D",
"c|	c #000101",
"d|	c #030608",
"e|	c #020204",
"f|	c #2A3A42",
"g|	c #2F4048",
"h|	c #30414A",
"i|	c #344951",
"j|	c #30444C",
"k|	c #31444E",
"l|	c #334650",
"m|	c #344851",
"n|	c #34464E",
"o|	c #384C54",
"p|	c #080E12",
"q|	c #324752",
"r|	c #283B43",
"s|	c #182427",
"t|	c #273A41",
"u|	c #24353C",
"v|	c #233944",
"w|	c #233B48",
"x|	c #233E4B",
"y|	c #223F4C",
"z|	c #223F4B",
"A|	c #213E4B",
"B|	c #22404F",
"C|	c #22404E",
"D|	c #204150",
"E|	c #204252",
"F|	c #1F4151",
"G|	c #1D4252",
"H|	c #1E4252",
"I|	c #1E4454",
"J|	c #1E4353",
"K|	c #1E4253",
"L|	c #214453",
"M|	c #214150",
"N|	c #20404E",
"O|	c #213F4C",
"P|	c #223E4A",
"Q|	c #223943",
"R|	c #213741",
"S|	c #233740",
"T|	c #22363E",
"U|	c #22353E",
"V|	c #21333A",
"W|	c #32444D",
"X|	c #101B1F",
"Y|	c #3C5763",
"Z|	c #1E272C",
"`|	c #20282E",
" 1	c #1F272D",
".1	c #20292D",
"+1	c #1E262B",
"@1	c #1D252A",
"#1	c #1B2328",
"$1	c #192126",
"%1	c #182025",
"&1	c #171E23",
"*1	c #11171B",
"=1	c #1C272B",
"-1	c #1E2D35",
";1	c #2A3A41",
">1	c #091014",
",1	c #25373E",
"'1	c #334954",
")1	c #24363E",
"!1	c #24373F",
"~1	c #233741",
"{1	c #223A46",
"]1	c #223E4C",
"^1	c #223F4D",
"/1	c #203E4D",
"(1	c #1F404F",
"_1	c #1F4253",
":1	c #1F4150",
"<1	c #214250",
"[1	c #21404E",
"}1	c #213B46",
"|1	c #213A45",
"11	c #213943",
"21	c #223A45",
"31	c #233842",
"41	c #21353D",
"51	c #203036",
"61	c #1B282D",
"71	c #3B5763",
"81	c #161F22",
"91	c #06090A",
"01	c #0F1416",
"a1	c #101517",
"b1	c #0D1214",
"c1	c #0D1315",
"d1	c #0C1113",
"e1	c #0E1315",
"f1	c #0B1114",
"g1	c #141C1F",
"h1	c #2F4249",
"i1	c #293B45",
"j1	c #293C44",
"k1	c #2B4048",
"l1	c #202F34",
"m1	c #1E2E35",
"n1	c #22404D",
"o1	c #204151",
"p1	c #203F4D",
"q1	c #203C48",
"r1	c #243F4C",
"s1	c #213842",
"t1	c #233C47",
"u1	c #21363F",
"v1	c #21353E",
"w1	c #21343D",
"x1	c #21343C",
"y1	c #293841",
"z1	c #36525F",
"A1	c #253036",
"B1	c #020303",
"C1	c #31444B",
"D1	c #243237",
"E1	c #293C45",
"F1	c #23333B",
"G1	c #344C56",
"H1	c #253A44",
"I1	c #223D49",
"J1	c #203E4B",
"K1	c #203D4B",
"L1	c #21404D",
"M1	c #213C48",
"N1	c #223C48",
"O1	c #223843",
"P1	c #233843",
"Q1	c #223741",
"R1	c #21333C",
"S1	c #3A5A69",
"T1	c #2A3D45",
"U1	c #0C1217",
"V1	c #070A0E",
"W1	c #243036",
"X1	c #020202",
"Y1	c #1B292F",
"Z1	c #273740",
"`1	c #273942",
" 2	c #2B424C",
".2	c #253740",
"+2	c #233945",
"@2	c #243C48",
"#2	c #203C49",
"$2	c #213B47",
"%2	c #213A47",
"&2	c #223C49",
"*2	c #22333C",
"=2	c #24353E",
"-2	c #335766",
";2	c #1D272E",
">2	c #212B31",
",2	c #202B32",
"'2	c #212C33",
")2	c #202B31",
"!2	c #1F292F",
"~2	c #1E282F",
"{2	c #1E2F36",
"]2	c #2F4148",
"^2	c #2A414A",
"/2	c #304149",
"(2	c #253942",
"_2	c #263F4B",
":2	c #243D49",
"<2	c #203B47",
"[2	c #1F3A46",
"}2	c #213D4B",
"|2	c #213C49",
"12	c #203A47",
"22	c #233B47",
"32	c #213944",
"42	c #243740",
"52	c #1F2D35",
"62	c #0C171C",
"72	c #375D6F",
"82	c #293C43",
"92	c #040606",
"02	c #070B0C",
"a2	c #040708",
"b2	c #0B1315",
"c2	c #2F4854",
"d2	c #284049",
"e2	c #2E3F47",
"f2	c #253A45",
"g2	c #213A46",
"h2	c #203945",
"i2	c #203A46",
"j2	c #203946",
"k2	c #203B48",
"l2	c #1F3845",
"m2	c #1F3844",
"n2	c #1F3A45",
"o2	c #213640",
"p2	c #223640",
"q2	c #25363F",
"r2	c #1C2A30",
"s2	c #0D1A1E",
"t2	c #375867",
"u2	c #1E282E",
"v2	c #161E23",
"w2	c #040505",
"x2	c #030505",
"y2	c #30444D",
"z2	c #314C57",
"A2	c #28414A",
"B2	c #2D3D46",
"C2	c #243741",
"D2	c #223B46",
"E2	c #1F3843",
"F2	c #1F3945",
"G2	c #1E3945",
"H2	c #203A45",
"I2	c #223641",
"J2	c #22353D",
"K2	c #1C2A2F",
"L2	c #121D22",
"M2	c #3B5965",
"N2	c #2A393F",
"O2	c #0E1417",
"P2	c #0F1518",
"Q2	c #101618",
"R2	c #11171A",
"S2	c #101619",
"T2	c #0D1215",
"U2	c #0E1316",
"V2	c #0C1315",
"W2	c #364850",
"X2	c #131B1E",
"Y2	c #344E5A",
"Z2	c #29424C",
"`2	c #2B5864",
" 3	c #2B5B6A",
".3	c #295F72",
"+3	c #29596B",
"@3	c #274F5D",
"#3	c #224755",
"$3	c #285B69",
"%3	c #2B5B6B",
"&3	c #295969",
"*3	c #224653",
"=3	c #2A5E70",
"-3	c #2B5E6F",
";3	c #295B6D",
">3	c #285A6E",
",3	c #255261",
"'3	c #244A57",
")3	c #24414D",
"!3	c #213740",
"~3	c #131E23",
"{3	c #3E5E6D",
"]3	c #232D33",
"^3	c #253037",
"/3	c #253139",
"(3	c #222C32",
"_3	c #253035",
":3	c #161D21",
"<3	c #384A52",
"[3	c #33474F",
"}3	c #254753",
"|3	c #2E7787",
"13	c #27505E",
"23	c #32849A",
"33	c #2C687A",
"43	c #30758B",
"53	c #2E677B",
"63	c #35768B",
"73	c #25515F",
"83	c #265768",
"93	c #2F7487",
"03	c #2F6B7C",
"a3	c #317387",
"b3	c #337287",
"c3	c #234655",
"d3	c #2D697D",
"e3	c #2F778C",
"f3	c #30778D",
"g3	c #2D667B",
"h3	c #244350",
"i3	c #2C6F82",
"j3	c #23424D",
"k3	c #2A6779",
"l3	c #274E5D",
"m3	c #263943",
"n3	c #0D181C",
"o3	c #2D4551",
"p3	c #2F4149",
"q3	c #010101",
"r3	c #19232A",
"s3	c #27383E",
"t3	c #364A53",
"u3	c #364D56",
"v3	c #26353A",
"w3	c #254551",
"x3	c #2D798C",
"y3	c #326F84",
"z3	c #2F7E97",
"A3	c #2B7081",
"B3	c #285361",
"C3	c #253D47",
"D3	c #2A7084",
"E3	c #275B6C",
"F3	c #255A6B",
"G3	c #276677",
"H3	c #204553",
"I3	c #2C6073",
"J3	c #3B8198",
"K3	c #233C49",
"L3	c #266573",
"M3	c #25606E",
"N3	c #2F7585",
"O3	c #2B525E",
"P3	c #2B4A56",
"Q3	c #2D697B",
"R3	c #264F5E",
"S3	c #20323A",
"T3	c #253741",
"U3	c #0E191D",
"V3	c #2A363D",
"W3	c #07090B",
"X3	c #070A0C",
"Y3	c #06080A",
"Z3	c #050607",
"`3	c #040506",
" 4	c #050708",
".4	c #27363F",
"+4	c #1D2C33",
"@4	c #364A52",
"#4	c #354953",
"$4	c #131A1F",
"%4	c #2C4450",
"&4	c #243941",
"*4	c #23424E",
"=4	c #2F7587",
"-4	c #2F6B80",
";4	c #2E6678",
">4	c #30788F",
",4	c #2A7083",
"'4	c #275260",
")4	c #223A43",
"!4	c #236A7E",
"~4	c #255768",
"{4	c #255C6D",
"]4	c #2B768B",
"^4	c #307C94",
"/4	c #31829B",
"(4	c #2B5866",
"_4	c #266170",
":4	c #245A67",
"<4	c #20353E",
"[4	c #2D6E7E",
"}4	c #36707F",
"|4	c #366E7E",
"14	c #30788A",
"24	c #283B46",
"34	c #131F23",
"44	c #3A5865",
"54	c #2D3A40",
"64	c #171E21",
"74	c #182024",
"84	c #1B2428",
"94	c #141B1F",
"04	c #131A1D",
"a4	c #141A1D",
"b4	c #13191D",
"c4	c #12171B",
"d4	c #111719",
"e4	c #091113",
"f4	c #32454D",
"g4	c #151D21",
"h4	c #273B44",
"i4	c #314753",
"j4	c #273C47",
"k4	c #23373F",
"l4	c #24404B",
"m4	c #2E6B77",
"n4	c #22424C",
"o4	c #2E6F82",
"p4	c #307385",
"q4	c #287084",
"r4	c #285968",
"s4	c #266477",
"t4	c #235060",
"u4	c #235867",
"v4	c #246373",
"w4	c #265566",
"x4	c #2B768E",
"y4	c #285D6F",
"z4	c #235B68",
"A4	c #245865",
"B4	c #20343E",
"C4	c #285A69",
"D4	c #25353E",
"E4	c #276272",
"F4	c #264D5B",
"G4	c #111C21",
"H4	c #365562",
"I4	c #1E282D",
"J4	c #20292F",
"K4	c #1F2A2F",
"L4	c #212D31",
"M4	c #1B2429",
"N4	c #1B242A",
"O4	c #1B252B",
"P4	c #33464F",
"Q4	c #314854",
"R4	c #283E47",
"S4	c #316D7C",
"T4	c #264854",
"U4	c #347488",
"V4	c #265B6D",
"W4	c #2D788E",
"X4	c #2B6C7F",
"Y4	c #2F7186",
"Z4	c #244552",
"`4	c #295C6C",
" 5	c #276374",
".5	c #203843",
"+5	c #265D70",
"@5	c #2F738A",
"#5	c #1F3641",
"$5	c #235A68",
"%5	c #295D6B",
"&5	c #253B45",
"*5	c #2B6B7E",
"=5	c #264450",
"-5	c #28616D",
";5	c #284A56",
">5	c #365563",
",5	c #010303",
"'5	c #000000",
")5	c #34474F",
"!5	c #33444B",
"~5	c #203038",
"{5	c #243640",
"]5	c #26424C",
"^5	c #274653",
"/5	c #254855",
"(5	c #254A57",
"_5	c #274855",
":5	c #263D47",
"<5	c #294854",
"[5	c #223945",
"}5	c #264451",
"|5	c #1F3741",
"15	c #263A44",
"25	c #284651",
"35	c #263B45",
"45	c #25404A",
"55	c #263B43",
"65	c #3C5764",
"75	c #1A2429",
"85	c #26323A",
"95	c #080B0D",
"05	c #172327",
"a5	c #364953",
"b5	c #263941",
"c5	c #324A55",
"d5	c #283D47",
"e5	c #1B292E",
"f5	c #223136",
"g5	c #162023",
"h5	c #203138",
"i5	c #22343E",
"j5	c #243843",
"k5	c #233742",
"l5	c #20343D",
"m5	c #121D21",
"n5	c #344D59",
"o5	c #222E34",
"p5	c #192427",
"q5	c #080C10",
"r5	c #151C20",
"s5	c #1A2226",
"t5	c #181F23",
"u5	c #181F22",
"v5	c #192023",
"w5	c #171F22",
"x5	c #12191D",
"y5	c #0B1012",
"z5	c #2B3B44",
"A5	c #2F3F47",
"B5	c #334A55",
"C5	c #283C45",
"D5	c #1D2B30",
"E5	c #23353F",
"F5	c #22353F",
"G5	c #223540",
"H5	c #20333C",
"I5	c #21333D",
"J5	c #101B1E",
"K5	c #304853",
"L5	c #0B1013",
"M5	c #2F444C",
"N5	c #1B2226",
"O5	c #1A2326",
"P5	c #1D2529",
"Q5	c #1A2124",
"R5	c #1B2326",
"S5	c #1E262A",
"T5	c #1B2427",
"U5	c #131A1E",
"V5	c #1A2830",
"W5	c #293D45",
"X5	c #263A43",
"Y5	c #21343E",
"Z5	c #23343E",
"`5	c #111C20",
" 6	c #354F5B",
".6	c #2D3F46",
"+6	c #2B3B41",
"@6	c #091012",
"#6	c #26353E",
"$6	c #10191C",
"%6	c #324750",
"&6	c #283C43",
"*6	c #213035",
"=6	c #223E49",
"-6	c #316D7E",
";6	c #306B7B",
">6	c #337183",
",6	c #28505D",
"'6	c #264D5C",
")6	c #2F6C7F",
"!6	c #2F697B",
"~6	c #326C7D",
"{6	c #24414E",
"]6	c #37515D",
"^6	c #0E1317",
"/6	c #2B3D43",
"(6	c #060708",
"_6	c #090D0E",
":6	c #07090A",
"<6	c #07080A",
"[6	c #091114",
"}6	c #080E10",
"|6	c #344852",
"16	c #22404C",
"26	c #327385",
"36	c #307082",
"46	c #337588",
"56	c #27515F",
"66	c #335F6F",
"76	c #1F323B",
"86	c #21333B",
"96	c #26505E",
"06	c #2E6E82",
"a6	c #317084",
"b6	c #357487",
"c6	c #254451",
"d6	c #101A1D",
"e6	c #2F454E",
"f6	c #2B3C43",
"g6	c #1F292E",
"h6	c #1A2529",
"i6	c #1A2327",
"j6	c #316E80",
"k6	c #337284",
"l6	c #337385",
"m6	c #356E82",
"n6	c #223C46",
"o6	c #306F82",
"p6	c #25424E",
"q6	c #0F191C",
"r6	c #12191C",
"s6	c #13191B",
"t6	c #131A1B",
"u6	c #12181A",
"v6	c #12191B",
"w6	c #101718",
"x6	c #0F1519",
"y6	c #32474F",
"z6	c #21323B",
"A6	c #22353C",
"B6	c #327284",
"C6	c #306B7D",
"D6	c #224956",
"E6	c #306A7D",
"F6	c #2E677A",
"G6	c #203239",
"H6	c #264F5C",
"I6	c #316E82",
"J6	c #306D81",
"K6	c #357286",
"L6	c #233D48",
"M6	c #344B56",
"N6	c #2B3C42",
"O6	c #010203",
"P6	c #070E12",
"Q6	c #0C1518",
"R6	c #030708",
"S6	c #213139",
"T6	c #21353C",
"U6	c #306A7C",
"V6	c #224855",
"W6	c #316C7D",
"X6	c #315E6C",
"Y6	c #27515E",
"Z6	c #316D82",
"`6	c #326D81",
" 7	c #24404A",
".7	c #3A5560",
"+7	c #283B42",
"@7	c #0D1216",
"#7	c #090C10",
"$7	c #06080B",
"%7	c #050808",
"&7	c #060709",
"*7	c #0E181E",
"=7	c #081014",
"-7	c #0E1B21",
";7	c #0C161B",
">7	c #0B1419",
",7	c #213A44",
"'7	c #326E81",
")7	c #306B7F",
"!7	c #2E6B7D",
"~7	c #224A57",
"{7	c #2F697A",
"]7	c #336E80",
"^7	c #386F80",
"/7	c #2A4953",
"(7	c #20333A",
"_7	c #306C80",
":7	c #223B45",
"<7	c #0E1A1D",
"[7	c #354E58",
"}7	c #32434B",
"|7	c #212C31",
"17	c #222C31",
"27	c #222D31",
"37	c #1F282D",
"47	c #1D272C",
"57	c #1F2A2E",
"67	c #1C252A",
"77	c #0C1214",
"87	c #23323B",
"97	c #263842",
"07	c #1E3038",
"a7	c #20313A",
"b7	c #22323B",
"c7	c #324751",
"d7	c #203943",
"e7	c #2F6D7F",
"f7	c #254B58",
"g7	c #326D7F",
"h7	c #356D7E",
"i7	c #356575",
"j7	c #1F343C",
"k7	c #254E5B",
"l7	c #2F6B7F",
"m7	c #223D46",
"n7	c #0D171A",
"o7	c #334B55",
"p7	c #0A0E10",
"q7	c #0A1011",
"r7	c #0A0F10",
"s7	c #080F11",
"t7	c #2F444E",
"u7	c #213D4C",
"v7	c #234253",
"w7	c #294C5E",
"x7	c #27485A",
"y7	c #244253",
"z7	c #214050",
"A7	c #203C4C",
"B7	c #213C4B",
"C7	c #233946",
"D7	c #2C3F4A",
"E7	c #1F3037",
"F7	c #30454E",
"G7	c #141D1F",
"H7	c #223339",
"I7	c #316B7D",
"J7	c #316778",
"K7	c #326F80",
"L7	c #264C59",
"M7	c #294652",
"N7	c #336A7B",
"O7	c #336878",
"P7	c #36697A",
"Q7	c #2D535F",
"R7	c #234854",
"S7	c #2A5E6E",
"T7	c #2D5F6F",
"U7	c #316C80",
"V7	c #0D171B",
"W7	c #324B55",
"X7	c #0D1318",
"Y7	c #17303B",
"Z7	c #183745",
"`7	c #143848",
" 8	c #114258",
".8	c #145573",
"+8	c #115371",
"@8	c #12506C",
"#8	c #124B65",
"$8	c #124861",
"%8	c #154B65",
"&8	c #194C66",
"*8	c #194154",
"=8	c #19323E",
"-8	c #0D171C",
";8	c #1D2C35",
">8	c #2F434C",
",8	c #213942",
"'8	c #326B7D",
")8	c #336A7C",
"!8	c #336D7E",
"~8	c #254A55",
"{8	c #2C5463",
"]8	c #356878",
"^8	c #366E7F",
"/8	c #2D6172",
"(8	c #316576",
"_8	c #2F6779",
":8	c #314A55",
"<8	c #28393F",
"[8	c #253136",
"}8	c #060809",
"|8	c #040405",
"18	c #1C4353",
"28	c #022F49",
"38	c #074E6E",
"48	c #0D5A7B",
"58	c #0B5C81",
"68	c #0C5D80",
"78	c #0D5B7A",
"88	c #0F5A75",
"98	c #0F5B79",
"08	c #0D5C7B",
"a8	c #0E597A",
"b8	c #02506E",
"c8	c #124053",
"d8	c #29424E",
"e8	c #0B1116",
"f8	c #070D11",
"g8	c #26383F",
"h8	c #203740",
"i8	c #31697A",
"j8	c #326A7B",
"k8	c #336C7F",
"l8	c #254956",
"m8	c #32606D",
"n8	c #326878",
"o8	c #326778",
"p8	c #2E5F6F",
"q8	c #264B58",
"r8	c #2F6476",
"s8	c #306576",
"t8	c #306779",
"u8	c #31464F",
"v8	c #101519",
"w8	c #252E35",
"x8	c #252F34",
"y8	c #252F35",
"z8	c #242E34",
"A8	c #263137",
"B8	c #242F36",
"C8	c #263136",
"D8	c #1D252B",
"E8	c #171E22",
"F8	c #1A495C",
"G8	c #026588",
"H8	c #62C2CD",
"I8	c #74CFD3",
"J8	c #65CBD3",
"K8	c #63CAD4",
"L8	c #64C8D5",
"M8	c #6DCDDB",
"N8	c #72D0E0",
"O8	c #6DCFDE",
"P8	c #6ACEDD",
"Q8	c #0D92BA",
"R8	c #13475C",
"S8	c #0B212C",
"T8	c #1C2D35",
"U8	c #121C1F",
"V8	c #151E21",
"W8	c #182124",
"X8	c #172023",
"Y8	c #192326",
"Z8	c #316879",
"`8	c #326678",
" 9	c #244754",
".9	c #23373E",
"+9	c #316472",
"@9	c #2F6575",
"#9	c #306777",
"$9	c #2F6576",
"%9	c #2F6171",
"&9	c #314852",
"*9	c #05070A",
"=9	c #024966",
"-9	c #02779E",
";9	c #017DA5",
">9	c #0178A2",
",9	c #01779F",
"'9	c #0281AC",
")9	c #0184AF",
"!9	c #0188B5",
"~9	c #0183B1",
"{9	c #017EAB",
"]9	c #02688D",
"^9	c #164255",
"/9	c #25414E",
"(9	c #1B2C34",
"_9	c #24343D",
":9	c #2E404A",
"<9	c #2A3840",
"[9	c #2C3A42",
"}9	c #2B3941",
"|9	c #2C3A43",
"19	c #2F6676",
"29	c #2F6172",
"39	c #316677",
"49	c #264753",
"59	c #1F3036",
"69	c #284B57",
"79	c #316878",
"89	c #306475",
"99	c #2F5F70",
"09	c #2D6070",
"a9	c #2D6372",
"b9	c #2C3C44",
"c9	c #2A373E",
"d9	c #0A1215",
"e9	c #193644",
"f9	c #1C3E50",
"g9	c #1A4255",
"h9	c #19465B",
"i9	c #174C63",
"j9	c #1C5268",
"k9	c #1F5268",
"l9	c #1C4D63",
"m9	c #194457",
"n9	c #1A3847",
"o9	c #1B323E",
"p9	c #0A161C",
"q9	c #1E292E",
"r9	c #213841",
"s9	c #2F6373",
"t9	c #244550",
"u9	c #1F2F35",
"v9	c #2F5867",
"w9	c #306778",
"x9	c #2E6273",
"y9	c #2F606F",
"z9	c #2A5665",
"A9	c #223944",
"B9	c #202D35",
"C9	c #091215",
"D9	c #0A1214",
"E9	c #202A2F",
"F9	c #0C1013",
"G9	c #0B0F12",
"H9	c #0A0E11",
"I9	c #34505D",
"J9	c #2B4C5D",
"K9	c #294C60",
"L9	c #2F5971",
"M9	c #30607A",
"N9	c #2F6A89",
"O9	c #296B8D",
"P9	c #2D6B88",
"Q9	c #326984",
"R9	c #346982",
"S9	c #34647A",
"T9	c #315668",
"U9	c #131F26",
"V9	c #2B414C",
"W9	c #1F313A",
"X9	c #203137",
"Y9	c #22434F",
"Z9	c #306273",
"`9	c #2E6070",
" 0	c #1F2C34",
".0	c #192227",
"+0	c #3A515C",
"@0	c #242F35",
"#0	c #20292E",
"$0	c #202A2E",
"%0	c #1D262B",
"&0	c #152932",
"*0	c #1A313D",
"=0	c #19333F",
"-0	c #162D38",
";0	c #132129",
">0	c #1F333E",
",0	c #060C0F",
"'0	c #2A383F",
")0	c #21373F",
"!0	c #2E606E",
"~0	c #2E6272",
"{0	c #2C5E6E",
"]0	c #213F4B",
"^0	c #1E2D34",
"/0	c #306373",
"(0	c #2E6171",
"_0	c #306374",
":0	c #2D5E6F",
"<0	c #1F353F",
"[0	c #27343B",
"}0	c #222D34",
"|0	c #39505C",
"10	c #24373E",
"20	c #1B2D34",
"30	c #1E333D",
"40	c #1B2F3A",
"50	c #172A32",
"60	c #172830",
"70	c #0E1A20",
"80	c #18252A",
"90	c #2A5C6B",
"00	c #2D5F6E",
"a0	c #1E2E34",
"b0	c #2B5C6B",
"c0	c #2A5B6A",
"d0	c #285766",
"e0	c #1E343C",
"f0	c #344953",
"g0	c #2B3F47",
"h0	c #050608",
"i0	c #020305",
"j0	c #37525F",
"k0	c #36505D",
"l0	c #3B5767",
"m0	c #385361",
"n0	c #36515F",
"o0	c #34505E",
"p0	c #354F5E",
"q0	c #384E5A",
"r0	c #253640",
"s0	c #2C4350",
"t0	c #0F1B21",
"u0	c #1A2228",
"v0	c #1B252A",
"w0	c #1D272B",
"x0	c #1E2930",
"y0	c #081013",
"z0	c #324A54",
"A0	c #0F1417",
"B0	c #11181A",
"C0	c #12181B",
"D0	c #13191C",
"E0	c #111619",
"F0	c #0A0D10",
"G0	c #2A404A",
"H0	c #273E49",
"I0	c #253945",
"J0	c #233540",
"K0	c #283C47",
"L0	c #121D23",
"M0	c #1D2B33",
"N0	c #1E292D",
"O0	c #1E292C",
"P0	c #1E282B",
"Q0	c #192125",
"R0	c #1A2126",
"S0	c #27404A",
"T0	c #284451",
"U0	c #244655",
"V0	c #1F4D62",
"W0	c #234F65",
"X0	c #2C5267",
"Y0	c #2A4A5C",
"Z0	c #243A46",
"`0	c #283D48",
" a	c #1E2E36",
".a	c #151F22",
"+a	c #141F23",
"@a	c #1C282C",
"#a	c #344B55",
"$a	c #030304",
"%a	c #121E22",
"&a	c #12303B",
"*a	c #0B2938",
"=a	c #063549",
"-a	c #023851",
";a	c #033B56",
">a	c #043E59",
",a	c #043651",
"'a	c #26414F",
")a	c #0E1920",
"!a	c #1C272E",
"~a	c #334751",
"{a	c #14495D",
"]a	c #023952",
"^a	c #03A6BB",
"/a	c #03BDD1",
"(a	c #04BFD4",
"_a	c #015A75",
":a	c #0F3C53",
"<a	c #254553",
"[a	c #0E1A21",
"}a	c #1F323C",
"|a	c #152125",
"1a	c #25333C",
"2a	c #1B272E",
"3a	c #0D1115",
"4a	c #0B0E12",
"5a	c #1F2F38",
"6a	c #21323C",
"7a	c #184A5E",
"8a	c #01314B",
"9a	c #016F88",
"0a	c #01819C",
"aa	c #0184A3",
"ba	c #0184A4",
"ca	c #024D6B",
"da	c #0F3B50",
"ea	c #264554",
"fa	c #1D272D",
"ga	c #0D1518",
"ha	c #344A55",
"ia	c #253237",
"ja	c #162027",
"ka	c #0B0F13",
"la	c #203039",
"ma	c #1A3643",
"na	c #133446",
"oa	c #144058",
"pa	c #15425C",
"qa	c #143F57",
"ra	c #14384B",
"sa	c #284452",
"ta	c #111D23",
"ua	c #05090C",
"va	c #1A252C",
"wa	c #284D61",
"xa	c #234B5F",
"ya	c #254F64",
"za	c #2A556B",
"Aa	c #285167",
"Ba	c #28495B",
"Ca	c #293D47",
"Da	c #1D2E37",
"Ea	c #1B2830",
"Fa	c #374D58",
"Ga	c #070A0B",
"Ha	c #0B0E10",
"Ia	c #1C2E38",
"Ja	c #1D3744",
"Ka	c #1B3542",
"La	c #183340",
"Ma	c #19323F",
"Na	c #182D38",
"Oa	c #192A33",
"Pa	c #1C2B33",
"Qa	c #1A282D",
"Ra	c #0F171C",
"Sa	c #111C23",
"Ta	c #111E24",
"Ua	c #132128",
"Va	c #14242D",
"Wa	c #13252E",
"Xa	c #0F1F27",
"Ya	c #112129",
"Za	c #101E25",
"`a	c #0F1B20",
" b	c #202F38",
".b	c #05090A",
"+b	c #161F21",
"@b	c #151D23",
"#b	c #161E24",
"$b	c #182127",
"%b	c #182026",
"&b	c #0C1619",
"*b	c #0B1519",
"=b	c #081116",
"-b	c #091216",
";b	c #0A151A",
">b	c #0C181D",
",b	c #09151A",
"'b	c #091419",
")b	c #081216",
"!b	c #0A1316",
"~b	c #22313A",
"{b	c #202E36",
"]b	c #1E282C",
"^b	c #030305",
"/b	c #010001",
"(b	c #182023",
"_b	c #1A262E",
":b	c #1B272F",
"<b	c #1F2B2E",
"[b	c #263238",
"}b	c #263338",
"|b	c #1C3442",
"1b	c #1D313D",
"2b	c #192830",
"3b	c #192931",
"4b	c #19252D",
"5b	c #1B262D",
"6b	c #18232A",
"7b	c #121C21",
"8b	c #161F25",
"9b	c #263036",
"0b	c #243035",
"ab	c #141B20",
"bb	c #1E272D",
"cb	c #1D262A",
"db	c #1C2529",
"eb	c #1B2327",
"fb	c #1A262A",
"gb	c #131E22",
"hb	c #111B21",
"ib	c #14232B",
"jb	c #131D23",
"kb	c #111B1F",
"lb	c #10171C",
"mb	c #1E2B33",
"nb	c #212F38",
"ob	c #273841",
"pb	c #23333C",
"qb	c #213039",
"rb	c #324955",
"sb	c #2C4654",
"tb	c #2D4857",
"ub	c #2F5467",
"vb	c #2B5061",
"wb	c #2D5568",
"xb	c #2E5466",
"yb	c #2F5B71",
"zb	c #2D576B",
"Ab	c #2A566B",
"Bb	c #2B5B70",
"Cb	c #2E6982",
"Db	c #295C71",
"Eb	c #28586D",
"Fb	c #2C5C71",
"Gb	c #2D5B6E",
"Hb	c #2E586B",
"Ib	c #2E5566",
"Jb	c #2E4D5D",
"Kb	c #2B4E60",
"Lb	c #31586C",
"Mb	c #294351",
"Nb	c #2B4755",
"Ob	c #2D4653",
"Pb	c #2C4551",
"Qb	c #2C4451",
"Rb	c #2B414D",
"Sb	c #2C434F",
"Tb	c #17232A",
"Ub	c #1F2C30",
"Vb	c #30404A",
"Wb	c #1B2931",
"Xb	c #1D2D35",
"Yb	c #1A2931",
"Zb	c #1B2B32",
"`b	c #1A2A31",
" c	c #1B2A32",
".c	c #1B2D35",
"+c	c #1A2C34",
"@c	c #192C35",
"#c	c #192D35",
"$c	c #1B2E38",
"%c	c #1C2F39",
"&c	c #1D2E35",
"*c	c #1A2930",
"=c	c #1B2B33",
"-c	c #151E24",
";c	c #152128",
">c	c #1B2A33",
",c	c #192932",
"'c	c #1C2D37",
")c	c #1B2D36",
"!c	c #1C2E37",
"~c	c #1A2D36",
"{c	c #1B2E37",
"]c	c #1C303A",
"^c	c #1C2E39",
"/c	c #1B2D37",
"(c	c #1A2D35",
"_c	c #1B2B34",
":c	c #1C2B34",
"<c	c #121D24",
"[c	c #172229",
"}c	c #273339",
"|c	c #263237",
"1c	c #243034",
"2c	c #253135",
"3c	c #1D2D36",
"4c	c #1C2C35",
"5c	c #1A2A33",
"6c	c #192930",
"7c	c #1A2B34",
"8c	c #1B2C36",
"9c	c #1A2B35",
"0c	c #1A2D37",
"ac	c #1C303B",
"bc	c #1C2F3A",
"cc	c #1C2C36",
"dc	c #05090D",
"ec	c #050606",
"fc	c #020406",
"gc	c #212E37",
"hc	c #172730",
"ic	c #1B2B35",
"jc	c #1D313C",
"kc	c #1D323E",
"lc	c #1A303B",
"mc	c #192F3A",
"nc	c #1A303C",
"oc	c #1B303C",
"pc	c #1E323E",
"qc	c #1D3440",
"rc	c #1A2C36",
"sc	c #1B2D38",
"tc	c #1A2A32",
"uc	c #1F2F39",
"vc	c #1B272B",
"wc	c #0F1E24",
"xc	c #0F1C22",
"yc	c #101D23",
"zc	c #101D24",
"Ac	c #12222A",
"Bc	c #102028",
"Cc	c #10232C",
"Dc	c #0F232D",
"Ec	c #10252F",
"Fc	c #0F232C",
"Gc	c #122630",
"Hc	c #122731",
"Ic	c #132732",
"Jc	c #12242C",
"Kc	c #0F222A",
"Lc	c #15252D",
"Mc	c #132229",
"Nc	c #122025",
"Oc	c #121E24",
"Pc	c #121E23",
"Qc	c #101C21",
"Rc	c #0F1A1F",
"Sc	c #080F13",
"Tc	c #020201",
"Uc	c #080E13",
"Vc	c #273943",
"Wc	c #283A45",
"Xc	c #293C46",
"Yc	c #2C404A",
"Zc	c #314853",
"`c	c #2C4651",
" d	c #304C58",
".d	c #355463",
"+d	c #304F5F",
"@d	c #305162",
"#d	c #2C4E5F",
"$d	c #2B556A",
"%d	c #2C576B",
"&d	c #295468",
"*d	c #2D5A6D",
"=d	c #30637B",
"-d	c #33677E",
";d	c #35697F",
">d	c #356C84",
",d	c #316D87",
"'d	c #2F7390",
")d	c #297490",
"!d	c #2C7691",
"~d	c #287591",
"{d	c #2B7593",
"]d	c #2D718C",
"^d	c #2B6B86",
"/d	c #27657E",
"(d	c #266179",
"_d	c #225266",
":d	c #255266",
"<d	c #275064",
"[d	c #2A5469",
"}d	c #31596C",
"|d	c #2A4F62",
"1d	c #2A4E61",
"2d	c #2D5164",
"3d	c #2F5567",
"4d	c #33576A",
"5d	c #2B4958",
"6d	c #315265",
"7d	c #315061",
"8d	c #365363",
"9d	c #365260",
"0d	c #2F4A58",
"ad	c #2F4958",
"bd	c #2D4552",
"cd	c #29404B",
"dd	c #2B3F4B",
"ed	c #293D48",
"fd	c #293C47",
"gd	c #293A44",
"hd	c #0E1419",
"id	c #2F414A",
"jd	c #28363F",
"kd	c #293942",
"ld	c #2B404B",
"md	c #2B444F",
"nd	c #2E4753",
"od	c #314E5C",
"pd	c #2E4C59",
"qd	c #2C4957",
"rd	c #2F5161",
"sd	c #315566",
"td	c #305466",
"ud	c #2E5668",
"vd	c #2C5A6E",
"wd	c #2D5C71",
"xd	c #2F6178",
"yd	c #2F6379",
"zd	c #316A82",
"Ad	c #30677E",
"Bd	c #2F6980",
"Cd	c #2E6C84",
"Dd	c #2B7491",
"Ed	c #297C9B",
"Fd	c #2A809F",
"Gd	c #2B819F",
"Hd	c #2C809E",
"Id	c #2A7994",
"Jd	c #2C7792",
"Kd	c #2F748C",
"Ld	c #2E6E87",
"Md	c #2D6B85",
"Nd	c #2D667E",
"Od	c #2D6177",
"Pd	c #31637B",
"Qd	c #2F5E73",
"Rd	c #305D71",
"Sd	c #325D70",
"Td	c #315A6D",
"Ud	c #2E5364",
"Vd	c #315667",
"Wd	c #305565",
"Xd	c #2E4E5D",
"Yd	c #30505F",
"Zd	c #314F5D",
"`d	c #314B58",
" e	c #334B57",
".e	c #304752",
"+e	c #2F434E",
"@e	c #304550",
"#e	c #283A44",
"$e	c #1D2A2E",
"%e	c #04080A",
"&e	c #324C5A",
"*e	c #324D5B",
"=e	c #33505E",
"-e	c #32505F",
";e	c #355868",
">e	c #35596A",
",e	c #335768",
"'e	c #33596B",
")e	c #31586A",
"!e	c #2F5F75",
"~e	c #2F627A",
"{e	c #2F657D",
"]e	c #306B84",
"^e	c #326C84",
"/e	c #36728B",
"(e	c #2D6C85",
"_e	c #2E7A97",
":e	c #2B80A0",
"<e	c #2A83A3",
"[e	c #2B82A1",
"}e	c #2C84A3",
"|e	c #2C7E9B",
"1e	c #2D7591",
"2e	c #2E718C",
"3e	c #2C6A83",
"4e	c #2C6881",
"5e	c #2E657D",
"6e	c #2E6177",
"7e	c #2F6075",
"8e	c #326074",
"9e	c #325F72",
"0e	c #335E71",
"ae	c #335B6F",
"be	c #355B6D",
"ce	c #33596A",
"de	c #325668",
"ee	c #335565",
"fe	c #324F5D",
"ge	c #35515F",
"he	c #344F5D",
"ie	c #344F5C",
"je	c #324B58",
"ke	c #334A57",
"le	c #324A56",
"me	c #304652",
"ne	c #30454F",
"oe	c #2A3C46",
"pe	c #1F2E37",
"qe	c #304A57",
"re	c #324E5C",
"se	c #345362",
"te	c #335463",
"ue	c #355665",
"ve	c #355A6B",
"we	c #365B6D",
"xe	c #33586B",
"ye	c #32596B",
"ze	c #33637A",
"Ae	c #2F6177",
"Be	c #2E6279",
"Ce	c #2D6076",
"De	c #2B5C70",
"Ee	c #306A81",
"Fe	c #2D667D",
"Ge	c #2E6E88",
"He	c #2E7189",
"Ie	c #2B7995",
"Je	c #267D9C",
"Ke	c #2D86A5",
"Le	c #2882A0",
"Me	c #2A84A3",
"Ne	c #2B7F9B",
"Oe	c #26677C",
"Pe	c #2A6880",
"Qe	c #2B687F",
"Re	c #2D6880",
"Se	c #2E667D",
"Te	c #2E6377",
"Ue	c #306277",
"Ve	c #315E71",
"We	c #345F71",
"Xe	c #305869",
"Ye	c #345C6E",
"Ze	c #325969",
"`e	c #345766",
" f	c #335563",
".f	c #335361",
"+f	c #32505E",
"@f	c #334F5D",
"#f	c #324C59",
"$f	c #2F424C",
"%f	c #2A3B45",
"&f	c #28353A",
"*f	c #162229",
"=f	c #253137",
"-f	c #2D3E47",
";f	c #314752",
">f	c #38525F",
",f	c #375260",
"'f	c #3A5868",
")f	c #345564",
"!f	c #355766",
"~f	c #355968",
"{f	c #376072",
"]f	c #356073",
"^f	c #336074",
"/f	c #335F74",
"(f	c #35687E",
"_f	c #33687F",
":f	c #366D85",
"<f	c #2D6A81",
"[f	c #337994",
"}f	c #347E9B",
"|f	c #33819E",
"1f	c #3689A7",
"2f	c #358CAB",
"3f	c #348BAA",
"4f	c #3790AE",
"5f	c #3B97B4",
"6f	c #3D99B6",
"7f	c #3C9AB6",
"8f	c #3C97B4",
"9f	c #368FAA",
"0f	c #328FAC",
"af	c #3289A5",
"bf	c #2C718B",
"cf	c #30768F",
"df	c #2F758F",
"ef	c #2C6D86",
"ff	c #2D687F",
"gf	c #2F667C",
"hf	c #2F6D84",
"if	c #316980",
"jf	c #316277",
"kf	c #306074",
"lf	c #37677E",
"mf	c #37596A",
"nf	c #355462",
"of	c #355260",
"pf	c #36515E",
"qf	c #36525E",
"rf	c #375360",
"sf	c #385463",
"tf	c #395665",
"uf	c #354F5C",
"vf	c #38515F",
"wf	c #39515D",
"xf	c #364C57",
"yf	c #394E58",
"zf	c #31454F",
"Af	c #2E3F49",
"Bf	c #2A3943",
"Cf	c #2F4049",
"Df	c #172128",
"Ef	c #1F333D",
"Ff	c #213843",
"Gf	c #203743",
"Hf	c #1E343F",
"If	c #1C323F",
"Jf	c #20323D",
"Kf	c #1F2F37",
"Lf	c #0F1719",
"Mf	c #172026",
"Nf	c #385260",
"Of	c #273A44",
"Pf	c #152127",
"Qf	c #1D2F38",
"Rf	c #1D303B",
"Sf	c #1E323D",
"Tf	c #1E3440",
"Uf	c #1C323C",
"Vf	c #1B313C",
"Wf	c #1C303C",
"Xf	c #1D313B",
"Yf	c #1E2E37",
"Zf	c #121A1C",
"`f	c #131B1D",
" g	c #0E1618",
".g	c #2B3E48",
"+g	c #39525F",
"@g	c #142026",
"#g	c #1D2E38",
"$g	c #1E313B",
"%g	c #1D2F39",
"&g	c #1B303B",
"*g	c #1A2F3A",
"=g	c #1D303A",
"-g	c #2C3C43",
";g	c #314149",
">g	c #2D3C44",
",g	c #3A505A",
"'g	c #1A272F",
")g	c #1E303B",
"!g	c #1E313C",
"~g	c #1B2E39",
"{g	c #1A2E39",
"]g	c #1D2F3A",
"^g	c #1F303A",
"/g	c #374D59",
"(g	c #31444D",
"_g	c #374E59",
":g	c #364D58",
"<g	c #364E59",
"[g	c #354D59",
"}g	c #35505E",
"|g	c #34505C",
"1g	c #344F5B",
"2g	c #3C5968",
"3g	c #3B5865",
"4g	c #3B5968",
"5g	c #3A5867",
"6g	c #486778",
"7g	c #1A2932",
"8g	c #1B2F3B",
"9g	c #1A2F39",
"0g	c #1C333F",
"ag	c #182C35",
"bg	c #20313B",
"cg	c #11191F",
"dg	c #344750",
"eg	c #2A3D48",
"fg	c #141E25",
"gg	c #131F24",
"hg	c #19282F",
"ig	c #182C36",
"jg	c #142A33",
"kg	c #172B36",
"lg	c #163442",
"mg	c #163543",
"ng	c #163544",
"og	c #153443",
"pg	c #143443",
"qg	c #15394B",
"rg	c #123241",
"sg	c #133849",
"tg	c #14394B",
"ug	c #13374A",
"vg	c #113546",
"wg	c #163341",
"xg	c #19313D",
"yg	c #18313D",
"zg	c #172D3A",
"Ag	c #172F39",
"Bg	c #172E3A",
"Cg	c #162D39",
"Dg	c #172D37",
"Eg	c #192E38",
"Fg	c #1E2A32",
"Gg	c #354A55",
"Hg	c #2D3F49",
"Ig	c #263640",
"Jg	c #030709",
"Kg	c #04090C",
"Lg	c #050A0E",
"Mg	c #050C0F",
"Ng	c #040A0E",
"Og	c #04090D",
"Pg	c #040C12",
"Qg	c #050D12",
"Rg	c #050C11",
"Sg	c #03090D",
"Tg	c #040C11",
"Ug	c #040C10",
"Vg	c #03090C",
"Wg	c #040B10",
"Xg	c #030B0F",
"Yg	c #030A0F",
"Zg	c #02070B",
"`g	c #030A0E",
" h	c #03080C",
".h	c #03070B",
"+h	c #02080C",
"@h	c #03080B",
"#h	c #030609",
"$h	c #060C10",
"%h	c #0C1218",
"&h	c #354A58",
"*h	c #293D49",
"=h	c #314550",
"-h	c #30444F",
";h	c #314651",
">h	c #2F414B",
",h	c #31424C",
"'h	c #030508",
")h	c #04080C",
"!h	c #03070A",
"~h	c #04070B",
"{h	c #020608",
"]h	c #03060A",
"^h	c #020507",
"/h	c #202C34",
"(h	c #273843",
"_h	c #314A58",
":h	c #2B414F",
"<h	c #344C5A",
"[h	c #334C5A",
"}h	c #395260",
"|h	c #38505E",
"1h	c #374F5D",
"2h	c #364D5A",
"3h	c #364D59",
"4h	c #324854",
"5h	c #334853",
"6h	c #354A56",
"7h	c #364A56",
"8h	c #334651",
"9h	c #33454F",
"0h	c #344650",
"ah	c #2D454F",
"bh	c #0A0F14",
"ch	c #050C10",
"dh	c #050B0F",
"eh	c #070D12",
"fh	c #060D11",
"gh	c #060C11",
"hh	c #050D11",
"ih	c #060D12",
"jh	c #060E13",
"kh	c #070E13",
"lh	c #060E12",
"mh	c #070F14",
"nh	c #081015",
"oh	c #071015",
"ph	c #060F14",
"qh	c #324A57",
"rh	c #304551",
"sh	c #2D414D",
"th	c #0D151B",
"uh	c #1C2931",
"vh	c #030A0D",
"wh	c #080D12",
"xh	c #04090E",
"yh	c #04070C",
"zh	c #04090B",
"Ah	c #040B0E",
"Bh	c #364E5A",
"Ch	c #2C414A",
"Dh	c #1B2831",
"Eh	c #121B21",
"Fh	c #0B131A",
"Gh	c #071116",
"Hh	c #06151B",
"Ih	c #0E2127",
"Jh	c #08141A",
"Kh	c #071016",
"Lh	c #101C23",
"Mh	c #131D24",
"Nh	c #040406",
"Oh	c #0A151B",
"Ph	c #071014",
"Qh	c #071117",
"Rh	c #081218",
"Sh	c #09151C",
"Th	c #071319",
"Uh	c #061219",
"Vh	c #051017",
"Wh	c #061118",
"Xh	c #061117",
"Yh	c #061218",
"Zh	c #070F13",
"`h	c #061014",
" i	c #050E13",
".i	c #061015",
"+i	c #070F15",
"@i	c #060F15",
"#i	c #050F15",
"$i	c #061016",
"%i	c #071219",
"&i	c #09141A",
"*i	c #0C151A",
"=i	c #070E10",
"-i	c #0D1217",
";i	c #0A161D",
">i	c #09161A",
",i	c #030509",
"'i	c #29434F",
")i	c #151F26",
"!i	c #192D36",
"~i	c #0B1C23",
"{i	c #021F29",
"]i	c #035C6C",
"^i	c #021921",
"/i	c #05121A",
"(i	c #172933",
"_i	c #0B151A",
":i	c #142229",
"<i	c #0D181E",
"[i	c #182B36",
"}i	c #192D39",
"|i	c #162C39",
"1i	c #152E3C",
"2i	c #143040",
"3i	c #183546",
"4i	c #143142",
"5i	c #19394A",
"6i	c #1B394A",
"7i	c #1A3849",
"8i	c #1A3848",
"9i	c #193545",
"0i	c #1C3444",
"ai	c #1E3644",
"bi	c #1E3541",
"ci	c #1D3644",
"di	c #1F3948",
"ei	c #1C3443",
"fi	c #1B3341",
"gi	c #18303E",
"hi	c #18313F",
"ii	c #193442",
"ji	c #183140",
"ki	c #172F3C",
"li	c #19303E",
"mi	c #172D39",
"ni	c #182E39",
"oi	c #192D38",
"pi	c #192A34",
"qi	c #101F28",
"ri	c #1C343E",
"si	c #0A1A22",
"ti	c #01505F",
"ui	c #022632",
"vi	c #0F1920",
"wi	c #090D11",
"xi	c #020508",
"yi	c #091116",
"zi	c #0A1820",
"Ai	c #071E26",
"Bi	c #023D51",
"Ci	c #01CDE6",
"Di	c #023A49",
"Ei	c #041520",
"Fi	c #1C3A48",
"Gi	c #0A161E",
"Hi	c #0E1D23",
"Ii	c #010304",
"Ji	c #0E1C23",
"Ki	c #0D1D26",
"Li	c #0E2632",
"Mi	c #102F41",
"Ni	c #0A354D",
"Oi	c #0A374F",
"Pi	c #0C425D",
"Qi	c #0C425B",
"Ri	c #0C3E57",
"Si	c #0E364C",
"Ti	c #0E3850",
"Ui	c #0C3D5A",
"Vi	c #093F5A",
"Wi	c #083E58",
"Xi	c #08374E",
"Yi	c #0A344C",
"Zi	c #0D3146",
"`i	c #112A38",
" j	c #122835",
".j	c #122733",
"+j	c #112734",
"@j	c #0E2837",
"#j	c #0C2C3D",
"$j	c #0B3246",
"%j	c #093349",
"&j	c #0A3B55",
"*j	c #0B3A52",
"=j	c #0C3C55",
"-j	c #0D364B",
";j	c #0C354B",
">j	c #093851",
",j	c #0A344B",
"'j	c #0A384F",
")j	c #09354C",
"!j	c #0C3347",
"~j	c #0E2A3A",
"{j	c #0E212D",
"]j	c #0B1217",
"^j	c #080F14",
"/j	c #253F4E",
"(j	c #0E1C21",
"_j	c #091E27",
":j	c #0A232E",
"<j	c #01A9B7",
"[j	c #015669",
"}j	c #05141D",
"|j	c #0F1F28",
"1j	c #020609",
"2j	c #08151D",
"3j	c #274551",
"4j	c #1D3843",
"5j	c #061A23",
"6j	c #0B1D26",
"7j	c #0E3648",
"8j	c #01475C",
"9j	c #02DEEF",
"0j	c #01475A",
"aj	c #021F2F",
"bj	c #123646",
"cj	c #204C5D",
"dj	c #0C1A24",
"ej	c #122129",
"fj	c #0E1D25",
"gj	c #112732",
"hj	c #05161E",
"ij	c #051F2B",
"jj	c #042C41",
"kj	c #02344F",
"lj	c #013651",
"mj	c #023A57",
"nj	c #023B58",
"oj	c #043956",
"pj	c #053A58",
"qj	c #023654",
"rj	c #003652",
"sj	c #01354F",
"tj	c #01334E",
"uj	c #02334D",
"vj	c #042C42",
"wj	c #081D28",
"xj	c #0F2833",
"yj	c #102531",
"zj	c #122631",
"Aj	c #05151D",
"Bj	c #042334",
"Cj	c #032E43",
"Dj	c #03344B",
"Ej	c #023752",
"Fj	c #013D5C",
"Gj	c #034161",
"Hj	c #03405D",
"Ij	c #033B57",
"Jj	c #033B58",
"Kj	c #033A57",
"Lj	c #033955",
"Mj	c #023753",
"Nj	c #023550",
"Oj	c #043149",
"Pj	c #041723",
"Qj	c #102935",
"Rj	c #15242E",
"Sj	c #080F15",
"Tj	c #2C5368",
"Uj	c #335260",
"Vj	c #041C25",
"Wj	c #052835",
"Xj	c #01B9C3",
"Yj	c #016478",
"Zj	c #092535",
"`j	c #142D3A",
" k	c #0B161B",
".k	c #02070D",
"+k	c #081821",
"@k	c #274552",
"#k	c #141C22",
"$k	c #183743",
"%k	c #031923",
"&k	c #091015",
"*k	c #081E29",
"=k	c #0A4056",
"-k	c #014F64",
";k	c #05E1F1",
">k	c #014E63",
",k	c #022437",
"'k	c #103A4B",
")k	c #0C1E28",
"!k	c #1E3846",
"~k	c #0E212B",
"{k	c #123B4E",
"]k	c #011F32",
"^k	c #01506C",
"/k	c #02809F",
"(k	c #0386A2",
"_k	c #028AA2",
":k	c #038BA2",
"<k	c #038FA8",
"[k	c #0396B0",
"}k	c #0496B1",
"|k	c #0498B2",
"1k	c #0397B0",
"2k	c #0292AA",
"3k	c #038EA6",
"4k	c #038DA7",
"5k	c #038CA7",
"6k	c #01738F",
"7k	c #013959",
"8k	c #154D66",
"9k	c #0E2A38",
"0k	c #173C4B",
"ak	c #012132",
"bk	c #013B55",
"ck	c #0185A2",
"dk	c #02889F",
"ek	c #0288A0",
"fk	c #038AA3",
"gk	c #0D92AA",
"hk	c #0294A7",
"ik	c #0391A4",
"jk	c #0394A9",
"kk	c #0490A8",
"lk	c #038EA5",
"mk	c #038AA1",
"nk	c #0389A4",
"ok	c #017F9C",
"pk	c #00334F",
"qk	c #0F3B4F",
"rk	c #132734",
"sk	c #081016",
"tk	c #2B5065",
"uk	c #172A34",
"vk	c #162C36",
"wk	c #031A24",
"xk	c #032B3B",
"yk	c #01C3CC",
"zk	c #016B80",
"Ak	c #082C3E",
"Bk	c #0B181D",
"Ck	c #02090F",
"Dk	c #071923",
"Ek	c #284754",
"Fk	c #131B21",
"Gk	c #153B49",
"Hk	c #041721",
"Ik	c #071E2A",
"Jk	c #043F56",
"Kk	c #01586D",
"Lk	c #04E0F1",
"Mk	c #014C60",
"Nk	c #022435",
"Ok	c #113D4F",
"Pk	c #133543",
"Qk	c #0B1A24",
"Rk	c #182832",
"Sk	c #0D232E",
"Tk	c #103C52",
"Uk	c #013551",
"Vk	c #068299",
"Wk	c #36D3E2",
"Xk	c #5FDCE5",
"Yk	c #61DAE5",
"Zk	c #6ADAE5",
"`k	c #71DCE7",
" l	c #74E0E9",
".l	c #78E0EA",
"+l	c #78DFE8",
"@l	c #75DFE8",
"#l	c #72E0E8",
"$l	c #71E0EA",
"%l	c #6DE0EA",
"&l	c #5BDCE7",
"*l	c #20B0C2",
"=l	c #014668",
"-l	c #144D65",
";l	c #102C39",
">l	c #173B4B",
",l	c #013046",
"'l	c #025976",
")l	c #23CDE8",
"!l	c #67D8E5",
"~l	c #6AD5E5",
"{l	c #6FD7E7",
"]l	c #74DDE9",
"^l	c #55DEEA",
"/l	c #60DCEA",
"(l	c #79D7E5",
"_l	c #72D7E3",
":l	c #6CD6E2",
"<l	c #6CD6E3",
"[l	c #71D6E4",
"}l	c #36C5D9",
"|l	c #003F5A",
"1l	c #13475D",
"2l	c #122936",
"3l	c #234759",
"4l	c #172C36",
"5l	c #174356",
"6l	c #032D3E",
"7l	c #03CAD1",
"8l	c #006E83",
"9l	c #072C3E",
"0l	c #020A10",
"al	c #071C26",
"bl	c #2B4C59",
"cl	c #0C1318",
"dl	c #0F171D",
"el	c #172027",
"fl	c #163A49",
"gl	c #041925",
"hl	c #050A0F",
"il	c #091F2C",
"jl	c #04465E",
"kl	c #02546A",
"ll	c #01DDEE",
"ml	c #014758",
"nl	c #021F2D",
"ol	c #12394B",
"pl	c #15232A",
"ql	c #10394D",
"rl	c #012C45",
"sl	c #035975",
"tl	c #1389A6",
"ul	c #2390B0",
"vl	c #2690B1",
"wl	c #2D93B3",
"xl	c #3295B7",
"yl	c #3495BA",
"zl	c #3594B7",
"Al	c #3493B6",
"Bl	c #3092B4",
"Cl	c #2D92B4",
"Dl	c #2C94B8",
"El	c #2995B9",
"Fl	c #2390B3",
"Gl	c #097295",
"Hl	c #013853",
"Il	c #17465B",
"Jl	c #112B37",
"Kl	c #153744",
"Ll	c #012336",
"Ml	c #014867",
"Nl	c #0E85A4",
"Ol	c #3590AA",
"Pl	c #3690AD",
"Ql	c #3890AF",
"Rl	c #3691B0",
"Sl	c #2D92AF",
"Tl	c #3794B1",
"Ul	c #4795B4",
"Vl	c #4095B4",
"Wl	c #3A93B0",
"Xl	c #3791AE",
"Yl	c #368EAC",
"Zl	c #157E9A",
"`l	c #134156",
" m	c #0A1319",
".m	c #214254",
"+m	c #050B10",
"@m	c #031B26",
"#m	c #042C3D",
"$m	c #06CAD2",
"%m	c #016F82",
"&m	c #0A2E40",
"*m	c #143140",
"=m	c #02080F",
"-m	c #071B26",
";m	c #2C4D5B",
">m	c #070B0F",
",m	c #192229",
"'m	c #183642",
")m	c #041823",
"!m	c #050A10",
"~m	c #081A26",
"{m	c #03445D",
"]m	c #00D9EA",
"^m	c #014454",
"/m	c #041B28",
"(m	c #173441",
"_m	c #192B35",
":m	c #0C1E25",
"<m	c #052232",
"[m	c #042E44",
"}m	c #03334B",
"|m	c #02364E",
"1m	c #033A54",
"2m	c #03405A",
"3m	c #03415E",
"4m	c #03425E",
"5m	c #03425B",
"6m	c #04415B",
"7m	c #043E58",
"8m	c #053E57",
"9m	c #073B52",
"0m	c #062F42",
"am	c #0A2330",
"bm	c #1A3B4A",
"cm	c #0C222C",
"dm	c #092838",
"em	c #052F44",
"fm	c #04354B",
"gm	c #033A53",
"hm	c #023B53",
"im	c #023951",
"jm	c #013A53",
"km	c #013D58",
"lm	c #03435F",
"mm	c #023F5A",
"nm	c #023B55",
"om	c #023A53",
"pm	c #033B55",
"qm	c #04364F",
"rm	c #042A41",
"sm	c #041C2B",
"tm	c #223C4B",
"um	c #14232D",
"vm	c #183B4B",
"wm	c #041D28",
"xm	c #042A3D",
"ym	c #08C4CB",
"zm	c #026A7A",
"Am	c #082838",
"Bm	c #0B161A",
"Cm	c #02080E",
"Dm	c #071C27",
"Em	c #274553",
"Fm	c #1D2931",
"Gm	c #141E26",
"Hm	c #151F27",
"Im	c #1A3743",
"Jm	c #041822",
"Km	c #0A1B25",
"Lm	c #033B51",
"Mm	c #01495C",
"Nm	c #00D5E5",
"Om	c #034453",
"Pm	c #051924",
"Qm	c #0F2E3C",
"Rm	c #11262F",
"Sm	c #152027",
"Tm	c #010305",
"Um	c #0C191F",
"Vm	c #12242D",
"Wm	c #16313D",
"Xm	c #163949",
"Ym	c #1D5168",
"Zm	c #144F67",
"`m	c #14566E",
" n	c #195B74",
".n	c #19617B",
"+n	c #15637D",
"@n	c #136179",
"#n	c #12607A",
"$n	c #125F7A",
"%n	c #125E7A",
"&n	c #135D7B",
"*n	c #175F7C",
"=n	c #1C607A",
"-n	c #174A5F",
";n	c #204658",
">n	c #102732",
",n	c #1A3948",
"'n	c #183D4F",
")n	c #1D576F",
"!n	c #185973",
"~n	c #185F79",
"{n	c #1B617B",
"]n	c #1E647E",
"^n	c #105F7A",
"/n	c #0F637F",
"(n	c #166582",
"_n	c #145F7C",
":n	c #165E79",
"<n	c #1D5F79",
"[n	c #1D5C76",
"}n	c #1E5A73",
"|n	c #194B62",
"1n	c #162F3D",
"2n	c #16242D",
"3n	c #0F1C21",
"4n	c #14222B",
"5n	c #173443",
"6n	c #041B27",
"7n	c #042536",
"8n	c #05C2C9",
"9n	c #016B77",
"0n	c #0A2534",
"an	c #122430",
"bn	c #284552",
"cn	c #1C2830",
"dn	c #1A323C",
"en	c #061720",
"fn	c #060B10",
"gn	c #0A171E",
"hn	c #052A39",
"in	c #02293A",
"jn	c #006A79",
"kn	c #032737",
"ln	c #061721",
"mn	c #122935",
"nn	c #0F1D26",
"on	c #08131A",
"pn	c #14222A",
"qn	c #131E25",
"rn	c #121F25",
"sn	c #0F212B",
"tn	c #102733",
"un	c #0E2B3A",
"vn	c #0F2C3B",
"wn	c #0F2E3D",
"xn	c #0D2F3E",
"yn	c #0D2D3D",
"zn	c #0C2A3A",
"An	c #0D2C3B",
"Bn	c #0E2D3C",
"Cn	c #0D2C3A",
"Dn	c #0D2A38",
"En	c #0E2734",
"Fn	c #112A36",
"Gn	c #112835",
"Hn	c #0D2936",
"In	c #0F303F",
"Jn	c #0D2E3D",
"Kn	c #0D2A39",
"Ln	c #0F2F3E",
"Mn	c #103040",
"Nn	c #0F2C3A",
"On	c #112935",
"Pn	c #112530",
"Qn	c #051A27",
"Rn	c #015D6B",
"Sn	c #003B4A",
"Tn	c #11212B",
"Un	c #03090E",
"Vn	c #0A1921",
"Wn	c #080C11",
"Xn	c #24333D",
"Yn	c #2B3B46",
"Zn	c #2C3D48",
"`n	c #324450",
" o	c #2F404C",
".o	c #2A3A45",
"+o	c #28353F",
"@o	c #08161D",
"#o	c #060A0F",
"$o	c #0E242E",
"%o	c #0D212C",
"&o	c #0B1720",
"*o	c #0F1B23",
"=o	c #101A21",
"-o	c #010204",
";o	c #02090E",
">o	c #03090F",
",o	c #030A10",
"'o	c #030910",
")o	c #02070C",
"!o	c #02080D",
"~o	c #040A0F",
"{o	c #030C13",
"]o	c #030C12",
"^o	c #030E14",
"/o	c #040E15",
"(o	c #041017",
"_o	c #040F16",
":o	c #040E14",
"<o	c #050C12",
"[o	c #04080D",
"}o	c #0B1319",
"|o	c #132027",
"1o	c #132A37",
"2o	c #102834",
"3o	c #0E1D27",
"4o	c #293F4B",
"5o	c #16262D",
"6o	c #091318",
"7o	c #081319",
"8o	c #091319",
"9o	c #040609",
"0o	c #0D171E",
"ao	c #0A1118",
"bo	c #030407",
"co	c #0A1116",
"do	c #081219",
"eo	c #0A141B",
"fo	c #09131A",
"go	c #081318",
"ho	c #061017",
"io	c #051016",
"jo	c #050F16",
"ko	c #0B141A",
"lo	c #0B151B",
"mo	c #283C49",
"no	c #0A1419",
"oo	c #050B0E",
"po	c #050D13",
"qo	c #050E14",
"ro	c #040B0F",
"so	c #1F3745",
"to	c #1B303A",
"uo	c #20343C",
"vo	c #1E3A47",
"wo	c #1D3947",
"xo	c #1E3847",
"yo	c #1E3B4C",
"zo	c #1B3B4A",
"Ao	c #173747",
"Bo	c #1A3C4C",
"Co	c #1C3E4F",
"Do	c #1E3E4E",
"Eo	c #1C3D4E",
"Fo	c #1D3E4E",
"Go	c #203E4E",
"Ho	c #203F4E",
"Io	c #1F3F4F",
"Jo	c #1D3D4E",
"Ko	c #1D3C4B",
"Lo	c #1C3B4A",
"Mo	c #1A3B4C",
"No	c #1B3D4E",
"Oo	c #1E3F4E",
"Po	c #223845",
"Qo	c #20333D",
"Ro	c #132025",
"So	c #141C23",
"To	c #2E4451",
"Uo	c #2D4350",
"Vo	c #2B4350",
"Wo	c #2F4B5A",
"Xo	c #304D5D",
"Yo	c #2D4B5C",
"Zo	c #2E4A59",
"`o	c #334E5D",
" p	c #354F5D",
".p	c #314B59",
"+p	c #304C5B",
"@p	c #314C5B",
"#p	c #304B59",
"$p	c #2E4B59",
"%p	c #335061",
"&p	c #355364",
"*p	c #305163",
"=p	c #345B71",
"-p	c #31566A",
";p	c #2D5469",
">p	c #356179",
",p	c #336075",
"'p	c #336981",
")p	c #2C6077",
"!p	c #31647B",
"~p	c #2F6279",
"{p	c #2E637A",
"]p	c #33677F",
"^p	c #32677E",
"/p	c #366B81",
"(p	c #30667C",
"_p	c #346B81",
":p	c #326A7F",
"<p	c #31697E",
"[p	c #346A81",
"}p	c #336D84",
"|p	c #306A80",
"1p	c #2F677E",
"2p	c #2B6179",
"3p	c #2A5E77",
"4p	c #346985",
"5p	c #366177",
"6p	c #2F5B70",
"7p	c #356379",
"8p	c #305F73",
"9p	c #306075",
"0p	c #386174",
"ap	c #2F4956",
"bp	c #36505E",
"cp	c #354B56",
"dp	c #2D4451",
"ep	c #2E4652",
"fp	c #304755",
"gp	c #2B424E",
"hp	c #2B404C",
"ip	c #2F4856",
"jp	c #070C11",
"kp	c #171F25",
"lp	c #17242C",
"mp	c #17262C",
"np	c #17252A",
"op	c #152227",
"pp	c #1A2329",
"qp	c #1A252D",
"rp	c #161F26",
"sp	c #182930",
"tp	c #19292F",
"up	c #162128",
"vp	c #1B2932",
"wp	c #1A2A34",
"xp	c #1B2B36",
"yp	c #1A2B33",
"zp	c #1C262D",
"Ap	c #141D24",
"Bp	c #151E25",
"Cp	c #0A0E12",
"Dp	c #0C1519",
"Ep	c #0D161C",
"Fp	c #0C151B",
"Gp	c #0D171D",
"Hp	c #0E161C",
"Ip	c #0F1419",
"Jp	c #12181C",
"Kp	c #141F26",
"Lp	c #131B22",
"Mp	c #171E24",
"Np	c #101A20",
"Op	c #111A20",
"Pp	c #10191F",
"Qp	c #0F161C",
"Rp	c #11181E",
"Sp	c #162028",
"Tp	c #10181E",
"Up	c #060C0E",
"Vp	c #070F12",
"Wp	c #0B0F14",
"Xp	c #0B1015",
"Yp	c #151C22",
"Zp	c #14242A",
"`p	c #16272E",
" q	c #16262E",
".q	c #182931",
"+q	c #192A32",
"@q	c #192B36",
"#q	c #182A33",
"$q	c #15242A",
"%q	c #121B22",
"&q	c #12191F",
"*q	c #060A0B",
"=q	c #192B33",
"-q	c #192B34",
";q	c #1B2F38",
">q	c #1D323C",
",q	c #1D343F",
"'q	c #1B323D",
")q	c #1C313C",
"!q	c #1E3641",
"~q	c #1B2C33",
"{q	c #1C2A33",
"]q	c #1F323D",
"^q	c #203844",
"/q	c #1C333E",
"(q	c #1C3542",
"_q	c #1C3643",
":q	c #1D3846",
"<q	c #1E3948",
"[q	c #12181E",
"}q	c #10161B",
"|q	c #1E2E38",
"1q	c #203640",
"2q	c #1F3642",
"3q	c #1C3540",
"4q	c #1E3743",
"5q	c #1E3744",
"6q	c #1E3845",
"7q	c #18313E",
"8q	c #1E3947",
"9q	c #1C3744",
"0q	c #1F4152",
"aq	c #1E4254",
"bq	c #1D4051",
"cq	c #224657",
"dq	c #24495B",
"eq	c #203E4C",
"fq	c #213C4A",
"gq	c #1F3643",
"hq	c #203846",
"iq	c #233B49",
"jq	c #223946",
"kq	c #16222A",
"lq	c #16252E",
"mq	c #182E3A",
"nq	c #18303B",
"oq	c #1A333F",
"pq	c #1A3440",
"qq	c #17323E",
"rq	c #17313E",
"sq	c #17323F",
"tq	c #17303C",
"uq	c #18303D",
"vq	c #162E39",
"wq	c #19313C",
"xq	c #182A35",
"yq	c #182933",
"zq	c #1A2D38",
"Aq	c #162129",
"  . + @ . . # $ % & * = - ; > , ' ) ! ~ { ; ] & ^ / ^ ~ ( _ : < [ } | 1 2 3 4 5 6 7 8 9 0 a b c d e f f g h i j k l m n o p i q r s t u v w x g y z A B C D E F G G H I J K L M N O O P O P Q R S T U V ^ W X Y / Z `  ...+.@.#.^ * $.%.&.*.=.-.;.>.>.,.'.. ).!.# + ~.{.",
"].^./.(._.:.<.[.}.|.1.2.3.+ 4.5.6.7.1.-.8.= 9.0.a.b.c.d.e.f.g.h.i.j.k.l.m.n.o.p.q.r.s.t.u.v.w.x.y.z.A.B.C.D.E.F.G.H.I.J.K.L.M.N.O.P.Q.R.S.T.U.V.W.X.Y.Z.`. +.+++@+#+$+%+&+*+=+-+;+>+,+'+)+!+~+{+]+^+/+(+_+:+<+[+}+|+1+2+- 3+4+5+6+7+..8+4.{ 9+^.9.0+^.;.;.a+b+c+d+a+7+e+",
"f+g+9+h+i+j+= k+;.l+m+n+7+j+i+o+p+q+d+2+$ r+s+h+t+t+u+v+w+x+y+z+A+B+C+D+E+F+G+H+I+J+K+L+M+N+O+P+Q+R+S+T+U+V+W+V+X+Y+Z+`+`+ @.@+@@@#@$@$@%@&@*@=@-@;@>@,@'@)@!@~@{@]@^@/@(@_@:@<@[@}@|@1@2@3@4@5@6@7@8@9@0@a@b@c@d@e@f@g@h@g+i@j@W k@l@:.<.m@1.a+n@o@k@a+^.a+;.~.1.2.m++ ",
"p@g+q@r@$ ^.s@d+0+t@!.s@o+u@<.v@w@x@y@, z@A@B@C@D@u+E@F@G@H@I@J@K@K@L@M@N@O@P@Q@R@S@T@U@V@-@W@X@Y@Z@`@ #.#+#@#@###$#%#&#*#=#-#;#>#,#'#)#!#~#{#]#^#/#(#_#:#<#[#}#I.|#1#2#3#4#5#6#7#8#9#0#a#b#c#d#e#f#g#h#i#j#k#l#m#n#!.k+o#i+/ p#s+1.q#r#<.= . d+. s#d+s@o+l@i+m+t#m+u#v#",
"r@5.[.<.a+w#. 3.x#y#u#m+z#n@, A#w@s+7+B#n#C#f@D#E#F#c@G#H#I#J#J#K#L#M#N#O#P#Q#R#S#T#U#V#W#X#Y#&#Z#`# $.$+$@$#$$$%$&$*$*$=$-$*$;$>$,$'$'$*$)$!$~${$]$^$/$($_$X#:$<$[$}$|$1$|$2$3$4$5$6$7$8$9$0$1@a$b$c$d$e$f$g$h$i$j$1+k$. l$m$p#Y . %.:.= o+-.n$s@1.n@s@s@u@).7+m+n@o$w#",
"p$[.}.j+# 0+!.q$r$s$v#$.2.t$k+. u$] 7+k$v$w$5.x$D#y$z$A$A$B$C$D$C$0$E$F$G$H$I$J$K$L$M$N$O$P$Q$R$S$T$U$V$W$X$Y$Z$`$ %.%+%@%#%$%%%&%*%=%-%;%>%,%'%)%!%~%X${%]%^%/%(%_%:%<%[%}%|%1%2%3%4%5%6%7%1@8%9%c$A$0%a%b%c%c%d%e%f%k$g%# m$h%i%).j%> = ).n$8.;.d+o+k%o+= b+2.-.1.n@2.",
"l%% $ m%s#n@n%o%p%q%r%s%u#1.t%p%u%v%# B#w%x%f@D#y%z%b%A$A%A%B%C%c$D%E%F%G%H%I%J%K%L%M%N%O%P%Q%R%S%T%U%U%V%W%X%Y%Z%`% &.&+&`%@&#&$&%&&&*&=&*&-&;&>&,&'&)&!&~&{&]&^&/&(&_&:&<&[&}&|&1&2&3&4&5&6&7&8&9&0&a&b&h$c&d&j$g%e&e&f&= g&h&i&= j&, n%k@p%k&~.m@l&m&m&~.n&, o&m+i+$.",
"p&+ l$q&r&q#m@s&t&u&p%u#v&2.j+a+w&x&k@j$f@y&d@m#z&A&B&a&C&A$D&E&D%F&G&H&I&J&K&L&M&N&O&P&Q&R&S&T&U&V&W&X&Y&Z&`& *.*+*@*#*$*%*&***=*=*-*;*>*,*'*)*!*~*{*]*^*/*(*_*:*<*<*[*}*|*1*2*3*4*5*6*7*8*9*0*a*C%b*b%h$c*d*e*w%f*g*k$h*@ i%w@i*2.= i+. v@|.j*k*l*m*n*k*o*p*q*o*r*s*+ ",
"t*l$t#u*# v*w*x*c+j*n%y*v#2.%.3.z*A*n@v$F#d@B*C*c%B&D*D*E*e.E&F*G*H*I*J*K*L*M*N*O*P*Q*R*S*T*U*V*W*X*Y*Z*`* =.=+=@=#=$=%=&=.=*===-=;=>=,='=)=!='=~={=]=^=/=(=_=:=<=[=}=|=1=2=3=4=5=6=7=8=9=0=9*d#C$a=b*b=c=d=d*x%e=e=d@j$e&. f=g=h=k+k+4.;.k@i=j=).4.l%k=l=m=n=o=p=j*# u*",
"g&+ -.= u*4.l%; x*q=u#r=u#7+> # w&s=t=t#2+D#u=e=A&e=v=w=0%x=y=z=A=B=C=D=E=F=G=H=I=J=K=L=M=N=O=P=Q=R=S=T=U=V=W=X=Y=Z=`= -.-+-@-#-$-+-@-Z=%-&-`=*-=---;->-,-'-)-!-~-{-]-^-/-(-_-:-<-[-}-|-1-2-3-A=K#l.4-5-6-7-c%i$d&w%j$f@8-'.9-0-a-k%k+n=b+m+b-c-d-e-f-g-n&h-k=o=i-j-k-l-",
"m-n-o-p-p-o-q-r-r&j*t#t#s-<.t-m+u-] v-n$-.u=,.e=y&w-B&D*C&J#y=0$x-y-z-A-B-C-D-E-F-G-H-I-J-K-L-M-N-O-P-Q-R-S-T-U-V-W-X-Y-Z-`- ;.;+;@;#;$;%;&;*;=;-;;;>;,;';);!;~;~;{;];^;=#/;(;_;:;<;[;};|;D=1;2;3;4;{+j.5;6;z%v$F#g*w%7;e&^.( p#] 8;l=9;0;m+c-a;b;c;d;c;9;e;f;g;h;i;o$c-",
"j;7+j+= 7+n&~.m-k;l;7+t$c;m;c+'.n;^ o;9+p;e%j$v$q;F#h$a%r;s;t;u;v;w;x;y;z;A;B;C;D;E;|%F;G;H;I;J;K;L;M;N;O;P;Q;R;S;T;U;V;W;X;Y;Z;`; >.>+>@>#>$>%>&>*>=>->;>>>,>'>)>!>~>{>]>^>/>(>_>:><>[>}>|>1>2>3>4>5>6>7>A&h$y%w%e%g*).8>$ 9>h%m$u*0>a>b>).c>d>e>f>g>h>i>j> .k>l>m>f-u*",
"n=n>  o>o>c+u*p>~.q>o&r>s>  t>k@u>v>w>x>y>z>k$y>C*c@d@A>B>C>D>E>F>G>H>I>J>K>L>M>C;N>O>P>Q>R>S>T>U>V>W>X>Y>Z>`> ,.,+,@,#,$,%,&,*,=,-,;,>,,,',),Q$!,'>~,{,~>],^,/,],(,_,:,<,[,},|,1,F=2,3,=+8*4,3>5,6,7,8,9,C*A&8>y>e&y>0,-.$ ; a,b,8;c,h-d,e,f,l%s>n>9-q-o-g,d-h,n-i,j,o=",
"k,5+l,m,n,o,o,p,q,r,s,t,u,v,g=w,p#p*> j$y%f@v$y>x,y,z,A,B,C,D,E,F,G,H,I,J,K,L,M,N,O,P,Q,R,S,T,U,V,W,X,Y,Z,`, '.'+'@'#'$'%'&'*'='-';'>',''')'!'~'{']'^'/'(''#_':'<'['X,}'|'1'2'3'4'M,5'6'y;7'G,8'9'0'a'b'c'd'e'f'd%g'h',.i'1.j't,n*k'j-l'm'n'o'p'q*o*q'r's'q,t'u'v'w'6+x'",
"f,9;y't-D@t-p$z'l%c;<.A'v-B'C'D'E'F'G'H'I's>k+$ 8.J'v-K'H'L'M'N'O'P'Q'R'S'T'U'V'W'X'Y'Z'`' ).)+)@)#)$)%)&)*)=)-);)>),)')))!)~){)])^)/)()_):)<)[)})|)1)2)3)4)5)6)7)8)9)0)a)b)c)d)e)f)g)h)i)j)k)l)m)n)o)p)o;q)@ n@k+<.q#n&1.o=o*' r)s)c>t,u%p#t)u)#.v)w)x)y)z)r,A)B)C)u$q'",
"s+}.<.^.D)E)e@F)G)8.,.e@o+H'H)I)J)K)n'u+7./ / i%L)7.7.M)N)N)O)O 6@P)Q)3 R)S)T)U)V)W)W)X)Y)Z)`) !.!+!@!#!$!%!&!*!=!-!*!;!>!,!'!z )!r A !!~!{!]!^!/!(!_!:!<![!}!|!1!{!2!6 3!3!4!5!6!7!8!9!0!P)P)[ } Q a!b!c!d!7.g&s+( s+~ e!f!g!J)n*s)n*u>h!) l*a,t'q=q=n*+.s)4+i!j!n*g=p*",
"> h*k!l!a.n$f&m!=.n!D#o!p!e%n!k+q!t'g=_ 7.X s+g&j=V u+x@r!s!u+a!O t!u!v!w!x!y!4 z!A!B!C!D!E!F!G!H!I!J!K!L!H!<!}!M!M!}!N!O!P!Q!R!S!T!U!V!W!:!X!M!<!Y!Z!`! ~.~`!+~_!Y)@~|!5!#~$~%~&~*~*~=~-~P)O O : b!b!Q u+c!;~Y s+>~~ k>~ q't,,~'~k%)~8>!~x%~~e&>.{~]~)~m!-.e&;.j&d,~.g@",
"o+t=-.8.D)D)f&^~^~/~*.(~_~'~:~I',~a,w'p=<~e!<~<~/ X h;X _ [~[~b!}~|~1~2~3~4~5~6~y!B!y!7~B!8~9~0~.~a~Z)b~c~`!d~e~f~d~g~Z!h~h~i~}!j~(!i~Z!k~M!<!}![!|!a~l~.~m~n~8~o~E!5!p~q~r~s~U)t~T)u~v~w~x~y~|~b!Q z~A~i*c!s+M)/ ] X B~C~p*5+D~E~s>F~G~g@[.Y s=H~9>6+^ 6+] H~] I~a-J~A~",
"w~K~S)L~M~v~N~O~r~P~Q~M~R~S~E@T~U~V~u'i&e!s+e!m$s+s+e!<~c!N)s!W~W~X~Y~Z~u!`~Q) {.{y!7~y!*~z!+{@{#{n~0~${%{&{*{={-{;{>{,{'{,{d~ ~){Y)|!!{_!~{!{`!l~{{n~]{]{o~6!^{6!/{L~({_{U):{O~u~S)<{[{6@Y~}{y~[ s!W~z~m$m$~ <~|{|{m$i%1{u$k,2{E~3{p&p&t-o>s,n*j=4{g;Z 5{q=j=+.m*A)3{M)",
"6{7{8{9{0{A!a{b{@{1!c{d{e{f{g{u$h{D~i{6+e!! ^ e!s+/ ;~/ <~u+: N)<~< b!x~j{`~Q)6~k{y!U)y!u~l{m{m{n{o{p{q{r{s{t{u{v{w{u{&{!{%{H! ~ ~x{y{z{A{Y!B{C{.~o~n{F!D{E{F{8~6!G{V)H{I{O~O~T)J{K{3 L{M{P)N{b!O{P{N): 7.<~<~X ^ w'/ L)j'p+Q{R{8.f;4.p$o&S{T{!.0>t%t%o+5.g@t-t@o&, S{f;",
"U{V{W{X{Y{9~Z{`{ ].]+]@]#]$]P)g;%]&]*]u,z~s=s=e!^ =]X x@x@M)z~s!u+[~-]S~;]>],]5~u~u~ {']u~V))]6!!]o{]{~]{]]]^]/]${(]#{#{F!_]:]<]s{s{[]*{s{}]7 D{|]1]2]3]{]4]W)5]!]6]/{8~*~7]y!S)S)R)u!Q)M{8]x~9]< [~u+M)~ ] 7.m$e!/ L)0]p#h%Q{U~z@9;4.a]a][.b]u&b]k*l*b]w'l,q*w'c]d]o&e]",
"f]g]h]i]j]k]l]m]n]o]p]q]r]s]t]u]t,v]w]x]n=x&4+A*j=h=A*y]I~^ I~z]A]I~z]n;B]C]D]E]F]G]H]I]J]6]K]@{L]M]o{N]O]P]Q]R]S]w{T]&{w{U]V]W]X]Y]W]Z]u{v{W]`]p{p{ ^.^+^@^A!#^M]$^%^&^*^=^-^Z{3~;^>^>]x~,^'^,^B])^T~!^a-~^=]A*6+] =]{^t,x)]^^^l!m&/^u#g+<.(^_^j%'.o%p%:^a+d+. 1.<^c+[^",
"}^|^1^2^3^4^5^6^7^8^9^0^a^b^c^d^e^R{w]k,f^a,u,g^u,F'q,a,u'h^u'a,a,i^w'p'q'i^j^k^l^m^n^o^p^q^p^r^s^t^u^v^w^x^y^z^z^A^A^B^C^D^E^A^F^G^H^I^J^K^I^L^I^M^N^O^o^P^Q^R^S^D^T^U^V^W^X^Y^Z^`^u-p+ /p+./j^e^+/@/t,u's,w'p'l,c]#/$/u,%/&/*/8>=/-.-/9-L)y':.    c;e,e,E@f=L)s>a;a;m-",
";/>/,/'/)/!/~/{/]/^///(/_/:/</[/z*$/u)' j*w@p*g=u,*]m,m,i{l,q'}/|/u,u'q'p#m*1/Y^k^2/3/4/5/C^6/7/8/9/0/a/b/c/d/e/e/e/f/g/h/i/j/k/l/m/n/o/p/p/q/r/s/t/u/v/w/x/y/z/9/8/4/A/B/C/D/E/+/F/u>p+6.G/p*u'u'q*v'u,m,}/H/I/+.n*w'd]A)J/A)K/L)Z 9>s=L/y]T{M/i!j>i=..+.@.p'j!c>s)..j>",
"N/O/P/Q/R/S/T/U/V/W/X/Y/Z/`/ (.(u'+(@( .. $ @ #($(%(&(F~e;[.1.i+k%3++ z@h@*(=(-(;(>(,('()(!(~({(](^(/(((_(:(<([(}(|(1(2(3(4(5(6(7(8(9(0(a(b(c(d(e(f(g(h(i(j(k(l(m(n(o(p(q(r(B+/+s(t(B&b%_.~ u(2.<.n@m&c;, B~g!v(2.s@t$q-w(%/$/A)x(y(z(A(B(C(D(D(E(F(G(H(I(J(G(K(L(M(N(O(",
"P(Q(R(S(T(U(V(W(X(Y(Z(`( _._+_t]t,%]g=@_<.z@% . x*#_$_t-e]  p&4.t-s+i+g@(.(~%_&_*_=_-_;_n.>_,_'_)_!_~_~({_]_^_/_(___:_<_[_}_|_1_2_3_3_4_}_5_6_7_8_9_0_a_b_c_c_d_e_f_g_h_i_j_x+d.%_v-J'u@U :.9+j+a+j+* q-9-- f^#(j+).t$; A*%/k_#.i'l_E@m_J~p$p=9+n_# m@l@k&o&m@h-c;m&a]e,",
"o_p_q_r_s_t_u_v_w_x_y_z_A_B_C_D_E_F_n*g=G_H_u*g%q#M)f+o&I_J_e!K_F~( L_a+$ M_N_O_P_*_Q_R_S_T_U_V_W_X_Y_Z_`_ :.:+:@:#:$:%:&:*:=:-:;:>:,:':):!:~:};{:]:^:/:(:_:::W_<:R_[:h_}:|:1:(~2:3:4:a.R p&%.3.5:f,/.p=i&6:p,m#, n@r$n=n'7:a,#.8:K_&(9:> m@o$i+m@a]~.m&u*m@m@~.m@u*g@p=",
"0:a:b:c:d:e:f:g:h:i:j:k:l:m:n:o:e^R{q*) ^.$ 0,d&p:<~A~H~@.q:r:G'- s:K_t:5.3:4:&_u:v:w:<:x:y:z:E>A:B:C:Z_D:E:F:G:H:I:J:K:L:M:N:O:P:Q:R:S:S:T:U:V:E:W:/:X:Y:Z:_:`:<: <<:=_.<+<@<#<^~3::+:+$<%.> %<n*i'5: .  s>&<*<^.a+=<r-v%5+l;-<;<n_><i+i+%.m&, , 4.F~, , k=c+0>* u*:.m-",
"N',<'<)<!<~<{<]<^</<(<_<:<<<[<}<6.*]w'j*> ^.H'|<p%d!  ) p$e&1<s>$ 4.n_g@g+2<3:3<4<5<v:6<7<8<9<0<a<b<c<d<e<f<q.q.g<{:h<i<j<L:k<l<%:%:m<n<v.o<};p<q<r<s<::t<u<v<w<N'x<[:h_y<5>z<r+/~3:A<z@K_5.k+p=l$B<* C<a]c;u%D<n@^.E<F<i=f^w'-<j$F~9+c+* , l@* c+o&F~u*, 0>, c+4.:.o>c;",
"G<H<I<M'J<.(K<L<N'M<N<O<P<Q<R<S<T<F_g=c>j+9.e@U<V<_   v%M)y>e+s>h+j+p=q-  W<W<X<Y<Z<`<i# [0<.[+[@[#[$[%[&[*[=[=[-[;[>[,['[)[![~[{[][^[/[([_[-[:[<[[[<[}[v;|[1[ <2[P_3[4[5[6[7[f.q@$<  9-%(% i+L)S{8[i%i=<.m&1/9[t=e@!~f,i=$/p'0[a[g@o+7+l&z'n&m&b[~.c[~.d[&(~.&(b[&(&(d[",
"e[`<f[h#g[h[-]i[f[i[i[j[k[l[m[n[o[p[j*@.s@}.@ e=e@J~c;r-) v%=]q[h+. l*9-r[g&K_a@s[t[u[v[w[x[y[z[A[B[C[D[E[F[G[H[I[J[K[L[B[M[N[O[P[Q[R[J[S[T[U[V[W[X[Y[Z[`[ }.}+}@}G[#}$}%}&}*}=}j#-};}t+H~$ m@o=>}v%h>H~9.7+u>,}G~e@g%o=5{5+g>'}B#9+1.5{)}!}f!f!~}r){}n'L/B@y]~^n'!}L/]}",
"o;^}a@C'w>x@p*9@N)t+/}(}e,b>;~u+$/' w'I/n@_}H':}<}( w*[}a]}}9+h+(.8._ !.@ q)|}L'1:1}2}3}4}F,5}5}6}7}8}9}0}a}'_b}c}d}e}f}g}h}i}i}j}k}l}m}n}o}p}q}r}s<s}t}u}T_v}7<x:w}x}=_y}z}L'A}B}^~^~b.m@c+j+> * 5:z#C}<.o>D}E}2+8.g%/.5{F}c]G}B#j+t#H}I}J)J}K}I}L}M}I}N}O}P}O}Q}Q}H}N}",
"w@p*m*p*k*g>r,@/p#&<m'I~v%w@h=q*i{R}g=x'<.;.S}z,T}K_U}4.o&k+%.V}W}i@X}J~0,H'}.:+*.N_Y}5<Z}`}1[ |.|5}5}F>+|@|#|$|%|&|*|=|-|;|>|,|'|)|!|~|)<{|]|]|@|^|/|(|_|:|5,<|6>[|}|||1|3[M_2<2<(.F)9+2|r:  g+> 9+9+a]i&}}3|4|g%m!5|#_=]u,s,R{6|<.v&7|Q{8|C)9|t)0|a|b|H/I}c|I}J)d|a|e|",
"f|!~g|h|i|j|u'E(k$k|l|m|n|'~o|)~p|R}l*B@a+^.2+q|r|r>  K_o>l%u*a;Y s|W~f%t|9.u|u|v-d.|:@<v|w| <x|y|z|A|w;B|C|8<s]D|D|E|F|)<G|H|I|J|K|K|%|L|M|/|N|/|/|]<O|y|P|[:`}v:Q|R|&_S|T|U|V|2<(.G)W|(.V h+p>5.d,G_S{F~g@X|Y|n!S}E~/.j'F}F'U~y@<.o$K)x'Z|`| 1Z|.1+1@1#1$1$1%1&1x'*1r*",
"p&j&=1F~-1W}m,j$z's-!.;1B#t@v-h+>1F_+.+.,1E)n$'1r|r>r#K_m&u*p=e!q@q)o@)1(.$ }.H'J'!1~1Y}5<{1w:;_ <1[]1#[^1#[(|(|/1D|]|M|(1T'F|K|)<_1_1:1<1F>G>[1#[(|y|y|.|}1|11121&_4<3141T|/~A'f.A<(.t=51W}a+j+61% [.[.k+5:D}71S}z@5|c-81d]a,R}j+k+&(9101a1b1c1d1e1d1d1g^|/f1u,u,x)u)J)",
"@.$1g1k>l+L_l,h1G_2+d+G)s#1+i1^~q,i{n*s)S}t=j1D<k1n>l1a]g@j+9>[.m1[.r@% h+_.9.t=e@)13[~1Y}@<y<m) |e_x|]1 |]1]1n1(|8<8<8<M|o1:1$|E|{|{|p1]<G>(|C| <q11[r1`}w:s1t1u1v1}<}<w1x13:l[h+% 5.<.= g*:.y1G_  l_> k%i+w,z1,1a.n#n=k>f1u'B)* l_A1Q}7|7|N}I}c|K}L}B1K}K}L}I}H}H}B1c|",
"q+p'q=y)r>4.s,C1D1-.@ % h+<.c=E1a,p|n*..F1H'D#G1b%a]a]9+g@- v%o>K_- [.9+h+9.J'9.S}q)B}1|H1H1*_5<y<[:<:x|[:x|I1w;]1_|8<N|J1/1D|K1M|/|L1A|y|1[M1.|N1x|[:I1N1{1Q|Q|O1&_P1Q1R13:v-A'F1F1h+j&w#h+e,j+7+c+z'}}k%F~F/S1a.a.T1r# .o[U1V11.> W1X1C)J)H}8|O}J)I}K/I}8|K}8|8|I}8|O}",
"Y1u'B'F}E@9+l,y&l$d+n@n@8.Z1C*E1a,w]n*A*H'`1n#k# 2p=%.9+* a+y]%.j+- _.h+% F1}.u|e@D)H'.2B}@<v|Y}+2L<@2L<`}`}[: <_|#2#2#2&[#2(|J1J1#[M1_|$2P'%2x|w:w|`}&2f#o:Q1}:Y}Q1M_U|*23:*.=2^.$ <.a+% [.- l_3{t:k+g+g+F~E/-2l!l!f%r#v%f^q,R}1.j+s%p|B@;2>2,2'2,2)2C~,2s:)2!2c-~2j'w'",
"W}a-{2m,# l@v']2<.;.j%n%)._}f@k!l,F_b]|.8.=.c.<+^2U}%.a]> /2x&g+g+9+[.% j+e@@ $ u|H',1(~^~(231}|v|Y}5>_2:2Q_[:&2P'<2[2P'}2 <$2}2|2$2&2P'$212%2}1`}`}2232{1s1O1Q1o:Y}4242:+v--/}.l$_.<.n@- > g+m_p&i*n@[.52F~627282l!2+o=C<f1c]u)]~$ q$H}92J)*/2{R}2{9|*/8|8|B)022{2{a2N}",
"l_X V}b2v*&(l*/2<.-.p;j%u#1.T1y>f^p|p*s)8.n#T1c2d2n_a]a]F1e25{9+r@l_h+- <.^.t=^.}.J'H't=q)42x+f2v|}|u:m)@2:2g2x|h2i2j2i2k212l2m2k212h2$2<2n2i2g2w:w:L<3232s1o2Q1p2~1U|(~q2u|2<9.% [.g+2.<.g@g+m_r2n$u@[.F~F~s2t2k!l!l!u2v2t'F'b|2+= y*L}&]M}d|I}w28|I}J/I}&]H}91x2H}C)c|",
"g+|{}}m,n@u*l,&.n@l$. b+2.b+T1y2t'F_n'..e@l!|}z2A2a]4.<.t=B2x&_.[.% j+<.j+^.j+% (.[+$ H'q)=2C2}:@<31f2i_v:21D2N1g2w:g2E2h2[2F2<2G2i2H2F2<2n2i2f#y<m)m)v:k)&_Q1I231Q1J2^~t=9.% 2<r@_.%.- [.l%p$t:K2E)i+> > g+L2M2m!o#e%h,$(q,c]R}y>o>N22{%]u,O2s,c]P2Q2R2R2Q2R2S2T2U2'}8|",
"S{W 0>F}m@b-V2W2d+b+1+b+n@G)k$e*m,%]n*X2n$`1b.Y2Z2l1> - 4.j%4+_., = = i+= i+= }.2<(.}.J'q2q21:}|31H1<|`22121 3`}r1.3+3@3m2#3$3%3&3*3+|=3-3;3>3[1,332|:'3)3Q1!3p2w1p2J2J'$ G)$ h+h+[.<.<.i+, i+k+m;n_9+> h+<.~3{3y&h*x#s:l>F'o*V1b+> 3.x)i-!2]3^3/3!2(38;W1_3]3)2r-a;:3o*",
"p$m$j#%]u*:.s,<3d+. d+).= n@5|[3x]x)p*j>J~`1c=f$O_l%%.- % m!r:m@i+7+<.k+<.% }.% }.-/F1J'H'H'q2(2@<H1}3|3131223P'3343536373839303a3b3c3d3e3f3g3h3i3j31|k3l3u1S|U|42w1/~q2^.t=o+% d,<.[.<.a]u*m&a]r#m3% h+<.h+n3o3d@=.p3o-& m,c]b|,.g+* q3c|q3Q}B17|c|q3Q}X1q3Q}q3c|Q}J}q3",
"y1r3f+i{u*o&V2<3s3n%. 1+0+G)y&t3t,%]g=@_E1`1y$u3| l%% p=F1f&H~v3$.2.2.# - [.F1% % 4:4:(.H'J')142j_x+w3x3y3=[z3M<A3B3C3D3E3F3G3H3I3J3K3:2L3M3O_R|N3O3P3Q3R33[3[M_/~S3*.J'(.^.<.j+j+<.<.k+a], > <.r>T3% [.q@g+U3<+c%T1m!Z J_p,p'#.,.I'V37|a2L}a|91W3X3Y3Z3`3 47|8|C)H} 4c|",
".4>~+4%]o&d-f^@4n@'.t#A#]~j%j$#4$/*]g=$4r|,1|}%4Q|f;[.5.q@h*H~o$3.3.<.# - h+*.F1% J'(.)1H'q).2.2&41|*4=4-4;4>4k),4'4)4!4~4{4]4^4/4(4y| <_4:4<4S<[4}4|41413S|J2:+2:v-v-J'h+$ <.[.<.[.> i+%., i+> m;24;.[.h+r@3444z>d@,.,2=]l,a,#.L([.54A)a,R2647484{^s&g19404a4b4c4d4z)8|",
"t%..C@w@u*p=e4f4w#d+!.j%n%d+j$m|t,k,n*g4e@h4A}i4j4619+F)r#C}J_o$o$o$7+7+- [.r@2<h+_.4:H')1D).2z@k4M_l4m4n4o4p4v|q4r4*_s4t4u4v4w4x4y4[:u;z4A4Y}B4C4Y}D4E4F4M_)1)1J'H'J'v-% <.<.j+<.<.g@> * i+0>m@l%K_-.% [.[.G4H4C*j1d&9;^ F'u'b|j+g+j;G/B~I4J4K4g,L4%(=1t@M4t@N4j-O4l;u'",
"5.7.p&f^h-r>V~P4k@f|!._}d+b+B*&.o[k,k*g4m!a.*(Q4R4c;[.<.$ f|J_n@m&m@m@k+> > % -/m%v-q)2<=2z@q)^~d.42x<S4R<T4U421V4W4X4Y4Z4`4 5.5+5@5k)#5$5%5&5~1*5=5)1-5;5)1q2J'}.u|F1^.<.[.<.5.i+i+* , %.> c;t%q[e]r@<.[.r@X|>5d@=.k$e;( p#u'u)).V}e;Q},57|7|X1c|X1q3q3,5Q}O}L}Q}q3J}'5",
"j+/ Y1}/k;m;*])5w#a+;1-.n@a+g*!5$/r,n*h=2+r+E1c'F@s>a], %.>.i=+ %.* g@9+k+[.h+<.9+[.H'~5:+J'q))1/~/~{5]5n)p2^5P15</5(5_5:5<5w3[522}5o24>|55>|:152535:+4555)1,1q)G~e@9.a+j&$ [.> [.<.i+* g@&(m@i+o== 9+m_51g+3465T1m!y&k=75s,q,&/_}V}85C)B)`39|C)`395a| 495a2t)91B1X1H}Q}",
"= / 05w)o&e+x)a51.d+1.n%n@w#g*q:$/k,g=5{H'b5`1c5d5e5f5<.+ E<g52., 9+n_g@9+o&j+<.r@h+h+$ u|q2:+:+h5(~/~U|i5H1j5Q1~1S|~1}:H1}|P1o:k5o2u1l5B4p2n)15#<422:42:+3:J')1,1^.^.G)n@s@_.j+> [.i+, 9+k+, * l%m;9+> W}r@m5n5C*k$/2o5p5f1F'q5w%g@<^k_r5$1s574741{t5:3u5v5s5w5x5k*R2y5",
"~.; J~5+9+m-r*e%7+1.s@s@)..4z5A5u,k,@_s)a+0,o#B5C5D5:.* k+n@j=o$a]%.g@9+- %.- <.- m_q@e@$ v-)1`1q)M_U|42E5F5311:U|F5G5~1U|U|~1w1H5w1I5v1n)C2S|#<B}(~:+:+=2:+v-(.^.l$$ = j+= $ > [.g@> * > c+, u*o>o&9+a]n_u@J5K5g%o@e2m-9>L5c]q5M5[.3.U2k'74N5s5O5P5Q5R5S5P5T5t5]}%1U5L5",
"t%=]V5}/c;m-}/m!g@= = 1.d+a+z5e2$/k,n*i>e@m!j1D<W5p=p$, > v@v%* a]o&9+%.%.9+[.$ <.S{j&H'[+}.q2.2X5(242/~d.T|S|n)n)p)Y5F5w1w1U|x1M_U|w11:C2#<Z5U|U|/~/~:+:+J't=u|u|F)= j&j+u@k+> i+9+a], ~., , a]a;t><.i+a]9+`5 61+1+.6m-i=u'q,w)+6n_* Q}q3O}Q}Q}Q}B1B1B1J}q3J}L}J}q3J}P}",
"8;j*a!v,a;l%@6l$<.}.a+#6a+G)g%e&t,r,$6..$ o#y>%6&6l%p$:.> o@v%*6> , 9+%.> c+m@+ g@o&9+L_5.(.F1r+C242/~M_42k4S|O_=6-6;6>6,6I5w1%_3:%_w1'6)6!6~6{642!1d.:+v-2<2<u|(.% <.<.k++ [.9+i+, g@* * > i+c+p>F~i+[.9+> m5]6n%o@e2)2Z m,^6A)/6> m&7|C)B1Y3`3(6_6:6X30| 4`3W3<6`3J)Q}",
"j;c>> i=7+4.[6D)% t=;.^.u@8.2+'.f1}6+.5{;.m!k$|6n#J~4.4.n_>.4+%.9+, c+i+> %.k+a][.- _.9+g+v-f.^~B}A}M_3:x1J2N_4<162636465666768686S3o)9606a6b6c6)13:=2v-J'}.}.% $ h+% <.- i+k+9+9+9+9+i+g@a]> o=q-l%* = % t%d6e6m!f6p3o>Y p,c]'}B#d;&(}/A*x*r-u2I4n=K4g6=1h6{^i6I_l+b]v)",
"m&V29>w@N)J~[6k!6+D)@ H'a]G)d+!.t,*]$6 ._.k!n$m|m!r>4., a]k+5{a]g@, i+[.i+, > > i+l$5.;.h+}.h+-/)1h+*.3:%_d.H5U|g2j6k6l696m6n6p)A'86o)13o6a6U4p6)1:+v-}.F15.F1[.[.[.i+i+, 9+9+a]9+9+> * , 4.c+* r#m-k+<.[.5.q6*<n#o@y&p=^ u'c]0[f6k%&(2{r*O2R2r6s6t6s6u6s6v6w6d>d>x6y58|",
"s+=]a+4.;~s+f1=.H'D)H't=a+i+'./^q,F_u> .u|0,2+y6o#r>r#p$p$e%|.n&u*a]a], o&4.4.<.<.= j+j+% $ % q@}.u|q)S3z6A6x141u;B6C6j6D6E6F64<%_l[G6H6I6J6K6L6:+4:*.(.F12<[.<.<.h+g+[.> i+i+, i+- > * a]g@, u*%(# i+d,g+> X|M6r|0,d@4.] v'q,-<N6c;{.c|Q}L}7|x2B1B1B1L}N}c|c|O6J}Q}a|O}",
"7:P6Y^Q6R6A)D~./u%h%q'p#u'F'= g@o[i{w@ .D4e@. %6n#p&S{K_x>.4M/m@n&, o>o&, o&%.g@%.[.9+[.= $ % u|-/t:J'-/S686!1T6n6j6U603V6!6W6X6k4J23:Y6J6Z6`6 7A'-/f.J't:% 5.h+h+[.i+g+%., m@g@, > a]* - m-, * s:%.[.n_g@> `5.7+7j1T1w*r[u'@7#7(^c;3+7|a|$7`3%7X3z)&791t)I} 4C) 4a|9|N}",
"R}h%u-u%h%*7=7-7;7>7;7s,i{q>o#r@$/i{w@j!$ u|k!%6T1r2f+a]K_g@M/i+a]> o&4.> c+%.> > %.%.n_o+[._.$ S6g+S6-/S6v-x13:,7'7)7!7~7{7]7^7/7(7x1Y6_7)7Z6:7A<S6-/(.[.%.[.g+j+9+<.> g@, , , * > o&c+g@a]i+o$/.p=g+g+F~> <7[7t|G~T1s>; l,F'B)}7S{s*u'=]9-|7171727p-3747r-K4574767u&77",
"A~F~87I)=297C24207a7b7j+K_m*C*h+f1#.g=~}% e@z@c7r|J~p$p&g+m+j=- > c+o&4.o>, m&> , 9+%.%.k%<.d,[.t:g@r@o;q@2<A<3:d703!6e7f7U6g7h7i7j7x1k7F6F6l7m7v-2<S6v-[.[.[.g+[.%.- g@* a], %., a]o&o>u*k=* * s:s=a]g@g@m_n7o7l!$ 2+  v%q>q,b|B#g@0>C),~B)p7d]F}q7r7v)v,s7u,d]g!b18|I}",
"t7+[j2u7v7w7x7y7z7A7B7C7}|`^D7E7$/*]g=n'G)9.e@F7a.t+F~l%p$a]G7%<p$g@g@o&* a]c+> > g@g@, [.[.% <.g+q@-/H7h+v-v-8611I7J7K7L7M7N7O7P7Q73[R7S7T7U7:7F1-/S6g+> [.g+> [.%.o>9+> 9+c+9+m&u*:.o>m&m&m&e-O5g@* p$D@S{V7W7@ 2+m!o=5{m,X70[B<K_5:Q}J}Q}q3I}I}Q}B1t)I}J}Q}C)K}I} 4P}",
"Y7Z7`7 8.8+8@8#8$8%8&8*8=8-8X5;8o[R{l*y]<.}.,1>8e@U p&p$D5j%5{o&K_F~e,4.F~> g@[.g@a]a]> 9+%.- [.9+_.<.% % f.(.3:,8'8)8!8~8V|{8]8O7^8<4R7/8(8_8n62<f.V}<.%.[.m_m_> F~> n_4., > > c+o&u*a]m&c;o>c+n>g+}}t-D@r#E/:8-.o@o#r#5{u'q>R}<8t-[8Z3I}C)8|&] 4C)Y39|Y3H}}8`3`3|89|L}",
"18283848586878889808a8b8c8L^d8m[e8f8u>4+= <.g8y2a.i&  K_n_t=i!:.r#l%p=c;F~F~c;F~g@m_4., a]9+g+j+= <.- $ % -/[.v-h8i8j8k8l8o;o;m8n8o8p8q8r8s8t8:7f.g+q@[.q@r@g@n_9+n_4.n_g@g@[.> u*f,o5u*0>n=f,g@s>> 4.t-S{p$j@u8C}-.o@p>j'F'q>R}B*S{f-v8:3w8x8y8z8A8B8z8[8C8_3>2D867E8P2",
"F8G8H8I8J8K8L8M8N8O8P8Q8R8S88,T8o[f8g=+.~.F1(.z&.2i&l%K_p$5.U85:w581V881W8X8]}|.Y8<.S{g@g+m_g+g@# 9+i+<.g+<.q@v-31Z8`8Z8 9r@o;.9+9@9#9n8$9%9s8)4o;C@9+g@a]4.i+g+n_F~4.n_F~S{9+Z Z r[l>I_1{k>]}h-L)> F~t-K_t-n7&9;.;.1+L)C<l,q,*9B<n_s%`37|7|7|7|7|H}7|L}7|7|7|7|L}L}O6B1",
"e)=9-9;9>9,9'9)9!9~9{9]9^9]]/9(9f^f8b]n*o&% _9:9D)L)p&e,t-5.y]r#t#<9[9}9|9<9=<E<E<m_F~p=W}g@g@a]g@* > 4.<.g+t:h+!319293949m_9+5969@979899909a9Q|q@m_F~g+4.K_c;g@F~p$o>q[l%S{3{f|z5b9n%j%E<c9k-f,e!d,, c;p&S{E_:}n$G)G~o=Y d9q,H/m%F~n&C)C)C)L}I}a|I}J)J)a2Q},~d|M}O6H}J}",
"P1{<e9f9g9h9i9j9k9l9m9n9o9p9_+j[o[F_q*X2j+h+$ d%G)c!p&l%e;* ..p=f,m-q99-b>o=p=l%9;F~o&t-p$, > a]o&, F~F~g+n_o;q@r9$9s919t951x>x>u9v9w9x9p8y9z9A9[.m_S{4.S{l%K_4.4.a]F~:.B9p$L_  f;r#n>r-G'n=f=t-B~g@4.c;e,l%C9c7;.;.n$f,J_D9m,8|n$o&E9N}B)#.-<L5F9r*G9G9H9z)-<u)p702y)8|",
"I9J9K9L9M9N9O9P9Q9R9S9T99%U9V9W9%]R{l*@.t-[.%.j$l$e!J~r#s:0>h!0>h>i>..j>5{V8|.|.l>4.t-K_F~o>> a]p$D@K_c;a]n_F~X9P_w9s9x9Y9W}K_x>o;A'Z90909`98911g+F~S{ 0e,K_K_p=S{c;F~c;a;p&  ]}|.r[.0i=|.i=s$~.L)s@t*D@  3{E_+0l$;.o@n=` V~q,8|e&, c+}/k'M4(3]3n-@0E9#0$0$0Z|47%0%0r5p'",
"v+o)f{&0*0=0-0=~6~k5;0R1>0*7:+o)%],0a,+.> 9+j+2+= C'  m;e;3.v%4.k+m&n@n%E<q#0+A#'04.c;p$4.t-p=g@F~4.l%4.S{x>x>o;)0!0~0{0]0^0x>W}r@W})4/0(0_0:0<0F~K_F~S{K_K_e,e,S{4.p$p$m;p=l%k+~.[0j;m@[0}0~.n=B~F~  p&e,t-[6|0d+Z18.p=|.r*e1H/l$o&w*c|'5J}B1L}Q}Q}c|P}c|P}P}P}q3X1X1q3",
"}.j#10209,30405060=2-]A'p270J't:*]%/l,+.> m_}.8.F)80J~o=e,m@v%m;G's>o=i*b>J~s>M)  4.l%o&o>:.p$%.p&  K_p$K_4.W}g+<49000{0z|L_+4a0x>x>m1}3b0c0d0e0^0x>p$S{l%p$K_l%p$p$  p=e;a;E@E@c!c!7.g;_ i&<~L)s+W}J~m;l%t-7:f0;.j+n$b;Y u,q>H/g0l%s:Q}L}L}I}H/H}h0I}v]i0O}x2H}N}B1&]Q}",
"e@h5j0k0l0m0n0o0p0z,q0r0s0t0`1S6R}' l,x5l_^0g+m!i+~ l%9;9;* o*r#u0.0B~{^67l+v0v0w0, p=o=p=l%t-K_J~e,4.4.9+m_F~m_q@a0a0f+S{x>a@].L_S{W}^0].].j#D@S{x>F~p&e,p$r2K_K_t-p=9;  3{  b>s>f;a>n=C~x0;2f;` s:G_K_e,f=y0z0% = m!x*|.x)q>H/d@k=r-I}y)L5A0A0B0u&B0C0B0C0D0D0E0c1F095",
"@ :+h4G0H05<.5n2}1`}I0J0K0L0#<H)R}E't'i!9+> 4.m!> <~p=l%f=q#p*m;t>o&g@d[c+k+i+7+m@p=a;:.p$p=l%r#D@e,p$x>g+[.S{H)W}H)D@D@^0].p&-}R D@f+S{f+f+M0^0S{x>S{K_e,p&p&p&K_K_  f;  9;e;52D@D@c;3{9; 0f;s> .K_o>D@/ n>y0c'$ s@;.f=x'*]q>2{l!g@k;&/+.O4q-q-q9q9N0I4w0O0P0Z|84Q0R0r5",
"6|K'q@(~S0T0U0V0W0X0Y0Z0`0!}.2 a' 2{u'@.m&x>V}G~a]4+( s>r-x*u>61Y Y ] .aj=& J_Y Z   b>o=p=l%    3{D@D@K_p$S{S{D@e,D@L_].L_j#p&f+e,r2j#-}f+-}p&].].].e,p&l%  p&J~p&J~r2e,l%a;o=;~=];~^ 6++a] T~ 0@aq-1{e,( O4y0#aj&5.s@j- .A)f1H/n!S{s#$aX1B1B1O6Q}Q}Q}O}H}H}e|O}O6O}c|c|",
"a+  %aG4&a*a=a-a;a>a,a1]'a)ap2i#R}*/q>k*p=> F~G~u*80L)L)e]v*j!f,F<84t@j-b>i*a;x*%(  e,e,K_l%  K_  F~r2S{K_g@W} 0S{D@K_].-}Y1K_J~K_r2Y1r2-}j#f+j#p&].  p=p&p&r2f+p&E@l%p&  o=s>l%K4n=x0a;G'J~  g@%(m+n=!ag;o=[6~aj&[._.I_C<k,L5B))~t-- H}K/K}a|X1L}K/H}C) 4N}Y3a|h0I}&]X1",
"$ R1a@W9{a]a^a/a/a(a_a:a<a[a}a07A)Q{F'l;r#> d,m!, |aG'f=a;1ah&9-b;x0e;p=b;c;e;f;c;J~i&l%l%a;  l%e]e,r2D@e,t-p$p$e,K_K_f+r2D@E@E@e,r2r2j#r2E@3{e,K_K_p&r2E@  r2r23{J~K_n>l%f;s>  f;o=c-r-U t+f;e]Y g@p>2a_ L)f^~a5.p$%.Z C<}6F}t)z5t-c-a2*]f1@7P2P2b1A0T23ag!g^r*4aH9H9u)",
"j+5ap)6a7a8a9a0aaabacadaea[ap2h#R{R}f1w'u*w*k+f|, |ai%f=a;faQ6/.l*o*q*o,s,c]gaq'c>s>2ae]3{l%3{K_  a;  l%f+e;p$3{3{r23{f+r2r2f+t+].E@j#j#/}i&    t-t-p&3{J~p&r23{l%3{  f;J~L)s>l*l'n*l*p#m*p*g=s>6+p$f,J~U L)v'ham_W}> 75s)#.}/*9o+c;iag!ja!ab>A~f=75l-h6; & s=J_v2&1%1ka",
"[.Y V2lamanaU!oapaqaraQ~sataU|W9k,uaq>q=:.o&g@1.o>6+A~M)e!{.u%/.m&+ = ^.- ^.n@= * <~vaa;f;  2as>r>e]J~p&E@g@D@3{E@z~E@J~J~i&j#3{t+i&E@Y1Y1/}t+  e,p&r2  r2  J~  m;i&!ai&s>A~i%j+F)<.<.[.j+<.= n>/ Y #_L)i*r>d9t7m_}}k+s++.B)%]Q{f|a>z#O}Q}H}L}Q}X1B1Q}q3X1B1O6J},5q3q3O}",
"m_  g&~1i2waxayazaAaBaCaDa3|=2/}u)%/f1o*t-l%o&j%0>r:( s+i*:.h&i*i%( a;U A~A~d!z~g;s+i&L)L)L)L)a;s>L)2ae]3{J~r2J~t+r2_ i&t+M)r2j#/}_ z~/}E@Y1Ea3{3{j#  p&J~f;  E@f;L)A~L)L)L)~ U _ A~G'a;G'A~~ _ 9>i*/.i*A~2av'Fao&:.* Z +.' &/8|0+s>faO}8|`3GaC)w2HaB)92Y3GaW3 4 4L}7|q3",
"a7h#X}Ia#5l2JaKaLaMaNaOap)3|2:Pa>1p[t'o*s>l%K_;.m&6:i*i*( m-q6g&~ I_m$A~L)i*M)2ai*x@s!g;A~L)s>!ar>i&E@2af;l%i&a;t+Qaz~2aB~80t+Y1_ _ s!R R r2R _ J~E@i&J~L)a;E@L)J~q-L)a;s>n>f,i%L)f=n>s>G'vaM)A~5{T L)i%A~f=6.D(F~t-k+& c>u)x]*9e&J~n-h{RaL/c>%11{1{%1]}t5s$$( .*1c]S2X3",
"L2L2SaTaUaK~VaWaXaYaZa`au%t, bPax].bu'c]n=b;4.f|m&s=O4` |.( &(|.s+m-f=i%L)i*s+M)C'u+c!<~i&i&  s>A~L)2aL)L)2aJ~t+i&t+i&t+z~Y1i&_ _ R R t+R E@J~t+R i&t+  2aJ~i&M)61L)b>L)L)L)s>L)g;i*s>2aq-( i%..+b/.f=i%g&~ d9g$F~F~k+Y p*R}K)]^=<e;o5#.x&C<@b#b$bj'j'%b.0$1j'k'c>g4s)L5",
"f1p,&b*b=b-b;b>b,b'b)bG/!bm*~b2a}/%/q>F'K_3{t--.0>4+h6Z O4b>( b>I_5{{ i%_ 61c!~ : r!c!g;_ J~e;s>J~J~L)i&L)_ t+_ t+t+z~t+9@Ea/}t+z~t+z~t+/}z~Y1z~t+E@t+t+2as>g;A~i&A~s>L)2aL)f=f=G'( 2a2an=l%h=Z $.0]~ O4i%/ 5+B&F~{b- / r)R}K)V1n+a;]bq3Q}H}L}i0L}^bH}I}&]O}L}H}O6q3c|/b",
"u*}.k$=.D);.G~_}c=l!l!;.75>85.I'%]r,q>O2  f+(}s@5:+.; J_i%0]b>a>q9(bh!( 4{A~u+~ s!c!_ g;A~L)2ai&_ 2az~A~_ _bg;C'i&z~z~R z~/}V5z~9@z~u+t+t+z~t+R t+t+z~:bi&  g&~3t+M)L)L)f=L)f=i*f=i>v%A~B~c]<b5:( s=0]; B~;~%]=.m_D@<.; p*A)L50|[bo=I4B1t)B1J)K/a2L}a2,~J)O}91 4I}H}H}q3",
"J~J_r#l$n>J~<.5{8[-/x>r>~^W}{b-1i{%/q,s,l%i%s>t=c;j>Y T~v%i>i=g&L)}by]_ x*g;:bm$J~80z~z~g;2a_ 2aL)L)A~L)C'z~s!c!Ea|b1b2bk[9@3bV5z~E@s!4bs!t+z~z~z~Eas!g;z~t+l%s!r2K_e]2aL)A~5bA~)2)26b<~7bT{:.a;t@k*j!8b .J_7:y$D@D@> r[w'%/r*H/9ba;0b}6abs)=]n>v0M4bbu2cbdbebk>&1+.j*B)",
"  i&a+<.&(g+l_C<*.J'F1;.=]g+> D'x]%/q>L5S{i&D@o+t-i!] @_q*fbq=Y i%e]n*L/~^p+T{a,gby]L2~3~3gbv%j=v%4+h=4+h=4+A*T{hbib;]L0A]u-taT{y]jb7bkbf!h=7bf!~^7bkbm'`57bl'm'gby]4+h> .5{C<i!5{7bg=!}f^<~M)b,t-d,] lb=]x'f8x$e,mbc;v2lb' r*u)$.a;[8X3T2g!x]r*}/&/t'x6q>s,u'h^p'f1q>Q{",
":.e[x>%.. g@5.c>*.-/h+q@=]g+l_nb%]R}k_o*i*2at+F~9-n'] q*A~j+|{=]M)~ L)M)I'{bp&W}ob87pbqbI'.2o=D4rb%4sbtbm.ub5&vbwbxbybzbAbBbCbDbEbFbGbHbIbJbKbLbMbNba'ObPbQbRbSbTb97_~I)b7t:_9<.G)0+X F~Ubg;|{i@J~Vbf=o*] j',0`13{3{F~$b~}E'q,u)p=f;3+B1Q}H}L}i0K/O6L}J}L}H}O6O6Q}q3O6q3",
"f,+4x>a]w#p&}. .J'4.o&5.=]> t>V}%]R}k_x6r!2as!d;u2h=] l'~}s+D44+X X Y <~u+x@4+M)2aM)C'c!z~Wb|{7[-1XbXbYbYbZb9]`bT8 c7@.c+c@c#c&}$c%ci#i#T8&c(9*c=cYbh#ZbZb=cWbN_7b9@C'M)T c!c!M)L)_ / c! .<~2a|{I~j=-cw'm$-c%]P4e,9; 08bq'%/t,*9D1G'm=92t)H}Q{Q{,~H}I}Q}K/C)J)a|C)M}H}K/",
"e,4.9+[.F)p$m!J_q)p=, [. .> S{> p|p[c]O2M)L)g;9;v0y]s+n*l,~^q>n*Y ^ i>;~_ u+_ 2a_ i&i&c!V5W~;cXb;8w>>c}{3b2b,cN 'c)c%c!cZ<~c{c%cOag#]c^c/cg#(c)cG<_c_c_c(9:c=ch[<cz~N)/}i&T _ 80u+u+6b[c6+6bA~X F}$6c]q';~#bk,t=o=m;S{] g=' }/ 4j+A~3+q'0]o5}c|c1c2co5g,t&E9E9)2c-t@$(u,",
"9;e5> c;> l%z#r[z@W}o==  .f+t>S{i{E'q,q>c!!aC@E@M)i!l>s+=]] A*g&L)h=i!80M)i%i*A~c!s!c!s!9@s!;c3c>c4c5cYb6cYbG<7c8c9c0cH<]c$cH<H<%cac%cbc$c0c0c$cG<(9.c(9=cDa cccL0Q s!C'_b<~c!~ M)<~~ >~=]j'0]Z I4/ =]B~@_; u,n!a;o&m-g1r'dcr*&]_ 2a3+ecC)w2H}H}L}L}M}I}fcL}M}N}I}H}x2$a",
"l%p$a]a]n_J~E<{ 1+s>g@i+x'gcD@e,i{uat,q>_ J~u+g;=]a,g5j= .=]C<v>a-4+x'=]4{~ M)r!C'[~x@M)}~W~L03bhc7c5cG<3cicG<^c9c]cjckclc$]mcncoc<<[/pcqcocrcsc0c/c)c7ctc5c_cuc+/O)9]Tb[~r!6bm$x@>~~ 0]X  .>~=]C<] x&T{vci=k,n_j'o&m-c>j*R}ka*9p$2ac;J}`3H},~Q}O}H}L}L}N}O6J}*/I} 4C)O}",
"a;J~o&o&:.( z#|., D@t-k%v%52g@S{R{' b|B)@...i!i!l,' f^f1d]q>q>q>m,f1F'f1g=n*m*u%u>f!3|u>F/u-@/t0wcxcycTayczcZaAcAc1 BcCcDcEcFcGcHcIcZ{JcKcYaf{2~LcMcNcOcPcQctaRcScg{U33|+/u%p*j!p*k*g=w'gav,q,}/K)t'p,6.T<y0J)@.u&j>+.f1q>9|*]*9:.4{B~w2TcY3Y3H}h0<6W3h0`3`3 4b|K/8|Y3X3",
"p=2ae+f,i+o&u*B@o+L)e,o&) {bt:K_Ucu)f1B), A~o&2.t&b+=/o+l_h@ob=.VcWcXcd=YcZcK5A+`c d.d3@0*F&+d@d#d}@$d%d&d*d=d-d;d>d,d'dO+)d!d!d~d{d]d^d/d(d_d:d<d[d}d|d1d2d3d4d5d6d7d8d9dd#0dadbdcd0@ddedh4fd^~gdD)D)j&-.).^.k+s@g+i+9>hdx]x)V1c+i%r%g@y>E#:9idh|d&F#8>y>j$,.p;jdkd0+e-",
"p$_ p=<.k%e,o&..$ e,t-g@kbI'(}a;p[,~q'l>F)4.D@b+j%-.G)= m!r|K'k!f&x$*(B>ldH@x=mdObndndodpdqdrdsdtdud*dvdwdxdydzdAdBdCdDdEdFdGdHdIdJdKdLdMdNdOdPdQdRdSdTdUdUdVdWdXdYdZd`do30%K5 e.eB&+e@ew-ob`1E1E1#e;.j+D4D)kd-.F1g+F)1.L/k_H/R}a]g&f=i*a;a;L)M)g;M)A~_ s>/.o=s>n>n>  n=",
"a;<~o=c;` a;o=g!$ef=m-[.D}m- 0x0%ex)s,G)J'G)$ _}-.-.:^j$e&E~g%y>y>x$d=z$b=A$nd0&&e*eI9=e-e;e>e,e'e)e6%!e~e{el(]e^e/e(e_e:e<e[e}e}e|e1e2e3e4e5e6e7e8e9e0eaebecedeee9%fegeheiejekelemenez,z,x,p!h@oex$y>n$s@_}l!n!2+h+8.e&I_S2&]*/m-4{5bs>i%A~s+i%vag&L)s>n=a;b>f=Z B~G'b>",
"k'va4.  B9F~L); g@t+peI'h>/.F~e;N}u,]}y&H'j+$ G~G)m!n$8>N(E~m!n$=.y%Yc7-0@w=h.qe~+rereseteuevewexeyezeAeBeCeDeEeFeGeHeIe&@JeKeLeMeNeOePeQeReSeTeUeVeWeXeYeZe`e f.f+ffe@fg.0&#flerbQ4$fc7q||<d%u=k!y>8>u=y&G~0,ob%f^.8.G)&f3av)Q{h,4{]}m$~ e!6b<~i*M)>~m$=]>~~ B~( B~>~4{",
"~^!}}{*fT~<~A~] r!~^:bE@5{B9B~B~J)V2=fn$=.m!g%s@8.n$n!-fv&,.C*z%z,w-;fo!o!w=>f,f'ft2)f!f~f{f]f^f/f(f_fQd:f<f[f}f|f1f2f3f4f5f6f7f8f9f0faf!dbfcfdfefffgfhfifjfkflfvemfnfofpfqfrfsftfufvfwfxfyf#4|6z&$fzf|6i'y2^~E)G)Afs@BfCfP2O29|n&>~E9( i@<~DfM)i%f=i%i%G'Z g&~ ~ var3] ",
"S{o&  p$j+q[> > qb^0i&n_l_H'E)kdO2s)n'T{|{x@<~m$vaX e!A~m$/ E@/}_ M)E@r23{_ a@9@w>XbX}X}R15an[u]u]7[p)j[]+32B4Ef>0M'd^FfGfM'B4HfjcpcIfkcEfB4i[9,JfW9T8n[7[T8Kf:+q@%_A'a7w>l[W}-1^0W}e,p&p&r23{t-e,e,S{p$p$D@3{<~c!^ LfT~<~$b#bt,)2j=~^....=]6+m$/ ] j=& Y A*] Mf/ i=] x'",
"<.Z1e@E)G)K'G)j&5.|}=.h4n$x$NfOf5+q'7b|{z]Pf|{X ~ z]6+X 6b|{r!s!_ C'_ g;z~j#Wb9@W~e[Xb4c(94ch[!cQfDaQfIaRf>030M'Rf>0SfTfO'UfVflclcWf1bpcXf]c7@!cQfQf07T8Dam[XbXbD'YfD'D'-1e[WbWbj#f+_ t+C'A~L)e]s>5bg;M)A~A~A~R _ X ..;~M)X j*k,04Zfb]q=c>r6`fr6l*l*Lfo'q=q=w'w'gao,o* g",
"kdm!. f|l!f&kdD#c@D#.gA}B>|}+gw@%]o*A*x@@g~3jam$6b/ 6+a-r!q+<~<~x@[~r!g;t+s!9@|~9@V5V54ck[4c3cm[i#!c8cf[#g$g%gIabcRfXfjc1b&gac*g*gbcbc=g=gQf!c!c#gQfm[4cf[h[Yfk[D'k[;8:ca@Wb=}9@M0E@z~z~<~M)f;i%va5bg;~ i%A~i&z~2a7.7bX vaW a,,~j--.b9/^b9:^C}-g2.).C}C}O(]~;g>gn%-.v*u#",
"= k!k$f|n$-.v$j1y>F#d*a%A>v=,gv)H/c]h=b>O2s:g=w'|{|{Df[c6bh;<~<~C'r!u+u+s!s!X~W~s!'gV5>c>c_ck[4cm['cG<m[_ci#%c)g!gbc]cacRf~gac{g~g]cbc%g]gi[Qf^g#gh[G<m[YfYf3ctcPae[a@e[2b*c-1_ z~t+W~i&z~_ i&2a2a2aA~M)i%C'C'g;h=^ 5{Mf<~{}c],~q5/g*(u=8>2+8.K'5.9.t=t=G);.> o+j&j+d,F~",
"(g_g:g<g[gke}g|g1g2g3g4g5g6g=.V~H/t,C<o=c>s)~}f^T~@.m$m$m$<~|{7.r!: r!C': : 9@/}Ea/}2b7g7gPa aXbT8T8G<tc=cT8%g%g%c8g40*g9g0glcagacVfac40%cj[h[bglaXb3c_c3cT8Da=cXb=}Paa@/}/}e[R 9@O{z~i&2a2aL)A~U g;A~g;A~<~s!-cu>X2i=T{C'cg^6R}x]dgegj&z&i+#egdK'e@0,% e@H'_9d,j&;.;.).",
"; 8bA*] W -cj'W Y ] W ;~H~61hb6.H/q>A*; m$C': n'7bfg[ch;x@z]ggS~}{< u+r!: ,^3b6c*chg[ 7cP)N N 4c0cigjgkglgmgngogpgqg_!E[rgsgtgtg*!ugvgV!wgxg`[Y7ygzgAgBgCgDgEgnc9g3bx~8@=cG<Xb`b5c5ctc*}tc=chg|~80C': e,g;q+[cm'W e]Fg~}4b0-p'U~o[hdGg=2H'c=.gC*Hg%fy%8.8.e@D)Igkd-.-._}",
"W a-j=Y W ;~] ;~] / x&=]Y 3{B]0-8|r*%]w@t'V7w&i{p|6.u'}6a2Q}fcJg,~,~%e*/J)a|%e8|9|A)R}*/a2*/KgLgMgNgOgPgQgRgSgTgUgVgWgXgXgYgZgNg`g`gVg h.h`g+hZg@hZg h.h#h@hOgLgdcD~uauaD~*/,~8|2{x2Lg$h$hp[U~H/*9*9H/R}Ran'a,r'u'+/u-$/p*q>f1&]*]%h&hld*h=h-h;hp!x,q;A&.gD#%f>h>hE~B2,h",
"i!~^y]!}~^5{5{..i!+.n'n*;~:.-c@_i{g=j-q-e;/.o>> 5.S{%_8|O}d|JgM}L}M}I}M}H}N},~I}I}I}H}I}J/'hKg)h!h!h.h!h.hD~~h#h{h#h#h!h.h!h#h!h!hD~@h.h]h{h!hD~v]v]!h!h#h#hd|^hJ/d|&]C)&]q!H}C)K/N}H}M}I}C)C)&]&]L}X1J}^0v-#61ag+f+e,/h[.L))^Q{R}k,(h_h:h<h[h}h|h1h2h3h4h5h6h7hd'8h9h0h",
"..2aa;n>57r*r-s>L)R Z O2h=(}-cq=f!a;o+.4j+t=n#z&c@=(ahbhJ}N}I}&]J/d|d|d|v]&]q!I}&]&],~D~D~D~@hKgLgNgNgchdhehfhghfhhhihihjhkhlhP6jhkhkhmhnhohphlhihkhRgfhfh$h$h$hghuaH/ua8|&]I}J)*9J)&]I}I}#hD~Q{J)N}Q}fcPaqhrhshc*b5J'l!E)Z1Ybth%/u)h=g;^ / m$~ M)g;vai-i%0]i%M)e!va4{>~",
"9>n*jbC<F<A)47C<-cjby)5{f!uh)^o*u>J'd+f|`1oe6;-hc%f$F@>1'hJ),~D~vhchdhwhp|&/I}I}p[p[c|K/a2L}J/!hN}v]xh#h!h hyh@h.h)h)h)h hKgzhKgOgD~)hD~D~D~!hD~.h)h)hOgv]D~JgD~~hK}L}~hL}i0w]JgJ}9|x),~chAh$hlh.h&],~I}w]j0e'BhB5ChXc=2t=-/[cp#*]k,i!z~w'Z ] x&j'=]=]C<-c>~=]C<-c] =]j'",
"/.9-^ ] & 2{4{W ] ~ ( ~2~^DhEho*>1m$r>{ e!L)y'p&G_F~20Fh)hdcp[GhHhIhJhKhLhMh8|$hz*E_Nh7:Oh=bPhQhRhShThUhu^UhVhVhWhXhYhohmhlhZhPh`h i.i+i.i@i#i$i$iGhQhQh%iRh&i&iOhZhy0-bE'ua*i=i&]-ig4+(;i>i)bp[-bR}P6,i%]'i/}f+M0  g;x@6bX u$%]k,k,A*t+>~b>T~x&a-W a-4{MfY 8b] C<j'j'i=",
"^ ] J_;~^ ' ( jaW v%x&)ii!uhf!gao[Y J~L)t+3{E@3{61l[!iR^v]R{p9~i{i]i^i/i.{(if8_i:i<iH}f,m@3~[i}i|i1io{X)2i3i4i5i6i7i8i9i0iaibicidieififigihiiijikililir~s~_{minioipi,^k4=7U~)c&b,~qiriP^sitiui@iviwiE_xiyiC+/}D@j#E@t+g&~ I~0-,0u)k,c>M)~ s+a-=]W 8bW Y Mf] Y W ] A*-cMf",
"Y J_&  .; 2{a-W ]  .] ;~n'va0-o*>1] t+E@s>E@E@uhN)+4u[Sh)hP6ziAiBiCiDiEiJ]Fi#iGi8,HiIiJiKiJ]LiMiNiOiPiQiRiSiTiUiViWiXiYiZi`i&^ j.j+j@j#j$j%j&j*j=j-j;j>j,j'j)j!j~j{jBcSa]j^j/j(jKg&^^|_j:j<j[j}j|jf1>71j2j3jEa/}r2E@t+e]c!T~g=F_%/k,f!<~8bW ] ] ^ ] Mf>~;~j'Mf-c8bx&j'-c",
"x*Mf] 8bJ_t)4{=]Y W ] b,f!g;!}m*i{|{2af;i&e]i&i&Y1S34j5j^^y06j7j8j9j0jajbjcjUgdjG*ejfcfjgjhjijjjkjljmjnjnjojpjqjrjsjtjujvjwjxjyjzjAjBjCjDjEjFjGjHjIjJjKjLjMjNjOjBjPjQjRjw&SjTjv!mh&2UjVjWjXjYjZj`j^j k.k+k@ki&/}E@Y1_ i&c!^ u$w]%/k,n'M)a-] C<Mf=]W C<W ;~C<#bC<#kC<x'] ",
"75h>A*j'l+8|~ a-;~j'j'k=w@z~L/a,%]I~2af;z~g;_ t+z~s;$k%k~h&k*k=k-k;k>k,k'kcjTg)k!k {v]~k{k]k^k/k(k_k:k<k[k}k|k1k2k3k4k5k6k7k8k9k0kakbkckdkekfkgkhkikjkkklkmkfknkokpkqkrkthsktkukmhvk=|wkxkykzkAk ~ghBkCkDkEkt+E@3{J~i*A~~ ^ p*R{%/k,4+t+=]h=x&5b4{& ;~] Y j'=]FkA*A*B@+.",
"x* .A*x'%1C)/ a-j'8b#bb,u$2a~}l,f8G4A~i&2ae]J~t+z~}<GkHk~hnhIkJkKkLkMkNkOkPk iQkhiRkxiSkTkUkVkWkXkYkZk`k l.l+l@l#l$l%l&l*l=l-l;l>l,l'l)l!l~l{l]l^l/l4=(l_l:l<l[l}l|l1l2l;7Rh3l4lQgU)5lwk6l7l8l9l:]eh>b0lalbl9@E@f+W<vas>B~;~Rak,u)k,4+2aa-u$clz*dlp#e^t'G/[6o[$/m,T<$/x)",
"O4 .5{k'Mf*93{-c8bj'=]elp+h;g=u'*]h=vaJ~L)t+i&t+/}icflglhl^jiljlklllmlnlol@{$iD^4~plfcSkqlrlsltlulvlwlxlylzlAlBlClDlElFlGlHlIlJlKlLlMlNlOlPlQlRlSlTlUlVlWlXlXlYlZlHl`lb{;7 m.m {+m;^5l@m#m$m%m&m*mf8D/=m-m;mz~i&f+y's>C'~ ;~j*A)U~>mw@u+=]l,Q{A)k,uak,%/%/%/,0p[k,f8&/R}",
"O4A*A*x'; a|g;8ba-C<j',mlbb>~}u'k,Ehb,L)f=  L)/}y'5a'm)m!m>1~m{m>k]m^m/mN!(mQht^_mU9Ii:m&{y^<m[m}m|m1m2m3m3m4m5m6m7m8m9m0mambm`jy[cmdmemfmgmhmimjmkmlmmmnmompmqmrmsmS[Q~-8 mtmMcNgumvmwmxmymzmAm4]P6BmCmDmEmz~C'Fm2as>  h;|{m*k,U~>m3|C'T{q'u'fgw(L/L/#k@b-cFkGmHm{}p'a,",
"O4x'5{x'g48|A~W A*C<=]X a,~ u$q,p|T{<~M)M)2ai&L)s!76ImJmOgZhKmLmMmNmOmPmQmRmoh3/hcSmTmUmVmWmXmYmZm`m n.n+n@n#n$n%n&n*n=n-n;nr~>nM],n'n)n!n~n{n]n^n/n(n_n:n<n[n}n|nV(1n2nE_^jqc3nLg4n5n6n7n8n9n0nanG/j@Ckwjbn/}/}cne]i%~ m$X 0-k,' >mi!m$=]g=H9u,u,x)r*%]p|%]%]F_,0k,u)' ",
"Z A*..x'r[0[h;=]s)k'k'6bRa~ m*q,F_~^^ m$f=M)t+_ A~a7dnenfnP6gnhninjnknlnmnnnfhonpnqnL}rn>]sntn9kZ]unvnwnxnynznAnBnwnCnDnEnLitnFnGnLib~HnwnInwnun9{JnynCnKnLnMnNnOnPn4~cg$/p|} QcLg`^u~enQnRnSnJ^Tndc6.UnVnd8s!z~2a!aM)A~m$x&w'b|' Wnl*~ @b~ v*XnYn%fZn`n o.ogd#6k%k%+oc+",
"& 5{c>B@j'%/i&@bC<k'j';~q,r!p+q,%]7bm$~ .00]i%~ h;j#1~@o#oLgOh$ocm4!%o&oW^*o#hih=om*-oM}fcxi hCm;o>o,o'o.k)o)o.k!o'o0l,oYg~oYgUn hZg!o,o0l{o]o]o{o^o/o/o(o_o:o<oMgOgk,r*b|$/y]*i[o}o|o i1o}]2o3o)},~e^)h_i4ox@r!A~f=~ <~[cw(q'U~U~>mh&X =]s)5{)^v>v>-c=]A*=])^)^v>4+8bh=",
"` C<g4c>|.R}Y 5{C<x' .$bq'<~p+l,k,h=|{m$~ f=i%|{r!/}5oU^~h}/E'6oTh7o8o9o0oaoboQ{]j+(~hdhp|coohKhdoeo&iR^fo7ogop9onR^&ion%iGhRh8o m mkhnh&i7o7ooh=bohhoiojoio:oPgchfhKg%/'hH/G4V~bo&/q,^^koW^lo>mq,*]6.)h}omox@X C'm$~ s+B~n;a,R}E'>mu%A~v>>~]}=]T{v%A*=]] ] W C<C<j'C< .",
"|.n*B@j!|.dch;c>v2..$4$bm*f=~}q,k,+.=];~; >~$b~ m$z~[ noH}N}Q{,~{hfc{h#h!h9o&]&]fc&]M}ooZh$hchjh@iQgpojo#iqo#i:opo iphTgWgroNgNgLgNgjh+i@iphOg@i.i.iqophQgWg~oNgdcx]&/%]uaI}' ,~L}J)9|&],~M}M}I}8|C)I}f8>7edx@!^i%m$; / =]w(a,h{Q{#.z*[cT{a--c)^h=x&v>=]a-W ;~` 8b8b#b=]",
"` L/+.c>g4H/m$x'C<x'B@elo*i%q'q>q5L/W ^ ; 4{>~h;M)n&f-m5/}m1w>!ct[soto07m_F1v1uoW9Z<o2R|*_5<[5[55<K3vowoxoyozoV[AoBoCoDoEoFo-[D>Go:/8<8<HoIo._JoJoDoKoLoMoNoOom2PoC7v|n)Q1f2x1Qo}ai[}aR<to(|Hfw>Xb cOcRow)}}X M)h;5bMf^ -ch=p',~uaR{+/x@A*B@|{v>Soa-x&=]DfW ;~8b-c8bA*8b",
"k'i!i!+.5{R}|{x'c>c>B@] w'5bu>x]' n*W ^ ] ] ;~Z W X i%t7ToUoVoWoXoYoZo`o p.p+p@p#p$p%p&p*p=p-p;p>p,p'p)p!p~pif{p]p^p^p/p(p_p:p<p[p}p|p]e1p2p3p4pyb5pSd6p7p8p9p0pYdse8'n0apqe~+bpr;cpqh[hdp-(epfpgpt(hpip.2g&X h;m$W X W b,EhX7,~dcjph%|{Fkx&W w(#k-cW W 8bkpMfa-@b@bW -c",
"@bn'i!L/v2X3x@h=#k~}~}W lbA~u>%]%/~^g=h=W ;~/ ;~x'Y X W L/6b<~e!B~e!^ q+<~m$<~|{x@[~u+<~Q S B'[~Q u+Z~[~: *ca!b!lp< ;},^O{9@mpplb!O b!P S Q [ b!;}O np[~R [~op@gb!z~< [~_ u+g&q+A~S <~<~e!80X u+q+T~)^m$~ ;~~ pp;~|{] n*u$f!L5,~R}u)*iPfFka-h=z]a-j'W ja8bC<qpj'C<-crpC<",
"@bL/+.L/j>Y3z]Fki!cgI/L/q'2au$r*A)h=9-h6W 6+e!W +.;~W X Y m$h;m$/ W X x@x@x@[~|{: Tb< Q < : Z~R : b![ b!X~6@X~} [ =} cX~3bspN K<5otcN N 9@*ctpX~9],^O X~O : : _ _ x@g;c!g;g;: r!A~M)<~<~m$<~m$m$x@<~m$<~s+..!a0]; 0]J_i!%<x&k_v]uau)w&up{}-c)iv>)^)^-cj'-c8bh;-cC<#b-c@b",
"C<L/+.L/k>9|)^~^~^u$u$L/hd$b0-f1F_x'; Y ;~] / ^ ^ X Y ~ v2>~m$/ s+vaM)m$;~M)c!x@c!4bEar!s!O{W~: Tby~b!V5YbWbvp6c,c2bwp7cxp9c9c/c*}e#3byphgYbtc2b9]y~} 3b cV5O{E@3{A~L)<~A~L)C'a;L)b>5be!zpi%~ h;~ h;6bM)6bqp!a~ b>u2f=9>s+x'k_*9H/R}-8;c-cv>w(w(ApBpk'#bC<a-;~c>)^v>rpA*",
"O2w'+.n* .t)a-L/n*u$f1w'i^;~m*-<M}*]@7k_q>@7K)q>q>u)q>c]g!U2g!L5F}Cpf1f1f1s,a,F'u'a,@7F'a,hdu'p#t,6.*iDpe^e^cl#/+/w&Ep-80oFpEpGpw&z*z*Hp#/w&w&h^6.h^z*z*p#i^m*q'o*w'm*i^o*x6q'j*g=0-w'K)Ipgaa,U1u'u'F'u'u,F'q>f1q>c]P2k_q>K)b|e|H/R}+/*fv>8bh=h=v>#kBpC<C<-cDfv>v>B@#kv>",
"m$k*h=~^A*9|m'f!r)L/j*<~l,|{0-x)J)2{2{*/' R}R}R}*/*98|Q{J)d|'hd|#hd|d|,~v]C)H/8|,~,~,~a|J/8|*98|Q{&]M}9o'hd|,~v]d|E'ua%e~hD~,~!h,~Q{JguaE'ua*/,~&]Q{^hv]N}v]Q{Q{%ev]v]Q{J/,~*/Q{8|,~J)9oI}&]&]J)I}8|H/uauaH/*/2{u)b|2{9|8|k,u)H}R}u)3|lp#k#kh=w(w()^@bBpx'C<FkFk#kFkv>#k",
"c]w'q>u,f1C)}/x)x)$/u,s7a,h=q'v),~u'f!u$x'f!L/+.n'JpB@L/f^~}g=u$u$u$L/B@..~^h=A*C<A*FkFk~^h=7bC<L/h=q'-cf!T{jbT~)^-cx&=])iT~z])iW jbT~fg@gKpi@Ehj'A*h=w(i^A*v>v>=]h=7bA*f!{}~}4+~} .A*h=a,l,~}~^L/w'L/x'g4@_lbk*+.r)x5x6@_$4q5N}R}R}V7}{w(h=T{A*h=)^w(A*FkA*LpFkh=#kv>C<",
"75l+74j'k'$( .v2|.k>%1& Mpu'x]}/,~p'u$F'i^w'0-u$q'l,f!n*p*p+#/p*RaRal'u$g=g=lbu$p+u$!}!}!}!}f!m'w@ /#/NpT<3|F/D}f!3|OpPpu-NpPp /`^Pp!}p+3| /u-!}!}~}Raf!QpEh7b~^7bf!kbu$u$u$Rau$p+p+Pp /p*p*+/p+a,s,~}!}~}g=w'g=~}lb$4p'lba,#.I}X3B)./*fjb)^)^k'x'X L/A*v>A*>~#kc>@bx'h=",
"L/I/L/L/Rp~}~}FkB@h=x'C<@_Spdl}/Q{L5q'w'0-#/~}Raj*q>~}g=r*p*q'0-j*p*u$p*k*w@~}n*w@g=u$n*f!Fk~^~^j*EhX73|p+p*m*Rag=p*@(p*Rau$+/u>Rc`^!}g=u>u$!}!}~}u$u$lb@(~}OpTpg=+.x5j*0-g=lbn*n*~}!}~}j*!}m*#/q'p*Opf!n*RaEh!}Ra0-i^g=p*q,b|M}b|>mRaP{{}Eh-cC<A*a-{}h=w(#kx'C<A*#kB@B@",
"-<K)k_c]@7q,u,f1f1r*g!u,u,r*A)r*J)#.x]w]q5t,o[$/%]wip|u,u)R}R}k,%]p|$/s7%]=iV~i{7:*]R{7:i{>1i{>1' $/%/Upk,k,F_w]%]w]x]q5k,u)w]UcG/Sckh&kVp>1p|$/5+}/%]u,Wpk,$/}/}/}/x]x)&/%]%]i{%]%]}/5+-<5+B)x)9|-<q>p*q*hdu'u']j>1i{Xpo[%/K/Q}u)>mRa~3vp2aW )^A*)^v>w()^w(k'A*YpA*~}B@",
"#.B)H9r*-<H9H9r*H9H9wix)x]x)z)8|U~t,w'i!l*4+H~+aj'9oq=4+u>Dpg;<~r!z~i%2ac!g;3{ 0t+t+M03{+4-1s[Pa-1 aX|Zp`p8@P) q.q6@+qg#@q#qOa+c+q} +q3bOatc=ce[j#uhe,r2B]$q`b9@a@9@/}t+6bW~V i&s>U M)X X V g&m$g;l%p|L2f=8|k*T~7bx&y]h=u$o[#.&]u)q5lb)^t'l'T~v>h=x'~}~^~^%q~}B@$4I/&qp*",
"a|I}a|9|*qX3R}9|*/,~a2*/u)w)w)r*k,m,w@u>a,F/m'n'x*#.$/g=p*I~s!i%L)g;2at+/}V5*cYbYb=c4c=cXbk[T8m[Qf%g[~g#=qg#g#-q=q)cg#{cg#;q;qt[)cIa!c!c!c!c=cT8WbPaD'XbW~i#ZbXbPaYb c*cWb/}Y1p&3{e,f+M)<~T 61i*E@J~h=g=w@2{H~..w'Ra~}Rat,l,&/v]*9G}h^FkOp#kFk#k~}L/L/FkFkEhv>v>Rp~}~}Ra",
"~}h=jbT{C<j'$(k' .L/r)+.v%J_o5q=*]F'x@x@g&f=L)a;9;e]C~o5n=3{uhf+a@M0uhM0j#t+YbYb4c_c8c(9h#Xb$g>q30Y5bc&gto<<g#,qN<,q&gO<'qUf)qTf!qIf<<]c>q<<$gQf}a$gu]W9f[f[07n[n[Xb~q{q{qf+a@+4j#D@f+M0/}z~z~E@j#f;t-a>K_e]- a;( i%s+6+W m'k_Q{9o&]9|u)*]}6*]w)x)-<&/*]u)v)v)-<*]x)-<-<",
"2{B)H/2{B)H/B)I}9oQ{R}u)g=n*x&L5t'p*M)A~L)l%L)f;J~Z e;Y1f;(}f+y'uh/}Wbuh cD'5a3c(94cm[T8Ef]q30jcjcR<,qt;bitoac^qqc/qO<(q_qxoc^:q<qB_bibiqcTfN't]]+S<a7W9Jfbgf[h#W9f[n[5a=}j#+4Xb(}52M0-1D@f+f+3{3{p&3{i&g;;~i*2as>t+J~~ |{6b@7H/Q{9|ebb]~}j*+.@_l;[qlbg=u$#/z*p*m*a,p'j*",
"*/#/m'}/p+f1m*p+i^*]F'}qclh=A~k_)}x&f;q-b;F~9;{bc;>~p&S{S{a]I'I'-1 ak[:c|qI5n[v1S<1q<0]+2qM<3q4q5qN<6q7q8q9q#2A|M|D|Io0qaqbqh)H|cqdqS'6}eq6q~<fqgqhqt]iqjqA9N'R<l5w1H5p)w1h[YfT8Yf5aa7peH)S6V}d;(}e;J~t+C'/ f;  s>4.4.j-;~/}f!U~H/9|k'g=g=a,q,a,a,l,p#a,i^]jo[t,K)f1f1O2",
"2{o[7:2{%]*/' E'R}*/k,}6a,v>Mfk_F_n*Y s)Z >~$bB~O4B@Y ; / 4{va<~r!C';cSm}{TbkqY~[ lqLc2~8]P<v~(ikg<{L{H]7]mqnqBg=0oqpq7qqqrqsqtqxguqvqwqlc0!ukoixq_myqzqlq60g#+q7gYbb!} `b|~,^}{Aqq+<~m$h;2a( !^x*r[6+a-T~L/4{>~=]=]Y B@g=x&l,H/,~b|p+g=0-R}c]-<u,l,q,q>u,f1t,m,x)r*c]-<"};
