/* XPM */
static char * so_tex_xpm[] = {
"132 132 4712 2",
"  	c #1B262C",
". 	c #1E2A30",
"+ 	c #1C282E",
"@ 	c #1C2A2F",
"# 	c #1B282E",
"$ 	c #1B282F",
"% 	c #1C2A31",
"& 	c #1C2930",
"* 	c #111A20",
"= 	c #131F25",
"- 	c #1B2C34",
"; 	c #1A2C34",
"> 	c #1C2D36",
", 	c #192B33",
"' 	c #182A33",
") 	c #162B35",
"! 	c #182D39",
"~ 	c #152B35",
"{ 	c #162D39",
"] 	c #15303D",
"^ 	c #143342",
"/ 	c #123445",
"( 	c #12384B",
"_ 	c #113D53",
": 	c #072A3C",
"< 	c #133F56",
"[ 	c #0E3648",
"} 	c #0E374C",
"| 	c #0F3B53",
"1 	c #0F3E58",
"2 	c #0E3F58",
"3 	c #0B4460",
"4 	c #0B4866",
"5 	c #0B4967",
"6 	c #0C4865",
"7 	c #094460",
"8 	c #094865",
"9 	c #064864",
"0 	c #074A67",
"a 	c #064A67",
"b 	c #064D6D",
"c 	c #054F6F",
"d 	c #064F6F",
"e 	c #064F6D",
"f 	c #034B6A",
"g 	c #065070",
"h 	c #074F6F",
"i 	c #08506F",
"j 	c #095071",
"k 	c #095274",
"l 	c #0C5171",
"m 	c #0E4D6C",
"n 	c #0F4A66",
"o 	c #0F4B68",
"p 	c #0D4B69",
"q 	c #0B4764",
"r 	c #0B415D",
"s 	c #0C3F5A",
"t 	c #0E435E",
"u 	c #0B3F56",
"v 	c #0D3C52",
"w 	c #0D374B",
"x 	c #0F3A50",
"y 	c #092C3E",
"z 	c #123A4F",
"A 	c #143547",
"B 	c #183645",
"C 	c #142E3B",
"D 	c #152B37",
"E 	c #152B36",
"F 	c #152934",
"G 	c #152731",
"H 	c #192D38",
"I 	c #1A2D37",
"J 	c #1B2D37",
"K 	c #182831",
"L 	c #18262E",
"M 	c #1C292F",
"N 	c #19242A",
"O 	c #1E2B31",
"P 	c #10171B",
"Q 	c #202D32",
"R 	c #1F2C31",
"S 	c #202E33",
"T 	c #202D33",
"U 	c #162025",
"V 	c #0F171A",
"W 	c #1B262B",
"X 	c #1B272C",
"Y 	c #1C282D",
"Z 	c #1C292E",
"` 	c #1D2B30",
" .	c #1D2B31",
"..	c #202E34",
"+.	c #1A272D",
"@.	c #213038",
"#.	c #1B292E",
"$.	c #1F2D34",
"%.	c #1F2F35",
"&.	c #1E2F36",
"*.	c #1F2F34",
"=.	c #213136",
"-.	c #203036",
";.	c #1F2F33",
">.	c #213237",
",.	c #1F2D32",
"'.	c #213035",
").	c #1D2A2F",
"!.	c #1C2A30",
"~.	c #1B282D",
"{.	c #1B292D",
"].	c #19262B",
"^.	c #1E2A2F",
"/.	c #182428",
"(.	c #182328",
"_.	c #172226",
":.	c #283A43",
"<.	c #2B3E47",
"[.	c #2C3F48",
"}.	c #2C4149",
"|.	c #283B43",
"1.	c #273A45",
"2.	c #263943",
"3.	c #263842",
"4.	c #1E2E36",
"5.	c #213541",
"6.	c #263E4A",
"7.	c #223C48",
"8.	c #29414E",
"9.	c #263F4B",
"0.	c #233C48",
"a.	c #264453",
"b.	c #284857",
"c.	c #274758",
"d.	c #26485A",
"e.	c #254A5E",
"f.	c #265066",
"g.	c #23546D",
"h.	c #20526C",
"i.	c #1B526C",
"j.	c #154C65",
"k.	c #1B5C79",
"l.	c #165773",
"m.	c #185975",
"n.	c #195C79",
"o.	c #185D7D",
"p.	c #185E7E",
"q.	c #176688",
"r.	c #156B8D",
"s.	c #166A8D",
"t.	c #146A8D",
"u.	c #1A6F92",
"v.	c #176E91",
"w.	c #126D8F",
"x.	c #126C8F",
"y.	c #157194",
"z.	c #147296",
"A.	c #14769B",
"B.	c #15779D",
"C.	c #237C9E",
"D.	c #0F6F91",
"E.	c #157699",
"F.	c #157396",
"G.	c #177396",
"H.	c #177698",
"I.	c #177498",
"J.	c #1A7295",
"K.	c #196C8F",
"L.	c #18698B",
"M.	c #1A688A",
"N.	c #186687",
"O.	c #176687",
"P.	c #146082",
"Q.	c #176384",
"R.	c #186283",
"S.	c #196080",
"T.	c #165E7D",
"U.	c #175D7B",
"V.	c #165976",
"W.	c #1B5C7A",
"X.	c #1B4F67",
"Y.	c #225C7A",
"Z.	c #21536C",
"`.	c #25546C",
" +	c #214A5F",
".+	c #22475A",
"++	c #214355",
"@+	c #224050",
"#+	c #243F4D",
"$+	c #274453",
"%+	c #284250",
"&+	c #294350",
"*+	c #283F4B",
"=+	c #283B45",
"-+	c #293C45",
";+	c #213138",
">+	c #314752",
",+	c #162127",
"'+	c #344851",
")+	c #213139",
"!+	c #283B44",
"~+	c #2C3E47",
"{+	c #2F424B",
"]+	c #2E414A",
"^+	c #2E424B",
"/+	c #2B3D45",
"(+	c #2D4049",
"_+	c #233138",
":+	c #2D3E47",
"<+	c #28383F",
"[+	c #2F414A",
"}+	c #2F434C",
"|+	c #2E434B",
"1+	c #2E434C",
"2+	c #32464F",
"3+	c #374D59",
"4+	c #30444E",
"5+	c #364D56",
"6+	c #344A54",
"7+	c #344B55",
"8+	c #354C57",
"9+	c #344A55",
"0+	c #314750",
"a+	c #38515B",
"b+	c #334852",
"c+	c #31464F",
"d+	c #31454E",
"e+	c #30434C",
"f+	c #31444D",
"g+	c #2E424C",
"h+	c #2A3B43",
"i+	c #2B3C46",
"j+	c #293A43",
"k+	c #273841",
"l+	c #26363E",
"m+	c #263840",
"n+	c #273840",
"o+	c #293B43",
"p+	c #202C30",
"q+	c #283840",
"r+	c #203138",
"s+	c #263C47",
"t+	c #2B3F48",
"u+	c #253B45",
"v+	c #233843",
"w+	c #243B46",
"x+	c #253E4A",
"y+	c #233F4E",
"z+	c #224252",
"A+	c #214252",
"B+	c #22485B",
"C+	c #1F475B",
"D+	c #1F4F67",
"E+	c #1D4F67",
"F+	c #154A62",
"G+	c #135978",
"H+	c #115E7F",
"I+	c #146384",
"J+	c #176484",
"K+	c #156282",
"L+	c #17688A",
"M+	c #176C90",
"N+	c #146D8F",
"O+	c #11698C",
"P+	c #116A8B",
"Q+	c #136B8E",
"R+	c #126C90",
"S+	c #126E91",
"T+	c #107093",
"U+	c #117194",
"V+	c #0F7296",
"W+	c #0E7397",
"X+	c #0C739A",
"Y+	c #0C759B",
"Z+	c #107CA1",
"`+	c #1283A7",
" @	c #0C7597",
".@	c #0E7B9F",
"+@	c #12779A",
"@@	c #0F7194",
"#@	c #107196",
"$@	c #126F94",
"%@	c #147093",
"&@	c #146F95",
"*@	c #156D90",
"=@	c #166B8E",
"-@	c #116789",
";@	c #166C8F",
">@	c #136A8E",
",@	c #14688B",
"'@	c #136788",
")@	c #126485",
"!@	c #156485",
"~@	c #166485",
"{@	c #166384",
"]@	c #165F7E",
"^@	c #1A5D7B",
"/@	c #1B526E",
"(@	c #1D5068",
"_@	c #225168",
":@	c #224B5F",
"<@	c #204253",
"[@	c #223F4E",
"}@	c #233E4C",
"|@	c #223D4B",
"1@	c #233D4A",
"2@	c #243E4A",
"3@	c #243944",
"4@	c #253740",
"5@	c #25363F",
"6@	c #2C4048",
"7@	c #263942",
"8@	c #142025",
"9@	c #28373E",
"0@	c #2A3C44",
"a@	c #293A42",
"b@	c #283A41",
"c@	c #2E3E44",
"d@	c #283A42",
"e@	c #28363C",
"f@	c #29383E",
"g@	c #2B3D46",
"h@	c #2D4048",
"i@	c #334750",
"j@	c #2F434B",
"k@	c #324750",
"l@	c #2C3F47",
"m@	c #2E4149",
"n@	c #2D3F47",
"o@	c #2C3E46",
"p@	c #2E414B",
"q@	c #2B3E46",
"r@	c #27373F",
"s@	c #25353D",
"t@	c #25363D",
"u@	c #25363E",
"v@	c #25353C",
"w@	c #283941",
"x@	c #26373F",
"y@	c #2A3C45",
"z@	c #213239",
"A@	c #273B45",
"B@	c #253841",
"C@	c #233944",
"D@	c #233A45",
"E@	c #233C49",
"F@	c #234151",
"G@	c #204354",
"H@	c #224D62",
"I@	c #1C465C",
"J@	c #1A455B",
"K@	c #1A4962",
"L@	c #165572",
"M@	c #0F5F83",
"N@	c #0E6A94",
"O@	c #0D6E98",
"P@	c #0E729D",
"Q@	c #0D719B",
"R@	c #0F749E",
"S@	c #0D749E",
"T@	c #1079A1",
"U@	c #0F79A2",
"V@	c #0E79A1",
"W@	c #0C7AA1",
"X@	c #0A7CA3",
"Y@	c #0981A8",
"Z@	c #0983AC",
"`@	c #0B83AB",
" #	c #0B85AE",
".#	c #0A83AC",
"+#	c #0B84AD",
"@#	c #0D88B0",
"##	c #128FB7",
"$#	c #1096BF",
"%#	c #0A85B0",
"&#	c #088BB7",
"*#	c #0985B1",
"=#	c #077BA7",
"-#	c #087AA6",
";#	c #0A7DAA",
">#	c #0980AE",
",#	c #0881B0",
"'#	c #0A7EAB",
")#	c #0A78A2",
"!#	c #0977A2",
"~#	c #0A739C",
"{#	c #0D739C",
"]#	c #0C6F97",
"^#	c #0C6E95",
"/#	c #0E6E95",
"(#	c #117199",
"_#	c #15719B",
":#	c #146C94",
"<#	c #0F5E81",
"[#	c #0F5979",
"}#	c #135371",
"|#	c #164A66",
"1#	c #1A4860",
"2#	c #1E4A60",
"3#	c #22495D",
"4#	c #244353",
"5#	c #24404F",
"6#	c #233D4B",
"7#	c #233A47",
"8#	c #253A45",
"9#	c #25373F",
"0#	c #263740",
"a#	c #253842",
"b#	c #142026",
"c#	c #344852",
"d#	c #2A3A42",
"e#	c #293B42",
"f#	c #233036",
"g#	c #314149",
"h#	c #2E3F47",
"i#	c #2A3D44",
"j#	c #2F424A",
"k#	c #32474F",
"l#	c #2F444D",
"m#	c #2F444C",
"n#	c #30444D",
"o#	c #30434D",
"p#	c #2E4049",
"q#	c #2F4149",
"r#	c #2D3F48",
"s#	c #26363D",
"t#	c #293940",
"u#	c #273B44",
"v#	c #233740",
"w#	c #243A45",
"x#	c #243B47",
"y#	c #233B47",
"z#	c #223C4A",
"A#	c #1F3E4D",
"B#	c #1F4151",
"C#	c #204557",
"D#	c #1E536B",
"E#	c #103F54",
"F#	c #085371",
"G#	c #034362",
"H#	c #016B97",
"I#	c #0182AE",
"J#	c #0284B0",
"K#	c #0280AB",
"L#	c #027EAA",
"M#	c #0283AD",
"N#	c #0284AD",
"O#	c #0285AE",
"P#	c #0285AF",
"Q#	c #0287B2",
"R#	c #028AB4",
"S#	c #0289B3",
"T#	c #028EB9",
"U#	c #0292BD",
"V#	c #0291BA",
"W#	c #0292BA",
"X#	c #0291B7",
"Y#	c #0292B8",
"Z#	c #0294BC",
"`#	c #028EBB",
" $	c #028CB8",
".$	c #0290BC",
"+$	c #0391BD",
"@$	c #0291BB",
"#$	c #028CB7",
"$$	c #028BB4",
"%$	c #028DB6",
"&$	c #028DB8",
"*$	c #028AB6",
"=$	c #018AB5",
"-$	c #0184B0",
";$	c #0181AF",
">$	c #017FAB",
",$	c #017DAB",
"'$	c #0177A4",
")$	c #025C88",
"!$	c #094B6C",
"~$	c #145977",
"{$	c #0D364C",
"]$	c #1F4D63",
"^$	c #244656",
"/$	c #234251",
"($	c #23404F",
"_$	c #213B47",
":$	c #233B48",
"<$	c #243A44",
"[$	c #263A45",
"}$	c #273942",
"|$	c #253741",
"1$	c #2A3E49",
"2$	c #121D23",
"3$	c #2C3D46",
"4$	c #293B44",
"5$	c #1F2C32",
"6$	c #293941",
"7$	c #2B3C44",
"8$	c #2D414A",
"9$	c #2E3F48",
"0$	c #2C3D44",
"a$	c #24343C",
"b$	c #273740",
"c$	c #2F414B",
"d$	c #273943",
"e$	c #22353F",
"f$	c #243842",
"g$	c #223641",
"h$	c #223843",
"i$	c #213843",
"j$	c #213C49",
"k$	c #1E3F50",
"l$	c #1E4456",
"m$	c #18536E",
"n$	c #09384E",
"o$	c #03658A",
"p$	c #015A83",
"q$	c #21C1D8",
"r$	c #4AD3E2",
"s$	c #4CD0E0",
"t$	c #48CFE0",
"u$	c #4ED1E3",
"v$	c #54D4E7",
"w$	c #5BD6E9",
"x$	c #57D5E7",
"y$	c #57D5E6",
"z$	c #59D5E8",
"A$	c #5CD5E7",
"B$	c #5CD7E8",
"C$	c #5ED7E8",
"D$	c #60D8E9",
"E$	c #5DD7EA",
"F$	c #5CD8EC",
"G$	c #6ADAEC",
"H$	c #6ADAEB",
"I$	c #62D8EB",
"J$	c #60D7E9",
"K$	c #68D9E8",
"L$	c #6ADDEB",
"M$	c #6CDBEC",
"N$	c #6BDBEB",
"O$	c #6BDBEC",
"P$	c #6ADAED",
"Q$	c #6CDAED",
"R$	c #71DCED",
"S$	c #6FDDED",
"T$	c #69DAEB",
"U$	c #6BD9EA",
"V$	c #6EDDED",
"W$	c #6DDFF0",
"X$	c #66DEF0",
"Y$	c #56DAED",
"Z$	c #53D7ED",
"`$	c #57D7ED",
" %	c #56D8EE",
".%	c #50D8ED",
"+%	c #48D5EB",
"@%	c #44D3E9",
"#%	c #43D2E7",
"$%	c #41CDE5",
"%%	c #1DB9DF",
"&%	c #085F81",
"*%	c #08536F",
"=%	c #073449",
"-%	c #1A5066",
";%	c #234556",
">%	c #214151",
",%	c #22404E",
"'%	c #233F4C",
")%	c #253944",
"!%	c #344850",
"~%	c #2A3B44",
"{%	c #2B3B43",
"]%	c #1F2B31",
"^%	c #283940",
"/%	c #243138",
"(%	c #2B3D44",
"_%	c #2B3C43",
":%	c #2E404A",
"<%	c #31454D",
"[%	c #324852",
"}%	c #30454E",
"|%	c #2F424C",
"1%	c #2C3D45",
"2%	c #26353C",
"3%	c #27363D",
"4%	c #2C3C43",
"5%	c #27373E",
"6%	c #23353E",
"7%	c #22353E",
"8%	c #233844",
"9%	c #243844",
"0%	c #213945",
"a%	c #203A47",
"b%	c #1E3A47",
"c%	c #203F50",
"d%	c #1F465A",
"e%	c #145877",
"f%	c #093C54",
"g%	c #076D92",
"h%	c #025A85",
"i%	c #24BFD7",
"j%	c #4ACBDC",
"k%	c #48CADC",
"l%	c #47CBDF",
"m%	c #4ECEE2",
"n%	c #55D0E5",
"o%	c #5BD2E5",
"p%	c #5AD2E5",
"q%	c #59D5E6",
"r%	c #5CD5E6",
"s%	c #5FD7E7",
"t%	c #5ED8E8",
"u%	c #61D8E9",
"v%	c #62D9E9",
"w%	c #63D9E9",
"x%	c #66DBE9",
"y%	c #6BDCE9",
"z%	c #6ADBE8",
"A%	c #69DCE9",
"B%	c #6BDDEA",
"C%	c #6FDDEA",
"D%	c #72DEEA",
"E%	c #73DFEC",
"F%	c #6DDEEC",
"G%	c #6DDDEB",
"H%	c #6EDDEC",
"I%	c #73E0EF",
"J%	c #76E1EF",
"K%	c #73DFED",
"L%	c #6DDDEC",
"M%	c #6FDEED",
"N%	c #67DDEE",
"O%	c #68DFEE",
"P%	c #66DEED",
"Q%	c #63DDEA",
"R%	c #63DBEA",
"S%	c #65DAEB",
"T%	c #5ED6E7",
"U%	c #5AD4E5",
"V%	c #5CD6E5",
"W%	c #61D6E5",
"X%	c #63D4E1",
"Y%	c #2FB9DA",
"Z%	c #0A6889",
"`%	c #075773",
" &	c #0A3448",
".&	c #1B4C62",
"+&	c #234150",
"@&	c #233D49",
"#&	c #233842",
"$&	c #24353E",
"%&	c #23343C",
"&&	c #283942",
"*&	c #25343B",
"=&	c #26343B",
"-&	c #223037",
";&	c #233239",
">&	c #24333A",
",&	c #2B3D47",
"'&	c #26353D",
")&	c #243239",
"!&	c #233137",
"~&	c #253339",
"{&	c #23323A",
"]&	c #23343D",
"^&	c #1E2D35",
"/&	c #20343D",
"(&	c #1A252A",
"_&	c #253943",
":&	c #223742",
"<&	c #203742",
"[&	c #1E3946",
"}&	c #1D3846",
"|&	c #1B3E51",
"1&	c #164660",
"2&	c #0A2E41",
"3&	c #054463",
"4&	c #064768",
"5&	c #037399",
"6&	c #027DA1",
"7&	c #0286A9",
"8&	c #028BB0",
"9&	c #028AB0",
"0&	c #018EB5",
"a&	c #0190B8",
"b&	c #0192B8",
"c&	c #0192B7",
"d&	c #0192B5",
"e&	c #0195B7",
"f&	c #0196B9",
"g&	c #0198BB",
"h&	c #0199B9",
"i&	c #0198B7",
"j&	c #019AB7",
"k&	c #019DBD",
"l&	c #019FC0",
"m&	c #01A1C3",
"n&	c #019EBF",
"o&	c #019BBA",
"p&	c #0199BA",
"q&	c #019ABD",
"r&	c #019DC1",
"s&	c #019BBD",
"t&	c #0297B9",
"u&	c #0198BF",
"v&	c #019AC0",
"w&	c #0199BD",
"x&	c #019ABE",
"y&	c #0198BE",
"z&	c #0192B9",
"A&	c #018FB6",
"B&	c #0291B9",
"C&	c #018FBA",
"D&	c #0189B3",
"E&	c #0283A9",
"F&	c #02749C",
"G&	c #0C5377",
"H&	c #084866",
"I&	c #0D3243",
"J&	c #1E4E65",
"K&	c #1E3F4F",
"L&	c #203F4E",
"M&	c #203946",
"N&	c #203844",
"O&	c #233742",
"P&	c #233640",
"Q&	c #243741",
"R&	c #22333B",
"S&	c #24353C",
"T&	c #25333A",
"U&	c #2B3A41",
"V&	c #212F36",
"W&	c #223138",
"X&	c #24343B",
"Y&	c #293A41",
"Z&	c #2D3E45",
"`&	c #2A3C43",
" *	c #25343C",
".*	c #212E34",
"+*	c #222F36",
"@*	c #26373E",
"#*	c #1F2E35",
"$*	c #2A3D47",
"%*	c #293C46",
"&*	c #263A43",
"**	c #243943",
"=*	c #223540",
"-*	c #1F3743",
";*	c #1F3B4A",
">*	c #1D3E4E",
",*	c #1C4E67",
"'*	c #113344",
")*	c #114560",
"!*	c #115374",
"~*	c #0F6085",
"{*	c #0F6C95",
"]*	c #0F75A2",
"^*	c #0A7CAD",
"/*	c #057EB0",
"(*	c #057AAA",
"_*	c #057EAE",
":*	c #0485B4",
"<*	c #068ABA",
"[*	c #058BBA",
"}*	c #058FBC",
"|*	c #0793C1",
"1*	c #0695C3",
"2*	c #0597C5",
"3*	c #039AC7",
"4*	c #039AC5",
"5*	c #029AC7",
"6*	c #039EC9",
"7*	c #03A1CE",
"8*	c #03A3D1",
"9*	c #04A4D3",
"0*	c #05A5D2",
"a*	c #02A3D0",
"b*	c #039FCC",
"c*	c #0199CA",
"d*	c #039BCC",
"e*	c #049ACA",
"f*	c #0797C6",
"g*	c #068EBD",
"h*	c #048EC0",
"i*	c #048ABD",
"j*	c #0389B9",
"k*	c #0287B7",
"l*	c #0387B7",
"m*	c #0485B6",
"n*	c #0586B7",
"o*	c #0282B3",
"p*	c #037FAF",
"q*	c #057FAF",
"r*	c #097AAB",
"s*	c #0A7AAA",
"t*	c #0C739E",
"u*	c #136C91",
"v*	c #136182",
"w*	c #165A7A",
"x*	c #134B67",
"y*	c #1D475D",
"z*	c #1D475C",
"A*	c #1D3F50",
"B*	c #224355",
"C*	c #213D4C",
"D*	c #213B48",
"E*	c #213845",
"F*	c #233741",
"G*	c #23363F",
"H*	c #29393F",
"I*	c #151F25",
"J*	c #30434B",
"K*	c #27363E",
"L*	c #27353C",
"M*	c #2A3A41",
"N*	c #233139",
"O*	c #223036",
"P*	c #24333B",
"Q*	c #2A3B42",
"R*	c #2C3C44",
"S*	c #2A3A43",
"T*	c #25353B",
"U*	c #26343C",
"V*	c #19262C",
"W*	c #131E24",
"X*	c #152228",
"Y*	c #19262D",
"Z*	c #18272E",
"`*	c #17262C",
" =	c #142229",
".=	c #122027",
"+=	c #12222A",
"@=	c #192C35",
"#=	c #0E2029",
"$=	c #0F2732",
"%=	c #0A212C",
"&=	c #0A2736",
"*=	c #113B50",
"==	c #0B415A",
"-=	c #06435F",
";=	c #054868",
">=	c #05486B",
",=	c #054565",
"'=	c #04425F",
")=	c #034564",
"!=	c #024A6A",
"~=	c #024C6C",
"{=	c #024D6E",
"]=	c #025071",
"^=	c #025677",
"/=	c #025678",
"(=	c #025576",
"_=	c #025878",
":=	c #015879",
"<=	c #015A7A",
"[=	c #025B7E",
"}=	c #025C80",
"|=	c #02587D",
"1=	c #025B7F",
"2=	c #025E82",
"3=	c #025779",
"4=	c #015477",
"5=	c #01587B",
"6=	c #015577",
"7=	c #025475",
"8=	c #025579",
"9=	c #02577C",
"0=	c #02567B",
"a=	c #025274",
"b=	c #015174",
"c=	c #025275",
"d=	c #035275",
"e=	c #045172",
"f=	c #024966",
"g=	c #034A6A",
"h=	c #034969",
"i=	c #03415D",
"j=	c #04374F",
"k=	c #053248",
"l=	c #07364C",
"m=	c #0B3244",
"n=	c #102D3A",
"o=	c #122B38",
"p=	c #10252F",
"q=	c #18303B",
"r=	c #12252E",
"s=	c #12232C",
"t=	c #132027",
"u=	c #162126",
"v=	c #182429",
"w=	c #1A262C",
"x=	c #152025",
"y=	c #19252B",
"z=	c #172328",
"A=	c #101A1F",
"B=	c #32454D",
"C=	c #28373F",
"D=	c #2A3941",
"E=	c #243339",
"F=	c #25333B",
"G=	c #253238",
"H=	c #25343A",
"I=	c #223137",
"J=	c #223139",
"K=	c #223239",
"L=	c #24343D",
"M=	c #1D2A30",
"N=	c #273D47",
"O=	c #24363D",
"P=	c #344F5B",
"Q=	c #334C59",
"R=	c #314956",
"S=	c #355260",
"T=	c #355261",
"U=	c #37586A",
"V=	c #365C71",
"W=	c #2D5B73",
"X=	c #2D5B72",
"Y=	c #285E76",
"Z=	c #276988",
"`=	c #2C7799",
" -	c #318DB2",
".-	c #2A8FB4",
"+-	c #1D779C",
"@-	c #1D7393",
"#-	c #1A7696",
"$-	c #2C90B2",
"%-	c #2592B7",
"&-	c #2596B9",
"*-	c #289EC1",
"=-	c #2BA6C9",
"--	c #2DABCF",
";-	c #2AA9CB",
">-	c #32B3D4",
",-	c #30B5D5",
"'-	c #2EB7D7",
")-	c #34BBD9",
"!-	c #47C0DB",
"~-	c #46BEDA",
"{-	c #47BBD8",
"]-	c #49BAD8",
"^-	c #4DBCD9",
"/-	c #44AFCA",
"(-	c #3495B1",
"_-	c #43B7D8",
":-	c #42B9DA",
"<-	c #3DB9DA",
"[-	c #36B7D8",
"}-	c #34B6D7",
"|-	c #3ABAD9",
"1-	c #36B7D6",
"2-	c #31B2D2",
"3-	c #28ACCC",
"4-	c #24A9CB",
"5-	c #25A8CA",
"6-	c #26A4C8",
"7-	c #289DC2",
"8-	c #2B96BA",
"9-	c #2A8DB0",
"0-	c #2B8EB3",
"a-	c #278BB1",
"b-	c #227BA0",
"c-	c #256986",
"d-	c #2F86A8",
"e-	c #2C7998",
"f-	c #2E7797",
"g-	c #357A98",
"h-	c #35667C",
"i-	c #31586A",
"j-	c #396277",
"k-	c #305161",
"l-	c #325363",
"m-	c #314E5D",
"n-	c #354B57",
"o-	c #364C57",
"p-	c #334752",
"q-	c #304651",
"r-	c #263841",
"s-	c #233339",
"t-	c #202C31",
"u-	c #2B3B42",
"v-	c #253239",
"w-	c #213037",
"x-	c #23333A",
"y-	c #23333B",
"z-	c #26363F",
"A-	c #23363E",
"B-	c #334953",
"C-	c #2B424D",
"D-	c #1D2C33",
"E-	c #2A414C",
"F-	c #28404B",
"G-	c #2C4653",
"H-	c #2E4C5A",
"I-	c #294858",
"J-	c #284655",
"K-	c #264A5C",
"L-	c #285368",
"M-	c #275367",
"N-	c #275266",
"O-	c #26586F",
"P-	c #26647F",
"Q-	c #246A87",
"R-	c #266781",
"S-	c #276D88",
"T-	c #247293",
"U-	c #217394",
"V-	c #227292",
"W-	c #207395",
"X-	c #207A9D",
"Y-	c #217FA4",
"Z-	c #1E81A5",
"`-	c #1C84A7",
" ;	c #1C8AAF",
".;	c #198CB0",
"+;	c #158BB0",
"@;	c #1492B9",
"#;	c #1596BC",
"$;	c #1797BD",
"%;	c #1094BA",
"&;	c #1095BA",
"*;	c #159BC1",
"=;	c #1792B9",
"-;	c #1994BC",
";;	c #1994BB",
">;	c #1891B8",
",;	c #168EB3",
"';	c #188FB5",
");	c #178CB2",
"!;	c #1988AF",
"~;	c #1A83A8",
"{;	c #1C80A3",
"];	c #1E7EA3",
"^;	c #1F7DA3",
"/;	c #1E779C",
"(;	c #207194",
"_;	c #237092",
":;	c #236D8D",
"<;	c #236C8B",
"[;	c #226786",
"};	c #216583",
"|;	c #1D4B61",
"1;	c #235A75",
"2;	c #255870",
"3;	c #27586F",
"4;	c #2B5569",
"5;	c #2D5162",
"6;	c #2B4D5D",
"7;	c #284452",
"8;	c #294653",
"9;	c #273F4A",
"0;	c #2D434F",
"a;	c #2B404B",
"b;	c #283D46",
"c;	c #2A3D46",
"d;	c #22323A",
"e;	c #152026",
"f;	c #1E2B32",
"g;	c #223038",
"h;	c #212F37",
"i;	c #24323A",
"j;	c #23343B",
"k;	c #26363C",
"l;	c #212E33",
"m;	c #233037",
"n;	c #243238",
"o;	c #22333A",
"p;	c #2C3B41",
"q;	c #2A3E47",
"r;	c #2B414B",
"s;	c #293F4A",
"t;	c #2E444F",
"u;	c #2B434F",
"v;	c #2E4854",
"w;	c #2D4855",
"x;	c #2C4B5A",
"y;	c #2C4B5B",
"z;	c #284958",
"A;	c #27495B",
"B;	c #295164",
"C;	c #264F61",
"D;	c #274F62",
"E;	c #275468",
"F;	c #295D75",
"G;	c #255E78",
"H;	c #2E6C87",
"I;	c #2B6E8B",
"J;	c #27708E",
"K;	c #257192",
"L;	c #237191",
"M;	c #257698",
"N;	c #237B9F",
"O;	c #227EA2",
"P;	c #2283A7",
"Q;	c #2187AC",
"R;	c #1D89AF",
"S;	c #1A8AB1",
"T;	c #198BB2",
"U;	c #1A92BA",
"V;	c #1692B9",
"W;	c #1492B8",
"X;	c #128EB3",
"Y;	c #1C93B5",
"Z;	c #2497B8",
"`;	c #1F88AA",
" >	c #1A8DB2",
".>	c #198EB4",
"+>	c #1789AE",
"@>	c #1686AB",
"#>	c #1987AD",
"$>	c #1B89B0",
"%>	c #1C86AC",
"&>	c #1D80A5",
"*>	c #1C7B9E",
"=>	c #2080A5",
"->	c #247FA4",
";>	c #24799D",
">>	c #277294",
",>	c #276C8B",
"'>	c #297091",
")>	c #276684",
"!>	c #2A6683",
"~>	c #225A74",
"{>	c #20495E",
"]>	c #25576E",
"^>	c #27576D",
"/>	c #27546A",
"(>	c #295368",
"_>	c #2C5063",
":>	c #274655",
"<>	c #2A4755",
"[>	c #26404C",
"}>	c #28414D",
"|>	c #2A434E",
"1>	c #2D424E",
"2>	c #2C424C",
"3>	c #2D414B",
"4>	c #141F23",
"5>	c #24363E",
"6>	c #25353E",
"7>	c #25343D",
"8>	c #283740",
"9>	c #1E2C32",
"0>	c #213036",
"a>	c #29383F",
"b>	c #1F2C33",
"c>	c #1E2E35",
"d>	c #203037",
"e>	c #2A3F49",
"f>	c #263A42",
"g>	c #3F6879",
"h>	c #2B4E5E",
"i>	c #2D4F60",
"j>	c #264958",
"k>	c #2A5163",
"l>	c #2B5467",
"m>	c #244E62",
"n>	c #29596E",
"o>	c #295B70",
"p>	c #356E87",
"q>	c #28657F",
"r>	c #1A3C4C",
"s>	c #1B4153",
"t>	c #1D4457",
"u>	c #1A455A",
"v>	c #1A485E",
"w>	c #215269",
"x>	c #1A5068",
"y>	c #19546F",
"z>	c #195873",
"A>	c #185A76",
"B>	c #175D79",
"C>	c #186987",
"D>	c #156A88",
"E>	c #146A88",
"F>	c #156F8E",
"G>	c #126D8C",
"H>	c #196D8A",
"I>	c #217D98",
"J>	c #1D738E",
"K>	c #0F5773",
"L>	c #187393",
"M>	c #1B7391",
"N>	c #1A6E8B",
"O>	c #186E8B",
"P>	c #196E8D",
"Q>	c #196887",
"R>	c #165B78",
"S>	c #155874",
"T>	c #165872",
"U>	c #185874",
"V>	c #134056",
"W>	c #164256",
"X>	c #163D50",
"Y>	c #183F54",
"Z>	c #193E51",
"`>	c #183646",
" ,	c #183545",
".,	c #193748",
"+,	c #1E3D4F",
"@,	c #2D627B",
"#,	c #2C5F77",
"$,	c #2D5D73",
"%,	c #2A586B",
"&,	c #2C566A",
"*,	c #2B5063",
"=,	c #284251",
"-,	c #305262",
";,	c #365765",
">,	c #324E5B",
",,	c #2B4551",
"',	c #2B434D",
"),	c #283C46",
"!,	c #2C404A",
"~,	c #212E35",
"{,	c #212F35",
"],	c #25323A",
"^,	c #26343A",
"/,	c #233238",
"(,	c #253439",
"_,	c #27363C",
":,	c #1D282E",
"<,	c #232F36",
"[,	c #243037",
"},	c #202F36",
"|,	c #1D2C34",
"1,	c #273A43",
"2,	c #253941",
"3,	c #2C444F",
"4,	c #2D4652",
"5,	c #334D5A",
"6,	c #2B4753",
"7,	c #0B1418",
"8,	c #0A141A",
"9,	c #0B151B",
"0,	c #0C161D",
"a,	c #0C1820",
"b,	c #0B161C",
"c,	c #0A151E",
"d,	c #09141B",
"e,	c #0C1B25",
"f,	c #0C1F2A",
"g,	c #08151D",
"h,	c #07151D",
"i,	c #0A1B26",
"j,	c #0A1D29",
"k,	c #091D29",
"l,	c #091E2B",
"m,	c #0A1F2D",
"n,	c #091F2D",
"o,	c #092130",
"p,	c #092131",
"q,	c #082333",
"r,	c #082434",
"s,	c #082637",
"t,	c #082738",
"u,	c #072537",
"v,	c #082739",
"w,	c #08283B",
"x,	c #082B3E",
"y,	c #08273A",
"z,	c #072638",
"A,	c #062437",
"B,	c #062336",
"C,	c #072436",
"D,	c #082233",
"E,	c #092231",
"F,	c #092230",
"G,	c #09202E",
"H,	c #081D2B",
"I,	c #091C28",
"J,	c #0A1C28",
"K,	c #0A1D28",
"L,	c #0A1C27",
"M,	c #08151F",
"N,	c #071119",
"O,	c #0A1822",
"P,	c #0A1922",
"Q,	c #0B1922",
"R,	c #0C171F",
"S,	c #0D181F",
"T,	c #0C161C",
"U,	c #0C141B",
"V,	c #0C141A",
"W,	c #0C151A",
"X,	c #0B1318",
"Y,	c #1C2F39",
"Z,	c #3C6071",
"`,	c #2A444E",
" '	c #293F49",
".'	c #2D424D",
"+'	c #2B3F49",
"@'	c #2C3F49",
"#'	c #2A3C46",
"$'	c #293C44",
"%'	c #1D292F",
"&'	c #152024",
"*'	c #1E2A31",
"='	c #11181C",
"-'	c #11181B",
";'	c #172227",
">'	c #141F24",
",'	c #172127",
"''	c #152126",
")'	c #19252A",
"!'	c #141E23",
"~'	c #090E10",
"{'	c #0B1113",
"]'	c #0B1013",
"^'	c #090F11",
"/'	c #080D0F",
"('	c #080C0F",
"_'	c #0C1114",
":'	c #0B0F11",
"<'	c #0C1215",
"['	c #0D1215",
"}'	c #0B1114",
"|'	c #0A1013",
"1'	c #0A0F12",
"2'	c #141D22",
"3'	c #1B272D",
"4'	c #172126",
"5'	c #182329",
"6'	c #192329",
"7'	c #172228",
"8'	c #202F35",
"9'	c #2C424D",
"0'	c #3A5159",
"a'	c #0E181E",
"b'	c #0D151A",
"c'	c #070B0E",
"d'	c #080F14",
"e'	c #0B1217",
"f'	c #0A1217",
"g'	c #091117",
"h'	c #09141C",
"i'	c #0A161F",
"j'	c #0A151D",
"k'	c #060E15",
"l'	c #07141D",
"m'	c #0A1B28",
"n'	c #091B27",
"o'	c #081823",
"p'	c #081A26",
"q'	c #081B27",
"r'	c #061924",
"s'	c #081D29",
"t'	c #081D2A",
"u'	c #091F2C",
"v'	c #071D2A",
"w'	c #09212F",
"x'	c #08212F",
"y'	c #081F2E",
"z'	c #071E2C",
"A'	c #081C29",
"B'	c #061A27",
"C'	c #081B28",
"D'	c #071A27",
"E'	c #081925",
"F'	c #061723",
"G'	c #081924",
"H'	c #07151F",
"I'	c #081822",
"J'	c #07131C",
"K'	c #071019",
"L'	c #071218",
"M'	c #060F16",
"N'	c #071219",
"O'	c #0A141B",
"P'	c #09131A",
"Q'	c #0A131A",
"R'	c #080F15",
"S'	c #080E14",
"T'	c #0A1015",
"U'	c #091013",
"V'	c #080E12",
"W'	c #1F343F",
"X'	c #375766",
"Y'	c #2A424D",
"Z'	c #2D404A",
"`'	c #2B3C45",
" )	c #1D2B32",
".)	c #233038",
"+)	c #151E23",
"@)	c #162329",
"#)	c #18242A",
"$)	c #172329",
"%)	c #162228",
"&)	c #162128",
"*)	c #18232A",
"=)	c #182229",
"-)	c #1B272E",
";)	c #1A252B",
">)	c #141D23",
",)	c #131A1E",
"')	c #172025",
"))	c #151D22",
"!)	c #161F25",
"~)	c #192126",
"{)	c #192227",
"])	c #1A2329",
"^)	c #182228",
"/)	c #151D21",
"()	c #121B1F",
"_)	c #10181C",
":)	c #375460",
"<)	c #36545E",
"[)	c #0D161C",
"})	c #0C161B",
"|)	c #091016",
"1)	c #04080C",
"2)	c #060B10",
"3)	c #050B10",
"4)	c #060B11",
"5)	c #060C12",
"6)	c #050C12",
"7)	c #040C12",
"8)	c #03080D",
"9)	c #050E16",
"0)	c #03080E",
"a)	c #040D14",
"b)	c #030E16",
"c)	c #041019",
"d)	c #04111A",
"e)	c #05121B",
"f)	c #05131D",
"g)	c #04131C",
"h)	c #03111C",
"i)	c #04141E",
"j)	c #04131E",
"k)	c #04151E",
"l)	c #03131D",
"m)	c #04141D",
"n)	c #051520",
"o)	c #051825",
"p)	c #051A27",
"q)	c #051925",
"r)	c #041520",
"s)	c #04141F",
"t)	c #04151F",
"u)	c #05141F",
"v)	c #03121C",
"w)	c #05131C",
"x)	c #04121B",
"y)	c #040F19",
"z)	c #040E16",
"A)	c #05111A",
"B)	c #05101A",
"C)	c #050F18",
"D)	c #03090F",
"E)	c #050D13",
"F)	c #040B11",
"G)	c #050C13",
"H)	c #050A0F",
"I)	c #050A0E",
"J)	c #05090E",
"K)	c #05080C",
"L)	c #0C1318",
"M)	c #0C1419",
"N)	c #1F333C",
"O)	c #3F5E6A",
"P)	c #2D454F",
"Q)	c #2C414B",
"R)	c #1D2A31",
"S)	c #202D34",
"T)	c #1A282F",
"U)	c #1F2D33",
"V)	c #162229",
"W)	c #172229",
"X)	c #18242B",
"Y)	c #19242B",
"Z)	c #0E1518",
"`)	c #0F1519",
" !	c #10181B",
".!	c #141E22",
"+!	c #1A2328",
"@!	c #1C262C",
"#!	c #182126",
"$!	c #172026",
"%!	c #182227",
"&!	c #1A242A",
"*!	c #161F24",
"=!	c #151E24",
"-!	c #111A1F",
";!	c #192429",
">!	c #2E3D44",
",!	c #2D3B41",
"'!	c #2C4049",
")!	c #334E5A",
"!!	c #2E4C58",
"~!	c #0E191D",
"{!	c #0D151B",
"]!	c #0E171C",
"^!	c #04070B",
"/!	c #050A0D",
"(!	c #060B0F",
"_!	c #060C11",
":!	c #040B0F",
"<!	c #050B0F",
"[!	c #051017",
"}!	c #040F16",
"|!	c #050F16",
"1!	c #051119",
"2!	c #05121A",
"3!	c #05131B",
"4!	c #04121C",
"5!	c #04131D",
"6!	c #061621",
"7!	c #010F19",
"8!	c #00101B",
"9!	c #02111B",
"0!	c #03121B",
"a!	c #03111B",
"b!	c #031019",
"c!	c #041018",
"d!	c #050D14",
"e!	c #040D13",
"f!	c #040B10",
"g!	c #040A0E",
"h!	c #04090D",
"i!	c #05090D",
"j!	c #020306",
"k!	c #060B0E",
"l!	c #0D161B",
"m!	c #0C1418",
"n!	c #202F34",
"o!	c #3C5C69",
"p!	c #2C434D",
"q!	c #2F3E45",
"r!	c #2D3D45",
"s!	c #2E3F46",
"t!	c #2C3B42",
"u!	c #27353B",
"v!	c #152027",
"w!	c #070C0F",
"x!	c #060A0D",
"y!	c #070C0D",
"z!	c #080E10",
"A!	c #090F12",
"B!	c #0B1214",
"C!	c #0C1214",
"D!	c #0C1216",
"E!	c #090D0F",
"F!	c #2C3B43",
"G!	c #1E2D32",
"H!	c #334952",
"I!	c #2F464D",
"J!	c #0F191F",
"K!	c #0C1519",
"L!	c #0D1419",
"M!	c #0B1116",
"N!	c #030508",
"O!	c #060C10",
"P!	c #070C10",
"Q!	c #070D12",
"R!	c #081015",
"S!	c #070E13",
"T!	c #060D12",
"U!	c #050D12",
"V!	c #050C11",
"W!	c #050E14",
"X!	c #061218",
"Y!	c #061219",
"Z!	c #06121A",
"`!	c #06131C",
" ~	c #05141D",
".~	c #05151F",
"+~	c #061620",
"@~	c #06151F",
"#~	c #071925",
"$~	c #071A26",
"%~	c #000E19",
"&~	c #051823",
"*~	c #061823",
"=~	c #06141D",
"-~	c #06131B",
";~	c #061119",
">~	c #061018",
",~	c #061017",
"'~	c #071016",
")~	c #070F14",
"!~	c #060D11",
"~~	c #070B0F",
"{~	c #030608",
"]~	c #05090C",
"^~	c #395766",
"/~	c #2A3D45",
"(~	c #33444C",
"_~	c #2B3B44",
":~	c #111B1F",
"<~	c #141F25",
"[~	c #1A262D",
"}~	c #19252C",
"|~	c #1A272E",
"1~	c #141E24",
"2~	c #1C2B32",
"3~	c #1B2930",
"4~	c #1D2C36",
"5~	c #1F2E37",
"6~	c #1E2D36",
"7~	c #20303A",
"8~	c #202F38",
"9~	c #21303A",
"0~	c #22313B",
"a~	c #223039",
"b~	c #222E34",
"c~	c #141D21",
"d~	c #1E2C33",
"e~	c #344D54",
"f~	c #0D1519",
"g~	c #0A1115",
"h~	c #040709",
"i~	c #070D11",
"j~	c #090E12",
"k~	c #070C0E",
"l~	c #0B1115",
"m~	c #0A1215",
"n~	c #091116",
"o~	c #091318",
"p~	c #081218",
"q~	c #09141A",
"r~	c #07121A",
"s~	c #07141C",
"t~	c #07161F",
"u~	c #071721",
"v~	c #071821",
"w~	c #071924",
"x~	c #081A25",
"y~	c #061925",
"z~	c #0A1E2C",
"A~	c #091D2B",
"B~	c #010E18",
"C~	c #081B26",
"D~	c #091C26",
"E~	c #0B1D27",
"F~	c #081821",
"G~	c #091B26",
"H~	c #091B25",
"I~	c #0A1A24",
"J~	c #091820",
"K~	c #08161E",
"L~	c #07141B",
"M~	c #07131B",
"N~	c #071217",
"O~	c #081117",
"P~	c #081116",
"Q~	c #071014",
"R~	c #081014",
"S~	c #090F13",
"T~	c #0A0E11",
"U~	c #090D10",
"V~	c #0E151A",
"W~	c #0D1418",
"X~	c #1F3037",
"Y~	c #384F59",
"Z~	c #2F4049",
"`~	c #2C3A41",
" {	c #0F161B",
".{	c #101A1E",
"+{	c #131C20",
"@{	c #162024",
"#{	c #151F24",
"${	c #172124",
"%{	c #0E1619",
"&{	c #0F171B",
"*{	c #0E171B",
"={	c #0F161A",
"-{	c #0E1519",
";{	c #10191E",
">{	c #0E161A",
",{	c #10171C",
"'{	c #11191E",
"){	c #10181D",
"!{	c #11191D",
"~{	c #0D1316",
"{{	c #151E22",
"]{	c #182327",
"^{	c #162124",
"/{	c #374E59",
"({	c #38525D",
"_{	c #0A1116",
":{	c #0A1014",
"<{	c #142128",
"[{	c #13232B",
"}{	c #15252F",
"|{	c #0D181E",
"1{	c #101E26",
"2{	c #11222C",
"3{	c #12242D",
"4{	c #122732",
"5{	c #152D3A",
"6{	c #142B39",
"7{	c #102935",
"8{	c #102B38",
"9{	c #133546",
"0{	c #143748",
"a{	c #143546",
"b{	c #13374A",
"c{	c #11374B",
"d{	c #10364B",
"e{	c #13394F",
"f{	c #0D2939",
"g{	c #0F485F",
"h{	c #113F52",
"i{	c #133B4C",
"j{	c #123546",
"k{	c #123749",
"l{	c #10303F",
"m{	c #102E3E",
"n{	c #112E3E",
"o{	c #112D3C",
"p{	c #122D3B",
"q{	c #152E3D",
"r{	c #162F3E",
"s{	c #132A35",
"t{	c #142832",
"u{	c #152933",
"v{	c #122129",
"w{	c #132129",
"x{	c #121D24",
"y{	c #0E171D",
"z{	c #131D23",
"A{	c #0E161B",
"B{	c #080D11",
"C{	c #080C10",
"D{	c #04070A",
"E{	c #0E1419",
"F{	c #0E1418",
"G{	c #374B54",
"H{	c #3B515B",
"I{	c #293840",
"J{	c #2D3E46",
"K{	c #374A52",
"L{	c #324650",
"M{	c #384D56",
"N{	c #364953",
"O{	c #354953",
"P{	c #394F5A",
"Q{	c #344751",
"R{	c #080D10",
"S{	c #03070A",
"T{	c #0B1215",
"U{	c #060A0C",
"V{	c #364D57",
"W{	c #334851",
"X{	c #344750",
"Y{	c #0F1619",
"Z{	c #05080B",
"`{	c #080E11",
" ]	c #0A0F13",
".]	c #16232A",
"+]	c #17272F",
"@]	c #182832",
"#]	c #1D333E",
"$]	c #101C23",
"%]	c #19313C",
"&]	c #132B37",
"*]	c #152F3C",
"=]	c #152F3D",
"-]	c #163443",
";]	c #163747",
">]	c #183C4F",
",]	c #133648",
"']	c #13394D",
")]	c #0F394D",
"!]	c #0F4056",
"~]	c #0D455E",
"{]	c #0A445E",
"]]	c #106283",
"^]	c #0A506E",
"/]	c #156E91",
"(]	c #082F44",
"_]	c #00101C",
":]	c #0E6380",
"<]	c #115770",
"[]	c #134E64",
"}]	c #164E66",
"|]	c #0F455D",
"1]	c #16465F",
"2]	c #16465E",
"3]	c #19475D",
"4]	c #153C4E",
"5]	c #193848",
"6]	c #1D3D4D",
"7]	c #1C3947",
"8]	c #1E3744",
"9]	c #1B323E",
"0]	c #182E39",
"a]	c #182A34",
"b]	c #162731",
"c]	c #192A33",
"d]	c #1B2B34",
"e]	c #17232A",
"f]	c #1B2830",
"g]	c #17242B",
"h]	c #141E25",
"i]	c #0D1317",
"j]	c #2C3C46",
"k]	c #283841",
"l]	c #2D4047",
"m]	c #31444E",
"n]	c #394F59",
"o]	c #364C56",
"p]	c #374F59",
"q]	c #39535E",
"r]	c #3B5662",
"s]	c #3B5661",
"t]	c #3B5864",
"u]	c #3C5A66",
"v]	c #3A5764",
"w]	c #3B5764",
"x]	c #3C5864",
"y]	c #435F69",
"z]	c #38505D",
"A]	c #39525E",
"B]	c #314651",
"C]	c #2E444E",
"D]	c #384F5B",
"E]	c #31454F",
"F]	c #2C3E45",
"G]	c #273941",
"H]	c #06080B",
"I]	c #0B1014",
"J]	c #141C21",
"K]	c #18272F",
"L]	c #1D303A",
"M]	c #0F1A20",
"N]	c #192D37",
"O]	c #182E3A",
"P]	c #1A3542",
"Q]	c #1B3948",
"R]	c #1A3B4B",
"S]	c #1C3F51",
"T]	c #183F53",
"U]	c #133E51",
"V]	c #13465F",
"W]	c #0F3E54",
"X]	c #14556F",
"Y]	c #105E7D",
"Z]	c #0E6485",
"`]	c #0D7096",
" ^	c #07516F",
".^	c #0A5574",
"+^	c #0D698E",
"@^	c #073044",
"#^	c #000D18",
"$^	c #0B6A8A",
"%^	c #125A73",
"&^	c #155269",
"*^	c #0D3A4C",
"=^	c #145E81",
"-^	c #14526E",
";^	c #124A63",
">^	c #14485E",
",^	c #0F2B38",
"'^	c #102D3B",
")^	c #122B37",
"!^	c #0D1F27",
"~^	c #0D1F28",
"{^	c #0E1F27",
"]^	c #0F1F26",
"^^	c #132127",
"/^	c #0E1A20",
"(^	c #0E1B20",
"_^	c #0E1920",
":^	c #0F1B21",
"<^	c #0D171C",
"[^	c #162026",
"}^	c #131B20",
"|^	c #091014",
"1^	c #070D10",
"2^	c #05090B",
"3^	c #0A1216",
"4^	c #334C57",
"5^	c #2C3D47",
"6^	c #2C3E48",
"7^	c #2E4048",
"8^	c #1D2A2E",
"9^	c #354A53",
"0^	c #2F454E",
"a^	c #2F464F",
"b^	c #30464F",
"c^	c #324A53",
"d^	c #344D57",
"e^	c #354D57",
"f^	c #2D424C",
"g^	c #030506",
"h^	c #121C20",
"i^	c #152128",
"j^	c #18252B",
"k^	c #1B2B33",
"l^	c #192932",
"m^	c #1B2D36",
"n^	c #15242B",
"o^	c #1F3643",
"p^	c #1C3441",
"q^	c #1E3947",
"r^	c #1F4355",
"s^	c #1C3F50",
"t^	c #1B4253",
"u^	c #1B485C",
"v^	c #1B475C",
"w^	c #174257",
"x^	c #134A63",
"y^	c #0F516A",
"z^	c #0F546F",
"A^	c #0F5672",
"B^	c #12779D",
"C^	c #075371",
"D^	c #0F6080",
"E^	c #0A6F97",
"F^	c #042E41",
"G^	c #000C14",
"H^	c #0C6C89",
"I^	c #13617B",
"J^	c #14546B",
"K^	c #093A4E",
"L^	c #0E6082",
"M^	c #134B63",
"N^	c #144E68",
"O^	c #15526D",
"P^	c #163C4E",
"Q^	c #183E50",
"R^	c #1D4253",
"S^	c #224557",
"T^	c #1C3D4D",
"U^	c #1E3B49",
"V^	c #1D3A47",
"W^	c #1E3845",
"X^	c #1D323B",
"Y^	c #1C303A",
"Z^	c #1B2E38",
"`^	c #192931",
" /	c #192830",
"./	c #111D22",
"+/	c #121A1D",
"@/	c #080C0E",
"#/	c #060A0E",
"$/	c #0D1319",
"%/	c #344F5A",
"&/	c #27383F",
"*/	c #2F4048",
"=/	c #2E424A",
"-/	c #2D424B",
";/	c #324751",
">/	c #2D4149",
",/	c #293C43",
"'/	c #293D46",
")/	c #283A44",
"!/	c #283C44",
"~/	c #0C1217",
"{/	c #152127",
"]/	c #1A2931",
"^/	c #1B2C35",
"//	c #1D2D34",
"(/	c #16242A",
"_/	c #172933",
":/	c #1B323D",
"</	c #1F3947",
"[/	c #1F3B49",
"}/	c #203E4C",
"|/	c #1E4253",
"1/	c #1C4558",
"2/	c #1D495D",
"3/	c #1B4A5E",
"4/	c #1B5067",
"5/	c #154B62",
"6/	c #10536C",
"7/	c #175771",
"8/	c #13546E",
"9/	c #11779E",
"0/	c #0A536F",
"a/	c #115F7E",
"b/	c #08729B",
"c/	c #052F42",
"d/	c #000B14",
"e/	c #0D6E8C",
"f/	c #13607B",
"g/	c #175B75",
"h/	c #0A4359",
"i/	c #0F678A",
"j/	c #174F67",
"k/	c #1E5974",
"l/	c #174F68",
"m/	c #133645",
"n/	c #1D4555",
"o/	c #21495C",
"p/	c #1F4455",
"q/	c #1E4150",
"r/	c #1F3845",
"s/	c #1D343F",
"t/	c #1B303B",
"u/	c #1B303A",
"v/	c #121C21",
"w/	c #1E2D34",
"x/	c #19272D",
"y/	c #121B20",
"z/	c #05080A",
"A/	c #0E151B",
"B/	c #36505D",
"C/	c #2E3F49",
"D/	c #334751",
"E/	c #32464E",
"F/	c #32454E",
"G/	c #354952",
"H/	c #2D3F46",
"I/	c #293942",
"J/	c #2D434D",
"K/	c #111B20",
"L/	c #16222A",
"M/	c #1A2A32",
"N/	c #21333C",
"O/	c #142127",
"P/	c #172932",
"Q/	c #1B323C",
"R/	c #1E3641",
"S/	c #203C49",
"T/	c #1E3E4C",
"U/	c #1F4354",
"V/	c #1E4558",
"W/	c #1E495D",
"X/	c #1D4A5E",
"Y/	c #1C4C61",
"Z/	c #1C566F",
"`/	c #18556D",
" (	c #175872",
".(	c #145F7E",
"+(	c #105978",
"@(	c #166F91",
"#(	c #0C4F69",
"$(	c #125B78",
"%(	c #0F82AB",
"&(	c #053145",
"*(	c #0D7393",
"=(	c #135F7B",
"-(	c #165870",
";(	c #0C4156",
">(	c #0E6C90",
",(	c #144F69",
"'(	c #154F69",
")(	c #13475D",
"!(	c #183E4E",
"~(	c #1E475A",
"{(	c #1E4557",
"](	c #1E4254",
"^(	c #1E3A48",
"/(	c #1F3946",
"((	c #1D3542",
"_(	c #1B2F39",
":(	c #1D303B",
"<(	c #1C2E37",
"[(	c #1F3039",
"}(	c #18252C",
"|(	c #121C22",
"1(	c #202E35",
"2(	c #0C1115",
"3(	c #050709",
"4(	c #324C58",
"5(	c #364B54",
"6(	c #33464F",
"7(	c #31434C",
"8(	c #364A53",
"9(	c #27393F",
"0(	c #2A3F48",
"a(	c #314852",
"b(	c #0B1216",
"c(	c #152229",
"d(	c #17262D",
"e(	c #172831",
"f(	c #1C313C",
"g(	c #1E333E",
"h(	c #1F3641",
"i(	c #223B48",
"j(	c #1E3D4C",
"k(	c #1E404F",
"l(	c #1D4C61",
"m(	c #1C4E63",
"n(	c #1B546B",
"o(	c #1A586F",
"p(	c #1C617D",
"q(	c #165E7C",
"r(	c #11536E",
"s(	c #1C6E90",
"t(	c #094B63",
"u(	c #115A76",
"v(	c #0E7FA9",
"w(	c #06344A",
"x(	c #000F19",
"y(	c #0D6C8B",
"z(	c #165E78",
"A(	c #19556D",
"B(	c #0A3A4C",
"C(	c #116282",
"D(	c #104C64",
"E(	c #124960",
"F(	c #184253",
"G(	c #1B475A",
"H(	c #1D4759",
"I(	c #1D4455",
"J(	c #1D4255",
"K(	c #1E4151",
"L(	c #1F3E4E",
"M(	c #1D3642",
"N(	c #1D3541",
"O(	c #1D323C",
"P(	c #1C2F38",
"Q(	c #1A272F",
"R(	c #141D24",
"S(	c #1A2830",
"T(	c #172128",
"U(	c #040608",
"V(	c #0D161A",
"W(	c #395460",
"X(	c #172327",
"Y(	c #31434B",
"Z(	c #18262D",
"`(	c #19272F",
" _	c #131E25",
"._	c #1D313C",
"+_	c #1F3F4D",
"@_	c #1F4253",
"#_	c #1D475A",
"$_	c #1E4C60",
"%_	c #1D5066",
"&_	c #1D546B",
"*_	c #1D566E",
"=_	c #1D617C",
"-_	c #1E6683",
";_	c #144F64",
">_	c #0F4155",
",_	c #0C4D65",
"'_	c #145F7C",
")_	c #0F7BA5",
"!_	c #063348",
"~_	c #00121C",
"{_	c #106C89",
"]_	c #195B73",
"^_	c #164D63",
"/_	c #0B394B",
"(_	c #064057",
"__	c #0C4356",
":_	c #18536B",
"<_	c #1E4E63",
"[_	c #1E4B5F",
"}_	c #1D485B",
"|_	c #1C4456",
"1_	c #1B4050",
"2_	c #1F3F4E",
"3_	c #1C3340",
"4_	c #1C333F",
"5_	c #1C2E38",
"6_	c #1C2D35",
"7_	c #1C2E36",
"8_	c #1D2E36",
"9_	c #030507",
"0_	c #2B4049",
"a_	c #233237",
"b_	c #3C545F",
"c_	c #2E4047",
"d_	c #32444B",
"e_	c #30424B",
"f_	c #32444D",
"g_	c #32444E",
"h_	c #31444C",
"i_	c #2A3E46",
"j_	c #314F5E",
"k_	c #2E4A57",
"l_	c #0F171C",
"m_	c #1B2931",
"n_	c #20333B",
"o_	c #17252D",
"p_	c #16262E",
"q_	c #192D36",
"r_	c #1E343F",
"s_	c #1E3643",
"t_	c #1F3D4B",
"u_	c #1E4354",
"v_	c #1F485B",
"w_	c #1E4A5E",
"x_	c #1E4D62",
"y_	c #1E5168",
"z_	c #1D526A",
"A_	c #1E566E",
"B_	c #1E5972",
"C_	c #1B5B76",
"D_	c #12536B",
"E_	c #167495",
"F_	c #10516B",
"G_	c #125773",
"H_	c #0F6E96",
"I_	c #063246",
"J_	c #01141F",
"K_	c #0E6984",
"L_	c #1A617B",
"M_	c #164A5D",
"N_	c #0C394B",
"O_	c #10516E",
"P_	c #175C77",
"Q_	c #1A5166",
"R_	c #1E4E62",
"S_	c #1E4B5E",
"T_	c #1E495C",
"U_	c #1E4454",
"V_	c #1C4152",
"W_	c #1D4050",
"X_	c #1F3F50",
"Y_	c #213E4E",
"Z_	c #1E3846",
"`_	c #1E3743",
" :	c #1C323D",
".:	c #1C313B",
"+:	c #1B2E36",
"@:	c #212C34",
"#:	c #314955",
"$:	c #304149",
"%:	c #32434D",
"&:	c #3B535F",
"*:	c #30424A",
"=:	c #32444C",
"-:	c #31434A",
";:	c #394D56",
">:	c #3A505A",
",:	c #364952",
"':	c #2E4148",
"):	c #21323A",
"!:	c #253840",
"~:	c #2D4752",
"{:	c #2B4653",
"]:	c #091115",
"^:	c #17252C",
"/:	c #19272E",
"(:	c #1E343E",
"_:	c #16252D",
"::	c #1E3440",
"<:	c #1F475A",
"[:	c #1F4B5E",
"}:	c #1E4F66",
"|:	c #1D5168",
"1:	c #1E546B",
"2:	c #1D556C",
"3:	c #1D6581",
"4:	c #146D8E",
"5:	c #0E3F55",
"6:	c #175069",
"7:	c #196D8F",
"8:	c #072F40",
"9:	c #01131D",
"0:	c #106B87",
"a:	c #184C60",
"b:	c #0B3949",
"c:	c #12668A",
"d:	c #16526C",
"e:	c #1B5066",
"f:	c #1D4B5F",
"g:	c #1F495B",
"h:	c #1F485A",
"i:	c #1F4556",
"j:	c #1C4253",
"k:	c #1D3C4C",
"l:	c #1E3745",
"m:	c #1D323E",
"n:	c #1E313B",
"o:	c #1D3039",
"p:	c #1B2E37",
"q:	c #0C151B",
"r:	c #355362",
"s:	c #324955",
"t:	c #304249",
"u:	c #354850",
"v:	c #33454D",
"w:	c #30434A",
"x:	c #30414A",
"y:	c #2C3C45",
"z:	c #2F4854",
"A:	c #29414D",
"B:	c #14232A",
"C:	c #16242C",
"D:	c #1C323B",
"E:	c #192C36",
"F:	c #1F3540",
"G:	c #1F3744",
"H:	c #1F3B48",
"I:	c #204151",
"J:	c #1E4455",
"K:	c #1E4B60",
"L:	c #1D4E63",
"M:	c #1E5065",
"N:	c #1F536A",
"O:	c #1E5167",
"P:	c #1D5167",
"Q:	c #1D5369",
"R:	c #1B536A",
"S:	c #1B7393",
"T:	c #10445B",
"U:	c #1A556F",
"V:	c #145978",
"W:	c #0A2B39",
"X:	c #00111B",
"Y:	c #146883",
"Z:	c #1A5871",
"`:	c #19546C",
" <	c #093D50",
".<	c #15526C",
"+<	c #144051",
"@<	c #1B4F65",
"#<	c #1C4B5F",
"$<	c #1E485C",
"%<	c #1C3F4F",
"&<	c #1E3D4D",
"*<	c #1F3A47",
"=<	c #1C323E",
"-<	c #1D333F",
";<	c #1D313A",
"><	c #1D2F39",
",<	c #1A282E",
"'<	c #030406",
")<	c #345362",
"!<	c #3E5A6A",
"~<	c #2F4047",
"{<	c #2F4249",
"]<	c #364951",
"^<	c #2E3E46",
"/<	c #2B404A",
"(<	c #293E47",
"_<	c #304B56",
":<	c #29434E",
"<<	c #080F13",
"[<	c #0C1116",
"}<	c #122128",
"|<	c #1F333F",
"1<	c #1E3844",
"2<	c #213E4C",
"3<	c #20404F",
"4<	c #1F4454",
"5<	c #20485A",
"6<	c #1F4E62",
"7<	c #1F5066",
"8<	c #1D4E64",
"9<	c #1C5268",
"0<	c #206883",
"a<	c #11475F",
"b<	c #1A5A75",
"c<	c #185F7E",
"d<	c #0C2834",
"e<	c #166077",
"f<	c #1F5870",
"g<	c #13465A",
"h<	c #155068",
"i<	c #194F65",
"j<	c #1C4E64",
"k<	c #1E4659",
"l<	c #1D4354",
"m<	c #1D4153",
"n<	c #1D4051",
"o<	c #1D3948",
"p<	c #1D3743",
"q<	c #1D3440",
"r<	c #1E333D",
"s<	c #1E303A",
"t<	c #1D2E37",
"u<	c #1D2D35",
"v<	c #0F181C",
"w<	c #1B2B32",
"x<	c #345160",
"y<	c #425D6E",
"z<	c #2F4148",
"A<	c #2C414A",
"B<	c #2A3E48",
"C<	c #304B57",
"D<	c #2A4652",
"E<	c #192F38",
"F<	c #1C303B",
"G<	c #1E3642",
"H<	c #203C48",
"I<	c #1F3C49",
"J<	c #1F4353",
"K<	c #1F4152",
"L<	c #1F495C",
"M<	c #1E4D61",
"N<	c #1E5066",
"O<	c #1C4F64",
"P<	c #1A4E63",
"Q<	c #13485E",
"R<	c #1B5771",
"S<	c #195F7D",
"T<	c #0C2734",
"U<	c #01080E",
"V<	c #16586F",
"W<	c #1C536A",
"X<	c #1D536B",
"Y<	c #124256",
"Z<	c #144B61",
"`<	c #18495E",
" [	c #1C4B60",
".[	c #1F4A5D",
"+[	c #1D4355",
"@[	c #1D3F4F",
"#[	c #1D3B4A",
"$[	c #1E3540",
"%[	c #1E3541",
"&[	c #1F353F",
"*[	c #1F323C",
"=[	c #1E3039",
"-[	c #1C2C34",
";[	c #111C21",
">[	c #16252C",
",[	c #141F26",
"'[	c #0E181D",
")[	c #345261",
"![	c #344D5A",
"~[	c #384B53",
"{[	c #26353B",
"][	c #304048",
"^[	c #314E5A",
"/[	c #294753",
"([	c #0D1217",
"_[	c #15242C",
":[	c #1D3B47",
"<[	c #1A2E38",
"[[	c #203B49",
"}[	c #1F4456",
"|[	c #20485B",
"1[	c #1F4D61",
"2[	c #1D4E62",
"3[	c #225870",
"4[	c #144258",
"5[	c #166A88",
"6[	c #175A75",
"7[	c #257090",
"8[	c #0D2B39",
"9[	c #01080F",
"0[	c #18566E",
"a[	c #1A4D63",
"b[	c #1C4F66",
"c[	c #154052",
"d[	c #134458",
"e[	c #143A4A",
"f[	c #1C4758",
"g[	c #1F4657",
"h[	c #1E4355",
"i[	c #1D404F",
"j[	c #1D3E4D",
"k[	c #1F343E",
"l[	c #1F323B",
"m[	c #1F313A",
"n[	c #1A2A31",
"o[	c #111C22",
"p[	c #1A2930",
"q[	c #151F26",
"r[	c #020405",
"s[	c #0D171B",
"t[	c #345668",
"u[	c #2D414C",
"v[	c #2E4249",
"w[	c #384C54",
"x[	c #314954",
"y[	c #345260",
"z[	c #284856",
"A[	c #15252D",
"B[	c #16262D",
"C[	c #172730",
"D[	c #1A3743",
"E[	c #14232C",
"F[	c #1A2E39",
"G[	c #1D323D",
"H[	c #1F3A48",
"I[	c #203D4A",
"J[	c #1F4658",
"K[	c #1E4658",
"L[	c #1F485C",
"M[	c #1C4C60",
"N[	c #173E50",
"O[	c #1A5970",
"P[	c #124D63",
"Q[	c #1A6C8B",
"R[	c #185D76",
"S[	c #082230",
"T[	c #000206",
"U[	c #26627A",
"V[	c #18485C",
"W[	c #1A4A5F",
"X[	c #153D4F",
"Y[	c #144257",
"Z[	c #1C475B",
"`[	c #1E4657",
" }	c #1D3D4C",
".}	c #20343E",
"+}	c #18252D",
"@}	c #305463",
"#}	c #2D434E",
"$}	c #36515E",
"%}	c #384B54",
"&}	c #2E3E47",
"*}	c #28363E",
"=}	c #293B45",
"-}	c #324F5B",
";}	c #294857",
">}	c #0F181D",
",}	c #0A0E12",
"'}	c #15262F",
")}	c #14232B",
"!}	c #192E38",
"~}	c #192E39",
"{}	c #1D3540",
"]}	c #1F404F",
"^}	c #1E4556",
"/}	c #1F4A5E",
"(}	c #1E4D60",
"_}	c #194050",
":}	c #14475D",
"<}	c #144458",
"[}	c #106E8A",
"}}	c #031827",
"|}	c #20576B",
"1}	c #256076",
"2}	c #124054",
"3}	c #184558",
"4}	c #133545",
"5}	c #1C4A5D",
"6}	c #1C4556",
"7}	c #1D4152",
"8}	c #1E4051",
"9}	c #1F3C4A",
"0}	c #1F333E",
"a}	c #1D2F37",
"b}	c #090E11",
"c}	c #355767",
"d}	c #2E434D",
"e}	c #354F5B",
"f}	c #354853",
"g}	c #2B3E45",
"h}	c #26353E",
"i}	c #263B44",
"j}	c #35525F",
"k}	c #294A58",
"l}	c #10191F",
"m}	c #16272F",
"n}	c #162831",
"o}	c #1A3946",
"p}	c #14242C",
"q}	c #182D36",
"r}	c #214758",
"s}	c #1E4759",
"t}	c #1F4C5F",
"u}	c #1B4354",
"v}	c #184B61",
"w}	c #144357",
"x}	c #0C6881",
"y}	c #010B13",
"z}	c #06212F",
"A}	c #1E6379",
"B}	c #164B60",
"C}	c #14455B",
"D}	c #1E4F65",
"E}	c #163946",
"F}	c #1B4557",
"G}	c #1E4152",
"H}	c #203F4F",
"I}	c #213F4E",
"J}	c #223F4D",
"K}	c #1E313C",
"L}	c #1C2B33",
"M}	c #365767",
"N}	c #364F5B",
"O}	c #2F5360",
"P}	c #355F6F",
"Q}	c #315C6B",
"R}	c #284853",
"S}	c #2C4D57",
"T}	c #36606E",
"U}	c #396775",
"V}	c #33515A",
"W}	c #335763",
"X}	c #2C424B",
"Y}	c #33606C",
"Z}	c #2C4954",
"`}	c #31606F",
" |	c #31606E",
".|	c #2E5E6C",
"+|	c #2C5C6B",
"@|	c #2D5360",
"#|	c #26343D",
"$|	c #283D45",
"%|	c #2D4F5B",
"&|	c #2D3D43",
"*|	c #35505C",
"=|	c #264451",
"-|	c #1C3A46",
";|	c #182C35",
">|	c #1B2F3A",
",|	c #203D4C",
"'|	c #214050",
")|	c #1E4353",
"!|	c #204859",
"~|	c #1B4F64",
"{|	c #174255",
"]|	c #0A6982",
"^|	c #01070C",
"/|	c #030F17",
"(|	c #16485C",
"_|	c #1B4B5E",
":|	c #17475C",
"<|	c #19465A",
"[|	c #163947",
"}|	c #1C4355",
"||	c #1F4051",
"1|	c #1F3D4D",
"2|	c #203C4A",
"3|	c #1E323B",
"4|	c #1E2F37",
"5|	c #355564",
"6|	c #364E59",
"7|	c #3A7384",
"8|	c #2E5764",
"9|	c #2C5561",
"0|	c #396E7E",
"a|	c #263D46",
"b|	c #376A78",
"c|	c #2E5662",
"d|	c #36626E",
"e|	c #3E7383",
"f|	c #34616F",
"g|	c #273A42",
"h|	c #29424B",
"i|	c #357281",
"j|	c #2B4752",
"k|	c #305B68",
"l|	c #356D7D",
"m|	c #30606F",
"n|	c #2A5563",
"o|	c #326475",
"p|	c #27424C",
"q|	c #2E5E6D",
"r|	c #2A404A",
"s|	c #304854",
"t|	c #284552",
"u|	c #16272E",
"v|	c #1B3744",
"w|	c #15232B",
"x|	c #1F3844",
"y|	c #1F3E4C",
"z|	c #204050",
"A|	c #204150",
"B|	c #1F4150",
"C|	c #1E4050",
"D|	c #1F4050",
"E|	c #1F4555",
"F|	c #183A49",
"G|	c #1C495C",
"H|	c #1B4356",
"I|	c #135F77",
"J|	c #02090F",
"K|	c #040F17",
"L|	c #163E50",
"M|	c #1B4656",
"N|	c #174659",
"O|	c #194558",
"P|	c #1F5168",
"Q|	c #153442",
"R|	c #1B3F4F",
"S|	c #1B3C4B",
"T|	c #1E3C4B",
"U|	c #1D313B",
"V|	c #1F313B",
"W|	c #1E2F39",
"X|	c #1E2E37",
"Y|	c #101B20",
"Z|	c #1B2D35",
"`|	c #355463",
" 1	c #364E5B",
".1	c #2E515C",
"+1	c #305563",
"@1	c #2F525F",
"#1	c #253E47",
"$1	c #387282",
"%1	c #253B43",
"&1	c #263C45",
"*1	c #376D7B",
"=1	c #356170",
"-1	c #29414A",
";1	c #346D7D",
">1	c #293E45",
",1	c #30606C",
"'1	c #2C4D58",
")1	c #25383F",
"!1	c #336171",
"~1	c #2D4D58",
"{1	c #2D505C",
"]1	c #2B5767",
"^1	c #2C434E",
"/1	c #283C45",
"(1	c #324C57",
"_1	c #264250",
":1	c #16252E",
"<1	c #19333F",
"[1	c #182B35",
"}1	c #1B2E39",
"|1	c #1E323D",
"11	c #1E3742",
"21	c #1E3A46",
"31	c #1F3D4C",
"41	c #1F3F4F",
"51	c #1F4252",
"61	c #1E4252",
"71	c #1F4352",
"81	c #163442",
"91	c #1B3F50",
"01	c #205167",
"a1	c #163948",
"b1	c #1E4452",
"c1	c #1A4556",
"d1	c #1D4A5D",
"e1	c #286078",
"f1	c #163745",
"g1	c #1B3C4C",
"h1	c #1D3744",
"i1	c #1F3A49",
"j1	c #1F3742",
"k1	c #1D343E",
"l1	c #1B2A32",
"m1	c #1C2931",
"n1	c #385361",
"o1	c #374E5B",
"p1	c #243137",
"q1	c #2B4B56",
"r1	c #315F6D",
"s1	c #346677",
"t1	c #376C83",
"u1	c #25434F",
"v1	c #377182",
"w1	c #233942",
"x1	c #213842",
"y1	c #336978",
"z1	c #356270",
"A1	c #273C44",
"B1	c #294049",
"C1	c #336576",
"D1	c #2C5C68",
"E1	c #284953",
"F1	c #24373E",
"G1	c #316678",
"H1	c #2E5562",
"I1	c #315B69",
"J1	c #2A5666",
"K1	c #324B56",
"L1	c #25414D",
"M1	c #0B1316",
"N1	c #1C3742",
"O1	c #1B313C",
"P1	c #1D3C4B",
"Q1	c #214353",
"R1	c #163441",
"S1	c #1B3E4E",
"T1	c #214C60",
"U1	c #040E15",
"V1	c #193B49",
"W1	c #1E4352",
"X1	c #183E4D",
"Y1	c #1F4859",
"Z1	c #1F4656",
"`1	c #214A5C",
" 2	c #2D6278",
".2	c #1A3845",
"+2	c #1C3A48",
"@2	c #1E323C",
"#2	c #0B1218",
"$2	c #354F5A",
"%2	c #2F434D",
"&2	c #3B6472",
"*2	c #397389",
"=2	c #233E48",
"-2	c #376A79",
";2	c #243A43",
">2	c #233A43",
",2	c #326979",
"'2	c #366A7A",
")2	c #263C44",
"!2	c #386B7B",
"~2	c #2D606B",
"{2	c #294953",
"]2	c #24373F",
"^2	c #2E5A69",
"/2	c #2D5968",
"(2	c #344C57",
"_2	c #26404A",
":2	c #0A1114",
"<2	c #0A0F14",
"[2	c #182A32",
"}2	c #1D3742",
"|2	c #192B35",
"12	c #1C313D",
"22	c #1E3C4A",
"32	c #214251",
"42	c #183541",
"52	c #1C3C4B",
"62	c #193745",
"72	c #204758",
"82	c #051016",
"92	c #1B3F4E",
"02	c #1E4656",
"a2	c #1C4151",
"b2	c #1F4557",
"c2	c #204555",
"d2	c #204656",
"e2	c #23495C",
"f2	c #2B5A6F",
"g2	c #1B3642",
"h2	c #1D3643",
"i2	c #1D3038",
"j2	c #1D2D36",
"k2	c #1B2A31",
"l2	c #243841",
"m2	c #3D525D",
"n2	c #1B292F",
"o2	c #3A5460",
"p2	c #396271",
"q2	c #3C6C7D",
"r2	c #396778",
"s2	c #325763",
"t2	c #25373E",
"u2	c #355D69",
"v2	c #3B6C7B",
"w2	c #3F7182",
"x2	c #30545F",
"y2	c #325E6B",
"z2	c #326573",
"A2	c #366776",
"B2	c #2C4952",
"C2	c #356673",
"D2	c #2E4E59",
"E2	c #2E5260",
"F2	c #223238",
"G2	c #283B42",
"H2	c #324E59",
"I2	c #15272E",
"J2	c #172830",
"K2	c #17272E",
"L2	c #172931",
"M2	c #1B333D",
"N2	c #132229",
"O2	c #182933",
"P2	c #1F3D4A",
"Q2	c #1B3846",
"R2	c #1A3948",
"S2	c #03080C",
"T2	c #173847",
"U2	c #1C4050",
"V2	c #1A3C4B",
"W2	c #214555",
"X2	c #264D5E",
"Y2	c #234351",
"Z2	c #1A343F",
"`2	c #1C3541",
" 3	c #1E333C",
".3	c #1D2F38",
"+3	c #1E2F38",
"@3	c #131D22",
"#3	c #466676",
"$3	c #2B3E48",
"%3	c #334955",
"&3	c #30444C",
"*3	c #213137",
"=3	c #263940",
"-3	c #263941",
";3	c #263A41",
">3	c #22343A",
",3	c #24353D",
"'3	c #365564",
")3	c #1F3842",
"!3	c #17262E",
"~3	c #18282F",
"{3	c #182830",
"]3	c #1C3540",
"^3	c #1C2F3A",
"/3	c #1C303C",
"(3	c #1C333E",
"_3	c #1D3745",
":3	c #1A3644",
"<3	c #1C3F4E",
"[3	c #183643",
"}3	c #244B5C",
"|3	c #20404E",
"13	c #1E3D4B",
"23	c #254656",
"33	c #2C4B59",
"43	c #1B333E",
"53	c #203743",
"63	c #1F3541",
"73	c #1F3440",
"83	c #0C1317",
"93	c #345364",
"03	c #2A424F",
"a3	c #2C3F46",
"b3	c #33474F",
"c3	c #273940",
"d3	c #27363F",
"e3	c #19272C",
"f3	c #26373D",
"g3	c #284553",
"h3	c #284755",
"i3	c #1C343F",
"j3	c #132128",
"k3	c #203B48",
"l3	c #18323E",
"m3	c #1B3A48",
"n3	c #193542",
"o3	c #03090D",
"p3	c #0F1E25",
"q3	c #284F63",
"r3	c #203F4D",
"s3	c #203E4B",
"t3	c #264756",
"u3	c #284A5A",
"v3	c #1B313B",
"w3	c #1F3642",
"x3	c #213743",
"y3	c #1F343D",
"z3	c #1F333D",
"A3	c #1B2F38",
"B3	c #0C1316",
"C3	c #2E4A58",
"D3	c #2B414C",
"E3	c #273C45",
"F3	c #283E4A",
"G3	c #253942",
"H3	c #374A53",
"I3	c #2B3D43",
"J3	c #3A5361",
"K3	c #2F4855",
"L3	c #294451",
"M3	c #0F181E",
"N3	c #1A2C36",
"O3	c #192B34",
"P3	c #1F3945",
"Q3	c #203A48",
"R3	c #284757",
"S3	c #1C323C",
"T3	c #1A3745",
"U3	c #2D4E5D",
"V3	c #020508",
"W3	c #0C181D",
"X3	c #294E62",
"Y3	c #1A303C",
"Z3	c #203D4B",
"`3	c #203A46",
" 4	c #21343F",
".4	c #1E313A",
"+4	c #1E2C34",
"@4	c #2D4754",
"#4	c #2D4450",
"$4	c #374B53",
"%4	c #283F49",
"&4	c #243A42",
"*4	c #253C45",
"=4	c #273D46",
"-4	c #253B44",
";4	c #36505B",
">4	c #1F2E36",
",4	c #2A4049",
"'4	c #2A434F",
")4	c #27414D",
"!4	c #0F171D",
"~4	c #0B1317",
"{4	c #192930",
"]4	c #1E333F",
"^4	c #1A2B35",
"/4	c #1F323D",
"(4	c #1F3A46",
"_4	c #1E3A49",
":4	c #142831",
"<4	c #1C3D4C",
"[4	c #234655",
"}4	c #020507",
"|4	c #1C3846",
"14	c #234859",
"24	c #192F39",
"34	c #1E3B48",
"44	c #1D3845",
"54	c #2A4754",
"64	c #1D3139",
"74	c #1C2C35",
"84	c #324D5C",
"94	c #293E48",
"04	c #364B56",
"a4	c #325E6C",
"b4	c #367182",
"c4	c #39788A",
"d4	c #3A798C",
"e4	c #376D80",
"f4	c #3C778A",
"g4	c #397282",
"h4	c #387183",
"i4	c #2E4550",
"j4	c #2A4351",
"k4	c #26404D",
"l4	c #0B1419",
"m4	c #122028",
"n4	c #254351",
"o4	c #2A4B58",
"p4	c #1B343F",
"q4	c #244251",
"r4	c #172B35",
"s4	c #203744",
"t4	c #2A4857",
"u4	c #1F3640",
"v4	c #2C4756",
"w4	c #354B55",
"x4	c #377284",
"y4	c #38788A",
"z4	c #367384",
"A4	c #357385",
"B4	c #2B5868",
"C4	c #35697C",
"D4	c #366C7F",
"E4	c #386F81",
"F4	c #3A7284",
"G4	c #3B7283",
"H4	c #2E5462",
"I4	c #273F48",
"J4	c #2B4451",
"K4	c #0D1318",
"L4	c #182730",
"M4	c #1D3947",
"N4	c #223E4D",
"O4	c #213D4B",
"P4	c #254150",
"Q4	c #1A313C",
"R4	c #1C3845",
"S4	c #1E333B",
"T4	c #010303",
"U4	c #24404D",
"V4	c #203845",
"W4	c #213742",
"X4	c #1A2A33",
"Y4	c #17242A",
"Z4	c #2B4553",
"`4	c #374D58",
" 5	c #33464E",
".5	c #356E7F",
"+5	c #367183",
"@5	c #377485",
"#5	c #367485",
"$5	c #346E7E",
"%5	c #2E5664",
"&5	c #366A7E",
"*5	c #376F81",
"=5	c #376E7F",
"-5	c #366F80",
";5	c #346B7C",
">5	c #346C7D",
",5	c #243740",
"'5	c #1D2F36",
")5	c #2B424C",
"!5	c #2C4450",
"~5	c #28434D",
"{5	c #111E25",
"]5	c #1B2C36",
"^5	c #1D3644",
"/5	c #1C3744",
"(5	c #213C4A",
"_5	c #294A5B",
":5	c #142A35",
"<5	c #010204",
"[5	c #28414E",
"}5	c #182C37",
"|5	c #162730",
"15	c #1B2A33",
"25	c #1C2A32",
"35	c #19262E",
"45	c #1E3038",
"55	c #2A3F4A",
"65	c #334A55",
"75	c #364C58",
"85	c #346D7F",
"95	c #32697A",
"05	c #367081",
"a5	c #2A4048",
"b5	c #2C4853",
"c5	c #38697A",
"d5	c #356C7C",
"e5	c #336A7B",
"f5	c #1F2F37",
"g5	c #2B424E",
"h5	c #243B45",
"i5	c #0F1920",
"j5	c #0A1317",
"k5	c #111F26",
"l5	c #182B34",
"m5	c #1A2C35",
"n5	c #1C3440",
"o5	c #1B3440",
"p5	c #1C3642",
"q5	c #1B3542",
"r5	c #172A33",
"s5	c #223C49",
"t5	c #081115",
"u5	c #010203",
"v5	c #243D4A",
"w5	c #1B3340",
"x5	c #263741",
"y5	c #334954",
"z5	c #316979",
"A5	c #31697A",
"B5	c #316878",
"C5	c #2C5662",
"D5	c #28393F",
"E5	c #2D4F5C",
"F5	c #2D5866",
"G5	c #305F6D",
"H5	c #2F6070",
"I5	c #354B56",
"J5	c #1C2C32",
"K5	c #273C46",
"L5	c #19303B",
"M5	c #060E12",
"N5	c #010304",
"O5	c #0F1C22",
"P5	c #1B333F",
"Q5	c #16262F",
"R5	c #05070A",
"S5	c #283C47",
"T5	c #334853",
"U5	c #243136",
"V5	c #356F81",
"W5	c #316879",
"X5	c #2E5966",
"Y5	c #28363D",
"Z5	c #26353A",
"`5	c #2F4C5B",
" 6	c #2B4856",
".6	c #192831",
"+6	c #1A2B34",
"@6	c #1C2D37",
"#6	c #1D3641",
"$6	c #192D39",
"%6	c #15262E",
"&6	c #050B0E",
"*6	c #020406",
"=6	c #0F1B22",
"-6	c #1E3340",
";6	c #1B323F",
">6	c #04080A",
",6	c #35515E",
"'6	c #304855",
")6	c #233136",
"!6	c #263B43",
"~6	c #316778",
"{6	c #326A7B",
"]6	c #336B7C",
"^6	c #346675",
"/6	c #304F5A",
"(6	c #2E4E5A",
"_6	c #2E4E58",
":6	c #2C4852",
"<6	c #2C4752",
"[6	c #283E47",
"}6	c #294453",
"|6	c #111B22",
"16	c #121E25",
"26	c #182932",
"36	c #1B2D38",
"46	c #1C313E",
"56	c #1D3340",
"66	c #13232C",
"76	c #1C2B34",
"86	c #0E161C",
"96	c #344E5A",
"06	c #2B404C",
"a6	c #273B43",
"b6	c #316171",
"c6	c #326A7A",
"d6	c #326878",
"e6	c #336879",
"f6	c #346A7B",
"g6	c #326777",
"h6	c #336575",
"i6	c #356473",
"j6	c #2C4650",
"k6	c #394C55",
"l6	c #2C4552",
"m6	c #101920",
"n6	c #101D23",
"o6	c #1A2D36",
"p6	c #1C333D",
"q6	c #1E3542",
"r6	c #1E3543",
"s6	c #010406",
"t6	c #203641",
"u6	c #1D2E38",
"v6	c #17222A",
"w6	c #304752",
"x6	c #22333C",
"y6	c #30454F",
"z6	c #1F2B30",
"A6	c #325E6F",
"B6	c #336C7D",
"C6	c #336677",
"D6	c #326676",
"E6	c #336778",
"F6	c #326877",
"G6	c #326675",
"H6	c #336676",
"I6	c #326271",
"J6	c #284149",
"K6	c #314650",
"L6	c #1B2B31",
"M6	c #273D45",
"N6	c #243C4A",
"O6	c #111E24",
"P6	c #1A2B33",
"Q6	c #1A303A",
"R6	c #142630",
"S6	c #1A323F",
"T6	c #0B151A",
"U6	c #020407",
"V6	c #1D333D",
"W6	c #1D2F3A",
"X6	c #1D2A32",
"Y6	c #162227",
"Z6	c #0D1417",
"`6	c #2F4753",
" 7	c #293E49",
".7	c #2F454F",
"+7	c #1E2B30",
"@7	c #315460",
"#7	c #346372",
"$7	c #346371",
"%7	c #356574",
"&7	c #356573",
"*7	c #346777",
"=7	c #306475",
"-7	c #316475",
";7	c #306373",
">7	c #2D5765",
",7	c #222F35",
"'7	c #172125",
")7	c #344853",
"!7	c #2B4550",
"~7	c #233B49",
"{7	c #121F26",
"]7	c #19282F",
"^7	c #1A2E37",
"/7	c #1C3641",
"(7	c #142835",
"_7	c #1E3646",
":7	c #203642",
"<7	c #1C3039",
"[7	c #192A32",
"}7	c #1A2932",
"|7	c #1A2831",
"17	c #293D48",
"27	c #23353D",
"37	c #24343A",
"47	c #28373D",
"57	c #2F5D6B",
"67	c #2F6171",
"77	c #2E5E6E",
"87	c #314652",
"97	c #1A272C",
"07	c #243941",
"a7	c #15232A",
"b7	c #121F25",
"c7	c #162934",
"d7	c #172D39",
"e7	c #1E3849",
"f7	c #04080B",
"g7	c #20353F",
"h7	c #182931",
"i7	c #0E181C",
"j7	c #3B5C6D",
"k7	c #23373F",
"l7	c #2F5564",
"m7	c #2F5664",
"n7	c #305B6A",
"o7	c #294551",
"p7	c #2C5462",
"q7	c #306171",
"r7	c #203139",
"s7	c #243A41",
"t7	c #2A4450",
"u7	c #203B4A",
"v7	c #16242B",
"w7	c #131F26",
"x7	c #18303C",
"y7	c #2D4D60",
"z7	c #0D151C",
"A7	c #1A333F",
"B7	c #1A323D",
"C7	c #203843",
"D7	c #162932",
"E7	c #11232C",
"F7	c #10232D",
"G7	c #132632",
"H7	c #142732",
"I7	c #030607",
"J7	c #32586A",
"K7	c #2B3F4B",
"L7	c #326172",
"M7	c #2F5F70",
"N7	c #326374",
"O7	c #2D515F",
"P7	c #2D5868",
"Q7	c #2D5E6E",
"R7	c #2E5C6C",
"S7	c #223A47",
"T7	c #10181E",
"U7	c #152730",
"V7	c #122530",
"W7	c #193342",
"X7	c #0C151C",
"Y7	c #03060A",
"Z7	c #1B3441",
"`7	c #152832",
" 8	c #1A2D39",
".8	c #3E697C",
"+8	c #395A6B",
"@8	c #2C4C5C",
"#8	c #2B4B5B",
"$8	c #294B5C",
"%8	c #2C4E61",
"&8	c #325263",
"*8	c #304D5D",
"=8	c #2C4655",
"-8	c #3A5462",
";8	c #142028",
">8	c #16232B",
",8	c #0F1A1F",
"'8	c #0D171D",
")8	c #2B4655",
"!8	c #273B47",
"~8	c #22343C",
"{8	c #2E5B6B",
"]8	c #305F6F",
"^8	c #336071",
"/8	c #305866",
"(8	c #25424D",
"_8	c #254754",
":8	c #294F5C",
"<8	c #2E6173",
"[8	c #2C5E6E",
"}8	c #2E5D6B",
"|8	c #202F37",
"18	c #24353B",
"28	c #18262C",
"38	c #253A42",
"48	c #233946",
"58	c #1A2D35",
"68	c #13242D",
"78	c #193443",
"88	c #020609",
"98	c #1A2F3A",
"08	c #162A36",
"a8	c #182C38",
"b8	c #132933",
"c8	c #305361",
"d8	c #162E39",
"e8	c #153443",
"f8	c #153242",
"g8	c #173849",
"h8	c #193B4C",
"i8	c #1A3849",
"j8	c #193645",
"k8	c #182F3C",
"l8	c #101A20",
"m8	c #101B21",
"n8	c #16242D",
"o8	c #16252F",
"p8	c #344D5B",
"q8	c #273A44",
"r8	c #305C6D",
"s8	c #2F5D6D",
"t8	c #316071",
"u8	c #316172",
"v8	c #316576",
"w8	c #294F5D",
"x8	c #2C5968",
"y8	c #2A5766",
"z8	c #2C5A69",
"A8	c #2D5C6C",
"B8	c #2D5E6D",
"C8	c #2E5B6A",
"D8	c #2B444F",
"E8	c #213844",
"F8	c #090D11",
"G8	c #0B0F13",
"H8	c #101F25",
"I8	c #254A5B",
"J8	c #0B141A",
"K8	c #010305",
"L8	c #173440",
"M8	c #19313E",
"N8	c #0D1C24",
"O8	c #274552",
"P8	c #122733",
"Q8	c #021F2F",
"R8	c #032132",
"S8	c #032334",
"T8	c #052436",
"U8	c #072131",
"V8	c #153141",
"W8	c #0E1A21",
"X8	c #15232D",
"Y8	c #0E191F",
"Z8	c #15232C",
"`8	c #142027",
" 9	c #2D4653",
".9	c #1D292E",
"+9	c #243C46",
"@9	c #2C5B6C",
"#9	c #2E6171",
"$9	c #306172",
"%9	c #294E5C",
"&9	c #2B5968",
"*9	c #2B596A",
"=9	c #2B5967",
"-9	c #22353D",
";9	c #233945",
">9	c #080E13",
",9	c #1E353E",
"'9	c #1C3543",
")9	c #12232A",
"!9	c #0B141B",
"~9	c #162F3B",
"{9	c #18303D",
"]9	c #1B3643",
"^9	c #1A2E3A",
"/9	c #182D38",
"(9	c #0A1820",
"_9	c #02314A",
":9	c #023C5A",
"<9	c #023B59",
"[9	c #033854",
"}9	c #02364F",
"|9	c #013752",
"19	c #082536",
"29	c #132E3D",
"39	c #0D1A22",
"49	c #0C171E",
"59	c #14222B",
"69	c #192730",
"79	c #2C414C",
"89	c #253640",
"99	c #202E36",
"09	c #24414E",
"a9	c #2A515E",
"b9	c #2B505C",
"c9	c #274C58",
"d9	c #243F4A",
"e9	c #254854",
"f9	c #264B57",
"g9	c #254852",
"h9	c #274A56",
"i9	c #223B46",
"j9	c #121E24",
"k9	c #1C2F37",
"l9	c #1B313D",
"m9	c #18313F",
"n9	c #091218",
"o9	c #142E3A",
"p9	c #17303C",
"q9	c #172B37",
"r9	c #172C39",
"s9	c #0A181F",
"t9	c #19313F",
"u9	c #0F3141",
"v9	c #024464",
"w9	c #039EC6",
"x9	c #0BAACB",
"y9	c #11A5C6",
"z9	c #069EC2",
"A9	c #005974",
"B9	c #042839",
"C9	c #113342",
"D9	c #0D1B22",
"E9	c #0C181F",
"F9	c #13212A",
"G9	c #14222A",
"H9	c #26383F",
"I9	c #1F2E34",
"J9	c #1E2D33",
"K9	c #253E49",
"L9	c #080F12",
"M9	c #17242C",
"N9	c #17232C",
"O9	c #112129",
"P9	c #192E37",
"Q9	c #11242C",
"R9	c #18323F",
"S9	c #132F3B",
"T9	c #162F3C",
"U9	c #163343",
"V9	c #142A36",
"W9	c #142935",
"X9	c #0A1A21",
"Y9	c #163543",
"Z9	c #0C3F55",
"`9	c #034A6C",
" 0	c #1CA6C8",
".0	c #68D0D6",
"+0	c #6BD0DC",
"@0	c #48CBDE",
"#0	c #036479",
"$0	c #05293A",
"%0	c #133A4B",
"&0	c #0C1A21",
"*0	c #17252E",
"=0	c #0E181F",
"-0	c #304A57",
";0	c #293D47",
">0	c #293F4B",
",0	c #273E4A",
"'0	c #132026",
")0	c #192C34",
"!0	c #15252E",
"~0	c #1A2F37",
"{0	c #12242C",
"]0	c #020304",
"^0	c #142F3B",
"/0	c #172832",
"(0	c #133443",
"_0	c #132936",
":0	c #132833",
"<0	c #0B1A22",
"[0	c #163749",
"}0	c #0B455A",
"|0	c #054362",
"10	c #1392B6",
"20	c #46AFC3",
"30	c #4AB0C8",
"40	c #33B1CB",
"50	c #015F76",
"60	c #042A3C",
"70	c #12394A",
"80	c #0D191F",
"90	c #2C424E",
"00	c #21313A",
"a0	c #283D47",
"b0	c #304148",
"c0	c #1D2C31",
"d0	c #1F2D35",
"e0	c #263944",
"f0	c #06090C",
"g0	c #182930",
"h0	c #213641",
"i0	c #182D37",
"j0	c #142B35",
"k0	c #15394B",
"l0	c #132935",
"m0	c #0B1920",
"n0	c #173747",
"o0	c #0F3C4F",
"p0	c #042A3E",
"q0	c #03506D",
"r0	c #035270",
"s0	c #035572",
"t0	c #034C6B",
"u0	c #033550",
"v0	c #072D40",
"w0	c #153949",
"x0	c #2B4450",
"y0	c #243B43",
"z0	c #21333A",
"A0	c #233B45",
"B0	c #21343D",
"C0	c #21353E",
"D0	c #22373F",
"E0	c #233840",
"F0	c #233A42",
"G0	c #20343C",
"H0	c #243B44",
"I0	c #090F14",
"J0	c #131F24",
"K0	c #152227",
"L0	c #192D35",
"M0	c #13222B",
"N0	c #020305",
"O0	c #0F212A",
"P0	c #162A34",
"Q0	c #132028",
"R0	c #102B39",
"S0	c #132A37",
"T0	c #0A171F",
"U0	c #183341",
"V0	c #12303E",
"W0	c #103648",
"X0	c #143E56",
"Y0	c #123D54",
"Z0	c #0F3447",
"`0	c #0F3245",
" a	c #0D2D3E",
".a	c #0B2939",
"+a	c #14313F",
"@a	c #0F191E",
"#a	c #2C4451",
"$a	c #23353F",
"%a	c #203038",
"&a	c #30515A",
"*a	c #2E525E",
"=a	c #335F6D",
"-a	c #33606F",
";a	c #315D6C",
">a	c #263E47",
",a	c #315E6F",
"'a	c #2C5B6B",
")a	c #2F5E6E",
"!a	c #305F6C",
"~a	c #2E5D6A",
"{a	c #26434E",
"]a	c #27434E",
"^a	c #2F5D6E",
"/a	c #253D48",
"(a	c #243641",
"_a	c #1A262E",
":a	c #192832",
"<a	c #111D23",
"[a	c #284351",
"}a	c #122026",
"|a	c #1A2F3B",
"1a	c #112833",
"2a	c #13222A",
"3a	c #142B37",
"4a	c #09151A",
"5a	c #162C37",
"6a	c #123241",
"7a	c #173A4D",
"8a	c #153B50",
"9a	c #153345",
"0a	c #163141",
"aa	c #142F3D",
"ba	c #0F222D",
"ca	c #304A56",
"da	c #22333D",
"ea	c #203238",
"fa	c #2F5362",
"ga	c #2F5B6B",
"ha	c #305C6B",
"ia	c #335D6C",
"ja	c #325863",
"ka	c #222F37",
"la	c #243840",
"ma	c #2D5C6B",
"na	c #2F5C69",
"oa	c #264047",
"pa	c #284854",
"qa	c #2A5565",
"ra	c #2A5463",
"sa	c #2E5866",
"ta	c #2F5462",
"ua	c #142126",
"va	c #19252D",
"wa	c #1A2C37",
"xa	c #0B1016",
"ya	c #112934",
"za	c #132731",
"Aa	c #081217",
"Ba	c #172A34",
"Ca	c #102630",
"Da	c #056E94",
"Ea	c #0C3851",
"Fa	c #172C37",
"Ga	c #0E4965",
"Ha	c #112C3B",
"Ia	c #0D1F29",
"Ja	c #0C171D",
"Ka	c #23333C",
"La	c #1D2C32",
"Ma	c #2A4C57",
"Na	c #2F5A6A",
"Oa	c #315E6E",
"Pa	c #325C6D",
"Qa	c #325762",
"Ra	c #22343B",
"Sa	c #23343A",
"Ta	c #2E6070",
"Ua	c #325E6A",
"Va	c #283F48",
"Wa	c #284954",
"Xa	c #2A5664",
"Ya	c #295464",
"Za	c #2C5666",
"`a	c #2B4E5A",
" b	c #23353C",
".b	c #22343D",
"+b	c #080B0F",
"@b	c #111E26",
"#b	c #12262F",
"$b	c #142C37",
"%b	c #122630",
"&b	c #142730",
"*b	c #112935",
"=b	c #0B2130",
"-b	c #07799E",
";b	c #162C3A",
">b	c #102732",
",b	c #0F1F28",
"'b	c #172B36",
")b	c #0D181D",
"!b	c #0C171C",
"~b	c #273944",
"{b	c #2A3940",
"]b	c #2F5966",
"^b	c #2E5765",
"/b	c #315B6A",
"(b	c #345865",
"_b	c #203137",
":b	c #2F5B67",
"<b	c #2E5F6D",
"[b	c #284B57",
"}b	c #2A5462",
"|b	c #2B5564",
"1b	c #294D5A",
"2b	c #18272D",
"3b	c #101C21",
"4b	c #162933",
"5b	c #13242C",
"6b	c #132630",
"7b	c #091217",
"8b	c #1A2A35",
"9b	c #10222A",
"0b	c #0F242C",
"ab	c #0E222A",
"bb	c #0F1E27",
"cb	c #24363F",
"db	c #273741",
"eb	c #21363F",
"fb	c #2E5B69",
"gb	c #31545F",
"hb	c #223237",
"ib	c #253A41",
"jb	c #315B68",
"kb	c #2E5D6C",
"lb	c #2C5A67",
"mb	c #223A42",
"nb	c #213238",
"ob	c #2D5867",
"pb	c #2E5766",
"qb	c #2A4D59",
"rb	c #1C2B31",
"sb	c #202C32",
"tb	c #131E23",
"ub	c #17252B",
"vb	c #101C22",
"wb	c #1A2D38",
"xb	c #030405",
"yb	c #15262D",
"zb	c #101A21",
"Ab	c #131D25",
"Bb	c #046381",
"Cb	c #0E232E",
"Db	c #0F4255",
"Eb	c #0A5E7A",
"Fb	c #0D1921",
"Gb	c #212E36",
"Hb	c #21363E",
"Ib	c #2C5B69",
"Jb	c #263B42",
"Kb	c #325A67",
"Lb	c #2E5C69",
"Mb	c #27414A",
"Nb	c #2E5561",
"Ob	c #2C5665",
"Pb	c #2C5765",
"Qb	c #2B4F5A",
"Rb	c #1C2C33",
"Sb	c #020204",
"Tb	c #122127",
"Ub	c #111D24",
"Vb	c #18333D",
"Wb	c #14262F",
"Xb	c #162028",
"Yb	c #0C3D53",
"Zb	c #132B36",
"`b	c #113441",
" c	c #162027",
".c	c #20333D",
"+c	c #285361",
"@c	c #26414A",
"#c	c #2D5562",
"$c	c #305C6A",
"%c	c #305966",
"&c	c #325A68",
"*c	c #335C68",
"=c	c #2D5766",
"-c	c #1F2F36",
";c	c #2A4E5B",
">c	c #2E5F6F",
",c	c #213944",
"'c	c #1E292F",
")c	c #1D2930",
"!c	c #20323B",
"~c	c #20343F",
"{c	c #010202",
"]c	c #13232D",
"^c	c #253C46",
"/c	c #0A1419",
"(c	c #09151B",
"_c	c #161E23",
":c	c #273842",
"<c	c #25353F",
"[c	c #1F2B32",
"}c	c #20323A",
"|c	c #1F3139",
"1c	c #21353D",
"2c	c #21333B",
"3c	c #1E333A",
"4c	c #1F3239",
"5c	c #1F3038",
"6c	c #1E3139",
"7c	c #17232B",
"8c	c #010101",
"9c	c #16232C",
"0c	c #22343E",
"ac	c #1B2A30",
"bc	c #070E12",
"cc	c #1D2B33",
"dc	c #1E2C35",
"ec	c #192328",
"fc	c #1E2C31",
"gc	c #000101",
"hc	c #162129",
"ic	c #0C161A",
"jc	c #111B21",
"kc	c #121B21",
"lc	c #040708",
"mc	c #1A262B",
"nc	c #1C282F",
"oc	c #212D33",
"pc	c #1F2C34",
"qc	c #131E22",
"rc	c #131C21",
"sc	c #162226",
"tc	c #121D22",
"uc	c #142228",
"vc	c #1F2F38",
"wc	c #05090A",
"xc	c #17262B",
"yc	c #111C20",
"zc	c #040809",
"Ac	c #1C272D",
"Bc	c #172429",
"Cc	c #131C22",
"Dc	c #1B2C33",
"Ec	c #070B0D",
"Fc	c #000000",
"Gc	c #202D35",
"Hc	c #192529",
"Ic	c #152329",
"Jc	c #202C33",
"Kc	c #1E2A2E",
"Lc	c #21313B",
"Mc	c #131D21",
"Nc	c #121A1F",
"Oc	c #141C22",
"Pc	c #121A1E",
"Qc	c #0B1015",
"Rc	c #0A0F11",
"Sc	c #10191D",
"Tc	c #21323C",
"Uc	c #090C0F",
"Vc	c #131D24",
"Wc	c #26333A",
"Xc	c #212D34",
"Yc	c #141C20",
"Zc	c #1C2D34",
"`c	c #111A1E",
" d	c #161F23",
".d	c #131B1E",
"+d	c #1C272E",
"@d	c #151D23",
"#d	c #07090C",
"$d	c #010102",
"%d	c #152129",
"&d	c #040507",
"*d	c #1A252C",
"=d	c #151F23",
"-d	c #1E2E34",
";d	c #040609",
">d	c #06090B",
",d	c #141B21",
"'d	c #121C1F",
")d	c #1C2830",
"!d	c #1B272F",
"~d	c #1F2A30",
"{d	c #1E2B33",
"]d	c #020203",
"^d	c #11191C",
"/d	c #11191B",
"(d	c #1B262D",
"_d	c #203039",
":d	c #1A252D",
"<d	c #1C262D",
"[d	c #12191D",
"}d	c #121D21",
"|d	c #1A262A",
"1d	c #12191E",
"2d	c #111A1D",
"3d	c #11191F",
"4d	c #0D1518",
"5d	c #131B1F",
"6d	c #10171A",
"7d	c #1E2D37",
"8d	c #223136",
"9d	c #1A272B",
"0d	c #223339",
"ad	c #1F2E33",
"bd	c #1D2D33",
"cd	c #0E1417",
"dd	c #18232B",
"ed	c #2A414B",
"fd	c #2C444E",
"gd	c #0F1518",
"hd	c #070A0C",
"id	c #1F2B33",
"jd	c #1F2C30",
"kd	c #4A626E",
"ld	c #38505C",
"md	c #324953",
"nd	c #37505C",
"od	c #395562",
"pd	c #3C5865",
"qd	c #38525F",
"rd	c #39515E",
"sd	c #344B56",
"td	c #334B57",
"ud	c #324954",
"vd	c #39515D",
"wd	c #37515C",
"xd	c #3C535F",
"yd	c #374E5A",
"zd	c #384F5A",
"Ad	c #354C56",
"Bd	c #354A55",
"Cd	c #3A4F58",
"Dd	c #212F34",
"Ed	c #0B0F12",
"Fd	c #06080A",
"Gd	c #1F2C35",
"Hd	c #060B0D",
"Id	c #32424A",
"Jd	c #293C47",
"Kd	c #2F4550",
"Ld	c #2C404B",
"Md	c #1A2429",
"Nd	c #0B1012",
"Od	c #040607",
"Pd	c #161E24",
"Qd	c #0F1A1E",
"Rd	c #101B1F",
"Sd	c #0A1012",
"Td	c #0E1618",
"Ud	c #11181D",
"Vd	c #1D282C",
"Wd	c #0F191C",
"Xd	c #212D31",
"Yd	c #28353B",
"Zd	c #283D48",
"`d	c #121A20",
" e	c #1B2831",
".e	c #141C1F",
"+e	c #0C1113",
"@e	c #10161A",
"#e	c #131B22",
"$e	c #0E1317",
"%e	c #182125",
"&e	c #0A0D10",
"*e	c #182226",
"=e	c #0C1417",
"-e	c #0F181B",
";e	c #171F23",
">e	c #141B1E",
",e	c #2A3840",
"'e	c #11171B",
")e	c #121E23",
"!e	c #0C1315",
"~e	c #293D45",
"{e	c #0D1315",
"]e	c #283E48",
"^e	c #2A424C",
"/e	c #0D1216",
"(e	c #131B21",
"_e	c #131A20",
":e	c #070E11",
"<e	c #354F59",
"[e	c #324853",
"}e	c #1D282F",
"|e	c #1E292E",
"1e	c #1D272D",
"2e	c #2A404B",
"3e	c #324E5C",
"4e	c #2E505F",
"5e	c #2A3D48",
"6e	c #19262F",
"7e	c #0F151A",
"8e	c #2D4550",
"9e	c #3C5F6E",
"0e	c #314D59",
"ae	c #1D282D",
"be	c #304B58",
"ce	c #386073",
"de	c #2B4C59",
"ee	c #171F24",
"fe	c #334B55",
"ge	c #3D606E",
"he	c #335260",
"ie	c #2F4853",
"je	c #233F49",
"ke	c #243F48",
"le	c #1E2930",
"me	c #2F4955",
"ne	c #2E4755",
"oe	c #2F4C59",
"pe	c #3E6D82",
"qe	c #3C5B69",
"re	c #21343C",
"se	c #3D5A66",
"te	c #406B7D",
"ue	c #355867",
"ve	c #2C4B58",
"we	c #32515F",
"xe	c #2D4854",
"ye	c #274650",
"ze	c #212D32",
"Ae	c #2B3E49",
"Be	c #314D5A",
"Ce	c #335361",
"De	c #407086",
"Ee	c #385360",
"Fe	c #171F22",
"Ge	c #131A1F",
"He	c #38535E",
"Ie	c #1B282C",
"Je	c #416A7B",
"Ke	c #365C6C",
"Le	c #335665",
"Me	c #2F4F5E",
"Ne	c #2D4954",
"Oe	c #2E4954",
"Pe	c #2E4652",
"Qe	c #25434D",
"Re	c #295260",
"Se	c #25404C",
"Te	c #2B3F4A",
"Ue	c #314D5B",
"Ve	c #2F4C58",
"We	c #304D59",
"Xe	c #325261",
"Ye	c #365866",
"Ze	c #121B22",
"`e	c #3F5E6D",
" f	c #2B4048",
".f	c #3A6679",
"+f	c #385F6F",
"@f	c #315766",
"#f	c #3B5C6B",
"$f	c #2F4C5A",
"%f	c #34505D",
"&f	c #314A57",
"*f	c #2F4551",
"=f	c #304650",
"-f	c #384C56",
";f	c #101619",
">f	c #29515E",
",f	c #28515E",
"'f	c #285261",
")f	c #324A56",
"!f	c #314E5B",
"~f	c #30515E",
"{f	c #416B7D",
"]f	c #2A3F46",
"^f	c #3A5A6A",
"/f	c #386479",
"(f	c #3B687C",
"_f	c #2F5160",
":f	c #305260",
"<f	c #2F4D59",
"[f	c #2D4651",
"}f	c #304753",
"|f	c #304550",
"1f	c #2E424D",
"2f	c #20363F",
"3f	c #284F5C",
"4f	c #28505D",
"5f	c #274F5E",
"6f	c #28515F",
"7f	c #1C333C",
"8f	c #3B5360",
"9f	c #354D59",
"0f	c #38515D",
"af	c #476776",
"bf	c #3D5E6F",
"cf	c #385968",
"df	c #3D6275",
"ef	c #335565",
"ff	c #3E6879",
"gf	c #376071",
"hf	c #3D7187",
"if	c #3C6578",
"jf	c #355A68",
"kf	c #2C556A",
"lf	c #325665",
"mf	c #437B95",
"nf	c #3D748B",
"of	c #40748B",
"pf	c #3D6577",
"qf	c #436B7E",
"rf	c #3E6375",
"sf	c #3C6173",
"tf	c #3C5F6F",
"uf	c #3A5868",
"vf	c #3C5967",
"wf	c #354C58",
"xf	c #39535F",
"yf	c #0A0D0F",
"zf	c #284D5B",
"Af	c #244B57",
"Bf	c #284F5D",
"Cf	c #254D5B",
"Df	c #254B59",
"Ef	c #21343B",
"Ff	c #0A1113",
"Gf	c #141D25",
"Hf	c #162023",
"If	c #162328",
"Jf	c #233841",
"Kf	c #1F333B",
"Lf	c #222E35",
"Mf	c #1E3D4A",
"Nf	c #244A59",
"Of	c #264B58",
"Pf	c #264A57",
"Qf	c #254954",
"Rf	c #234551",
"Sf	c #214450",
"Tf	c #162125",
"Uf	c #1B252C",
"Vf	c #040506",
"Wf	c #18252A",
"Xf	c #020303",
"Yf	c #1B2429",
"Zf	c #0C1014",
"`f	c #1A242B",
" g	c #19232A",
".g	c #1B252B",
"+g	c #182128",
"@g	c #161F22",
"#g	c #161F26",
"$g	c #1D2830",
"%g	c #192228",
"&g	c #070B0C",
"*g	c #060A0B",
"=g	c #10161B",
"-g	c #0C1619",
";g	c #050A0C",
">g	c #202E37",
",g	c #212F38",
"'g	c #06090D",
")g	c #0D1619",
"!g	c #22323B",
"~g	c #213039",
"{g	c #23313B",
"]g	c #23333D",
"^g	c #22323D",
"/g	c #1F2F39",
"(g	c #1E2B34",
"_g	c #080A0D",
":g	c #060C0E",
"<g	c #0F1418",
"[g	c #050A0B",
"}g	c #0F161C",
"|g	c #1B2A34",
"1g	c #152631",
"2g	c #172934",
"3g	c #172A36",
"4g	c #172935",
"5g	c #122631",
"6g	c #11232D",
"7g	c #142833",
"8g	c #132732",
"9g	c #152935",
"0g	c #070D0F",
"ag	c #141B1F",
"bg	c #1C272C",
"cg	c #1D272E",
"dg	c #19242C",
"eg	c #263640",
"fg	c #22323C",
"gg	c #1D2C35",
"hg	c #18242C",
"ig	c #13232A",
"jg	c #15222A",
"kg	c #19232B",
"lg	c #0F1E26",
"mg	c #0E1F28",
"ng	c #0C202A",
"og	c #0A202A",
"pg	c #08212C",
"qg	c #061D27",
"rg	c #08222F",
"sg	c #09212D",
"tg	c #08212D",
"ug	c #092633",
"vg	c #092C3C",
"wg	c #0A2B3A",
"xg	c #0C2E3D",
"yg	c #092733",
"zg	c #09232F",
"Ag	c #0B2734",
"Bg	c #0B2A38",
"Cg	c #0A2936",
"Dg	c #051F2B",
"Eg	c #0C222E",
"Fg	c #10232E",
"Gg	c #17262F",
"Hg	c #24333D",
"Ig	c #0F181F",
"Jg	c #050C10",
"Kg	c #050E13",
"Lg	c #060E14",
"Mg	c #040C11",
"Ng	c #060C0F",
"Og	c #14252D",
"Pg	c #15242D",
"Qg	c #171F25",
"Rg	c #040707",
"Sg	c #0A0E10",
"Tg	c #0D1214",
"Ug	c #070A0D",
"Vg	c #18262F",
"Wg	c #0D1B23",
"Xg	c #0C1B22",
"Yg	c #0C1920",
"Zg	c #0D1A20",
"`g	c #0D1920",
" h	c #0D2A3C",
".h	c #0F2C3E",
"+h	c #0F2E40",
"@h	c #0F2E3F",
"#h	c #102D3E",
"$h	c #102B3B",
"%h	c #0F2737",
"&h	c #0E2431",
"*h	c #0D202C",
"=h	c #0E1F29",
"-h	c #0C1C25",
";h	c #0D1B24",
">h	c #090E14",
",h	c #091015",
"'h	c #090E13",
")h	c #080B0E",
"!h	c #020404",
"~h	c #0E1A22",
"{h	c #101D26",
"]h	c #132531",
"^h	c #132836",
"/h	c #0D212F",
"(h	c #0E2433",
"_h	c #0D2332",
":h	c #0F2432",
"<h	c #11242F",
"[h	c #0F212B",
"}h	c #0F222C",
"|h	c #0E1C25",
"1h	c #030609",
"2h	c #1A262F",
"3h	c #12242E",
"4h	c #0F2734",
"5h	c #0E2532",
"6h	c #0D212E",
"7h	c #0F2938",
"8h	c #0E2938",
"9h	c #0F2A3A",
"0h	c #0E2A39",
"ah	c #0F2C3C",
"bh	c #0E2A3A",
"ch	c #0E2635",
"dh	c #0E2737",
"eh	c #0E2836",
"fh	c #0E2939",
"gh	c #0E2B3C",
"hh	c #0D222F",
"ih	c #102531",
"jh	c #0F232D",
"kh	c #101F28",
"lh	c #102028",
"mh	c #031A29",
"nh	c #041D2D",
"oh	c #031C2A",
"ph	c #031B29",
"qh	c #051B29",
"rh	c #061E2B",
"sh	c #051B27",
"th	c #051721",
"uh	c #06161F",
"vh	c #09161D",
"wh	c #050608",
"xh	c #04090C",
"yh	c #030709",
"zh	c #08151A",
"Ah	c #08151E",
"Bh	c #06151E",
"Ch	c #071822",
"Dh	c #081921",
"Eh	c #07171E",
"Fh	c #08151C",
"Gh	c #0F1C23",
"Hh	c #0D2431",
"Ih	c #0B222E",
"Jh	c #0E2735",
"Kh	c #0C2736",
"Lh	c #0C2634",
"Mh	c #0D2836",
"Nh	c #0C2C3D",
"Oh	c #0B293A",
"Ph	c #0B2737",
"Qh	c #0B2838",
"Rh	c #092534",
"Sh	c #0A2635",
"Th	c #092635",
"Uh	c #092433",
"Vh	c #092331",
"Wh	c #0A1F2B",
"Xh	c #0B202B",
"Yh	c #0A1E28",
"Zh	c #0B1A23",
"`h	c #0F1C24",
" i	c #0B3951",
".i	c #0C3A52",
"+i	c #0D3C54",
"@i	c #0C3B53",
"#i	c #0D3950",
"$i	c #0C3448",
"%i	c #0B344A",
"&i	c #0B3147",
"*i	c #0E2F41",
"=i	c #142B38",
"-i	c #182E3C",
";i	c #162C38",
">i	c #1C2E39",
",i	c #080D12",
"'i	c #060F15",
")i	c #152E3B",
"!i	c #122E3D",
"~i	c #102C3C",
"{i	c #0F3043",
"]i	c #0C2F44",
"^i	c #0E354C",
"/i	c #0F354B",
"(i	c #123346",
"_i	c #113245",
":i	c #122F3E",
"<i	c #132B39",
"[i	c #142129",
"}i	c #0F2029",
"|i	c #0E2C3C",
"1i	c #0D2C3D",
"2i	c #0D2B3B",
"3i	c #0C2938",
"4i	c #0C2B3C",
"5i	c #0D2D40",
"6i	c #0C2F41",
"7i	c #0C2E40",
"8i	c #0C2D3E",
"9i	c #0B2B3D",
"0i	c #0A2D40",
"ai	c #0B2F43",
"bi	c #0A2F42",
"ci	c #0A2D3F",
"di	c #092A3C",
"ei	c #0A2636",
"fi	c #0C2735",
"gi	c #0C2939",
"hi	c #0D2837",
"ii	c #0E232F",
"ji	c #0D1C25",
"ki	c #094967",
"li	c #094665",
"mi	c #074764",
"ni	c #064763",
"oi	c #05435F",
"pi	c #09415B",
"qi	c #093E58",
"ri	c #0B3C54",
"si	c #0B3449",
"ti	c #0E2D3E",
"ui	c #0F2A39",
"vi	c #112733",
"wi	c #121F27",
"xi	c #131F27",
"yi	c #192933",
"zi	c #152028",
"Ai	c #131C24",
"Bi	c #131C23",
"Ci	c #111920",
"Di	c #132835",
"Ei	c #0F222B",
"Fi	c #122935",
"Gi	c #112F3F",
"Hi	c #114059",
"Ii	c #0C3E5A",
"Ji	c #0D3F5A",
"Ki	c #0E3E55",
"Li	c #0F3C51",
"Mi	c #11364A",
"Ni	c #132F3F",
"Oi	c #112B38",
"Pi	c #14252F",
"Qi	c #10232F",
"Ri	c #112939",
"Si	c #102D3D",
"Ti	c #0D2E3E",
"Ui	c #0D3347",
"Vi	c #0A374D",
"Wi	c #0D384F",
"Xi	c #0C3A51",
"Yi	c #0A3B55",
"Zi	c #0B3E58",
"`i	c #0B3F58",
" j	c #0B3950",
".j	c #0B3D55",
"+j	c #094059",
"@j	c #073C56",
"#j	c #063954",
"$j	c #063A54",
"%j	c #063952",
"&j	c #07364E",
"*j	c #06344C",
"=j	c #08344C",
"-j	c #0B374D",
";j	c #0A2F43",
">j	c #0B2D40",
",j	c #0C202C",
"'j	c #0E1D24",
")j	c #005471",
"!j	c #004E6A",
"~j	c #014760",
"{j	c #01445D",
"]j	c #004E69",
"^j	c #014B68",
"/j	c #00425D",
"(j	c #00314D",
"_j	c #022B42",
":j	c #133041",
"<j	c #112732",
"[j	c #0E1B21",
"}j	c #03080A",
"|j	c #020506",
"1j	c #020505",
"2j	c #06141C",
"3j	c #122C3A",
"4j	c #142F3C",
"5j	c #0D2632",
"6j	c #002738",
"7j	c #012A3F",
"8j	c #003B54",
"9j	c #003D57",
"0j	c #013E5A",
"aj	c #013D56",
"bj	c #013950",
"cj	c #01354E",
"dj	c #01293E",
"ej	c #0F3548",
"fj	c #040A0F",
"gj	c #12191F",
"hj	c #0F1D24",
"ij	c #112631",
"jj	c #04283D",
"kj	c #042C44",
"lj	c #023750",
"mj	c #023D59",
"nj	c #023F5B",
"oj	c #02405C",
"pj	c #02445E",
"qj	c #024460",
"rj	c #014560",
"sj	c #014561",
"tj	c #01425C",
"uj	c #024159",
"vj	c #02455A",
"wj	c #024258",
"xj	c #02445A",
"yj	c #02475F",
"zj	c #014860",
"Aj	c #01465C",
"Bj	c #013C51",
"Cj	c #023F56",
"Dj	c #014057",
"Ej	c #013F56",
"Fj	c #02384D",
"Gj	c #012E42",
"Hj	c #032F46",
"Ij	c #021825",
"Jj	c #112530",
"Kj	c #28BCDD",
"Lj	c #2FBDDC",
"Mj	c #1DB6D4",
"Nj	c #1CB4D4",
"Oj	c #20B9D7",
"Pj	c #28BEDF",
"Qj	c #3AC0E0",
"Rj	c #3DBDDA",
"Sj	c #0595AF",
"Tj	c #023351",
"Uj	c #163E55",
"Vj	c #071722",
"Wj	c #133544",
"Xj	c #122E3B",
"Yj	c #063447",
"Zj	c #003651",
"`j	c #079DC0",
" k	c #25B4D6",
".k	c #27B8D6",
"+k	c #28B5D4",
"@k	c #29B5D3",
"#k	c #32B8D6",
"$k	c #34BADA",
"%k	c #26B1D3",
"&k	c #025879",
"*k	c #07455F",
"=k	c #0B1F2A",
"-k	c #0F1D25",
";k	c #02121F",
">k	c #024162",
",k	c #028FAD",
"'k	c #28BAD5",
")k	c #4BC2D5",
"!k	c #4FC2D5",
"~k	c #4EC2D6",
"{k	c #50C2D8",
"]k	c #4EC3D8",
"^k	c #4BC5DB",
"/k	c #49C6DA",
"(k	c #49C7DA",
"_k	c #4BC7D9",
":k	c #52CDE0",
"<k	c #54D0E3",
"[k	c #4DD0E3",
"}k	c #45CCDE",
"|k	c #43CADC",
"1k	c #40C5DA",
"2k	c #46C6DD",
"3k	c #4BC5DE",
"4k	c #4CC6E0",
"5k	c #4BC3DF",
"6k	c #4BBFDA",
"7k	c #2BB3CE",
"8k	c #0E4D69",
"9k	c #03273C",
"0k	c #0F2939",
"ak	c #67D2DE",
"bk	c #72D3DF",
"ck	c #65D2DE",
"dk	c #67D3E1",
"ek	c #64D3E2",
"fk	c #5DD1E0",
"gk	c #57CDDD",
"hk	c #3FC5D8",
"ik	c #06A0BA",
"jk	c #03334E",
"kk	c #11384D",
"lk	c #0E1B23",
"mk	c #192A35",
"nk	c #192A34",
"ok	c #153444",
"pk	c #0F2834",
"qk	c #022A3B",
"rk	c #013552",
"sk	c #10ACC9",
"tk	c #69D5DC",
"uk	c #6DD5DC",
"vk	c #70D5DD",
"wk	c #78D2DD",
"xk	c #64CDDB",
"yk	c #40C0D5",
"zk	c #03607E",
"Ak	c #0B4660",
"Bk	c #0C212C",
"Ck	c #0C202B",
"Dk	c #0E242F",
"Ek	c #021421",
"Fk	c #033955",
"Gk	c #0287A5",
"Hk	c #3EBED7",
"Ik	c #55C2D8",
"Jk	c #51BFD6",
"Kk	c #4DBFD7",
"Lk	c #4FC2D9",
"Mk	c #50C2D9",
"Nk	c #4FC2DA",
"Ok	c #4CC2DB",
"Pk	c #4DC3DA",
"Qk	c #4FC3D9",
"Rk	c #53C4DA",
"Sk	c #53C4DE",
"Tk	c #4FC0DC",
"Uk	c #49C0DC",
"Vk	c #51C9E1",
"Wk	c #54C8DF",
"Xk	c #57C6DE",
"Yk	c #5AC6DE",
"Zk	c #5BC7E0",
"`k	c #4DC1DB",
" l	c #41B6D2",
".l	c #39B4D0",
"+l	c #19A7C5",
"@l	c #0A425A",
"#l	c #022436",
"$l	c #02476C",
"%l	c #024265",
"&l	c #02486B",
"*l	c #024C6F",
"=l	c #02496D",
"-l	c #01476A",
";l	c #02496A",
">l	c #0D212C",
",l	c #10212A",
"'l	c #03080B",
")l	c #050B0D",
"!l	c #050708",
"~l	c #102835",
"{l	c #0F2733",
"]l	c #062533",
"^l	c #012A41",
"/l	c #013756",
"(l	c #024260",
"_l	c #024765",
":l	c #024A6B",
"<l	c #024867",
"[l	c #024161",
"}l	c #013757",
"|l	c #032F48",
"1l	c #113F55",
"2l	c #0C212B",
"3l	c #102430",
"4l	c #10171D",
"5l	c #0E212B",
"6l	c #03141E",
"7l	c #022437",
"8l	c #01273C",
"9l	c #02293D",
"0l	c #023249",
"al	c #023752",
"bl	c #023B56",
"cl	c #033A53",
"dl	c #033953",
"el	c #023953",
"fl	c #023A54",
"gl	c #033851",
"hl	c #023D57",
"il	c #023F58",
"jl	c #03425E",
"kl	c #03425F",
"ll	c #023E58",
"ml	c #023C55",
"nl	c #023A52",
"ol	c #013954",
"pl	c #013B57",
"ql	c #013854",
"rl	c #022A41",
"sl	c #02273A",
"tl	c #062635",
"ul	c #031520",
"vl	c #0E2837",
"wl	c #0F516F",
"xl	c #0F5373",
"yl	c #0D5170",
"zl	c #0F5271",
"Al	c #0C4F6E",
"Bl	c #0A5172",
"Cl	c #094D6D",
"Dl	c #0E4762",
"El	c #0E1C23",
"Fl	c #101B23",
"Gl	c #111C23",
"Hl	c #091114",
"Il	c #0F212C",
"Jl	c #0C1E28",
"Kl	c #102D3C",
"Ll	c #103142",
"Ml	c #0C3B50",
"Nl	c #104A64",
"Ol	c #114F6E",
"Pl	c #11506F",
"Ql	c #104A67",
"Rl	c #0E425C",
"Sl	c #0F3144",
"Tl	c #102B3A",
"Ul	c #0D1E28",
"Vl	c #102A39",
"Wl	c #0E3246",
"Xl	c #0D3B52",
"Yl	c #0E4059",
"Zl	c #104560",
"`l	c #104864",
" m	c #124D6A",
".m	c #17516D",
"+m	c #134D69",
"@m	c #134D68",
"#m	c #104B67",
"$m	c #0F5472",
"%m	c #135370",
"&m	c #135270",
"*m	c #0E4B6A",
"=m	c #0B4965",
"-m	c #0B4863",
";m	c #0C4D6A",
">m	c #0D506E",
",m	c #094864",
"'m	c #0D4965",
")m	c #0E4662",
"!m	c #0E405A",
"~m	c #0E3C53",
"{m	c #0E364B",
"]m	c #103345",
"  . + @ # $ % & * = - ; > , ' ) ! ~ { ] ^ / ( _ : < [ } | 1 2 3 4 5 6 7 8 9 0 a b c d e f g h i j k l m n o p 5 q r s t u v w x y z A B C D E F G H I J K L M # N O P Q + R R R S T Q Q Q U V W X Y Y Z `  ...+.@.#.$.%.&.%.*.=.-.;.>.O ,.'.).Z @ !.~.+.{.].^./.W /.(._.",
":.<.[.}.|.1.2.3.4.5.6.7.8.9.0.a.b.c.d.e.f.g.h.i.j.k.l.m.n.o.p.q.r.s.t.u.v.w.x.y.z.A.B.C.D.E.F.G.H.I.J.K.L.M.N.O.P.Q.R.S.T.U.V.W.X.Y.Z.`. +.+++@+#+$+%+&+*+=+-+:.;+>+,+'+)+!+~+~+{+]+^+/+(+;+_+:+<+[+(+}+|+1+2+(+3+4+5+6+7+8+9+8+9+0+a+b+]+c+{+}+d+e+f+[.g+}+e+h+i+:.j+k+",
"l+k+k+m+n+o+p+q+r+s+%.t+u+v+w+x+y+z+A+B+C+D+E+F+G+H+I+J+K+L+M+N+O+P+Q+R+S+T+U+V+W+X+Y+Z+`+ @.@+@@@#@$@%@&@*@=@-@;@>@,@'@)@!@~@{@]@^@/@(@_@:@<@[@}@|@1@2@3@4@4@5@6@7@8@{+9@h+0@a@o+a@b@c@O d@e@e@f@h+a@h+0@g@h@[.]+i@j@k@d+}+}+(+{+e+4+(+}+l@m@h@n@o@h@<.p@q@n@a@r@s@t@u@",
"v@w@u@x@o+y@e+[.z@A@=+B@3@C@D@E@F@A+G@H@I@J@K@L@M@N@O@P@Q@R@S@T@U@V@W@X@Y@Z@`@ #.#+#@###$#%#&#*#=#-#;#>#,#'#)#!#~#{#]#^#/#(#_#:#<#[#}#|#1#2#3#4#5#y+6#7#8#B@9#0#u@a#b#c#/+/+d#d#e#b@h+h+b@h+f#g#h#0@a@h+h+i#l@q@]+j#k#]+l#}+m#j@]+n#o#f+{+(+(+l@l@p#q#r#r#o@0@h+<+v@l+s#",
"w@w@n+m+|.w@q@o#t#7@u#v#w#x#y#z#A#B#C#D#E#F#G#H#I#J#K#L#M#N#O#P#Q#R#S#S#Q#T#U#U#V#W#X#X#Y#Z#U#`# $.$+$U#@$#$$$%$&$*$=$=$=$-$;$>$,$'$)$!$~${$]$^$/$($_$:$<$[$B@}$|$1$2${+r#3$n@a@4$w@a@e#w@e#5$6$7$o+a@o+0@/+/+/+{+}+n#e+]+]+}+{+8${+e+}+j@d+p#(+p#h@9$j#r#0$7$6$t#a$s#t#",
"b$x@b@u@:.d@n+c$;+d$e$f$g$h$i$j$A#k$l$m$n$o$p$q$r$s$t$u$v$w$x$y$z$A$B$C$D$E$F$G$H$I$J$K$L$M$N$O$P$Q$R$S$T$U$V$W$X$Y$Z$`$ %.%+%@%#%$%%%&%*%=%-%;%>%,%'%x#)%3.7@k+3.t+b#!%~%~%7$o+w@o@b@h+{%h+]%s@^%/%r@^%w@o+(%_%j#m@j#{+:%^+^+<%i@[%m@4+}%|%(+h@(+:+p#o@r#j+1%q+n+2%3%4%",
"l+u@x@5%a@j+a@~%z@6%7%8%9%D@0%a%b%c%d%e%f%g%h%i%j%k%l%m%n%o%p%q%r%s%t%u%v%w%x%y%z%A%B%C%D%E%F%G%H%I%J%K%L%M%N%O%P%Q%R%S%w%T%U%V%W%X%Y%Z%`% &.&G@z++&@&:$#&|$6%$&%&u@= (+n+&&h+a@q+~%w@2%*&=&+ ;+-&;&s#>&s#5%<+d#h+0@q#p#3$r#(+[+y@}+~%p@,&/+(+g@(%7$7$/+q+n+r@s@'&)&!&~&",
"{&r@s@t@l+x@s@]&^&/&(&_&)%:&C@<&[&}&|&1&2&3&4&5&6&7&8&9&0&a&b&b&c&d&e&f&f&g&h&i&j&k&k&l&m&n&o&p&q&r&s&t&f&u&v&w&g&w&x&y&z&A&B&C&D&E&F&G&H&I&J&K&L&j$M&N&O&P&Q&R&z@-+b#}+S&u@r@<+l+q+<+s#T&U&~.;&V&W&X&>&X&v@s#Y&6$^%7$_%{%Z&e#`&`&e#_%t#e#b@h+~%6$<+t#*&v@ *v@X& *'&.*+*",
"*&a$s@v@s@@*v@u@#*O&A@$*%*&***=*-*;*>*,*'*)*!*~*{*]*^*/*(*_*:*<*[*}*|*1*2*3*4*5*6*7*8*9*0*a*b*c*d*e*f*g*h*i*j*k*l*m*n*o*p*q*r*s*t*u*v*w*x*y*z*A*B*C*D*E*F*f$_&G*a$H*I*J*5@x@^%s@t@K*l+K*L*M*# ;&-&N*O*P*X&v@v@^%Y&d#Q*{%R*7$Q*Y&7$7$Y&7$d#w@S*q+3%<+X& *X&X&v@2%l+T*U*U*",
"W&X&>&*&s#s@s@a$V*W*X*Y*Z*`* =.=+=@=#=$=%=&=*===-=;=>=,='=)=!=~={=]=^=/=^=(=_=:=<=[=}=|=1=2=3=4=5=6=7=8=9=0=a=b=c=d=e=!=f=)=g=h=i=j=k=l=m=n=o=p=q=r=s=t=u=v=w=x=y=z=A=B=s@s@l+l+s@s#q+q+C=D=w=;&E=>&T& *s#s#F=*&q+6$Y&Q*Q*^%Q*Q*{%0$_%h+{%Y&q+Y&G=^%5%>& *P*v@2%*&H=E=!&",
"I=J=K=X&u@a$u@L=M=N=O=P=Q=R=S=T=U=V=W=X=Y=Z=`= -.-+-@-#-$-%-&-*-=---;->-,-'-)-!-~-{-]-^-/-(-_-:-<-[-}-|-1-2-3-4-5-6-7-8-9-0-a-b-c-d-e-f-g-h-i-j-k-l-m-n-o-p-q-h@L=r-b#o+u@l+@*5%s@l+<+5%9@*&+ s--&t-O*2%U*2%v@*&v@5%d#Y&M*Q*{%d#u-{%R*{%_%q+t#t#3%Y&s# *a$v@*&s#>&*&T&v-",
"K=w-@.x-y-z-t@{&M A-B-C-D-E-F-G-H-I-J-K-L-M-N-O-P-Q-R-S-T-U-V-W-X-Y-Z-`- ;.;+;@;#;$;%;&;*;=;-;;;>;,;';);!;~;{;];^;/;(;_;:;<;[;};|;1;2;3;4;5;6;7;8;0.9;0;a;b;l+c;/+d;e;a$f;x@t@s@u@s@u@r@r@2%M g;h;J=i;_+!&j;>&>&S&k;l;6$T&^%d#{%d#{%2%Y&t#<+q+t#9@s#5%!&;&'&2% *_+/%m;n;",
"z@W&;+;+)+L=u@o;p;q;r;s;t;u;v;w;x;y;z;A;B;C;D;E;F;G;H;I;J;K;L;M;N;O;P;Q;R;S;T;U;V;W;X;Y;Z;`; >.>+>@>#>$>%>&>*>=>->;>>>,>'>)>!>~>{>]>^>/>(>_>:><>[>2@}>|>1>2>-+$*3>p#4>5>u@m+6>;+L=7>s@l+ *8>9>-.J=d;J=@.x-@.w-0>v@*&.*a>9@5%v@s#6$t#t#t#<+v@t#<+K*t#n+..W&v@N**&)&_+b>V&",
"..w-#*c>^&s@P*d>q@$*e>r+f>u;G-g>h>i>j>k>l>m>n>o>p>q>r>s>t>u>v>w>x>y>z>A>B>C>D>E>F>G>H>I>J>K>L>M>N>O>P>Q>R>S>T>U>V>W>X>Y>Z>`> ,.,+,@,#,$,%,&,*,=,-,;,>,,,',),w@!,<.q@^%M=8>k+a$j;d;7>V&J=-&a>X 5$O*_+_+N*;+~,{,i;],O*/%^,e@~&/,T&H=(,^,~&^,(,_,e@t-^,^,:,_+m;<,m;[,5$.*.*",
"V&},$ |,#*K=# <.1,q;q;2,3,4,5,6,7,8,9,0,a,b,c,d,e,f,g,h,i,j,k,l,m,n,o,p,q,r,s,t,u,v,v,w,x,y,v,v,z,A,B,C,D,E,F,G,H,I,J,K,L,M,i,N,O,P,Q,R,S,T,U,V,W,X,Y,Z,`, '.'+'@'#'$*$'%'y-a$d;a$ *{&&'X&*'='-';'>','''x=,+,+,+)'!'~'{']'^'/'('~'_':'<']'['_'}'|'~'1'/'2'3'4'5'4'6'7'7'",
"$.V&M=8'$.@*l@-+m+c;<.t+9'5,0'a'b'c'd'e'f'g'g'g'h'i'j'k'l'M,l'm'n'o'p'q'r's't'u'v'H,w'x'y'z't'A'B'C'D'E'F'G'o'H'I'I'M,J'M,K'L'M'N'O'P'Q'R'S'R'T'U'V'a'W'X'Y'9'3>Z'`'$*~+X& )o;-&.)*&v@3'l+w-+)5'@)#)$)%)&)*)=)-);)>)N ,)')))$)!),'6'~)')(.{)])^)/)6'N ()_)3';)7'(.#)*),'",
"X ^.Z M=r@h@$'~+g@c;-+c;:)<)a'[)})|)1)2)3)4)5)6)7)8)9)0)a)b)c)d)e)f)g)h)i)j)k)l)m)n)o)p)q)r)r)s)n)t)u)v)w)x)d)y)z)A)A)B)C)D)E)F)M'G)3)3)5)H)I)J)K)L)W,M)N)O)P)Q)y@o@~&4$n+},-)R)S),.b>X*T)U)2'$)$)%),+V)W)X)N Y)w=(.$ Z)`) !.!+)+!@!#!$!%!&!6'4'*!*!=!6'-!v=^)N *)7',';!",
"M*>!,!(&7$|.4$g@l@'!'!)!!!~!{!]!X,^!1)/!(!_!:!<!<!:!:!6)E)[!}!|!1!2!3!x)4!i)v)4!5!6!7!8!9!t)0!a!g)b!d)c!}!}!|!9)a)d!e!6)f!8)<!I)g!h!h!i!/!h!J)1)j!k!l!m!m!n!o!p!l+~%/+g@y@ *X q!r!M*s!t!u!n;U Y* !x=v!W)W)#)#)y=w=U ,+w!x!y!z!A!^'B!A!~'C!C!}'D!}'^'E!(.-!y=6','7'u=x=,+",
"l@p#F!G!0>`&g@y@t+3>H!I!J!K!L!M!N!O!P!i!V'Q!R!S!T!T!U!U!V!W!X!Y!Z!Z!Z!`! ~ ~.~+~@~#~$~%~&~*~I'3!d)+~A)=~-~;~>~,~,~'~'~)~T!T!_!T!!~O!(!(!(!(!~~c'c'{~]~7,7,]!Z*^~/~o@r#p#~+X %'(~Q*d@e#h+q+_~:~.!e;!'<~I*z=[~}~|~y=1~2~3~4~5~6~7~8~9~0~L=6>L=a~g;.)b~R -)c~5'&),+,+,+,+,+",
"a@/,v@d~5%)&q@<.(+[%e~]!b'f~g~h~i~j~j~k~l~m~n~R!S!d'o~o~p~d,q~r~s~l't~u~v~w~w~x~y~z~A~B~C~D~E~F~G~H~I~J~K~L~Z!l'M~N~L'O~P~Q~R~n~R~V'S~S~|'A!A!T~w!U~{~k!L)V~W~X~Y~]+f+Z~ *x@;&D=4% *:.`~..o@ {_)-!A=.{+{@{#{(.${c~%{&{&{*{={-{;{>{>{,{P V~'{'{ !){!{W~~{Z)#{{{.!.!.!]{^{",
"h+s#x-#*/~l@^%$'/{({L!m!V~_{h~P!:{D!A=2$<~<{[{}{|{1{2{3{2{4{5{6{7{8{9{0{a{b{c{c{d{e{f{7!g{h{i{j{k{l{m{n{o{p{q{r{s{t{u{t{+=v{.=w{x{y{z{1~>'I*&{A{A!B{C{D{c'E{F{`)G{H{m@I{p#k+R)d#J{_~/+!%~+1%!.K{[+L{c#M{N{O{P{Q{6+0$1'w!R{A!g~S{k!k!k~]'1'|'D!T{}'A!k~U{N*V{Q{W{X{'+f+f+",
"q+6$x-#*y@m+|.n+~%Y{W~M)M!Z{`{ ]]'>'.]L +]@]H #]$]%]&]*]=]-];]>],]'])]E#!]~]{]]]^]/](]_]:]<][]}]|]1]2]3]4]Z>5]6]7]8]9]0]a]b]' c]d]e]f][~g]e]v!h]()}'S~V'c'U{i]W~i]S)$.j]6$D=T&4%{%7$h+y@k]7${,Q*Z 0@l]h+1%l@q@6@m]n]o]n]p]q]r]s]t]u]v]w]x]y]a+z]A]B].'C]D]E]~%Q*F]d#7$h+",
"z-6$l+x-G]d@m+!,%&w!:{A!H]j~I]1'J]e]X)L K]c]L]M]N]O]P]Q]R]S]B T]U]V]W]X]Y]Z]`] ^.^+^@^#^$^%^&^*^=^-^;^>^,^'^)^p=!^~^{^]^^^/^(^_^:^<^-!]%g]g]*)[^!'}^ ]|^S~1^2^3^U'A!4^5^3$6^;&j+7^n@Q*H=Q*`&/,T*8^<+/+n@:+~+0@{+(+8$}+9^0^a^b^5+c^d^e^B-6+k@b+[%}+<.g@/+h@h+d#Q*{%{%6$h+",
"q+h+5%S&$'$'1,f^o+-{k~g^U~:{<'h^i^.]j^k^l^m^n^o^9]p^q^A#r^s^t^u^v^w^x^y^z^A^B^C^D^E^F^G^H^I^J^K^L^M^N^O^P^Q^R^S^T^U^V^W^#]@=X^Y^Z^`^ /./@ Y*}~5','!)+/l~S~j~@/h~#/$/%/:+1%g@)&&/J{*/0$n@^%_%E=e#^%q#o@l@o@h@(%=/h@^+f+2+-/l#l#W{[%;/k@c+L{c+d+}+>/,/o@h+/+n@1%(%Z&7$~%h+",
"q+Y&3%t@'/)/!/2>|.A{~/i!R{ ]P >'{/Y*]/^///(/_/9]:/</[/}/|/l$1/2/3/4/5/6/7/8/9/0/a/b/c/d/e/f/g/h/i/j/k/l/m/n/o/p/q/U^[&r/-*s/t/u/Z^; g] /v/w/x/#)7'[^y/-!]' ]1'z/X,A/B/C/3$S*O*9@7$_~3$`'0@F])&Y&Y&s@s#o@r#o@~+[+(%p#{+f+^+n#D/d+2+E/F/i@G/e+f+h@m@o@`'/+/+H/I/h+0$1%a@7$",
"Y&S*9@w-/~0@1,J/o@K/m~#/l~I]W*.]L/M/M/N/O/P/Q/R/-*S/;*T/U/V/W/X/Y/Z/`/ (.(+(@(#($(%(&(G^*(=(-(;(>(,('()(!(~({(](k$^(b%/(8]((_(:(<([(m^`^}(|(1(}(#)u=#{y/'{2(1'3(L)={4(S*~%`'W&6$7$p#Z~M*/+*/*&o+h+;&E=h+g@3$o@n@m@=/^+n#}+D/c+E]L{i@'+5(6(7(8([+q@[+n@o+o@:+7$1%1%d#h+a@",
"b@h+9@,.9(;&0(a(=/A=b(i!I]:{c(V)@)d(L Z*e(f(g(h(i([/j(k(U/C+W/l(m(n(o(p(q(r(s(t(u(v(w(x(y(z(A(B(C(D(E(F(G(H(I(J(K(L(q^W^M(N(:/O(P(<(> `^M/Q(R(S(*)T(U 2$K/R{j~U(V(W~W(g@~+o+-&6(0$0$Z&J{H/h#3%(%7$X&X&,/o@o@q#/+m@}+{+o#}+L{4+E]2+6(5(O{2+F/6(j#r#J{h+(%0@:+1%1%7$7$`&1%",
"a@|.3%X(S&}$Y(Y&v=;{g~]~I]C{V)Y*Z(`( _e(Y^._W'<&[&[/+_@_{(#_W/$_%_&_*_=_-_;_>_,_'_)_!_~_{_]_^_/_(___:_<_[_}_|_1_k(2_^([&W^3_4_f(Y^5_6_7_8_Y*[~#{&)W)I*<~<~S~V'9_m!V~0_~+{+r!a_b_c_*/q#R*J{d_>&7$d#5%(%,/h+0@7^n@e_e+|%e_[+f_7(j@e+j#{+<%q#7(g_p#h_o@/+9$7${%J{J{1%R*{%<+",
"e#G]3%b^i_!+<.j_k_l_g~Z{ ]j~#)}(m_n_o_p_q_O(r_s_b%t_2_u_V/v_w_x_y_z_A_B_C_D_E_F_G_H_I_J_K_L_M_N_O_P_Q_R_S_T_U_V_W_X_Y_Z_`_N(9] :.:L]<(+:6_Y*z=@:y/}(,+#{!':{`{9_V,[)#:h_$:%:5%&:J{*:=:-:0$d_P*h+7$1%F]F]y@7$r#7^p#_%}+e+e+;:J{>:2+,:W{':e_i@6(J*J*h_r#h#R*n@7$7$h#Y&r!M*",
"F]0@>&):!:!+'/~:{:]!]:]~ ]V'^:Z(/:(:_:<(:(g(::`_q^U^B#u_l$<:[:<_}:|:1:A_2:3:4:5:6:7:8:9:0:`/a:b:c:d:e:f:g:h:i:j:W_k:q^</l:M(:/m:.:n:o:p:6_T)& X)K/k^e;e;x=1'1'g^W,q:r:e+f_f_P*s:M*t:Y(=:J*u:n;a@(%Q*Z&7$o@q#7^7^q#r#{+r#[+[+*:v:<%e_q#w:q#*:x:Z~{+o@^%J{I{n@y:1%J{1%y:a>",
"b@(%v@-+1,!+'/z:A:]!R~K)|'i~B:C:S(D:w{E:Y^n:F:G:H:t_I:U/J:{(K:L:M:N:O:P:Q:R:S:T:U:V:W:X:Y:Z:`: <.<+<@<#<$<<:{(J:%<&<b%*<M(W^=<-<._;<><P(8_,<f]}(]!@)e;<~#{I] ]'<M)[))<r#J*J*'&!<~<B==:q#{<]<=&0@F]J{0$0$F]h@:+q#7^o@h@~+n@j#f+q#B=t:n@Y(R*p#Z~^<J{Q*i#h+a@Z&R*7$:+_~U&M*",
"$'a$0@/<+'(<q;_<:<l!<<i![<V' =+]K]_(}<I Z^|<::1<H:2<3<4<r^5<2/$_6<7<8<P:9<2:0<a<b<c<d<G^e<Z/f<g<h<i<j<[_k<V/l<m<n<k:o<p<M(((q<r_r<s<<(t<u<[~Y*-)v<w<e;I*[^2(|''<]![)x<*:o@p#l+y<J*o@m@j#z<u:>&0@Q*o@7$n@p#J{o@{+[+o@:+p#n@Y(c$*/6([+:+x:n@[+7^J{c_Q*7$d#d#_%{%M*d#S*d#M*",
"|.x@j;A</<B<u#C<D<[)<<]~<'A!_:_:p_E<B:q_F<q<G<1<H<I<A#J<K<i:~(L<$_M<<_N<O<M:P<Q<R<S<T<U<V<W<X<Y<Z<`< [.[v_+[l<%<@[#[[&8]G<$[%[&[r<*[=[t<-[2~Q(}(;[>[,[v![^2(U~9_'[y{)[n@n@m]u@![j#7^j@{+e_~[{[Y&<+/+o@o@n@r#r#o@p#l@9$n@h+][p#r#p#n@3$q#3$n@7$a@o@h+{%Y&D=d#{%q+I{d#I{C=",
"&&4$9$'!q;q;/<^[/[A{:{i!([`{p__[p_:[w{N]<[::R/G:*<[[}/2_G@}[|[k<T_w_1[<_2[3[4[5[6[7[8[9[0[a[b[c[d[e[f[g[h[|/i[j[6]U^[&`_(($[$[g(k[l[m[6_w<n[Z(^:o[p[q[x=I*}'|'r[y{s[t[Z'q@u[m+4(h@v[h@7$J*w[E=w@6$R*/+y:h+7$0@n+/+r#n@7^:+7$o@7$7$7$J{7$j+7$~%7$_%Q*q+h+h+<+t#^%k]{%3%9@",
"a@y@G]x[b^+'(<y[z[]!S~i![<j~A[B[C[D[E[F[.:G[N(G<H:H[I[L&@_U/J[K[h:T_L[x_M[N[O[P[Q[R[S[T[U[V[W[X[Y[Z[`[J:R^J<K(j[ }^(H[8]s_N(-<W'.}l[8_6_-[w<Z(+}.{$ e;I*1~|'1'r[]!W,@}A<'!#}!:$}m@J*<%d+n#%}E=Q*M*{%o@:+1%o@J{h+/+l@l@7^7$n@o@J{&}H//+1%w@h+<+^%Q*q+q+5%t#5%&/w@q+<+*}9@",
"g@=}t@0(}%t+t+-};}>}U'K)l~,}A['}P/D[)}!}~} :{}q<*<[/t_+_]}&<J<^}{($</}w_(}_}:}<}[}}}r)|}1}2}3}4}5}6}J:7}8}]}L&t_9}H[</r/$[::#]G[0}*[a}6_-[% }~|~>} )q[<~e;I]1'{~b}L!c}d}4+[.d;e}j#f+e+{+]+f}~&Y&u-u-_~&}o@h+g}0@g@/+i#7$/+o@g@1%d#1%h+~%d#n+d#d#d#6$*}t#d#C=q+d#h}K*9@5%",
"l@#'h+i}B<c;A<j}k}l}l~K)l~b}m}m}n}o}p}q}_(f(::%[W^b%t_3<I:2_B#r}i:g[K[s}t}u}v}w}x}y}z}A}B}C}D}E}F}I(C#|/G}H}I}J}S//(M&-*-*g(r_k[K}n:=[t<u<L}[~#)v/m_<~''v!:{j~U(R{W~M}[%E]g+u@N}J*E/2+}+r#~<D=Z~M*Z&t#M*n@`&o@O}P}Q}R}n+S}T}U}V}(+W}d@X}Y}Z}`} |.|+|r-@|#|$|%|6${%q+q+2%",
"r#n@&|e>q;$*8$*|=|A=g~#/W~`{p_m}m}-|_[;|>|G[G[q</(9}[/,|'|+_3<B#U/)|J<J:!|1_~|{|]|^|/|(|_|:|<|[_[|}|u_K(||1|t_2<2|[&r/`_-*h(g(._3|s<4|-[w<-[3~Q(|(L b#<~&)g~|^U(A!L!5|}+e_E]&&6|f+i@2+{+h@w[*}x:h+d#M*^%w@(%/~7|8|9|0|a|b|c|d|e|0(f|g|h|i|j|k|l|m|n|1,o|y-p|q|q+Y&K*v@s#",
"o@p#-+r|-+-+B<s|t|A=b(k!D!A!m}m}u|v|w|;|u/f(-<q<N(x|b%9}9}y|z|A|B|C|D|4<E|F|G|H|I|J|K|L|M|N|#<O|P|Q|R|S|T|&<L&I<;*q^s_R/h(F:r<U|n:V|W|X|w<|,% |~Y|Z|{/1~&):{U'U( ]f~`|(+^+E]w@ 17(e+<%J*j@8$^%7^d#6$d#u-0@0@&&0|.1+1@1#1$1%1&1*11,=1g|-1;1d@>1,1'1)1$|!1~1{1]1r@r@<+2%*&",
"[.@':.^1+'/1(<(1_1* e'k!L)A!+]:1+]<1_[[1}1|1#]q<G<1121U^31}/L&]}41B#5161718191t>01z)[!a1b1c1d1H(G|e1f1g1h1A#,|i1^(h1G<j1k1._U|*[;<t<4|7_l1% m1Q(;[M/@)%)e;[<g~h~T'L!n1Z'}+4+r@o1r#}+e+e+j@7$p1Y&q+Q*q+q+{%{%^%q1r1s1t1u1v1w1x1y16%z1A1B1C1m+g|D1E1F1B@G1H1I1J1C=r@s@s#9@",
"(+Z'g|1,$|%*q;K1L1]!M1(!L!I]+]+]e(N1)}E:I f(O1q<M(M(p<[&9}^(t_A#P1k(k(B#Q1R1S1m<T1U1,~V1W1X1H(Y1Z1`1 2.2+2*<M(h1G<`_s/$[r_.:@2Y^<(s<- M/t<m_|~Y*|(p[c(@)%)}'b}U(#2B{$2%2p@}+X&u@Q*>/}+h@h@w:>&&/&/r@q+r@^%^%w@&2z@9#*2=2-2;2>2,2&1'29#)2!2O=G]~2{2]2]&^2a_-1/2r@t@2%5%C=",
"]+]+e#7@0_t+A<(2_2v<:2~~W~<2`^m}[2}2B:|2@=u/#]12N(r/`_</^(^(t_#[222_2_]}3242526272f!829202a2b2c2d2c2e2f2g2[/W^h2((x|#]G[O(5_3|i26_j2k2//-[S($ T)v/2~V)%)T(T{g~D{L)S~l2m2%2u@n2o2p#|+}+}+^+k#r@&&x@w@l+l+r@^%Y&p2q2r2s2t2u2v2w2x2f>y2z2A2B2t2e#C2D2k+6>E2F2G2H2'&r@5%K*9@",
"J*h@Y&r-'/+'3>0'I2]!:2(!W~}'J2K2L2M2N2O2p:Y^f( :O1h2h1[&q^q^^(U^[/P2A#A#A|Q26]R2D|S2U1T2U2V2@_i[W2||2_X2Y2Z2`2p<s_%[m:O(r< 3o:.3t<+3u<]/m_m_|~|~@3/:}(W)V)b(g~D{|'X,#3f^$30;n#%3|+&3}+^+h@h_!&w@r@r@l+s#t@t@w@m+s@*3%&9#G]=3-3!+;3v@>&>&s@x@G]d@j+w@x@>3s@X&v@q+z-a@q+I{",
"j#j@`&,3A<f^r;'3)3b'T{~~L)b}!3~3{3]3w|K J ^3/3f((3M(h2*<_3H:b%H:2|9}t_j(41:3<3[3C|H)W!62}3+2 }]}3<|313U^233343a%536373U|X^U|n:=[.3t<l1L}Y*k2S(V*+)k[*)W)e]83T{Z{L)X,93a;=+03P&[%8$j@^+m@a3b3=&6$t#l+r@s#l+l+s#n+x@u@x@&/&/b@e#c3u@S&l+s#l+l+s@k]w@x@d3x@s@v@x@r@W&w@>&r@",
"g_{+`&e3f3J//<g3h3l}:{(!83w!K]Z*]/i3j3a]5_/3f(m: :{}N(p<`_</k3H[/(b%t_22T|l3m3n35;3)o3p3I<q3*<2_2_r3s39}2|t3u3v3w3x3g(y3f$z3.3s<=[-[j2L}-[l1m1|~1~A3#)$)*)i]B3Z{L)X,C3D3E3F3G3;/^+{+]+3$&3H3O*5%<+q+6$l+r@s@;&l+s#s@l+s#r@^%&/w@x@t2'&r@&/@*z-l+l+&/l+&/l+x@r@b$>&>&I{K*",
"e+]+I3J3W&q;f^K3L3M33^#/L)P!+]]/n[O1w{N3O3Y,^3._-<#]G<h2P3Q3D*/(*<*<9}I[P2R3S3T3G@U3o3V3W3^(X3Y3H}L&Z39}k3r/:>`3&[r_z3f$ 4z3.4=[-[t<u<w<f]+4f]|~x=a}g]$)X)i]83Z{b'K!@4#4A@ 1Q&b+}+]+]+(+^+$4_+w@^%<+6$6$r@l+l+n+l+l+s@2%n+@*&/E3%4a|=3&4*4=4-4m+,3l+w@u@r@n+k]6$n+l+I{C=",
"n@J*F]1>;4>4,4'4)4!4~4/!83('K]{4p[]4w{' ^4^/Z^._/40}q<%[h2</P3(4[[[[H:H:_42|U^:4<4[4L38)}4b,|4142434;*44M&G<N&5464D:k[k[0}3|z3<(6_74p[L},<3~f]Y*@3- e].],+i]D!2^{!M)8494u#t;r-04{+^+h@&3n#X{O*Y&6$l+w@6$6$q+b$l+s#8>5%^%u@|.a4b4c4d4/2e4f4g4h4a4&1n+w@@*&/w@w@h+.*s#C=<+",
"~+q#Y&g|i4-[=4j4k4l}l4(!i]('<{]/k^:^m4O3m^Z^_(U||1|1s/R/-*r/p</([[*<*<34[/;*,|n4i3U^o4Y^g!r[3^p4q4r4Z_</x|53s4M&t4u4;<g(y3*[n:<(Z|Z|l1L}l1S(T)`(|(a}e]V)V)i]D!z/{!f~v4r;7@q-6%w4]+m@J{J*7(E/I=6$t#q+I/k]a@6$w@r@x@*&r@q+4$=1x4y4z4A4B4C4D4E4F4G4H4m+w@r@5%r@w@I/q+'&a@9@",
"n@7$c3G3#:8_I4J4[>J!W,~~K41'X*d(L4|2)}O3N3I 5_._Y^.:g(r_G<-*G:s_W^Z_[&}&M49}N4O4P4Q4R4_1S4S2T4}'y#U4E:G:V4R/j1x|`_g3' W4A3._P(5_m^X4k^3~2~T)+.`(o[l[Y47'Y483<'h~A/{!Z4b;2.q-]2`4(+q#q# 57^J*>&_%_~6$q+&/a@w@l+w@q+s@q+Y&-3.5+5@5#5$5%5&5*5=5-5;5>5u@n+@*t@&/5%q+6$s#<+*&",
"J{/+v@,59+'5)5!5~5J!~4c'}' ]l1B[K f({5c]]5]5^4:(K}n:U|r_%[w3w3q<`_^5h1/5/5k32|(5x|_5:5Z_Q3#]U!<51'[51@}5s4q<w3x|N(r/|5W'A3.:Z^<(^/]/w<15S(m12535o[45#)#)X)8383h~b'{!Z4557@659#75[.7^t:c_q#f_-&w@7$3%w@@*a@n+^%n+w@b$u@n+B@859505 |a50@B1b5c5d5e5e50#@*n+'&K*'&t#5%r@v@x-",
"/+7$s#4@8+f5B1g5h5i5j5(!K4j~d(~3l^%[k5l5m5]5]5.4Y,n:U||1$[%[%[q< :n5o5p5q5W^[&H[a%h1q5r59]s5r<t5u5_^v5M&|2w54_q<#]x|J2^3;<^3.3^/.3- p[S(T)% /:Y*o[4.e]Y4#)i]<'h~b'L!&+1$x5B]L=y5p#n@h#h#7^J*-&<+{%q+q+r@8>&/w@n+q+6$x@^%-3z5A5B5C5D5q+d@:.E5F5G5H5O=v@t@5%&/K*q+ *s@*&X&",
"n@d@t@B@I5J5(<K5{^L)L)k!L!T'{3+]K2E<{5O2c]^/> J Y^U|.:G[#]w3N($[n5p4N(h2p5h28]W^/(o^M($[p:L5s5}1M5N5O5G<=<>|P54_s/i(Q5L]L]:(Z^^/k^M/15m_3~T)Z($):~u<$)e]$)D!D!R5V,V,G-S5r-A]9#T5n@q#7^m@o@*:U5K*5%C=s#C=<+5%n+q+^%6$&/n+i}V595W5X5b@G]n+*&H=~&Y5Z5<+a$&/l+3%5%5%5%5%v@ *",
"~%~%l+1,0+k2!/`5 6*{i]#/D!<2~3_:K]24{5.6+6@6m^m^Y^^3F<f(#]$[-<#6N(s_`2((s48]W^8]x|w3%[G<(:N]Y3$6%6&6*6=6-6m5r_;6q<N]+]Y^o:s<^4^/- M/p[]/S(/:Y* )-!25V)$)e]83B3>6{!M),6a;}$'64$p-o@J{c_J{9$B=)6w@5%'&r@r@l+C=s@'&<+q+s@r@!6~6{6]6^6/6(6_6:6<6B1a@n+s@v@ *l+l+6$r@3%2%*&2%",
"a@l+7^m+[%k2[6G-}6|6~4#/83b}+]_:.6N]1626X4d]O3J 36Y^Y,>|t/ :#]i3q<:/N(N(s_8]`_N(w3j1::%[#]0.E:4656L]I)}4J2:&%[4_66k[U|Y,5_><5_^/+676-[`(m_S(Y*f].{/:V)i^e]b(B3h~M)8696#'$'06r-I5j+J{h#7^p#n@S)l+s#K*U*K*s#C=r@l+l+l+x@r@a6b685c6d6e6f6g6h6h6i6j6b$X&X&P*s# *s#K**&E=P*;&",
"o+f5k64@c+2~0(l6k4m6l4#/l~S~K]d(!3E<n6l^X4^/m5O3o6o6A3_(t/p6 ::/4_P54_564_$[$[R/-<%[w3q6>|r/24Z^C[r6})s6$[t6O1O1W4#&Z^Y,L]u6]5+6+6k22525j^35`(}(-!+3W)%)v6~/K4h~A{A{w6Q)!:'6x6y6~+J{7^J{9$j#z6X&*}3%T&5%3%X& **&*&X&S&v@&/K5A6B6C6D6E6F6G6o|H6I6J6>&W&;&*&*&*&2%2%>&i;i;",
"/+u@8'0#K6L6M64,N6M3W,]~l~S~!3L Z*U|O6`^`(P6M/m^m^7_5_}1Q6 :p6 ::/4_:/q<s/$[h(%[%[::r_s/k1n5r4H[R6S6T6U6V6r_w34312J 5_W6Y,><J O3c]]/L}X6S(/:/:g]K/>4Y6$)V)L!Z6U(l4l!`6 7a#u;G*.7o+o@n@1%7$e++7>&>&3%U*5%l+2%i;*&v@X&5%v@v@j;G2@7#7$7%7&7*7=7-7;7>7;+;+>&i;X&X& * *v@>&W&",
",7{,'7z-)7k2A1!7~7M3V,x!T{b}o_L !3[2{7l^]7`^{3P6m5m^P(^7Y^u/g(f(f(f( :#]p6V6r_$[r_O(r_g(r_O1u{/7(7_7})^!S3:7o:P5>|<[<75_><><m^m5[7M/}7p[`(S(T)%)%{|7e]%)&)D!F{{~l!b'D31727C-1,C]$'n@J{1%y@m@+7T**&2%'&*&*& *i;x-X&E=)&F237s-5%47_+S)},8'*357677777@.{&s-W&>&_+X&a$X&!&_+",
"<.8797O=O{ /07'4H[m6q:#/D!j~o_a7d(c]b7{3`(X4.6k^+6; m^p:<7U|.:#]._G[V6r_r_k1g(G[#]]4-<k1-<-<c7}2d7e7[)f7n5:7g7N(~}!}A3m^^4N3m5c]h7.615{3S(S(35L i7`(.]{/v!~/W~h~y{V,j7A@k7_&@*q-d@1%7$n@0@w@X 2%*&T&*&'&>&>&x-K=P*37v@>&x-l7m7n7o7y-J=-&>&p777q767r7J=W&P*W&-&{&>&W&{&_+",
"m+6>Q*u@b+Y*s7t7u7M3y{k!<'B{L/v7d(.3w7K]]/|7[7l^> [7m5o6A3_(Z^F<F<G[S3.:#]V6V6r<f(::g(G[V6;<O2P3x7y7z7^!A74_f(B7F[u/F:C7D7E7F7G7H7R6A[n^d(b#d(35.{^/<{V)X*e'Z6I7{!W,J7F*f$K7d>i_o+y@1%/+I/d@+7_+*&2%F=2%*&>&{&N*x-s-v@>&j;L7M7N7O7@*x-!&*&P7Q7R7q7z@W&;+g;J=g;X&;&W&/,W&",
"d@f#5%0#0+}(%1'4S7T7]!w!1'B{.]%)}(l12$K]`(M/ /d][7[7m5m5^7Z^5_A3Y^:(G[g(G[S3f(p:.:U|V6S3u/u/U7p<V7W7X7Y7Z7O1<[ :`7 8P].8+8@8#8$8%8&8*8=8-8l_;8>8,8l^i^V)%)}'~{I786'8)8!87%D3a#7$o+h+h+n+0#y@+ -&>&v@*&i;>&;&/,>&{&;&/,>&~8{8]8]8^8/8(8_8:8<8[877}8|8;&w-;+;&{&;&W&W&K=-&",
"k+7$189#y62838u;48.{86i~b}B{v7C:.]3~w7 /T)}7S(M/P6[7+6O3m^58p:Z^<[_(12F<t/F<A3.:_(Y^U|u/J2>|68p4D 78W,88v|98 :4_08a8b8c8d8e8f8g8h8i8j8k8l8m8{5n8,8o8c(e;W)L)Z6{~86[)p8q8]&),3.o#a@C=!+4$-+h@3'J=W&'&i;i;T&;&;&-&_+;&;&J=27r8s8t8u8v8w8x8y8z8A8B8C8w--&-&8';&},i;_+w->&1(",
"j+4$v@a$4+$ &*D8E8A=[)V'F8G8V).]g]4|W*Z(/:m_l1S(p[[7c]m5+:m55_p:m^F[u/f(^3Y^Y^F<^3U|E:_(_(K H8P53{I8J8K8L8M8r_o508}5N8`_O8P8Q8R8S8T8U8V808W8_^X8Y8Z8 =`8e]D!W~g^!4y{ 9A@|$94,5B-r-S*j+x@j+h#.9},-&;&)&;&)&!&_+w-_+-&;&1(V&+9@9#9$9#9%9&9*9&9=9/2-9I=-&V&V&U)V&{,_+-&g;W&",
"K*~%;&K=o#Y*u#u;;9]!<^>9R{l~V)V)V) /= V)/:p[m_]/]/X4[7M/^/P6+6N3@6Z^P(Y^Y,P(P(o:P(Y,Z^I e(,9t/'9)9L(!9r[~9{9^7]9^9/9(9Y3C _9:9<9[9}9|91929394959|{69c(c(e]T{839_A{]!K3|$6%7989c;G]~%j+a@l+~+O ~,w--&-&/,_+-&-&W&W&w-w-U)99},09a9b9c9d9e9f9g9h92,*3w--&V&..b>+*V&/,h;V&-&",
"a@&&>&K=j@S(u#'4i9y{<^:{z!G8V)@)>8> j9S(S(}7m_k2]/l1}7X4+6P6]5m5J A3k9Z^p:P(m^m^5_:(<[m}; m:3{l9W8m9n99_o9p9^7_3q9r9s9t9u9v9w9x9y9z9A9B9C9D9E9F9|{G9g]i^{/l~i]U( {A{K3**N/#}|$Z'H9q+j+h+k][.;)99V&w-_+>&-&-&I=W&w-V&$.1(O*I9V&F2F2J9},r+*3..{,0>V&0>{,$.$.S)1(V&h;W&~,V&",
"r@l+@.J=7(T)a6F-K9]!l!L9P!:{&)V)M9s< _N9Y*T)m_S(3~l1}7`^}7+6+6m^O3m^<(^/N3<(m^J Z^A3J2s<F:98O9P9Q9R9f'<5S9T9A3U9V9W9X9Y9Z9`9 0.0+0@0#0$0%0&0_^*0=0M9@)i^V)83Z6h~ {A{-0Q&N/;00#~%&/w@h+o+k]T&#)V&w-_+!&>&>&/,V&F2+*+*1(d~~,0>V&w-U)$...I98'U){,V&{,V&..},~,V&{,},1(W&V&I=",
"U)s@v@{&r#+.|.>0,0b'|^S~U{l~h]Y4@)Z(|('0X)/:S(S(S(S( /M/d]P6+6+6; P6+6m^m^Z|+6p:m5+6)08%.:Q6!0~0{0O4f']0^0~ /0(0_0:0<0[0}0|01020304050607080_^w|J!K]{/,[X*T{i]R5A{*{906%00a0%&'&w@6$6$d#C=b0^)$.w-;&_+;&_+n;_+F2|8I9w/V&1(-&*3U)I9c0d~$.9>d01($.U)~,W&},1(-&},},+*~,},99",
"x-s@%.;&{+}(-3e03@L)3^S~f0:{W*{/Y4k2o[.]Y*/:S(Q(`(K]]7S(]/M/`^`^`^`^P6m5m^m^^/m^g0`^h0z3A3A3)}~0+=i0X,]0j0) !0k04{l0m0n0o0p0q0r0s0t0u0v0w049Y8`8M].6&){/X*l~i]Z{f~l_x0x6r7G*:.{&b$q+6$q+g;v@y=},{,-&W&O*I=)&J=y0},z0>2-4>2A0W&V&J9d~B0C0D0E0F0G0#*},w-*3*4H0h5):V&8'},8'",
"{&s@..W&S&97b@&*l2m!g~I0U{<2J0K0X*]/o[c(X)Y*Y*35/:Z(S( /p[p[X4`^`^l^[7+6^/> m5265_*[p:L]m^k^m4L0M0!}_{N0O0P0Q0R0S0&]T0U0V0W0X0Y0Z0`0 a.a+a'8|{`8@a^:i^v!&)]'D!>6l_l_#a$a#*q;%a *8>K*q+q+P*H=  1(V&1(V&+*_+-&a$&az@*aQ}=a-a;ad;V&w->a,a'a)a!a~a{a8'},W&]a{8{8^a/a1(U)},$.",
"v@s@8'V&7$6'X&%&(aL!:2:{k~|'b#O/e;K].{v!W)V*_a}~e]L /:K]}7`(M/M/h7l^:aP6+674+6<a[aO3@=E:^4X4}aP/)}|aM!N01ac72a+a3aW94au{5a6a7a8a9a0aaaba{ T,|{w7@a69b#<~e;I]83>6l_){cadad0:.o;~,K*L*)&2%*}47)'f;9>S)T .*I=-&V&eafagahaiajax6ka{,laA677B8manaoa~,U)T paqarasatav#1(9>f;f;",
"X& *I=J=,3;!9#A@B@V~D!c'@/b(uaW*v!!3* b#e]vaX)}~Y4Z(Z(p[`^Z*`(M/`^`^.6`^X4l^X4O6Y,|2waO3L226.=O3j34_xaN0yaP/Q0*]W9zaAaa]BaCaDaEaFaGaHaIad7JaJab#@a_:,[b#v!l~83>6){){x5x6>4Ka@.i;2%3%*&*&'&9@3'Lab>T V&~,..1(},MaNaOaPaQaRaJ=V&SaNa$9TaB8UaVa;+..).WaXaYaZa`a b},d~U)f;9>",
"P*X&W&)&;&#{;+=+.bE{i]+bb}<2b#1~{/]7l},+T(}~j^X)g]T)M9L `(`(`^ /]/{3{3]7`^M/P62$k[O3O3L2h7/0@b24,8S3I0N0#b!0{5$b%b&bAa_/P/*b=b-b;b>b%6,b'b)b!bW*>}S(W*,[,+]'Z6D{ {A{~b)+#*L=J=1(3%L*T&)&)&{b)'d~d~9>..~,V&0>~8]b^b/b(bF2_b1(z@:b<b)aQ7F5s7K=_b5$[bsa}b|b1b-.>48'..U)f;f;",
")&i;{,{,~,5'):d$x6b'83~~1'I]8@v!b#`*l}e;,+z=#)e]g]g]g]g]Z(Z* /Z*2b / / / /M/k^3by3' O3K e(K {74b|{BaR~'<5b)}$]za6b5b7b8bc]9bm80b9bab2~bb26})<^`8'[%)I*z{,+<'~{{~&{A{q8cb>4db@.F=2%3%=&=&_+L*#)d~..9>T {,V&I=ebfb>7gbSahbI=ibjbfbkb~albmb0>*3nb`aF5obpbqbrb8'sb{,..U)f;O ",
"3%>&9>f;-&^)$.w-r+-{l~]~j~G8<~tbb#ub!4I*,+#)#)V)X)g]g]M9M9Z(Z*`(K]`(K]]7Z* /]/= .4M/`^l^c]`^vbr-G wbg~xbyb_:zb<12{p}P~c]o_AbBbCbE7DbEbFbL4W,'[z{y{^:!'I*e;<'K4r[V~A{)/d;>47>Gb)&*&T&T&n;_+E=X S)b> .S)b>b>V&HbIba9JbI=O*&4Kb]bF5Lbk|Mb0>},18NbObPb8|Qbw/9>]%%9h59>9>*'O ",
" *>&_+ )S)(.{,%&r7-{`{K) ] ]1~1~<~w<-!{/%)$)e]g]$)}(g]^:v7^:Z(/:K] / /S( / /]/Y| 3Z*P6P6`^<~)1RbO3./f0SbTbUb* VbWbw|)~p_c(XbYbv{2aZb`b49`(f~v<tb'[35I*,+ c}'W~xbW~*{$3)+w/W&1(U**&2%T& *;&E=w=U)S)S)S)b>5$S).c+cw1I=O*@c#c$c%c&c*c&1-&V&o;=cob>7%5~1-cU)..;c>c,c9>f;O O ",
")&_+'cM=U))cJ=}$!cL!:{Z{R{,}z{1~[^z=;{1~7' cX)X)V)g]g]g]^:M9^:Z(|~S(3~`(Z(]7`(@a~cL .6M/b#.}d]_[A=h~{c]c^cm8@aq_p}w|S!o_{/3^/c/cT6(ct5/^Y*L)V(!'v<!'I*[^_c]'F{g^ {V~:c^&D-<c-&O*T&T&P*T&/%/,%!%'[c]%S)T ....d0}c~,T ..8'|c1c.b2cz0S)b>S)Gb1c3c4c5cw/La .9>6cf5U)M=R))cM=",
"!&T&5$% ;&;'%a:c)+D!:{f0~'T~>'!'1~w<;{I*,+T(*)$)e]7cg]M9g]Z(o_+}Q(]7]7`(p[/:]7A=-[`(`({/m[p:a7m8{~8c9c0c:~acn[- W*c(bcO/ubf5J=ccdc6~X4.3V~X,f~!'&{Y*1~I*e;l~K4g^L!f~r-8~ )0~1(a>-&>&T&T&v-=&ecM=b>S)U)..[cb>T .*S)b>.*5$9>$.U)9>$.d~b>1(S)$.LaJ9!.M=M M=M 5$5$f;O fc)c%'",
"W&-&5$M=W&,+-ca$d0K4S~2^1'F8tb@3!'Z(T7@3,+7'*)7'Y6vag]}(Y*Z(Y*L `(S(/:Y*]7T)S(Y|6_Z*28W|o:_[Y|9_gcv{8#K/M !3c(v7x{hc/!ico[<~jckc@a* l8J!l}lc&{1~A{$)!'v/W*:{839_W~833.5~D-|,& h}-&_+,7v-/%H=mcf;M=+ O*,7.*..~,b>5$+ . U)f;S)T Z  .5$ncd~9>9>9> .!.M M M M= .M=5$5$oc. ).",
"-&~,~.M {&''LaJ=pcW~ ]Z{I]R{qc!'rcscW~tcy/,+7'$)e]*)7'Y4Y*}(S(+}35Y*}(Y*Z(/:$ 7,{4ucvc[7g]v<wc{cxcE0yc; .]9c.]B:jcV)_)zch~D{D{R5h~lcU(U(lc]'}^I*&{$)|(z{W*:{83h~:{W~Kaf5T)76f]99g;W&-&/%_+=&2'nc3'  S)5$+*T b>d~U)S)b>9> )R)9>f;9>9>f;f; .9>M=!. .# # M &  .O %'O O ]%Ac",
".*1(3'% l+!)Bc@.d~D!|'3(b}E!+{Cc2',<l_tb[^[^7'&)*)5'$)j^e]}(#)28}(+}Z(/:+}/:X|'[<~Dc`*!3K/EcFc97):Y|{3!3(/v7v7g]-!35#)!{}'G8 ]1'`{ ]j~A!:{='#{rc-{W)z{tbz{A!2(U(I]D!#*f5w/]/x/i;GckaV&+*-&^,4'M + 3'T b>..f;b>S)S)f;f;f;R)M 5$M 9>O *'O 9>R)9>M O R)nc$ M=M= .f;Y %'%'3'",
"S)$.mc(&  Cc4|00&!I] ]R5~'Ec@3v/+{8@>{@3[^U 7',+&)X)$)X)W)y=X)|~g]Z(}(X)Y4}(&)l~Hc]7Ic.{h~8c[^D-K/`(Q(Z(ubg]+}tcg]o_j^[^P -{ {&{,{A{i]W~P >)@3rc-{$)Ccz{z{j~l~U(I]1'c;%aJ9,+,+{&$.~,.)-&1(H=,'# + *'*'JcS)O *'O 5$O O O & # M M=*'*'*'M=$.R) .R)M M nc# M=M 5$R)~.+ -)3'",
"+ M=)'&{Kc#{5cLcT)83|'z/|'U~@3Mc!''' {'{1~>)[^v!I*%)V)W)X)$)X)X)g]j^X)j^g]i^l_S&}~c(;{2^u5n2X&./%)X|V*|~g]^:&)b#o_X)e]Y4>'y/1~e;>)R(l_NcI*+)@3OcV~Y*rcPc2$|'|'h~QcRc,<+4 )Sc-{W&$.99V&~,~,0>U +.+.M M=[c'c)cnc%'*'M %'5$# # M=)cM=*'M=M=*'R)R)R)R)M=nc& M %')cT M=-)-))'",
"X [c97(.p1>)f5Tc$.W~I]z/1'Uch^.!!';)-{-!e;1~1~e;I*%)&)%)W)e]*)Y4W)Y4X)$)j^,+V&)'.!v/1^u5+}L}v<(/k^Z(V*g]g]%){/<{X*V)Y4V){/1~%) c>'Vc'{rcU !'#{#{>{e;rcI*@3A!G8lc|'`{WcX6#*,'+{Xc*'S)kaS)5$V&u=& # . M=]%[c%')c# M=%'M 3'+ ncnc%')c. M )cM=M )cM=R))cM M nc& M=f;R)M +.# ",
"& [c  ].97;{-c]&d~R{g~>61'('v/rcYc;)Mc'{<~tb#{1~!'1~%),+,+&)$),+7'e]V)W)%)z{V*b#k2F8U(h^`('[I*ZcububY4.]J0v/Y4c(V)v!L/i^x=8@{/x=e;1~PcNc#{2'>)`c'{*)z{@3@3`{1'I7|'^'j+ )S) d.d=&Y S)9>5$*'b>=!~.  Y M=)c+d%'*' .]%O )c)c+ # )c%')cM=& M=)cM=)cncnc+ -)# ncR)*'M=%'3'7';)",
")c3';)Y{~.,{/:+ W :{T'h~b}c'z{h^c~@d,'#{!'z{e;[^>'@31~,+&){/{/,+7'{/.]%),+tcq[= w<#d$dy/#{W*%)g]@)Y4.]Y6tb%).]V)&)V)%de;b#<~I*!',+I*_)2'$!#{1~={M=#{!'rcz{j~,}&dT{j~|cd~f;+/+/F=v=w-%'R)f;R)!'& & )c)c)c)c6'# M=%')c& M -)-)M=# %'+ O M=R)R)& +.# -)M nc& %'R)M nc(.)'*d",
"+ ncZ x-=d,<-dL=f;83:{;d1'x!y/+{2'>)=)2'_)!'q[q[e;z{!'<~v!v!e;b#,+,+$)*)j^rcI*1~ )>du5!'&'W*`8Y4$)@)&)y/X)V)@)%)&)hci^>'v!z{#{[^#{+)_),dNc>)y/'d;'rcrcCc:~j~b}9_`{`{TcM= )9>%'F=*'~,[c*')cO +)N [~N # M w=y=$ )c-)nc!.M M R)% M=*'~.M  .X6M R)M R))d!df]m1% X6T)& y=5'Y)",
"McN v=& |8# z=X|99I]A!R5R{U{PcNcrc2'+),',+){1~1~e;!'z{1~I*W*>'%)W),+W){/W)v/,'z{2~H]u5tbx=I*V)V)W)V*:~<~%)%)%)X*{/&)7'<~''1~U #{I*=!_)J]2'2'.{_aMc+{rc !Ncb}1'9_`{ ]Lce3ccd~(.~dM f;R)%'M=R)#{# w=& y=+{`c+{c~'{rcc~.!2'.!@{#{!'+).!rc@3#{+{c~.!u=#{=!!'2'!'!'+)rc+)()Pc",
"# R)X f;y=*dj^+3{dQcS~U(1'f0`cNc`c))+{!'*),+Sc1~>'!'I*z{e;<~<~e;I*u=7'I*$)-!1~y///z/]d./>'q[e]V)}(A=8@b#V)e;b#%),+x=x=1~@3!'[^!'!'I*^dCc2'/d(dMcrcrcrc;{2'1^I]9_j~:{_dm1$ +.7'T nc)cM=R))cR)#{97N # u=!'3'*d*dY)}~5'y=].+.y=(dy=:d*d)cncw=%'<dncy=*d)'y=  N 6','^)(.6'%!",
"f;R)M R)-)-)Y*-[n2:{S~U(T~Ec()'{Pc+{()McJ]#*c~v/z{!'!'z{1~<~q[[^I*I*,+ c,+A=<~W*L}R5]d2$>' cW)u=D!o[K0{/,+#)<~tb<~e;I*x=<~1~!'#{#{=!`cJ][d5'rcrc+{y/y/`cPcP!]'&dA!<2vc+.% f]W)[c3'M R)R)f;O #{y=$)y=y=Cc:~`c`cPc}dy/!'tb!'2'@3rcMc!'2'.!+)2'.!c~2'c~c~c~c~Mc}^y/y/y/+{}^",
"O |d~.}~[~R)T)|,Z |'S~h~1'Ec-!!{Nc}^1drcy/!'|~v/>)!'1~!'.!=!I*!'I*I*>'e;[^v/[^e;$)z/]02$>'e;w=>{>}X*b#i^{/%)e;7'x=>'>'!'!'=!I*2'#{=!()'{*),+rcrcScNc}^_)2dR{]'9_A! ]5~$ -)% 7'_aAc^. ..)(dR)3d7'x=#)5'>{-{W~4d>{Scy/.{`c`cSc()y/y/}^`c!{5d!{1d='_)='!{+/6dV V V ={={={Y{",
"w/d;${j^N & X ^&+7|'V'3(b}/'`cScJ]Pcc~'{y/2'v/-)+{1~=!u=#{>)<~''x=I*1~[^x=v/U 2'#)9_Sb,[W*e;y=v<c(&)#{{/e;7'e;I*e;{/x=,++)x=[^v/z{!' !Y63'>)@3rc:~`c!{P Pc/'T~9_j~A!7d|~$ |~;'b>+dR)M=f;3' )83;)!'5'U }'{&T T 8d9dd~/,x-N*kaI9v@0dT*;&X&adJ9bdU)@.%.*3-&.*T 9>;&()y=mcZ ",
";'4'cdc~');)(.},^.b(`{D{1'c'&{ScNcPc}^&{-!!'Cckc,<`c1~=!U !'1~.!x=I*I*I*,+-!>'K/j^g^]0 _z{<~N v< _e;<~e;,+x=b#q[>'I*I*+)#{!'I*Cc2'()>'*)!'@3>)rc()6d}^_)Nc('G8'<('b}dd[^& %!{{Yc{{{{=d,+N ;'b(!{!{[d-{E!6(l]x@0(2co;edfdx@B<C]y6C]C]g+%28$6@A<}+/+'!q@$'o+/~<.}++ @.@.-3",
"X *'{)_.]{()=du=ec83V'D{b}|'A{A{T7'{-!()()}^@3rc!' )f~@3#{!'>)1~@3I*=!x=e;Sc!'@3w=9_]0Vc|(rc[~.{-!1~<~h]x= ce;e;q[I*#{+)=d>)@3CcCc-!e]z{1~'{@32'rcPc1d!{gd>d_'9_hdR{id  v=Scc~oc^.=&+ %'jd4'*!. ;)#{2'Z{&}kdldo-mdq;ndodpdqdrdsdtdudvdwdvdxd/{ydzd7+V{AdBdw4;/CdDd[%B<0_",
">'X)Jce;#  !#)+.3'b}U'Z{EdFdF{&{&{!{`cPc`c()!'>'rc,'Y*Sc>)>)@31~@3!'>)1~Cc){tc-!# g^]0l}y/!'5']!W*tc1~1~>'I*<~I*<~h]Mcrcrc>)Cc@3<'T),+>)2'+)rcy/rc1d&{'{={('_'U(b(}'Gd*d,+<'*!Gb*dM y=,+;'@)rc+7U +)}^HdocIdJd&&z@>4/<t;9'2>Kda; 755e> '17Ld55e>=+7@5@4@B@1,1,>/Z }$-c )",
",+6'ecI*MdJ]e]|~j^|'|'Z{R{){1'A{v<-{!{Nc()PcNc2'Ccrc[^*!='z{@3!'Mc#{!'1~z{>}tbv/3'U(SbA=W*e;ecm!2$W*<~1~1~q[W*I*<~1~2'+{>)@32'ScI*4'2'rcrcrcv/'{5dPc){;{Edl_NdOdl~l~1(#),+l}+)  *)[~3'.*NcX*){^)4'')Pdz!z=# #)`{M1_)tbA=.{v/tcA=:~h^;[;[Qd@aA=* A=A=v<A=K/y/Rd.{SdTd|'w=",
"(.%!rch^)'5'*)|~v=e'k!D{('I]-!}';{){UdNc`crcy/}^y/()rcR)<'1~@3rc=!>)+)Cc@3>}@3A=Vd>{Fck~2'z{&'Wd= W*J0Cc<~W*W*1~1~1~1~rcrcCc={ =j^v/@3@3+{()`c'{_)!{P -{_)2(_'U(2( ]d~N #)Vc@3-)[^;!# # |~b#-{+)')$!=!R{4'Y N A!XdYd;'Y&;+dae01>#}q8s;Zd=+t+~+6^#'#'C/s@r@{&00$)%)x/Sd/:",
"y=w=<~y/Y67'5'X)v/A!k!g^k~:{83()|''{`dy/}^rcy/Ncy/y/rc e}'7'Ccrc@32'>)I*@3Nci]]!A=$)A{{c.e!'}^B3jc|(1~I*z{1~1~Cc!'rc>).!rcl_V'`(@3y/v/rc+{2''{'{){_)+e_)83I]/'Odk~ ])cW)Y61~!'y=5'3'ncw=*d&)`)/)@e#{#eE!x=M # b(>'_.-{,<# T) . .R) )!.#  . .f;5$S) .f;9>M y=Y*v<S 2':2$ ",
"(.;!}~-!7'!{e;X)>'L!;{m!f0|'l~i]{{$eNcy/y/y/}^Ncy/()+{1~l~z{CcCc@3Cc>)!'I*N +4f~L!-!c'{c%e@3!'f~X)@31~z{z{@3z{z{>)!'4>!'!'B3R)kckckckcy/PcPcPc'{%{B3^db(l~&e`{!''{ ]*e{/I*y/+)& }~[~+ N vag]='J]J]=!`)f0,'U)M :2+.d~;'& R)3'M O + M M=M # M=& M M M=@ # )c;)nc,.4'# =eM ",
"#!ec=d_)()D!P +)x-% @3[^-ek!|'}'f~;e>e3d}^Pcrcrc}^rch^v/g~[^rcrc>)2'2'I*>'<~1~K/>}W*z/{c*e2'@3~4V)z{!'R(!'@3z{@3z{+)+)>)!'83,+-!rcy/y/rc()()!{){6dy/M!l~B{|^tctbYc,e~.z=-!-{'{N %!@{U ,+{/e;'e6d`)={ ]Z{^)..%'83d~O & f;Y (.M M y=w=+ + M=*'*'idncnc# )cM ;)  M Y)# =eM=",
"0>W&-.X~#*-9&{C:L}d$.c$)'')eU{|'83&{}^D!;{&{y/()}^rc:~rcS~#{rcrc@3+)2'1~1~>'<~NckcW*h~$d*e=!rc83-!rc@3!'@3>)rcz{rc.!2'2'Pd834'`c()'{rcPc2dy/='!e`cL!D!z!z!w7`8>)c;x-25% Sc~e )},#*M=n297M=37{e('x!H]K)]06'T . f~_+# R)*'AcM=-)+ ].3';)3'+ %'O M )c+ %'3'+ :,*'nc*didZ6f;",
"G]k+]&|.'c]e^ec( /M/l6m[_:K]rclc<2/e-'2'W~-!(ey/rc`c(e,':{CcrcCc2'!'=!2'Ncrcu=_e`d2$I7$d')rc2'K4,+@3>)!'>)Ocrcy/>)2'+)+)2'83N Nc`c}^}^y/Pc'{~{y/={i]1':e3bw|v!%*5>Y*Q(La<e[e!,d$r#w@ *>4w-d@_'l~R{R{c']0,'sb. *{>&w=)c. )cy=3'(d3'*d%']%M *'. )c+ M -)}e+d|e1e)cncXcZ)Jc",
"w@r-9#!+4@2e3e4eL  /|,5e276e35J0f0l~W~7ec~={Cc-!y/Nc(),+U'CcrcrcJ]+)=!2'y/!)x=NcNc2$'<{c;e}^ d%{h]rc!'2'2'2'rc(e>)2'))))+)~{,+`c'{}^Nc5d}^D!{{>{D!Sd|^+=)}<{8e2e# Q(h]9e0efd[.Id`'q+q+7>s#(.1' ]j~j~`{<54'[cb>_)'&ncM=(dM=aeM + # ,'M=M=Y :,5$%'+dM=+ :,AcO :,)c+df#%{*'",
"[.y@t#%*2e3,becede{435//C-K5K]Z*b#k!T{D!-!/)l_'{1dNcNc>)1'v/Pcrcc~Oc2'@3rc>)K/y/){m8xbu5eerc+{b(1~>)@32'2'J]@3CcCc()+)2'c~cd!'!{PcPcNcNcC!Mc>{K41'z!B:!0g]fe38d~)cV*geheE-4,ie(+[+*/9$6>h+m!`{1'Z6]'|'N0[^[cM=_)U*%'# AcncM=R))cR)  ` O jekeO ..%'.9nc+d+ O )c*'len;4dR)",
"&/c;$'B<mep!neoepe,c]7ac-)qere /Y4@3k!:{E{}^P _)Pc!{'{v/`{rc()}^}^}^rcrc()v/v/* Nch]]0u5;erc[dD!@3rcMcCc2'2'2'}^Oc(e5dc~c~}'tb_)!{y/y/'{_)){L!{'T{}a!06_se5>D- )^.teuevewexez:y67^h_]+y@t!83w!l~~{Z6|'N04'*'Ac_)*}+ 3'5'+ nc(d3'3'+ + )cQbyef;M M=+ (&-)3'+ )c*'. zeW~M ",
"y@c;AeD3iea^0eBeCeDeL6w<4.w/EeRa`(|~jcD{j~E{:2){Nc`cNctbb}rc-!rc}^>)Cc()Pckc|(y/-!W*{cu5Fe+)J]W~@3v/@3rcrcrcCc+{rc`cGe}^}^l~v!'{_)_)rcb}`dL!83~{^:Z*acHe6@Zc!.IeJeKeLeMeNeOePef^(+{+8$/+_,F{w!2(}'~{1'*6U M=%'>{>&3'& y=(d-)nc;)  )'& QeRe}bSerb)cM ;)[~mc  }e[c%'Xc=e)c",
"[.[.<.Tei4q-UeVeWeXeYe '#*>4h;9^$.L}T)&'x!i]}'&{`c`cScz{ ]`d-!-!()NcNcy/+{()v/-!Sce;$d]0ee()}^W~rc_)+/y/kcrc+{rc(eNc5d1d}^~{Ze_)`c'{'{R{>{ ]M1!3P62~`e fX~d>{..f+f@f#f$f%f&f#4*fJ/=ff^-f={>{~~D!i];fNdxb*!. +d%{_+y=N y=y=y=N 5'3'(d3'>f,f'fw8.4;);)N 7'Y)3'  Ac}e.*F{  ",
"g@@'4+]+t;)fC<Be!fhe~f{f]f5c^&R)odr+D-w=x!~/|'){Nc`c!{>)~'y/`c'{-!='`c()Nc`c&{-!`c1~{cu5*e+{Pc4dv/;{`d-!K/y/v/rcy/`d}^NcPci]kc`cNc'{Nc`{-{x!c(74cc^fZ'^&|8;+/f(f_f:f<f[fR=s|}f|f1fr@d}t#V~,{P!b(1'@/U~g^*!'c+d=e5$Y)#)N N y=N N N X 2f3f4f5f6f7fw=N N (.v=w=+dAcAczeZ6(d",
"8f9f0fafbfcfdfefffgf(fhfifD-{&m1c>jf-[83]~S~U'={ {_)='R(T~-!`c'{'{`d`cy/}^Nc!'){!{=)u5*6P C!Y{U{e;;{()'{h^`dy/(eNc(e_)}^Ge_'@3Sc'{'{Geb}P x!icz{kf1.+3R +7lfmfnfofpfueqfrfsftfufvfwfxf>&>{%{k~2(/'yfEcN!$!%'ec4d.*5'5'*)#)N y=;';)T)zfAfBfCfDfe9;)#)N v=)'(&&!+   T b(Ac",
"U)# X  )x/!.rb+.R&c>Ef7%N/U)2'[^,'L}'[b(D{b}U~ {_)_)!{CcE!!{Sc='!{!{Sc!{Pc-!>)Ud){l8]0u5#!5'Cci] {_)y/Sc3dv/-!`crcy/NcPc[dFfGf&{v<_)!{j~1'f0V(:2D-I*$)HfIfmdJfKf.}+3//|cX~4.4.c>@ $ 5$`ci]i]Ec['Y{='G89_(e  AcW~LfN 5'#)5'#)N 7'&!MfNfOfPfQfRfSfz35'5';!Tf^)(&;!&!5$l~Uf",
"+d+ ;'*)w=#)v=x=y=-)% ,+n2ac;{2'!)|~l!T{^! ]1'm!){ !'{2'Edc~Sc_);{_),{='Nc'{`c'{P * Vf'<Y{/)rc>{y/!{()`c%{NcNc3dNc1d^dP Ncl~|(,{_)){!{`{ ]2^l!|^|~!'NcMc~45@)'Wf$ +.*)n2/:$ #)#)y=&!Ac_)Z6b(H]I],}['1''<rcW :,i]JcN #)%!6'*);)N ^)(.(.;);!U 5'4'^);'N 5'N 4'6','6'O }'Uf",
":,-)w=6'N 3'y=N y=[~& 1(% 3~'{c~*!ncA{83f71'1'-{_)_)-!Pc('='%{){Sc={!{_)!{l_&{* _)A=g^XfYf@{rcm!@3){`c!{;{-!`c){-!_)&{='){}'NcSc_)_)Pcb}I]2^m!m~3~x=#{!'K!&&M M=M (dw=|~$ *dw=w=w=+dle'{cd<'Z{I]['i]1'*6rcw=  <'Jc6'N N 5'^)$!5'6'(.;!N ;),'(.N 5'5'6'6'^)')6';';!O _'&!",
"={>{}'b}SdD!W~%!# V*|~/:3~n2={}^Nc7'A{83h~B{R{B3='={ !!'('Ud { {_)){!{l_){){}^A{`c`cOd{c d}^Ncl~'{`cNc+{`d-!-!_)Nc!{^dUdUd}'kc_)!{^dP b}j~]~W~:{m_[^#{()~4:.}e3'%'6df~Z6B3W~%{Y{Y{nc-)='<'D!R5 ]Zfb} ]*6-!y=(dW~+*5'Y)`f g6'6'6'(.;!6';););!5'(.^),'T((.^)4'6'U ,'(&~{.g",
"')(.[^+gq[Nc+)X z=|~V*/:25D-y/CcCc$ ){}'U(B{b}W~={&{ !()c'-{={&{_)_) {_)Ud='_)-!='2'Vf{c@g}^5d<'NcNc'{`c'{_)Nc'{Ud!{_)='=']'y/P Ud@eUdj~R{]~83:{m_#{tb2'm~#*X 3'M j~+)#g,'+)UfW !{3'$g@eB3b(z/l~Nd_'j~9_rc)cAc4dT 5'5'5'N 6'^);!(.#)5'N ^)N ,'(.^)^)%g^)5','N 6'^)(.<'%g",
"Ecz/k~A!h~&g*gY Y*}~X)X)+.8'_)J]}^X)&{l~9_C{b}-{={={&{PcR{&{>{={=g_)l_l_ {v<l_.{Pc@3Vf$d+{}^Pcl~v/Sc'{'{'{'{ !!{'{V V >{&{|'){_)&{&{P b}1'z/l~|'& z{kc='-g.bw=w=X k~;gc'k~b}b}*gk~3'Y)_)D!:2H]b}Nd|'c'r[())'~dZ)Lfu=7'5'=)7',+7'7'N $)5'5'7'5'[^5';'6'#!(.5';'*!^)(.2((&",
"nc25>g@.>4,gid. #)y=X)Y*& .*_)rcP R)_)b}g^C{/'F{&{>{={()C{%{W~P ={={={){ {]!b'@a;{rcOdgcYcrcPc83'{!{;{={;{,{Z)!{!{`)~{&{7e:2){l__)={=gT~ ]'g83S~& z{z{2')gX~w=3'Z %!!g~g{g]g^g/g(g}~-)&{}':{hd_gEd~'b}r[Scy=  W~ncY)*)5'Y)W)*)#)y=Y)}~;'5'y=y=$)Y)5'5' g5'N ec6'%!N _'^)",
"B3D!i]!'_)}'~{3'Y4#)X)y=-)5$>{rc>{nc){l~9_R{R{W~={-{Z)Pcw!,{={={&{P ={ {I]^'A{A{>}rcOdgc/)Nc}^g~&{F{;{`cL!'{!{_)Ud!{ {_),{|'){={-{={={c']'>dD!j~& Nc2'+{>{{&nc3'T T{L!83)gB3ScY{]'(dy=){1'2(z/c'('R{9_u5y/*d&!Hd#{Y{rc*)y=y=e]W)5'#)X)#)#)#)Y)#)$)^)*)*)^)5'[~ec]'(&S~,'",
";g:g/!(!HdEcc',+}(}(Y4,+;!^)-{}^_)& >{|^9_c'R{D!/ei]f~;{]~`)={={={&{ {,{V  db'>}T7rcI78c/)y/Nc}'l_N  !l}I]){_)){V~l_,{={=g ]l_V~i]<g@eC{_'>dD!A!ncrc#{Cc>{W&+ 3'JcB!2^k!z!`{[g>db}_a[~){}'D!Z{f~P 7eL!~~){^);)x!+).*L!W)N y=#)*)Y4g]+}j^}(M9g]}(7ci^X)X)5'N }~ !Jc=gw!=!",
"-)[~f;25% d0  )cg]e]e;,'3'. f~NcNcR)l_<29_k~R{l~7eE{V~Ocw!={={='P -{7ePc>{l_'{A{NcT7xbgc.e()_)g~,{){}g'{$e!{_)=g { { {-{`)R{){F{i]6d['Ucb}U{D!j~-)Cc!{[^K!V&-).gAcU +4#*|8h;h;R))c35$ ){B3T{U'@3PcrcNcc'l_u=N ('P * @3[^[^|gG 1g2g3g4g2g2{5gza6g7gF 8g9gU7e]dd+),{&{/','",
"]:4d<^*{f~>{b(*)%)e]7'w=v=N l_NcNc& >{1'I7Ecc'c'F8z!`{A!9_P!~'U~/'0gk~('k~1'R{A{Scz{*6*6agy/Ud}'/'V',}w!U{z!z!R{k~`{z!R{k!U(A!w!k~('('U(U~U(D!~~f]y/v/Ncf~d0*')c%'U''[>}v<W~V P i]dc_a){B3B3B{Yc:,}~*)b('{;)5'n2e;2d  }~}~V*28/:Y*T),<[~[~+}}(`(g]g]}(35w=&!(&;)Pcbg:,e;",
"d~;&):]&y-)+w/n2e]W)v=5'y=cg83!{Nc}~A{g~{~b} ]2'F{2'Oc|(,+'{,'u= c}~7' c7','rcMcv<;{N0}4Yc'{P !{}~I*=!5'T(e;7'&)W)dg#{!)kc[^'{'{ScT{J]l~ ]]~83B{3~`crc!{W~egw=-)%'h;fgdaTcX|j2-[},-)+.){]'b(w! {W~v<;{P!(),'-{uai^l}g]28Z( /{4K]]/M/k^l1p[gg76d]X47476T)Y*Y*va3~e;g]u=_)",
".]Z(c(a7c(i^e]}(e]X)i^V)&)Ufi]Nc`chgV~M!3(R{c'b(-{83Z)W~-{={&{={>{_)l_>{&{_)!{_)&{l}r[V3}^=!,{&{&{&{){={v<*{v<V(&{&{_)A{Z6-{Y{-{-{V~-{R{w!]~L)~~f]()K/'{W~7>R)-)[~j^Y*Wf@)X*35g]V*X)[~'{I]S~w!L!K4A{M31^Sc,'W*16tcl!c(<{_[B: =N2 =)}N2N2igN2E[j3}<)}_[G968B:.]^:tbX*v/z{",
"n^jgv7@)<{jgc(Z(+}a7hcv!b#;'D!P P kgl_l~h~c'c':{W~W~-{-{-{={-{={V ={P ={={_)&{'{&{){N0N!GeSc&{f~A{A{&{ {>{_)-{,{&{,{ { {&{ {={={Z6E{-{R{F8]~D!S~w=Sc-!l_:{+4$ #)}(Y*28Y*.]C:Z(^:Y*y=V*>}i]:{#/L)l~K4A{`{S~;{;{v/Y|a'lgmgngogpgqgrgsgtgugvgwgxgygzgAgBgCgDgEgFg]c<^Y|>}b'",
"O6Ggp_L4!3w|^:jg9cjg<~CcV)%)-{P -!6'W~P!r[k~x!B3D!W~-{-{>{Z)-{ {>{6dP P ,{={ {_)~/'{]09_={ {]'>{>{>{ { { {>{A{ {_)l_,{={&{P >{-{7e$e7e('c'Z{B{S~;)l_,{ScM!Hg3'$ +}}(S(o_o_o_a7o_X*,+& l} ]L)'g~/ ]Ig,+1~('Hd`{z!(!i!]~/!I)JgU!U!U!6)f!F)e!KgLgKgU!W!e!7)MgE)U!_!<!<!(!Ng",
"Og4b2gr5P/|5Q5PgG9G9{7U >)N K4,{!4QgF8l~RgZ{9_c'U~('U~R{('c'c'('@/U~T~E!U~1'b}1'1' ]SbN!P!|'w!C{('('b}b}('U~E!R{('~'~'Sg~'T~1'b},}U~,}TgUgZ{F{k~'{m!F{={m!Q(m8{5VgL4!0p}!0!0L4:1~3.]`(* l~j~K)`{F8|6Cc&)y/v<>}&{l!86a']!q:'8_^M]Y8_^FbWgXg&0YgZgD9&0Wg`gW8_^Ja'8[)V,})W,",
" h.h+h@h#h$h%h&h*h=h-h;hQ0|(h~D{Z{w!i]:2g^g^x!B{A!b}C{k~B{`{ ]U~A!j~A!S~S~S~:{T':{V'I0N0V'i~V'>hd'V'I0R~,hT'|^I0T'j~S~T'g~:{'hj~ ])h)hR5!h]083-'`{[gk~0g>96e~h{h]h^h/h(h_h:h<h[h}h|h@b#2_{~41hB{Z{o[%d2hQ(GgPgk5E73h^h4h5h6h7h8h9h0hahbhbh9hchdhehfhgh9hhh5hihjh=h-hkhlh",
"mhnhohphqhrhshthuhvhq~q~q~j5*{z{l_k^Y||^Od]0Od3(OdR5wh3(]~f0H]k~P!V'U'bci~d'I0:ebcbck~Ng/!/!&6(!xhxhD{i!xhD{f7yhh~]~]~I79_U(f0'g'gU{c'R{R{U(D!|')dK/;[>}t5zhJgN't~Ah-~3!BhChDht~EhFhvh/cf'I)9_k!;d'hA!l~T{jc<aGhWgbaHhHhIhJhKhLhMhLhKhNhOhPhQhRhShShThUhVhWhXhYhH~Zh`h:^",
" i.i+i@i#i$i%i&i*i=i-i;i>id>L)M)83.=X,_{R5w!('C{b}b}b}j~A!1':{}'b'm!86l!V,M)})})T6<^-! /a'<^T,X,|^V',i|^]:,h|^bci~i~R{R{w!HdEcx!2^x!U{Ugc'R5T{R{,+&{-{m!'i126g)i!i~i{i]i^i/i(i_i:i<i=i/998H)9_NgU{Ze(e>)M)[ilg}iba&hehMh|i1i1i2i3i4i5i6i7i8i9i0iaibicididieifigihiiiji~h",
"kiliminioipiqirisitiuivi]cZgm!]!b'wi<<_{Z{I]j~i]-{f~l}*{l_T7A=.{-!;{;{o[W*,[xii^Z8Ggyi.]26>[)}Q0j3i^zi{/W*W*AiBi* CiT7OcCc1d;{-!K/Ud_)W~l~R5D!b} g={,{8382DiEiFiHaGi{$HiIiJiKiLiMiNiOiV7Pi<!N!P!;gl}-!z{>}`h,bQiRiSiTiUiVi iWi#iXiYiZi`i j.j+j@j#j$j%j&j*j=j-j;j>jPh,j'j",
")j!j~j{j{j]j^j/j(j_j:j<js=[jX,s[A{]/_{S~;d'<r[u5{c$d{cu5{c]0N5T4T4T4N5r[r[N5]0>6I7}4r[yh}j|j|j|j|j|j}4*6r[K8}4]0r[r[*6r[1ju5{c{c{cu5u5U(g^*6L!|'6';{>{K!2j3j4j5j6j7j8j9j0jajajbjcjdjejjhjhfj{~:{1^M3gjy/,hhjijv)jjkjljmjnjojpjqjrjsjtjujvjwjxjyj~jzjAjBjCjDjEjFjGjHjIjJj",
"KjLjMjNjOjPjQjRjSjTjUj1a3h`he'b'b'T7x!R{h~l~i]W~b}l!b'>{l}>}jc{/2$w716O6{5wi{7j3Q0jgj3G9_[_[A[)}j3B:m4k5Q0k516x{jc@a;{A=!4>}W~P m!L)e'T{l~b}`)}'`fA{V~f~VjWjXjYjZj`j k.k+k@k#k$k%k&k*k=kCbh!N!:{>9jc>}!4)~-k~i;k>k,k'k)k!k!k~k{k]k^k/k(k_k:k<k[k}k|k1k2k3k4k5k6k7k8k9k0k",
"akbkckdkekfkgkhkikjkkkih3hlkL)b'l_W*P!x!Z{D!'ei]* '[l}o[jc2$W*= `8a7(/C:C:_[C[@]26mknk@6>[}5Baa]' e(Q5p__:C:jgG9c(i^i^v!= Vc!'kc-!T7* A{L!D!U~l~^)A{>{f~uhokpkqkrkskcktkukvkwkxkykzkAkBkCkh!9_>9bcK/T786S!hjDkEkFkGkHkIkJkKkLkMkNkOkPkQkRkSkTkUkVkWkXkYkZk`k l.l+l@l#lfh",
"$l%lv9&l*l=l-l;l:99k*i>l,l39T'W~|^>'P!g^z/2^f0f02^2^>6/!;g/!;gxh1)f7^!f7I)I)h!/!NgJg/!;g<!'lyhS{f7f7xhxh)l/!]~2^2^>6h~h~{~I7g^9_r[&d!lc'k~#dlc|'*!>{~{~4-~~l{l]l^l/l(l_l:l:l<l[l}l|l1l2l3lg!9_>9c'4lW~M3!~W85l6l7l8l9l0lalblcldlelflglhliljlklllmlmlnlolplql_9rlsltlulvl",
"wlxlylzlAlBlClDl#i`05h<0El39<<g~3^>{]~c'b(b(l_#/M!K!){l}-!* l}o[|6FlGl _w716xiw7}aj3w|b#w|[ij3w{j3xiGl<avbm8m82$]!>}b'f~f~83b(g~<'D!l~;{A=l_83x!2'}'-{HlW!IlJlKlLl)]MlNlOlPlQlRl+iSlTlUlij<!*6~~x!>}b'X,R~]!mgVlWlXlYlZl`l m.m+m@m#mAk$m%m&m*m=m-m;m>m,m'm)m!m~m{m]mfi~^"};
