/* XPM */
static char * we_tex_xpm[] = {
"132 132 4303 2",
"  	c #202E36",
". 	c #1F2E36",
"+ 	c #19252C",
"@ 	c #1C282F",
"# 	c #1B272D",
"$ 	c #202F37",
"% 	c #233139",
"& 	c #26353E",
"* 	c #243740",
"= 	c #263B46",
"- 	c #263A46",
"; 	c #253943",
"> 	c #223640",
", 	c #223540",
"' 	c #1E313C",
") 	c #213846",
"! 	c #233C4B",
"~ 	c #152732",
"{ 	c #091922",
"] 	c #071922",
"^ 	c #081822",
"/ 	c #071721",
"( 	c #071822",
"_ 	c #071A25",
": 	c #061C28",
"< 	c #071E2B",
"[ 	c #061F2D",
"} 	c #071F2D",
"| 	c #061E2C",
"1 	c #061F2F",
"2 	c #062030",
"3 	c #061E2D",
"4 	c #071C2A",
"5 	c #071D29",
"6 	c #081F2C",
"7 	c #08202D",
"8 	c #091F2E",
"9 	c #071F2E",
"0 	c #081F2E",
"a 	c #061E2E",
"b 	c #071E2D",
"c 	c #081E2C",
"d 	c #081D2B",
"e 	c #081A25",
"f 	c #0A1B24",
"g 	c #0A1B23",
"h 	c #0A1922",
"i 	c #0A181F",
"j 	c #0A171F",
"k 	c #091822",
"l 	c #11222C",
"m 	c #203641",
"n 	c #1C2D38",
"o 	c #1E2F3A",
"p 	c #1F313C",
"q 	c #273D49",
"r 	c #293D49",
"s 	c #2C404A",
"t 	c #293B45",
"u 	c #2E414B",
"v 	c #2C3F4A",
"w 	c #2D404B",
"x 	c #2C3E48",
"y 	c #324752",
"z 	c #2E434F",
"A 	c #2C404B",
"B 	c #2B3E48",
"C 	c #2A3B46",
"D 	c #293A44",
"E 	c #3A4D58",
"F 	c #0F161A",
"G 	c #162128",
"H 	c #283C47",
"I 	c #253742",
"J 	c #19262E",
"K 	c #293C47",
"L 	c #2A3D49",
"M 	c #293C48",
"N 	c #273A46",
"O 	c #263945",
"P 	c #2A3D4A",
"Q 	c #293E4B",
"R 	c #283D49",
"S 	c #293D4A",
"T 	c #2B3F4C",
"U 	c #2B3E4A",
"V 	c #2B3F4A",
"W 	c #293C46",
"X 	c #2C3D49",
"Y 	c #2A3C47",
"Z 	c #2A3D48",
"` 	c #263944",
" .	c #253741",
"..	c #243640",
"+.	c #263741",
"@.	c #24353E",
"#.	c #23353F",
"$.	c #22343F",
"%.	c #23333E",
"&.	c #22333E",
"*.	c #22323D",
"=.	c #23343F",
"-.	c #243641",
";.	c #21303A",
">.	c #23323B",
",.	c #202F38",
"'.	c #22323B",
").	c #212F38",
"!.	c #202E37",
"~.	c #1F2D35",
"{.	c #1D2B34",
"].	c #1E2B34",
"^.	c #1E2B33",
"/.	c #1D292F",
"(.	c #1F2B31",
"_.	c #202B32",
":.	c #142025",
"<.	c #17242B",
"[.	c #152127",
"}.	c #142026",
"|.	c #1A272D",
"1.	c #121C21",
"2.	c #1B282F",
"3.	c #1B2A32",
"4.	c #1B2B32",
"5.	c #1B2A31",
"6.	c #1A2A33",
"7.	c #20333D",
"8.	c #182B36",
"9.	c #11212A",
"0.	c #182E3A",
"a.	c #1A3442",
"b.	c #193344",
"c.	c #1A3646",
"d.	c #1A3241",
"e.	c #1C3848",
"f.	c #1A3545",
"g.	c #193444",
"h.	c #1B3646",
"i.	c #1C3748",
"j.	c #1A3647",
"k.	c #1B394B",
"l.	c #1A394D",
"m.	c #1D3E52",
"n.	c #1B3D51",
"o.	c #19394D",
"p.	c #1B3D52",
"q.	c #1B3E53",
"r.	c #193A4E",
"s.	c #1B3C4F",
"t.	c #1D3D51",
"u.	c #1B3B4E",
"v.	c #1C3D51",
"w.	c #1D4055",
"x.	c #224960",
"y.	c #1F455A",
"z.	c #1D4259",
"A.	c #1B4055",
"B.	c #1E4257",
"C.	c #1C4054",
"D.	c #20445B",
"E.	c #21485F",
"F.	c #21475E",
"G.	c #21465D",
"H.	c #22475F",
"I.	c #1C3F53",
"J.	c #1A3B4E",
"K.	c #173446",
"L.	c #204256",
"M.	c #203E50",
"N.	c #213A49",
"O.	c #203542",
"P.	c #203441",
"Q.	c #0C1A22",
"R.	c #26404E",
"S.	c #243843",
"T.	c #20323B",
"U.	c #20313B",
"V.	c #24363F",
"W.	c #23343D",
"X.	c #23343E",
"Y.	c #203038",
"Z.	c #22323A",
"`.	c #19262C",
" +	c #1B2931",
".+	c #0E151A",
"++	c #152228",
"@+	c #192931",
"#+	c #172228",
"$+	c #1D2C35",
"%+	c #1B2933",
"&+	c #1B2932",
"*+	c #1B2830",
"=+	c #1B2831",
"-+	c #1A2830",
";+	c #19272E",
">+	c #1A272F",
",+	c #1C2A33",
"'+	c #19262D",
")+	c #17232A",
"!+	c #18242B",
"~+	c #16232B",
"{+	c #131F26",
"]+	c #131F25",
"^+	c #152229",
"/+	c #142027",
"(+	c #152128",
"_+	c #16232A",
":+	c #18252C",
"<+	c #17232B",
"[+	c #16242A",
"}+	c #131D24",
"|+	c #152129",
"1+	c #15232A",
"2+	c #142128",
"3+	c #121E23",
"4+	c #111D23",
"5+	c #131E24",
"6+	c #121D23",
"7+	c #121C22",
"8+	c #111B21",
"9+	c #131D23",
"0+	c #151F25",
"a+	c #172127",
"b+	c #152126",
"c+	c #141F26",
"d+	c #141F25",
"e+	c #131E23",
"f+	c #1C2B32",
"g+	c #1C2B33",
"h+	c #1C2C34",
"i+	c #1C2D37",
"j+	c #1A2B34",
"k+	c #172831",
"l+	c #152832",
"m+	c #152A36",
"n+	c #1D3542",
"o+	c #18303F",
"p+	c #19394B",
"q+	c #173546",
"r+	c #193749",
"s+	c #17394C",
"t+	c #1A4157",
"u+	c #1C4359",
"v+	c #1C445B",
"w+	c #1B425A",
"x+	c #19425A",
"y+	c #17415A",
"z+	c #16425B",
"A+	c #18425C",
"B+	c #19455F",
"C+	c #1B4761",
"D+	c #18435C",
"E+	c #1B4760",
"F+	c #1B4861",
"G+	c #1B4860",
"H+	c #1C4A63",
"I+	c #1C4B64",
"J+	c #1B4A64",
"K+	c #1C4C67",
"L+	c #174761",
"M+	c #194A64",
"N+	c #1B4E69",
"O+	c #194962",
"P+	c #184760",
"Q+	c #19465F",
"R+	c #1A4760",
"S+	c #194760",
"T+	c #1B4963",
"U+	c #17455F",
"V+	c #19455E",
"W+	c #194259",
"X+	c #184057",
"Y+	c #193C50",
"Z+	c #1C3C4F",
"`+	c #1E3C4F",
" @	c #1D3748",
".@	c #19303E",
"+@	c #1E3847",
"@@	c #0F212B",
"#@	c #213C49",
"$@	c #22353F",
"%@	c #21333D",
"&@	c #22333D",
"*@	c #24353F",
"=@	c #23333C",
"-@	c #23333D",
";@	c #25353F",
">@	c #273941",
",@	c #2B3C45",
"'@	c #203138",
")@	c #0D1519",
"!@	c #14222A",
"~@	c #101B22",
"{@	c #0F191F",
"]@	c #0F181E",
"^@	c #0C1418",
"/@	c #0C1419",
"(@	c #0D161B",
"_@	c #0E161A",
":@	c #0D161A",
"<@	c #0F171B",
"[@	c #11191F",
"}@	c #10191F",
"|@	c #111D22",
"1@	c #111C23",
"2@	c #0E191F",
"3@	c #0D171D",
"4@	c #0E181E",
"5@	c #0F1B20",
"6@	c #101B21",
"7@	c #111C22",
"8@	c #101C22",
"9@	c #101A1F",
"0@	c #131D22",
"a@	c #121B21",
"b@	c #111A20",
"c@	c #0F171C",
"d@	c #0D1419",
"e@	c #0F1619",
"f@	c #0E1518",
"g@	c #0F1519",
"h@	c #141F27",
"i@	c #131E25",
"j@	c #182228",
"k@	c #152027",
"l@	c #1E2E37",
"m@	c #1B2D36",
"n@	c #1B2B35",
"o@	c #182932",
"p@	c #172E3A",
"q@	c #142B37",
"r@	c #1B3645",
"s@	c #183B4F",
"t@	c #17394D",
"u@	c #193F56",
"v@	c #1A4660",
"w@	c #194A66",
"x@	c #1C4F6B",
"y@	c #1B4D69",
"z@	c #1C5575",
"A@	c #1B5473",
"B@	c #1B5575",
"C@	c #195575",
"D@	c #175474",
"E@	c #185878",
"F@	c #185676",
"G@	c #195474",
"H@	c #195573",
"I@	c #1A5675",
"J@	c #1D5C7C",
"K@	c #1A5A7A",
"L@	c #1C5B7B",
"M@	c #1B5B7C",
"N@	c #195B7D",
"O@	c #185B7B",
"P@	c #185C7E",
"Q@	c #185B7C",
"R@	c #175878",
"S@	c #17526F",
"T@	c #18526F",
"U@	c #1B5775",
"V@	c #195775",
"W@	c #175371",
"X@	c #18516E",
"Y@	c #19506E",
"Z@	c #1C516E",
"`@	c #1B455C",
" #	c #1D4054",
".#	c #1F4155",
"+#	c #1D3D50",
"@#	c #193342",
"##	c #0C1E28",
"$#	c #22404F",
"%#	c #223642",
"&#	c #253843",
"*#	c #233640",
"=#	c #24343F",
"-#	c #24343E",
";#	c #25353E",
">#	c #203039",
",#	c #22323C",
"'#	c #24343D",
")#	c #2D424C",
"!#	c #10171C",
"~#	c #060B0E",
"{#	c #060C0E",
"]#	c #090F13",
"^#	c #080E13",
"/#	c #060B0F",
"(#	c #05090C",
"_#	c #010203",
":#	c #020304",
"<#	c #04090C",
"[#	c #070D11",
"}#	c #060D11",
"|#	c #05090D",
"1#	c #030507",
"2#	c #010103",
"3#	c #030506",
"4#	c #030406",
"5#	c #020406",
"6#	c #020405",
"7#	c #030608",
"8#	c #030508",
"9#	c #030607",
"0#	c #040608",
"a#	c #010102",
"b#	c #040609",
"c#	c #05080B",
"d#	c #040709",
"e#	c #05080A",
"f#	c #040607",
"g#	c #010101",
"h#	c #142028",
"i#	c #162127",
"j#	c #233138",
"k#	c #18252B",
"l#	c #1B2B34",
"m#	c #1D2E37",
"n#	c #1C2C35",
"o#	c #1B2C36",
"p#	c #1B2E38",
"q#	c #1A2D38",
"r#	c #193340",
"s#	c #152D3C",
"t#	c #214154",
"u#	c #1B394A",
"v#	c #113C55",
"w#	c #0E4360",
"x#	c #104E6D",
"y#	c #105579",
"z#	c #105F86",
"A#	c #0F6288",
"B#	c #0E6287",
"C#	c #0F668B",
"D#	c #10668C",
"E#	c #0D6389",
"F#	c #0C688F",
"G#	c #0C688E",
"H#	c #0D6689",
"I#	c #0D6283",
"J#	c #146D8F",
"K#	c #127195",
"L#	c #137297",
"M#	c #126F94",
"N#	c #177398",
"O#	c #16739B",
"P#	c #15759E",
"Q#	c #12729C",
"R#	c #0E6C94",
"S#	c #0C6C95",
"T#	c #0C6A91",
"U#	c #0C6C93",
"V#	c #0C6C94",
"W#	c #0E6D97",
"X#	c #14709B",
"Y#	c #147099",
"Z#	c #136E96",
"`#	c #09678E",
" $	c #0A688F",
".$	c #0B6890",
"+$	c #0C668E",
"@$	c #10567A",
"#$	c #105171",
"$$	c #134B6A",
"%$	c #194662",
"&$	c #1B435D",
"*$	c #193E55",
"=$	c #0C202C",
"-$	c #23404F",
";$	c #223845",
">$	c #243945",
",$	c #223641",
"'$	c #21323C",
")$	c #22333C",
"!$	c #21323A",
"~$	c #23343C",
"{$	c #21313A",
"]$	c #283A44",
"^$	c #0D151B",
"/$	c #0F181D",
"($	c #111A1F",
"_$	c #121B22",
":$	c #0C1218",
"<$	c #0E171C",
"[$	c #111C21",
"}$	c #131F27",
"|$	c #0E161B",
"1$	c #0A1115",
"2$	c #070C0F",
"3$	c #080E11",
"4$	c #090E12",
"5$	c #080E12",
"6$	c #070C10",
"7$	c #080D11",
"8$	c #090F12",
"9$	c #090E11",
"0$	c #080D10",
"a$	c #080C10",
"b$	c #0B1317",
"c$	c #10181D",
"d$	c #0B1115",
"e$	c #050A0D",
"f$	c #070B0E",
"g$	c #020305",
"h$	c #080D12",
"i$	c #0C1217",
"j$	c #0B1116",
"k$	c #060B0D",
"l$	c #1C2931",
"m$	c #131C23",
"n$	c #1B2A33",
"o$	c #1C2D36",
"p$	c #1B2C35",
"q$	c #1A2B35",
"r$	c #1B2D37",
"s$	c #1A2D39",
"t$	c #193543",
"u$	c #132F40",
"v$	c #1D4962",
"w$	c #054663",
"x$	c #094A64",
"y$	c #056087",
"z$	c #06749C",
"A$	c #0676A2",
"B$	c #0575A0",
"C$	c #0578A2",
"D$	c #0582AB",
"E$	c #0581AA",
"F$	c #0483B2",
"G$	c #038AB6",
"H$	c #0B8EB7",
"I$	c #0389B3",
"J$	c #0487B2",
"K$	c #0486B1",
"L$	c #048BB5",
"M$	c #048CB6",
"N$	c #0488B5",
"O$	c #0488B4",
"P$	c #0489B5",
"Q$	c #0486B2",
"R$	c #0385B3",
"S$	c #0484B1",
"T$	c #0484AF",
"U$	c #047EA6",
"V$	c #0481AA",
"W$	c #0484AE",
"X$	c #0485B1",
"Y$	c #058AB5",
"Z$	c #058DB9",
"`$	c #058FBA",
" %	c #058EB7",
".%	c #0590BA",
"+%	c #068DB6",
"@%	c #068EB8",
"#%	c #0889B1",
"$%	c #0C86AF",
"%%	c #0C80A8",
"&%	c #097BA5",
"*%	c #0577A4",
"=%	c #04547E",
"-%	c #083F5D",
";%	c #1B4F6C",
">%	c #102735",
",%	c #1D3E4F",
"'%	c #213845",
")%	c #223744",
"!%	c #233643",
"~%	c #233541",
"{%	c #21333C",
"]%	c #213039",
"^%	c #0F171E",
"/%	c #10191E",
"(%	c #0B1217",
"_%	c #101A20",
":%	c #111D24",
"<%	c #203845",
"[%	c #2C4B5A",
"}%	c #1A272E",
"|%	c #0F161B",
"1%	c #030407",
"2%	c #090D11",
"3%	c #0A1015",
"4%	c #0A1014",
"5%	c #0A0F13",
"6%	c #0C1318",
"7%	c #0B1015",
"8%	c #0B1014",
"9%	c #0A0E12",
"0%	c #090E13",
"a%	c #131B21",
"b%	c #212F37",
"c%	c #111B20",
"d%	c #060A0D",
"e%	c #06090C",
"f%	c #060A0E",
"g%	c #0D1418",
"h%	c #080C0F",
"i%	c #1B262D",
"j%	c #19272F",
"k%	c #15222A",
"l%	c #192B35",
"m%	c #1C303C",
"n%	c #1B3E4F",
"o%	c #16384D",
"p%	c #164864",
"q%	c #02496B",
"r%	c #06597C",
"s%	c #12A7C9",
"t%	c #59CADA",
"u%	c #61CBDB",
"v%	c #61C7D8",
"w%	c #64C6D9",
"x%	c #65C8DB",
"y%	c #69CCDC",
"z%	c #6CCBDD",
"A%	c #64C8DC",
"B%	c #5EC7DB",
"C%	c #5FC9DE",
"D%	c #62C9DE",
"E%	c #69CCE0",
"F%	c #67CDDE",
"G%	c #69CADA",
"H%	c #6DCEDE",
"I%	c #6ED0E0",
"J%	c #6AD1E0",
"K%	c #62CFDF",
"L%	c #60CEDF",
"M%	c #61CDDE",
"N%	c #64CBDC",
"O%	c #68CBDA",
"P%	c #6ECEDD",
"Q%	c #69CCDB",
"R%	c #68CADB",
"S%	c #67CBDB",
"T%	c #64C9DB",
"U%	c #61CADC",
"V%	c #68CDDE",
"W%	c #6ACFE0",
"X%	c #72D0E2",
"Y%	c #6DD0E1",
"Z%	c #67D0DF",
"`%	c #68CEDD",
" &	c #6DCFDD",
".&	c #6ACEDD",
"+&	c #42B8D2",
"@&	c #02547A",
"#&	c #053F5A",
"$&	c #1C4F6A",
"%&	c #122E3D",
"&&	c #204457",
"*&	c #223743",
"=&	c #1F323C",
"-&	c #233641",
";&	c #21313B",
">&	c #22333B",
",&	c #1E2D35",
"'&	c #22313A",
")&	c #1D2D35",
"!&	c #1E2F38",
"~&	c #1C2B35",
"{&	c #060C11",
"]&	c #0A1116",
"^&	c #15232C",
"/&	c #35505D",
"(&	c #385563",
"_&	c #1E2C33",
":&	c #05070A",
"<&	c #070B0F",
"[&	c #070D10",
"}&	c #091116",
"|&	c #11181E",
"1&	c #070C0E",
"2&	c #04070A",
"3&	c #182329",
"4&	c #0A1013",
"5&	c #172329",
"6&	c #17262F",
"7&	c #0C171D",
"8&	c #192D37",
"9&	c #1B303C",
"0&	c #1A3F51",
"a&	c #14374A",
"b&	c #15445E",
"c&	c #033E5C",
"d&	c #065A7E",
"e&	c #069CC1",
"f&	c #25B0D1",
"g&	c #2DB3D0",
"h&	c #40B7CF",
"i&	c #50BBD1",
"j&	c #56BFD5",
"k&	c #5AC0D7",
"l&	c #5BC0D7",
"m&	c #4FC0D8",
"n&	c #4EC2DA",
"o&	c #4DC3DB",
"p&	c #50C6DD",
"q&	c #51C6DD",
"r&	c #53C5DC",
"s&	c #4DC5DE",
"t&	c #43C6E1",
"u&	c #44C7E2",
"v&	c #46C8E1",
"w&	c #47CAE1",
"x&	c #4ECFE4",
"y&	c #4BCDE4",
"z&	c #52CFE4",
"A&	c #60D1E4",
"B&	c #6AD4E5",
"C&	c #6BD7E7",
"D&	c #69D7E8",
"E&	c #67D5E6",
"F&	c #66D4E4",
"G&	c #61D1E3",
"H&	c #5CCFE2",
"I&	c #63D1E1",
"J&	c #4ACAE2",
"K&	c #46CAE3",
"L&	c #38C6E2",
"M&	c #2BBEDC",
"N&	c #25BDDC",
"O&	c #27BCDE",
"P&	c #23B6D6",
"Q&	c #0D9FC4",
"R&	c #03577E",
"S&	c #074362",
"T&	c #1B526F",
"U&	c #122E3E",
"V&	c #224659",
"W&	c #243A46",
"X&	c #203440",
"Y&	c #20323C",
"Z&	c #20313A",
"`&	c #213038",
" *	c #1F2E37",
".*	c #0C1317",
"+*	c #1E2C35",
"@*	c #1A282F",
"#*	c #1F2F39",
"$*	c #1A2931",
"%*	c #1B2930",
"&*	c #091015",
"**	c #0B1419",
"=*	c #162832",
"-*	c #334E5E",
";*	c #1F2D34",
">*	c #141E24",
",*	c #0E171B",
"'*	c #0E161C",
")*	c #0F191E",
"!*	c #0F191D",
"~*	c #11191E",
"{*	c #0E1417",
"]*	c #141C21",
"^*	c #11191D",
"/*	c #121B20",
"(*	c #121B1F",
"_*	c #28373F",
":*	c #344A58",
"<*	c #091014",
"[*	c #0E1519",
"}*	c #0D151A",
"|*	c #223139",
"1*	c #19252D",
"2*	c #16222A",
"3*	c #192730",
"4*	c #1B2A30",
"5*	c #16242C",
"6*	c #16252D",
"7*	c #15242D",
"8*	c #192C37",
"9*	c #1A2E38",
"0*	c #13222A",
"a*	c #1B2E3A",
"b*	c #1C313D",
"c*	c #1A3C4D",
"d*	c #153345",
"e*	c #153E55",
"f*	c #062639",
"g*	c #064161",
"h*	c #064B73",
"i*	c #085881",
"j*	c #065880",
"k*	c #065B83",
"l*	c #055F8B",
"m*	c #046394",
"n*	c #046698",
"o*	c #056898",
"p*	c #056A9A",
"q*	c #056D9E",
"r*	c #0570A2",
"s*	c #0571A0",
"t*	c #06709F",
"u*	c #08729F",
"v*	c #0976A3",
"w*	c #0B77A4",
"x*	c #0C76A3",
"y*	c #0B75A0",
"z*	c #0C78A2",
"A*	c #0B77A0",
"B*	c #08759F",
"C*	c #08719C",
"D*	c #076E99",
"E*	c #086C96",
"F*	c #076B96",
"G*	c #076B95",
"H*	c #086994",
"I*	c #076891",
"J*	c #076993",
"K*	c #086A95",
"L*	c #076C99",
"M*	c #076F9A",
"N*	c #086D96",
"O*	c #076E98",
"P*	c #076D9A",
"Q*	c #076391",
"R*	c #065980",
"S*	c #05496D",
"T*	c #094668",
"U*	c #13415A",
"V*	c #20516B",
"W*	c #102937",
"X*	c #214051",
"Y*	c #203744",
"Z*	c #1F333F",
"`*	c #213541",
" =	c #1F3039",
".=	c #253640",
"+=	c #1F2F37",
"@=	c #28363E",
"#=	c #2B3D46",
"$=	c #0A1217",
"%=	c #182B37",
"&=	c #385769",
"*=	c #3C5E70",
"==	c #1B292F",
"-=	c #0C1319",
";=	c #1F2C34",
">=	c #283740",
",=	c #334753",
"'=	c #344752",
")=	c #324651",
"!=	c #344A54",
"~=	c #3A515D",
"{=	c #3B525D",
"]=	c #3C5460",
"^=	c #2B3F4B",
"/=	c #324A57",
"(=	c #2F4652",
"_=	c #344D5C",
":=	c #2F434F",
"<=	c #364D5C",
"[=	c #365160",
"}=	c #273943",
"|=	c #2E4450",
"1=	c #2E4551",
"2=	c #2E434E",
"3=	c #273942",
"4=	c #2D3D46",
"5=	c #273A44",
"6=	c #3C535E",
"7=	c #1C2A32",
"8=	c #12181C",
"9=	c #19252B",
"0=	c #0A0F12",
"a=	c #090F14",
"b=	c #0B1216",
"c=	c #16242B",
"d=	c #192830",
"e=	c #132129",
"f=	c #142229",
"g=	c #172934",
"h=	c #122028",
"i=	c #192B36",
"j=	c #17303C",
"k=	c #10242E",
"l=	c #133243",
"m=	c #12374E",
"n=	c #144562",
"o=	c #155274",
"p=	c #17597B",
"q=	c #14597C",
"r=	c #155C80",
"s=	c #125F87",
"t=	c #10658E",
"u=	c #136790",
"v=	c #106892",
"w=	c #0F6D98",
"x=	c #10709C",
"y=	c #13729C",
"z=	c #13719A",
"A=	c #18769F",
"B=	c #1978A3",
"C=	c #197AA3",
"D=	c #1879A2",
"E=	c #1677A1",
"F=	c #1778A1",
"G=	c #157AA5",
"H=	c #137BA7",
"I=	c #147CA7",
"J=	c #1177A2",
"K=	c #137CA9",
"L=	c #0F7EAC",
"M=	c #0C7CAA",
"N=	c #0A77A5",
"O=	c #0878A5",
"P=	c #0A77A4",
"Q=	c #0B7BA8",
"R=	c #0E739F",
"S=	c #127099",
"T=	c #156E96",
"U=	c #146F96",
"V=	c #167099",
"W=	c #136289",
"X=	c #145B7D",
"Y=	c #145577",
"Z=	c #165273",
"`=	c #18455D",
" -	c #1C3D50",
".-	c #0C1F2B",
"+-	c #1F3B4B",
"@-	c #1E333F",
"#-	c #1E323E",
"$-	c #1E313B",
"%-	c #20303A",
"&-	c #1E2D36",
"*-	c #192C38",
"=-	c #3B5A6D",
"--	c #3C6073",
";-	c #1A262C",
">-	c #18232B",
",-	c #18242C",
"'-	c #18232A",
")-	c #162229",
"!-	c #18252D",
"~-	c #1E2E38",
"{-	c #1A2932",
"]-	c #15242C",
"^-	c #1B272F",
"/-	c #192328",
"(-	c #1C2930",
"_-	c #162027",
":-	c #111B22",
"<-	c #070B0D",
"[-	c #0E171D",
"}-	c #2D3F49",
"|-	c #17242C",
"1-	c #17252C",
"2-	c #18262E",
"3-	c #16252C",
"4-	c #172832",
"5-	c #14242D",
"6-	c #192D39",
"7-	c #223C4B",
"8-	c #162A37",
"9-	c #162F3D",
"0-	c #1B3C50",
"a-	c #174159",
"b-	c #184862",
"c-	c #1B4D68",
"d-	c #194C66",
"e-	c #1E5775",
"f-	c #1D597A",
"g-	c #1F6182",
"h-	c #1D5F7E",
"i-	c #1A5D7C",
"j-	c #1D6283",
"k-	c #1D6384",
"l-	c #1D6587",
"m-	c #1C6587",
"n-	c #1E6B8E",
"o-	c #1D6D8F",
"p-	c #1B6A8D",
"q-	c #1B698B",
"r-	c #19688C",
"s-	c #1D6D8E",
"t-	c #1C6C8D",
"u-	c #1A6D8D",
"v-	c #187093",
"w-	c #167093",
"x-	c #166D90",
"y-	c #156B8E",
"z-	c #156A8D",
"A-	c #15668A",
"B-	c #146287",
"C-	c #166588",
"D-	c #166386",
"E-	c #166384",
"F-	c #166081",
"G-	c #175D7D",
"H-	c #175D7E",
"I-	c #185C7B",
"J-	c #1B5C7C",
"K-	c #1E5B7A",
"L-	c #1D526E",
"M-	c #1D4C65",
"N-	c #1D4B66",
"O-	c #1E4962",
"P-	c #1D435A",
"Q-	c #193545",
"R-	c #203948",
"S-	c #264354",
"T-	c #1E3441",
"U-	c #203540",
"V-	c #1E323D",
"W-	c #223440",
"X-	c #202F39",
"Y-	c #20313C",
"Z-	c #04070B",
"`-	c #0A1218",
" ;	c #2E4554",
".;	c #355060",
"+;	c #0C1216",
"@;	c #06080B",
"#;	c #0A0E11",
"$;	c #0E1418",
"%;	c #0D1317",
"&;	c #0B1114",
"*;	c #0F1418",
"=;	c #0D1215",
"-;	c #0D1216",
";;	c #0B1013",
">;	c #0B0F12",
",;	c #0D1318",
"';	c #0A1114",
");	c #070A0E",
"!;	c #1E2E35",
"~;	c #06090B",
"{;	c #060C10",
"];	c #1E2B32",
"^;	c #182831",
"/;	c #1C2E39",
"(;	c #172932",
"_;	c #172A35",
":;	c #152630",
"<;	c #172C38",
"[;	c #192E3B",
"};	c #1B3442",
"|;	c #1E3E51",
"1;	c #183D53",
"2;	c #184056",
"3;	c #194157",
"4;	c #1D485F",
"5;	c #1D4B64",
"6;	c #1F516B",
"7;	c #1B4E68",
"8;	c #1B4D67",
"9;	c #194B66",
"0;	c #1A516E",
"a;	c #1A4F6C",
"b;	c #19506D",
"c;	c #1A5574",
"d;	c #1A5473",
"e;	c #185371",
"f;	c #175575",
"g;	c #185879",
"h;	c #1A5978",
"i;	c #1A5875",
"j;	c #195676",
"k;	c #195879",
"l;	c #1A5C7E",
"m;	c #165575",
"n;	c #175577",
"o;	c #175475",
"p;	c #1B5979",
"q;	c #1B5270",
"r;	c #1B516D",
"s;	c #1D506E",
"t;	c #1B516F",
"u;	c #1C4E6A",
"v;	c #1F4F6A",
"w;	c #1D4A64",
"x;	c #1E455C",
"y;	c #1D445B",
"z;	c #1F4257",
"A;	c #1D3C4F",
"B;	c #1F3847",
"C;	c #1E3542",
"D;	c #1F3441",
"E;	c #1E313D",
"F;	c #1D303C",
"G;	c #20323D",
"H;	c #1E303A",
"I;	c #1F303A",
"J;	c #1B2B33",
"K;	c #21353F",
"L;	c #21323B",
"M;	c #283943",
"N;	c #060A0C",
"O;	c #14222C",
"P;	c #304959",
"Q;	c #314D5C",
"R;	c #020303",
"S;	c #04080B",
"T;	c #05090B",
"U;	c #050709",
"V;	c #10181E",
"W;	c #080F13",
"X;	c #121E25",
"Y;	c #15232B",
"Z;	c #213744",
"`;	c #12212A",
" >	c #162A36",
".>	c #1A2E39",
"+>	c #162934",
"@>	c #182B35",
"#>	c #162E3C",
"$>	c #193547",
"%>	c #173142",
"&>	c #183A4E",
"*>	c #16384B",
"=>	c #183E53",
"->	c #184159",
";>	c #184158",
">>	c #1B445E",
",>	c #174058",
"'>	c #19445D",
")>	c #1A4A65",
"!>	c #1C4B65",
"~>	c #18465F",
"{>	c #184661",
"]>	c #194965",
"^>	c #194C68",
"/>	c #1A4B66",
"(>	c #174964",
"_>	c #164A66",
":>	c #164965",
"<>	c #164863",
"[>	c #174A67",
"}>	c #184D6A",
"|>	c #184B68",
"1>	c #174965",
"2>	c #184B67",
"3>	c #1C4C68",
"4>	c #18425B",
"5>	c #1A435C",
"6>	c #1A435B",
"7>	c #1B4056",
"8>	c #1B3F55",
"9>	c #1A3E55",
"0>	c #1A3C51",
"a>	c #1B3E54",
"b>	c #193C51",
"c>	c #1B3240",
"d>	c #1D3544",
"e>	c #203644",
"f>	c #1E3340",
"g>	c #1E3240",
"h>	c #1F323F",
"i>	c #21333F",
"j>	c #21323D",
"k>	c #21333E",
"l>	c #21313C",
"m>	c #1F313A",
"n>	c #1A2933",
"o>	c #1D2D38",
"p>	c #263641",
"q>	c #1F2F38",
"r>	c #2C4353",
"s>	c #426376",
"t>	c #151F26",
"u>	c #131C21",
"v>	c #151F24",
"w>	c #151E24",
"x>	c #141D23",
"y>	c #10181C",
"z>	c #131B20",
"A>	c #131C22",
"B>	c #0B1318",
"C>	c #0A0F14",
"D>	c #1A262E",
"E>	c #243541",
"F>	c #0D161C",
"G>	c #121D24",
"H>	c #132128",
"I>	c #121E26",
"J>	c #0C181F",
"K>	c #14252F",
"L>	c #11212B",
"M>	c #11222D",
"N>	c #112632",
"O>	c #142937",
"P>	c #122B3A",
"Q>	c #122D3C",
"R>	c #153244",
"S>	c #113042",
"T>	c #112F41",
"U>	c #133346",
"V>	c #123145",
"W>	c #102E43",
"X>	c #123549",
"Y>	c #15394E",
"Z>	c #13384D",
"`>	c #15394F",
" ,	c #12374D",
".,	c #143A50",
"+,	c #143C53",
"@,	c #12394F",
"#,	c #123950",
"$,	c #113A52",
"%,	c #133C54",
"&,	c #154059",
"*,	c #113E57",
"=,	c #12415C",
"-,	c #0E3A54",
";,	c #0C364F",
">,	c #12405A",
",,	c #14425B",
"',	c #16425C",
"),	c #10354B",
"!,	c #10374E",
"~,	c #13394F",
"{,	c #13374C",
"],	c #14364A",
"^,	c #122F42",
"/,	c #132F43",
"(,	c #112E41",
"_,	c #0F3044",
":,	c #112E40",
"<,	c #0F2737",
"[,	c #112B3C",
"},	c #142C3B",
"|,	c #172F3F",
"1,	c #162C3B",
"2,	c #162936",
"3,	c #162834",
"4,	c #172935",
"5,	c #182934",
"6,	c #16252F",
"7,	c #182731",
"8,	c #17252D",
"9,	c #1B2832",
"0,	c #202C34",
"a,	c #293C45",
"b,	c #2F4655",
"c,	c #486A7C",
"d,	c #162026",
"e,	c #172229",
"f,	c #1B272E",
"g,	c #1B262E",
"h,	c #1A242B",
"i,	c #141D22",
"j,	c #141E23",
"k,	c #172128",
"l,	c #141C22",
"m,	c #0F171D",
"n,	c #19252E",
"o,	c #0B141B",
"p,	c #0C161C",
"q,	c #0B151C",
"r,	c #0D171E",
"s,	c #0C161D",
"t,	c #0B1319",
"u,	c #0A151D",
"v,	c #0A161E",
"w,	c #0A141D",
"x,	c #08131B",
"y,	c #09161F",
"z,	c #091720",
"A,	c #06141D",
"B,	c #071722",
"C,	c #081B27",
"D,	c #091C29",
"E,	c #091B27",
"F,	c #081C29",
"G,	c #081E2B",
"H,	c #081D2C",
"I,	c #071D2A",
"J,	c #071D2B",
"K,	c #071E2C",
"L,	c #071D2C",
"M,	c #061B2A",
"N,	c #072030",
"O,	c #072334",
"P,	c #061F30",
"Q,	c #072130",
"R,	c #062131",
"S,	c #081F2F",
"T,	c #051926",
"U,	c #091A26",
"V,	c #081A26",
"W,	c #0B1C28",
"X,	c #0B1821",
"Y,	c #0C1922",
"Z,	c #0C1820",
"`,	c #0C171E",
" '	c #0D181F",
".'	c #0E181F",
"+'	c #0F1B22",
"@'	c #0F1A21",
"#'	c #0D181E",
"$'	c #0F1920",
"%'	c #101920",
"&'	c #1D2C33",
"*'	c #233642",
"='	c #293B46",
"-'	c #081015",
";'	c #284151",
">'	c #37596D",
",'	c #131D21",
"''	c #1B262C",
")'	c #121A1F",
"!'	c #111A1E",
"~'	c #080F12",
"{'	c #172129",
"]'	c #223039",
"^'	c #030609",
"/'	c #04080C",
"('	c #050B0F",
"_'	c #050C10",
":'	c #04080D",
"<'	c #050A0F",
"['	c #040B10",
"}'	c #03080C",
"|'	c #040A0F",
"1'	c #040B11",
"2'	c #030A10",
"3'	c #02090F",
"4'	c #020A11",
"5'	c #030D15",
"6'	c #030D14",
"7'	c #040F17",
"8'	c #040F18",
"9'	c #030F18",
"0'	c #031019",
"a'	c #020F18",
"b'	c #020F19",
"c'	c #030E17",
"d'	c #030E16",
"e'	c #020D16",
"f'	c #03101A",
"g'	c #020F17",
"h'	c #03101B",
"i'	c #03121C",
"j'	c #03121B",
"k'	c #03131D",
"l'	c #03121D",
"m'	c #03111B",
"n'	c #04121D",
"o'	c #04111B",
"p'	c #04121B",
"q'	c #020B12",
"r'	c #030B12",
"s'	c #030C13",
"t'	c #040D14",
"u'	c #040E14",
"v'	c #040D13",
"w'	c #040C12",
"x'	c #050D13",
"y'	c #050E15",
"z'	c #060E14",
"A'	c #050C11",
"B'	c #050D11",
"C'	c #070E13",
"D'	c #060E13",
"E'	c #060D12",
"F'	c #0A1318",
"G'	c #101C21",
"H'	c #070E12",
"I'	c #263E4F",
"J'	c #385B6F",
"K'	c #16232C",
"L'	c #1C2830",
"M'	c #0C1215",
"N'	c #121B1E",
"O'	c #17252B",
"P'	c #1C2C36",
"Q'	c #1A2831",
"R'	c #1C2A34",
"S'	c #1A2934",
"T'	c #17232C",
"U'	c #162227",
"V'	c #091013",
"W'	c #081117",
"X'	c #091218",
"Y'	c #071118",
"Z'	c #081219",
"`'	c #09131A",
" )	c #081118",
".)	c #09141C",
"+)	c #0A151C",
"@)	c #08131A",
"#)	c #071219",
"$)	c #08121A",
"%)	c #07121A",
"&)	c #09131B",
"*)	c #09151E",
"=)	c #08151F",
"-)	c #08151E",
";)	c #081721",
">)	c #0A1823",
",)	c #0A1821",
"')	c #0A1721",
"))	c #0C1A24",
"!)	c #071119",
"~)	c #091118",
"{)	c #081016",
"])	c #080E14",
"^)	c #080F14",
"/)	c #1C2B34",
"()	c #1E2D37",
"_)	c #16222B",
":)	c #253C4C",
"<)	c #3B5D71",
"[)	c #0A141A",
"})	c #1F2B34",
"|)	c #2D4857",
"1)	c #2F4C5C",
"2)	c #3C6178",
"3)	c #325060",
"4)	c #3A5E70",
"5)	c #36596B",
"6)	c #365768",
"7)	c #304A5A",
"8)	c #304B5A",
"9)	c #395C6D",
"0)	c #385A6E",
"a)	c #2A4351",
"b)	c #3A5A6A",
"c)	c #34505F",
"d)	c #314D5B",
"e)	c #314F60",
"f)	c #335060",
"g)	c #355565",
"h)	c #334F5E",
"i)	c #2B4250",
"j)	c #304856",
"k)	c #304755",
"l)	c #2A414D",
"m)	c #2B424E",
"n)	c #263943",
"o)	c #1D2E39",
"p)	c #223541",
"q)	c #1F2C35",
"r)	c #06090D",
"s)	c #0E1419",
"t)	c #081013",
"u)	c #0C141A",
"v)	c #0C151B",
"w)	c #0E1821",
"x)	c #0E1A24",
"y)	c #0E1A23",
"z)	c #0D1922",
"A)	c #101E28",
"B)	c #0F1D27",
"C)	c #0E1C27",
"D)	c #12202B",
"E)	c #101F2A",
"F)	c #10202B",
"G)	c #0F1F2B",
"H)	c #11212E",
"I)	c #122330",
"J)	c #11222F",
"K)	c #12222E",
"L)	c #11212D",
"M)	c #11222E",
"N)	c #0F202D",
"O)	c #0E1F2B",
"P)	c #0F1F2A",
"Q)	c #0E1D29",
"R)	c #0C1B26",
"S)	c #0D1D29",
"T)	c #0D1D28",
"U)	c #0E1E29",
"V)	c #10202C",
"W)	c #0F1E28",
"X)	c #0F1D28",
"Y)	c #0F1E29",
"Z)	c #101C27",
"`)	c #0C161F",
" !	c #0F181F",
".!	c #0A1016",
"+!	c #141E25",
"@!	c #1D2D36",
"#!	c #18242D",
"$!	c #18262F",
"%!	c #3D6074",
"&!	c #17242D",
"*!	c #0D151C",
"=!	c #151E23",
"-!	c #202D34",
";!	c #385463",
">!	c #578294",
",!	c #335362",
"'!	c #263F4E",
")!	c #284250",
"!!	c #283F4D",
"~!	c #263C49",
"{!	c #253945",
"]!	c #253844",
"^!	c #283C48",
"/!	c #263D49",
"(!	c #29414F",
"_!	c #293D48",
":!	c #263C48",
"<!	c #283D48",
"[!	c #273741",
"}!	c #283944",
"|!	c #243742",
"1!	c #28424F",
"2!	c #1E2F39",
"3!	c #0D181D",
"4!	c #202E38",
"5!	c #121A20",
"6!	c #152026",
"7!	c #0B1215",
"8!	c #0B1218",
"9!	c #0B141A",
"0!	c #0A1319",
"a!	c #0A1419",
"b!	c #0B161D",
"c!	c #0B151B",
"d!	c #0F1A20",
"e!	c #0F1A22",
"f!	c #0C151A",
"g!	c #0B1418",
"h!	c #121D22",
"i!	c #17252E",
"j!	c #243A49",
"k!	c #3B5C70",
"l!	c #436273",
"m!	c #42606E",
"n!	c #20343D",
"o!	c #121C24",
"p!	c #162129",
"q!	c #14212A",
"r!	c #101A21",
"s!	c #152028",
"t!	c #142029",
"u!	c #152029",
"v!	c #16212A",
"w!	c #0F161C",
"x!	c #1A262D",
"y!	c #15222B",
"z!	c #16242D",
"A!	c #17252F",
"B!	c #182630",
"C!	c #182730",
"D!	c #17242E",
"E!	c #192832",
"F!	c #172630",
"G!	c #192731",
"H!	c #1A2832",
"I!	c #18252E",
"J!	c #1D2A33",
"K!	c #253842",
"L!	c #1E3039",
"M!	c #304450",
"N!	c #2F424F",
"O!	c #354A57",
"P!	c #364B58",
"Q!	c #374D5A",
"R!	c #334854",
"S!	c #334956",
"T!	c #364E5B",
"U!	c #314551",
"V!	c #243948",
"W!	c #324C58",
"X!	c #3E5D6D",
"Y!	c #060B10",
"Z!	c #0E181D",
"`!	c #0C1115",
" ~	c #1B2A34",
".~	c #182830",
"+~	c #1A2A34",
"@~	c #1A2A35",
"#~	c #192933",
"$~	c #1C2C37",
"%~	c #192630",
"&~	c #19242C",
"*~	c #151F27",
"=~	c #2C4350",
"-~	c #0C161B",
";~	c #263A45",
">~	c #2B414B",
",~	c #22343C",
"'~	c #263841",
")~	c #192732",
"!~	c #263B4A",
"~~	c #3F5D70",
"{~	c #446574",
"]~	c #060C0F",
"^~	c #070B10",
"/~	c #131E26",
"(~	c #1D2C34",
"_~	c #1B2B36",
":~	c #182832",
"<~	c #1A2C37",
"[~	c #1B2C37",
"}~	c #192934",
"|~	c #1B2B37",
"1~	c #1B2A35",
"2~	c #29404C",
"3~	c #0A1317",
"4~	c #22353E",
"5~	c #293E48",
"6~	c #1E2B31",
"7~	c #263842",
"8~	c #253740",
"9~	c #2F444F",
"0~	c #243741",
"a~	c #283C4B",
"b~	c #445E70",
"c~	c #1A2730",
"d~	c #375766",
"e~	c #0D141A",
"f~	c #04080A",
"g~	c #05080C",
"h~	c #05070B",
"i~	c #17222A",
"j~	c #2C3B43",
"k~	c #142127",
"l~	c #132028",
"m~	c #121F27",
"n~	c #131F28",
"o~	c #1C2D39",
"p~	c #1D2E3A",
"q~	c #1E303C",
"r~	c #1D2F3C",
"s~	c #1C2F3B",
"t~	c #1B2F3C",
"u~	c #1B2F3D",
"v~	c #192A35",
"w~	c #1E303D",
"x~	c #1B2C38",
"y~	c #14242C",
"z~	c #14212B",
"A~	c #111A21",
"B~	c #273B46",
"C~	c #273944",
"D~	c #0C1416",
"E~	c #243842",
"F~	c #293F4A",
"G~	c #30434D",
"H~	c #283B45",
"I~	c #2A3E49",
"J~	c #172730",
"K~	c #273C4B",
"L~	c #425C6E",
"M~	c #0D1217",
"N~	c #2E4857",
"O~	c #070A0D",
"P~	c #293841",
"Q~	c #18272F",
"R~	c #17262D",
"S~	c #162329",
"T~	c #0B161C",
"U~	c #111C24",
"V~	c #132029",
"W~	c #16242E",
"X~	c #16252E",
"Y~	c #14232C",
"Z~	c #101E27",
"`~	c #0F1E27",
" {	c #14242E",
".{	c #152530",
"+{	c #162733",
"@{	c #142530",
"#{	c #15242E",
"${	c #16262F",
"%{	c #122029",
"&{	c #13212A",
"*{	c #121D25",
"={	c #121C23",
"-{	c #283B46",
";{	c #20303C",
">{	c #263843",
",{	c #2D404A",
"'{	c #15242B",
"){	c #263947",
"!{	c #314757",
"~{	c #2A404F",
"{{	c #121A1E",
"]{	c #10171B",
"^{	c #283843",
"/{	c #162228",
"({	c #0C1519",
"_{	c #0F1A1F",
":{	c #17242A",
"<{	c #1D2B33",
"[{	c #192C36",
"}{	c #1D303D",
"|{	c #223A48",
"1{	c #223D4B",
"2{	c #213F4E",
"3{	c #234353",
"4{	c #254757",
"5{	c #26495A",
"6{	c #1E3943",
"7{	c #111E23",
"8{	c #131F24",
"9{	c #111E25",
"0{	c #111E24",
"a{	c #101D23",
"b{	c #0D171C",
"c{	c #0E171E",
"d{	c #0B171D",
"e{	c #0E1B23",
"f{	c #0F1C23",
"g{	c #0E1B21",
"h{	c #0E1B20",
"i{	c #0E1A21",
"j{	c #305468",
"k{	c #2F5264",
"l{	c #2A4B5D",
"m{	c #2E5165",
"n{	c #2B4B5D",
"o{	c #2D4959",
"p{	c #28414F",
"q{	c #2A414E",
"r{	c #2A4250",
"s{	c #243844",
"t{	c #2C424E",
"u{	c #283A43",
"v{	c #2B404B",
"w{	c #273843",
"x{	c #374E5D",
"y{	c #445C6A",
"z{	c #091115",
"A{	c #34505D",
"B{	c #1E2C34",
"C{	c #192831",
"D{	c #091016",
"E{	c #30444F",
"F{	c #2B3A44",
"G{	c #1C2E37",
"H{	c #1C313B",
"I{	c #1F3440",
"J{	c #233B47",
"K{	c #233C49",
"L{	c #213A47",
"M{	c #213C4A",
"N{	c #1F3946",
"O{	c #244A5D",
"P{	c #2D6179",
"Q{	c #295C76",
"R{	c #255A76",
"S{	c #27607D",
"T{	c #296581",
"U{	c #286783",
"V{	c #2B6984",
"W{	c #2B6783",
"X{	c #26637E",
"Y{	c #266481",
"Z{	c #266581",
"`{	c #276782",
" ]	c #21607D",
".]	c #225F7C",
"+]	c #256380",
"@]	c #225D78",
"#]	c #27637E",
"$]	c #215C78",
"%]	c #205A76",
"&]	c #215874",
"*]	c #27566F",
"=]	c #25475C",
"-]	c #2C5166",
";]	c #244457",
">]	c #33596E",
",]	c #345A6F",
"']	c #274554",
")]	c #25404F",
"!]	c #274150",
"~]	c #294554",
"{]	c #2A4452",
"]]	c #283F4C",
"^]	c #283F4B",
"/]	c #29404D",
"(]	c #253944",
"_]	c #152025",
":]	c #253C48",
"<]	c #354C59",
"[]	c #141D24",
"}]	c #192329",
"|]	c #253942",
"1]	c #253841",
"2]	c #25363E",
"3]	c #273A43",
"4]	c #283C46",
"5]	c #213139",
"6]	c #2A4454",
"7]	c #375364",
"8]	c #1F2E39",
"9]	c #4B7181",
"0]	c #111D25",
"a]	c #2B3D48",
"b]	c #0C1116",
"c]	c #162028",
"d]	c #020507",
"e]	c #132027",
"f]	c #162730",
"g]	c #1B2E39",
"h]	c #1A2D36",
"i]	c #1F3542",
"j]	c #1E3541",
"k]	c #213946",
"l]	c #223B49",
"m]	c #223C4C",
"n]	c #233F50",
"o]	c #213C4D",
"p]	c #213D4F",
"q]	c #203E4F",
"r]	c #1F3C4D",
"s]	c #1F3E4F",
"t]	c #1C3B4C",
"u]	c #1E3C4E",
"v]	c #224558",
"w]	c #214254",
"x]	c #204155",
"y]	c #204154",
"z]	c #204153",
"A]	c #214357",
"B]	c #204053",
"C]	c #214153",
"D]	c #234255",
"E]	c #224052",
"F]	c #234154",
"G]	c #213C4C",
"H]	c #244051",
"I]	c #233E4E",
"J]	c #253F4E",
"K]	c #233B49",
"L]	c #243B48",
"M]	c #263D4A",
"N]	c #253B48",
"O]	c #253B47",
"P]	c #253A46",
"Q]	c #233843",
"R]	c #213540",
"S]	c #263D4B",
"T]	c #314652",
"U]	c #151E25",
"V]	c #263A42",
"W]	c #2A414C",
"X]	c #263942",
"Y]	c #293D47",
"Z]	c #2B4353",
"`]	c #304B5C",
" ^	c #0C141B",
".^	c #375564",
"+^	c #121E24",
"@^	c #1D2C36",
"#^	c #1C2932",
"$^	c #19252F",
"%^	c #202F3A",
"&^	c #10171D",
"*^	c #1C2A31",
"=^	c #1E2E36",
"-^	c #17262E",
";^	c #1D323D",
">^	c #182931",
",^	c #233A47",
"'^	c #1C313C",
")^	c #1E3744",
"!^	c #223D4D",
"~^	c #203C4B",
"{^	c #203A4A",
"]^	c #203B4C",
"^^	c #203D4D",
"/^	c #1F3C4E",
"(^	c #204052",
"_^	c #1F3F52",
":^	c #24485B",
"<^	c #244558",
"[^	c #224356",
"}^	c #214255",
"|^	c #224154",
"1^	c #224153",
"2^	c #234254",
"3^	c #234152",
"4^	c #233F51",
"5^	c #223B4B",
"6^	c #243E4F",
"7^	c #243D4C",
"8^	c #233A48",
"9^	c #253C49",
"0^	c #344955",
"a^	c #2B3E4B",
"b^	c #192228",
"c^	c #283C44",
"d^	c #2D4450",
"e^	c #233741",
"f^	c #05070C",
"g^	c #1E323B",
"h^	c #1D2B35",
"i^	c #162630",
"j^	c #1E323C",
"k^	c #1E3440",
"l^	c #1F3643",
"m^	c #1E323F",
"n^	c #203947",
"o^	c #213B4A",
"p^	c #213B4B",
"q^	c #1F3A4A",
"r^	c #203B4B",
"s^	c #1F3B4C",
"t^	c #1F3A4B",
"u^	c #1E3B4C",
"v^	c #1F3D4F",
"w^	c #203E51",
"x^	c #224255",
"y^	c #1F4052",
"z^	c #213F50",
"A^	c #223F51",
"B^	c #224051",
"C^	c #223F4F",
"D^	c #223D4E",
"E^	c #213947",
"F^	c #233D4C",
"G^	c #273E4D",
"H^	c #243B49",
"I^	c #253A48",
"J^	c #273E4C",
"K^	c #243A47",
"L^	c #233742",
"M^	c #253743",
"N^	c #283B44",
"O^	c #2E4550",
"P^	c #1E303B",
"Q^	c #476377",
"R^	c #324D5D",
"S^	c #415966",
"T^	c #3A525E",
"U^	c #2A4352",
"V^	c #293B43",
"W^	c #203139",
"X^	c #20343F",
"Y^	c #213642",
"Z^	c #1C2E38",
"`^	c #1F303B",
" /	c #27404D",
"./	c #344C58",
"+/	c #060A0F",
"@/	c #283942",
"#/	c #1E3442",
"$/	c #1D313D",
"%/	c #203745",
"&/	c #203746",
"*/	c #1E3543",
"=/	c #1F3949",
"-/	c #1E3A4A",
";/	c #203D4E",
">/	c #213F51",
",/	c #204254",
"'/	c #203F51",
")/	c #213E50",
"!/	c #223F50",
"~/	c #233E4F",
"{/	c #223C4D",
"]/	c #223948",
"^/	c #233B4A",
"//	c #253B49",
"(/	c #253D4B",
"_/	c #263B47",
":/	c #243642",
"</	c #243540",
"[/	c #182229",
"}/	c #1D2E38",
"|/	c #2A404B",
"1/	c #2B3D49",
"2/	c #182127",
"3/	c #2B424D",
"4/	c #365364",
"5/	c #233B48",
"6/	c #1D2F3A",
"7/	c #091117",
"8/	c #111F27",
"9/	c #15252E",
"0/	c #111E27",
"a/	c #070E11",
"b/	c #101C23",
"c/	c #182933",
"d/	c #1D333F",
"e/	c #1A282E",
"f/	c #1A2C35",
"g/	c #1C2F3A",
"h/	c #1C2F39",
"i/	c #203643",
"j/	c #1F3846",
"k/	c #203C4C",
"l/	c #1F3948",
"m/	c #203D4F",
"n/	c #203C4D",
"o/	c #203F52",
"p/	c #213D4E",
"q/	c #213949",
"r/	c #203846",
"s/	c #223A49",
"t/	c #243946",
"u/	c #233946",
"v/	c #253A47",
"w/	c #2A3F4B",
"x/	c #182227",
"y/	c #23353E",
"z/	c #22343E",
"A/	c #070C11",
"B/	c #324E5E",
"C/	c #0E1A20",
"D/	c #11181D",
"E/	c #1F313D",
"F/	c #111E26",
"G/	c #17272F",
"H/	c #121F26",
"I/	c #15262F",
"J/	c #101C25",
"K/	c #1A2C39",
"L/	c #2F434E",
"M/	c #23333B",
"N/	c #1D2F39",
"O/	c #203743",
"P/	c #1F3745",
"Q/	c #1D3543",
"R/	c #213D4C",
"S/	c #1F3C4C",
"T/	c #203847",
"U/	c #1F3746",
"V/	c #213643",
"W/	c #243C4B",
"X/	c #233844",
"Y/	c #243743",
"Z/	c #233540",
"`/	c #2A3F4A",
" (	c #2E3E47",
".(	c #19242B",
"+(	c #273C46",
"@(	c #2B3C47",
"#(	c #354F5F",
"$(	c #354852",
"%(	c #101E25",
"&(	c #192932",
"*(	c #192930",
"=(	c #15252D",
"-(	c #132229",
";(	c #213641",
">(	c #1D313C",
",(	c #1F3541",
"'(	c #1E3643",
")(	c #1F3744",
"!(	c #1E3745",
"~(	c #1D3745",
"{(	c #1E3A48",
"](	c #1E3948",
"^(	c #1F3A49",
"/(	c #203B4A",
"((	c #1F3947",
"_(	c #203A49",
":(	c #223A47",
"<(	c #233743",
"[(	c #2A3E4A",
"}(	c #28343B",
"|(	c #1A2429",
"1(	c #23363F",
"2(	c #060E12",
"3(	c #112028",
"4(	c #16262D",
"5(	c #172731",
"6(	c #13212B",
"7(	c #070D12",
"8(	c #16252B",
"9(	c #273842",
"0(	c #192A33",
"a(	c #1D303A",
"b(	c #1F333E",
"c(	c #203A48",
"d(	c #1D3747",
"e(	c #1D3847",
"f(	c #1E3949",
"g(	c #1F3644",
"h(	c #213745",
"i(	c #213644",
"j(	c #223643",
"k(	c #1F3038",
"l(	c #0F151A",
"m(	c #25333B",
"n(	c #101B20",
"o(	c #182328",
"p(	c #2B404D",
"q(	c #324A58",
"r(	c #21343E",
"s(	c #314955",
"t(	c #101D24",
"u(	c #1D303B",
"v(	c #0E1A22",
"w(	c #13222B",
"x(	c #0A1219",
"y(	c #22313C",
"z(	c #0D1319",
"A(	c #1A2A32",
"B(	c #1F323D",
"C(	c #1F3642",
"D(	c #1E3846",
"E(	c #1D3643",
"F(	c #1F3C4B",
"G(	c #213C4B",
"H(	c #1E3746",
"I(	c #1D323F",
"J(	c #1F3543",
"K(	c #21343F",
"L(	c #27363E",
"M(	c #25363F",
"N(	c #111D26",
"O(	c #2A3F4D",
"P(	c #304857",
"Q(	c #223741",
"R(	c #385462",
"S(	c #172830",
"T(	c #0C1A21",
"U(	c #152631",
"V(	c #14252E",
"W(	c #101D26",
"X(	c #070E14",
"Y(	c #1C2B36",
"Z(	c #1E333E",
"`(	c #1D323E",
" _	c #223946",
"._	c #276473",
"+_	c #214150",
"@_	c #203946",
"#_	c #224E60",
"$_	c #225466",
"%_	c #1F4857",
"&_	c #20687E",
"*_	c #22677D",
"=_	c #25697E",
"-_	c #276374",
";_	c #266379",
">_	c #26677D",
",_	c #25667C",
"'_	c #224B5A",
")_	c #224251",
"!_	c #2E6B82",
"~_	c #2A6D85",
"{_	c #246981",
"]_	c #286780",
"^_	c #223F4E",
"/_	c #213440",
"(_	c #2D424E",
"__	c #293E4C",
":_	c #2B414F",
"<_	c #04060A",
"[_	c #334D5C",
"}_	c #101C24",
"|_	c #142129",
"1_	c #0D1920",
"2_	c #12232D",
"3_	c #10232E",
"4_	c #122631",
"5_	c #132733",
"6_	c #132633",
"7_	c #11232E",
"8_	c #132531",
"9_	c #0A151E",
"0_	c #122027",
"a_	c #213743",
"b_	c #203543",
"c_	c #276F81",
"d_	c #1D404E",
"e_	c #225D71",
"f_	c #256980",
"g_	c #23586A",
"h_	c #236F87",
"i_	c #1F4F61",
"j_	c #215162",
"k_	c #224B5B",
"l_	c #25576B",
"m_	c #2F7B95",
"n_	c #265B6F",
"o_	c #255D70",
"p_	c #296A81",
"q_	c #1C3643",
"r_	c #275669",
"s_	c #266F89",
"t_	c #246D87",
"u_	c #28576D",
"v_	c #223B48",
"w_	c #20333E",
"x_	c #2D4551",
"y_	c #1F2F36",
"z_	c #304350",
"A_	c #314653",
"B_	c #06090E",
"C_	c #273A45",
"D_	c #1D2D37",
"E_	c #081218",
"F_	c #07141C",
"G_	c #07151E",
"H_	c #0A1923",
"I_	c #0A1A24",
"J_	c #091A24",
"K_	c #08161E",
"L_	c #061016",
"M_	c #0D1B25",
"N_	c #102029",
"O_	c #091217",
"P_	c #1E2E39",
"Q_	c #18262D",
"R_	c #1F3340",
"S_	c #246274",
"T_	c #1A3845",
"U_	c #244D5B",
"V_	c #22596C",
"W_	c #25677F",
"X_	c #225566",
"Y_	c #286C80",
"Z_	c #224955",
"`_	c #224B58",
" :	c #1B323F",
".:	c #235567",
"+:	c #2A738B",
"@:	c #235164",
"#:	c #225163",
"$:	c #1C3B48",
"%:	c #1C3441",
"&:	c #235266",
"*:	c #235568",
"=:	c #2D4451",
"-:	c #21333B",
";:	c #233440",
">:	c #0A1117",
",:	c #0C161A",
"':	c #111920",
"):	c #162831",
"!:	c #182833",
"~:	c #162A35",
"{:	c #172B38",
"]:	c #122531",
"^:	c #10293A",
"/:	c #102C3C",
"(:	c #123246",
"_:	c #113144",
"::	c #163446",
"<:	c #0D2332",
"[:	c #1A303D",
"}:	c #142833",
"|:	c #0C1518",
"1:	c #1B2C34",
"2:	c #225465",
"3:	c #1A3844",
"4:	c #266074",
"5:	c #225264",
"6:	c #235D74",
"7:	c #235466",
"8:	c #236D85",
"9:	c #246C7D",
"0:	c #267083",
"a:	c #1C3542",
"b:	c #1C323C",
"c:	c #216076",
"d:	c #256B83",
"e:	c #287691",
"f:	c #296B82",
"g:	c #1C323D",
"h:	c #235062",
"i:	c #234D5D",
"j:	c #1F313B",
"k:	c #19272D",
"l:	c #253A45",
"m:	c #293C49",
"n:	c #263A48",
"o:	c #374E5A",
"p:	c #1A2C36",
"q:	c #162731",
"r:	c #0D1A21",
"s:	c #14232D",
"t:	c #0F2330",
"u:	c #122B39",
"v:	c #0E2F43",
"w:	c #0C344B",
"x:	c #0E374E",
"y:	c #0D3A53",
"z:	c #0F3A51",
"A:	c #103145",
"B:	c #102B3A",
"C:	c #122532",
"D:	c #0B161F",
"E:	c #1A2930",
"F:	c #1C2C33",
"G:	c #121F25",
"H:	c #1A2B33",
"I:	c #204F5F",
"J:	c #25647A",
"K:	c #28657A",
"L:	c #265D70",
"M:	c #215264",
"N:	c #234D5C",
"O:	c #243D4B",
"P:	c #203A47",
"Q:	c #214757",
"R:	c #1F5365",
"S:	c #183039",
"T:	c #234E5F",
"U:	c #2C7C99",
"V:	c #1C333F",
"W:	c #1F596B",
"X:	c #21596C",
"Y:	c #23353C",
"Z:	c #2A4152",
"`:	c #2A424E",
" <	c #1B2F3B",
".<	c #172833",
"+<	c #142C3A",
"@<	c #021B29",
"#<	c #012539",
"$<	c #012F48",
"%<	c #012E4A",
"&<	c #012E48",
"*<	c #013049",
"=<	c #01324D",
"-<	c #02314C",
";<	c #032C43",
"><	c #04263B",
",<	c #0F2C3C",
"'<	c #1A2B36",
")<	c #0F181C",
"!<	c #1D2E36",
"~<	c #1C303B",
"{<	c #234B5B",
"]<	c #275B6E",
"^<	c #213C48",
"/<	c #2D6A80",
"(<	c #1B333E",
"_<	c #1D3E4A",
":<	c #266A7F",
"<<	c #297389",
"[<	c #29758D",
"}<	c #28697F",
"|<	c #2B6E86",
"1<	c #297189",
"2<	c #29758F",
"3<	c #285B70",
"4<	c #1C3340",
"5<	c #205163",
"6<	c #214F60",
"7<	c #1C303A",
"8<	c #081014",
"9<	c #293D4D",
"0<	c #2E4657",
"a<	c #19262F",
"b<	c #27404C",
"c<	c #192D38",
"d<	c #15252F",
"e<	c #162732",
"f<	c #172933",
"g<	c #0F1C26",
"h<	c #10354A",
"i<	c #022B3F",
"j<	c #0BA4BB",
"k<	c #12BFD6",
"l<	c #21BECF",
"m<	c #29B7C6",
"n<	c #2AB3C2",
"o<	c #28B3C4",
"p<	c #1FB5C8",
"q<	c #07BAD0",
"r<	c #04C0D8",
"s<	c #026583",
"t<	c #0C3851",
"u<	c #0B1B25",
"v<	c #091823",
"w<	c #12232F",
"x<	c #080F15",
"y<	c #182A34",
"z<	c #2C414E",
"A<	c #273C48",
"B<	c #2D404D",
"C<	c #0F1B23",
"D<	c #0F3347",
"E<	c #022437",
"F<	c #035974",
"G<	c #046E8C",
"H<	c #07728E",
"I<	c #0C718A",
"J<	c #0C708A",
"K<	c #0D718C",
"L<	c #096E8B",
"M<	c #016785",
"N<	c #006283",
"O<	c #013B5C",
"P<	c #0A344F",
"Q<	c #0A1B26",
"R<	c #081824",
"S<	c #132533",
"T<	c #1B3141",
"U<	c #101A1E",
"V<	c #1B2B31",
"W<	c #192A32",
"X<	c #192B34",
"Y<	c #1F323E",
"Z<	c #1D2F38",
"`<	c #324754",
" [	c #253C47",
".[	c #14222B",
"+[	c #192A34",
"@[	c #0F1C24",
"#[	c #10202D",
"$[	c #0F2938",
"%[	c #092B3E",
"&[	c #072F45",
"*[	c #073F5D",
"=[	c #064666",
"-[	c #05486A",
";[	c #054E75",
">[	c #054D73",
",[	c #084B70",
"'[	c #063E5E",
")[	c #0A344E",
"![	c #0E2E42",
"~[	c #0C2536",
"{[	c #0A1B27",
"][	c #071925",
"^[	c #112938",
"/[	c #112432",
"([	c #131C20",
"_[	c #18272E",
":[	c #1D3039",
"<[	c #13232C",
"[[	c #314D5D",
"}[	c #04070C",
"|[	c #213742",
"1[	c #273D48",
"2[	c #16262E",
"3[	c #13232B",
"4[	c #101D25",
"5[	c #0F1D25",
"6[	c #101F27",
"7[	c #09141B",
"8[	c #0B1B27",
"9[	c #051A27",
"0[	c #032132",
"a[	c #032538",
"b[	c #04293F",
"c[	c #042C44",
"d[	c #042E47",
"e[	c #032D44",
"f[	c #03273C",
"g[	c #051E2D",
"h[	c #061926",
"i[	c #061621",
"j[	c #05111B",
"k[	c #071723",
"l[	c #0F2432",
"m[	c #0C1D28",
"n[	c #03070A",
"o[	c #1F2E38",
"p[	c #20303B",
"q[	c #14232B",
"r[	c #2B4251",
"s[	c #334F60",
"t[	c #12212B",
"u[	c #192F3C",
"v[	c #18303D",
"w[	c #112530",
"x[	c #0E2634",
"y[	c #102B3B",
"z[	c #112F40",
"A[	c #0F2D3F",
"B[	c #0F364E",
"C[	c #0B3954",
"D[	c #0C3C58",
"E[	c #0B3C59",
"F[	c #0B3E5B",
"G[	c #0A3F5E",
"H[	c #0A3C5A",
"I[	c #0A3A55",
"J[	c #0B344D",
"K[	c #0B2D42",
"L[	c #0C293B",
"M[	c #0D2839",
"N[	c #132734",
"O[	c #112531",
"P[	c #112936",
"Q[	c #0D1F28",
"R[	c #132127",
"S[	c #1C323B",
"T[	c #1F3743",
"U[	c #1D3743",
"V[	c #1E3945",
"W[	c #1B303B",
"X[	c #1A262F",
"Y[	c #0A1216",
"Z[	c #20323E",
"`[	c #20313D",
" }	c #304A59",
".}	c #0E161D",
"+}	c #182F3D",
"@}	c #0E1920",
"#}	c #214353",
"$}	c #0F2632",
"%}	c #0D222F",
"&}	c #112D3D",
"*}	c #0F2633",
"=}	c #102A39",
"-}	c #102E40",
";}	c #103448",
">}	c #0F364B",
",}	c #0C3349",
"'}	c #0B3145",
")}	c #0D3144",
"!}	c #0C3348",
"~}	c #0B3248",
"{}	c #0D3146",
"]}	c #0E2E40",
"^}	c #0E2B3C",
"/}	c #0E2838",
"(}	c #0D2432",
"_}	c #0D1F2A",
":}	c #0C2839",
"<}	c #0B1C25",
"[}	c #10242F",
"}}	c #2A5E72",
"|}	c #2D6A81",
"1}	c #2B657B",
"2}	c #265565",
"3}	c #266178",
"4}	c #2A697F",
"5}	c #2B6980",
"6}	c #275C6F",
"7}	c #111B1F",
"8}	c #18242A",
"9}	c #223441",
"0}	c #21323E",
"a}	c #090F15",
"b}	c #293F4D",
"c}	c #132936",
"d}	c #21485C",
"e}	c #143241",
"f}	c #11384C",
"g}	c #12364A",
"h}	c #143D51",
"i}	c #13425B",
"j}	c #154A65",
"k}	c #154E6A",
"l}	c #124F6D",
"m}	c #0F5070",
"n}	c #0D5270",
"o}	c #0E4D6C",
"p}	c #0B4B6A",
"q}	c #0B4E6F",
"r}	c #0C4E70",
"s}	c #0E4968",
"t}	c #124763",
"u}	c #114059",
"v}	c #0E3042",
"w}	c #0B2C3F",
"x}	c #12374B",
"y}	c #0E212D",
"z}	c #265F74",
"A}	c #285F74",
"B}	c #2B667C",
"C}	c #245162",
"D}	c #213E4B",
"E}	c #213F4C",
"F}	c #225E73",
"G}	c #26657B",
"H}	c #28667D",
"I}	c #245668",
"J}	c #1E2F37",
"K}	c #25343C",
"L}	c #2F3F49",
"M}	c #3C515D",
"N}	c #253642",
"O}	c #2C404D",
"P}	c #324955",
"Q}	c #2F4A59",
"R}	c #132A37",
"S}	c #132C3A",
"T}	c #1B3644",
"U}	c #0E2330",
"V}	c #0E2C3D",
"W}	c #0E293A",
"X}	c #0E3144",
"Y}	c #0E354B",
"Z}	c #0D3850",
"`}	c #0D3D59",
" |	c #0B415F",
".|	c #0A4363",
"+|	c #084260",
"@|	c #08405F",
"#|	c #084362",
"$|	c #07405D",
"%|	c #084363",
"&|	c #0A3F5D",
"*|	c #0C3A53",
"=|	c #0B364E",
"-|	c #0B344B",
";|	c #0A212E",
">|	c #0C2C3E",
",|	c #082130",
"'|	c #0A1C27",
")|	c #0D202B",
"!|	c #22576B",
"~|	c #265E73",
"{|	c #285C70",
"]|	c #214857",
"^|	c #1D2F37",
"/|	c #1F3640",
"(|	c #265D72",
"_|	c #265C70",
":|	c #20424F",
"<|	c #235C70",
"[|	c #27677C",
"}|	c #296A80",
"||	c #255668",
"1|	c #0C171B",
"2|	c #0A1118",
"3|	c #284352",
"4|	c #0C1A23",
"5|	c #0B171F",
"6|	c #122C3B",
"7|	c #142B39",
"8|	c #0F2533",
"9|	c #092737",
"0|	c #0F293A",
"a|	c #112D40",
"b|	c #0E3349",
"c|	c #0C374F",
"d|	c #0A3954",
"e|	c #0A3D59",
"f|	c #054363",
"g|	c #064362",
"h|	c #053F5D",
"i|	c #043F5E",
"j|	c #053E5D",
"k|	c #083751",
"l|	c #093750",
"m|	c #0A3249",
"n|	c #0C2E41",
"o|	c #102F42",
"p|	c #09283B",
"q|	c #0A1E2A",
"r|	c #0C202B",
"s|	c #1A2A31",
"t|	c #23576B",
"u|	c #286075",
"v|	c #265363",
"w|	c #1E3B46",
"x|	c #2A6A80",
"y|	c #29667B",
"z|	c #295A6A",
"A|	c #235B6E",
"B|	c #29697F",
"C|	c #29677B",
"D|	c #265667",
"E|	c #070F13",
"F|	c #0B1117",
"G|	c #20333C",
"H|	c #233441",
"I|	c #283B47",
"J|	c #2A414F",
"K|	c #0F1B25",
"L|	c #0E1B25",
"M|	c #152C39",
"N|	c #122C3A",
"O|	c #122735",
"P|	c #0E2737",
"Q|	c #0C2D40",
"R|	c #0F3247",
"S|	c #0E364E",
"T|	c #0D3A52",
"U|	c #0C3D57",
"V|	c #09405E",
"W|	c #074A6C",
"X|	c #044E72",
"Y|	c #054D6F",
"Z|	c #044D70",
"`|	c #044B6D",
" 1	c #054A6D",
".1	c #054362",
"+1	c #063C57",
"@1	c #0B3B55",
"#1	c #0B3850",
"$1	c #0B3349",
"%1	c #082B3F",
"&1	c #082333",
"*1	c #0B1F2B",
"=1	c #152329",
"-1	c #255A70",
";1	c #275F75",
">1	c #235263",
",1	c #2C6374",
"'1	c #296275",
")1	c #2A6073",
"!1	c #2A5667",
"~1	c #266176",
"{1	c #29687C",
"]1	c #29667A",
"^1	c #275868",
"/1	c #15212A",
"(1	c #20343E",
"_1	c #283A48",
":1	c #0C212E",
"<1	c #0C151C",
"[1	c #13252F",
"}1	c #0B1922",
"|1	c #132935",
"11	c #0A131A",
"21	c #0F2430",
"31	c #102E42",
"41	c #0B2333",
"51	c #0B3045",
"61	c #083249",
"71	c #06405F",
"81	c #044264",
"91	c #034566",
"01	c #024567",
"a1	c #024B70",
"b1	c #024A6E",
"c1	c #01476A",
"d1	c #01466A",
"e1	c #014265",
"f1	c #013B5B",
"g1	c #023550",
"h1	c #053047",
"i1	c #093349",
"j1	c #0A2E42",
"k1	c #072132",
"l1	c #0B1F2A",
"m1	c #19282F",
"n1	c #25586D",
"o1	c #296075",
"p1	c #225162",
"q1	c #2C6476",
"r1	c #286073",
"s1	c #2A6276",
"t1	c #285565",
"u1	c #1B2E37",
"v1	c #276074",
"w1	c #2A667A",
"x1	c #286377",
"y1	c #275768",
"z1	c #1C2D35",
"A1	c #0A121A",
"B1	c #101F29",
"C1	c #0C2432",
"D1	c #0B1923",
"E1	c #102836",
"F1	c #092434",
"G1	c #093853",
"H1	c #044568",
"I1	c #025782",
"J1	c #02608E",
"K1	c #026692",
"L1	c #026E9B",
"M1	c #0171A2",
"N1	c #0170A0",
"O1	c #016B9A",
"P1	c #006897",
"Q1	c #006797",
"R1	c #016695",
"S1	c #015A84",
"T1	c #034B70",
"U1	c #043D5D",
"V1	c #0B3950",
"W1	c #0F344A",
"X1	c #0A2738",
"Y1	c #0D2330",
"Z1	c #0C212C",
"`1	c #25596D",
" 2	c #2A5F73",
".2	c #204D5C",
"+2	c #296073",
"@2	c #275F73",
"#2	c #286074",
"$2	c #275161",
"%2	c #255E72",
"&2	c #266174",
"*2	c #286376",
"=2	c #225060",
"-2	c #18242E",
";2	c #2B4656",
">2	c #243441",
",2	c #283A47",
"'2	c #0F2029",
")2	c #0B2331",
"!2	c #0D161D",
"~2	c #122936",
"{2	c #102D3C",
"]2	c #102A38",
"^2	c #123D57",
"/2	c #0B283C",
"(2	c #10405A",
"_2	c #022B43",
":2	c #044E6F",
"<2	c #02719B",
"[2	c #017AA3",
"}2	c #017CA4",
"|2	c #017FA8",
"12	c #0182AD",
"22	c #0181AA",
"32	c #017AA1",
"42	c #01769D",
"52	c #01769F",
"62	c #0173A0",
"72	c #006C9A",
"82	c #005F8B",
"92	c #013151",
"02	c #0C3F57",
"a2	c #092E42",
"b2	c #0E344A",
"c2	c #0D2837",
"d2	c #0D2533",
"e2	c #18282F",
"f2	c #235669",
"g2	c #265B6E",
"h2	c #275C71",
"i2	c #204C5C",
"j2	c #182A33",
"k2	c #214654",
"l2	c #275D70",
"m2	c #275D71",
"n2	c #285B6D",
"o2	c #1E404D",
"p2	c #24596C",
"q2	c #275F72",
"r2	c #245060",
"s2	c #1F2D37",
"t2	c #293A47",
"u2	c #10222C",
"v2	c #0C2433",
"w2	c #0B1A24",
"x2	c #122A38",
"y2	c #09151C",
"z2	c #0F3446",
"A2	c #102C3B",
"B2	c #0E3D57",
"C2	c #0A2B3F",
"D2	c #094C6E",
"E2	c #014264",
"F2	c #0E89A8",
"G2	c #42C8E1",
"H2	c #46CEE6",
"I2	c #4ED1E5",
"J2	c #4ED1E7",
"K2	c #4DD4EA",
"L2	c #52D7E8",
"M2	c #51D1E2",
"N2	c #49CFE0",
"O2	c #4BCFE2",
"P2	c #4DCFE2",
"Q2	c #39C5DF",
"R2	c #0DAFD3",
"S2	c #015379",
"T2	c #0C4E69",
"U2	c #092F43",
"V2	c #103A52",
"W2	c #0E2939",
"X2	c #225365",
"Y2	c #255A6E",
"Z2	c #214D5E",
"`2	c #192C35",
" 3	c #182E38",
".3	c #285F72",
"+3	c #285E71",
"@3	c #275B6C",
"#3	c #1A323D",
"$3	c #215567",
"%3	c #265E70",
"&3	c #286173",
"*3	c #224D5C",
"=3	c #2C4859",
"-3	c #2A3E4B",
";3	c #314856",
">3	c #10222D",
",3	c #0A2230",
"'3	c #060D10",
")3	c #1A2F3C",
"!3	c #0E364A",
"~3	c #0F2D3D",
"{3	c #0F425E",
"]3	c #082B41",
"^3	c #075074",
"/3	c #0691B8",
"(3	c #4BD8E9",
"_3	c #52DEEC",
":3	c #5FE3ED",
"<3	c #65E4EF",
"[3	c #67E5EF",
"}3	c #68E7F1",
"|3	c #64E5F0",
"13	c #5DE3EE",
"23	c #59E2EE",
"33	c #51E2EF",
"43	c #44E3F2",
"53	c #20DBF2",
"63	c #01668E",
"73	c #08516E",
"83	c #0A3044",
"93	c #0B374E",
"03	c #0D2E41",
"a3	c #0D2938",
"b3	c #235365",
"c3	c #275B6F",
"d3	c #1E4958",
"e3	c #182A32",
"f3	c #19303A",
"g3	c #295F72",
"h3	c #296175",
"i3	c #296376",
"j3	c #265D6F",
"k3	c #285D6F",
"l3	c #1C3945",
"m3	c #225568",
"n3	c #265B6D",
"o3	c #255161",
"p3	c #254051",
"q3	c #162631",
"r3	c #0F1F29",
"s3	c #0D1A24",
"t3	c #142732",
"u3	c #152833",
"v3	c #0B1C27",
"w3	c #112B3A",
"x3	c #0F3447",
"y3	c #0D2D3E",
"z3	c #0D3953",
"A3	c #05273B",
"B3	c #054260",
"C3	c #013552",
"D3	c #026690",
"E3	c #038CB8",
"F3	c #229FC0",
"G3	c #25A0C1",
"H3	c #2DA9CC",
"I3	c #35ABCF",
"J3	c #35ACD0",
"K3	c #32AED1",
"L3	c #2FAFD1",
"M3	c #28ABCE",
"N3	c #0FA0C6",
"O3	c #0294BA",
"P3	c #0286B1",
"Q3	c #025178",
"R3	c #0A4965",
"S3	c #072A3E",
"T3	c #0B2837",
"U3	c #0E2938",
"V3	c #1F4B5C",
"W3	c #255667",
"X3	c #295A6C",
"Y3	c #224C5C",
"Z3	c #1B2F39",
"`3	c #2A6074",
" 4	c #21495A",
".4	c #286175",
"+4	c #1E3B47",
"@4	c #225366",
"#4	c #245869",
"$4	c #255B6F",
"%4	c #0E151B",
"&4	c #1F2F3A",
"*4	c #344958",
"=4	c #162935",
"-4	c #304652",
";4	c #0E1E28",
">4	c #15242F",
",4	c #0C171F",
"'4	c #142531",
")4	c #102531",
"!4	c #0D2A3A",
"~4	c #0C364E",
"{4	c #052132",
"]4	c #052E45",
"^4	c #043C5B",
"/4	c #01507B",
"(4	c #005C8A",
"_4	c #016593",
":4	c #006E9C",
"<4	c #0176A7",
"[4	c #017AAB",
"}4	c #0181B3",
"|4	c #0179AD",
"14	c #0178AB",
"24	c #0174A9",
"34	c #006898",
"44	c #005782",
"54	c #014A70",
"64	c #044263",
"74	c #0A3F5B",
"84	c #082C41",
"94	c #082637",
"04	c #0B2636",
"a4	c #0F2A3A",
"b4	c #091012",
"c4	c #0B1417",
"d4	c #26586A",
"e4	c #2A5D70",
"f4	c #285769",
"g4	c #1E3742",
"h4	c #27586A",
"i4	c #26596B",
"j4	c #285B6E",
"k4	c #275668",
"l4	c #1F4654",
"m4	c #295F73",
"n4	c #27596A",
"o4	c #162A33",
"p4	c #235769",
"q4	c #265C6F",
"r4	c #14252D",
"s4	c #0B171E",
"t4	c #0D1820",
"u4	c #142631",
"v4	c #13242E",
"w4	c #10384F",
"x4	c #103B54",
"y4	c #062C41",
"z4	c #083148",
"A4	c #073E59",
"B4	c #064566",
"C4	c #044E71",
"D4	c #035679",
"E4	c #015E84",
"F4	c #01638A",
"G4	c #01638C",
"H4	c #026992",
"I4	c #02648B",
"J4	c #02628A",
"K4	c #03567C",
"L4	c #035174",
"M4	c #043E59",
"N4	c #093B54",
"O4	c #0A364E",
"P4	c #0B3146",
"Q4	c #092D42",
"R4	c #113041",
"S4	c #0C2533",
"T4	c #254D5D",
"U4	c #285A6D",
"V4	c #28596C",
"W4	c #264E5D",
"X4	c #27596C",
"Y4	c #245161",
"Z4	c #1F4250",
"`4	c #1F3E4B",
" 5	c #265869",
".5	c #295A6D",
"+5	c #29596B",
"@5	c #214553",
"#5	c #255A6D",
"$5	c #214453",
"%5	c #203442",
"&5	c #29495D",
"*5	c #172D3C",
"=5	c #13222C",
"-5	c #13242F",
";5	c #08161F",
">5	c #0D212E",
",5	c #07131A",
"'5	c #0C2B3D",
")5	c #112F3F",
"!5	c #0B3147",
"~5	c #08354E",
"{5	c #0B344C",
"]5	c #0B3E59",
"^5	c #0A4969",
"/5	c #084D70",
"(5	c #06547C",
"_5	c #035A85",
":5	c #025984",
"<5	c #035882",
"[5	c #055B83",
"}5	c #05547B",
"|5	c #065178",
"15	c #094B6E",
"25	c #0A4565",
"35	c #0C3B55",
"45	c #0C374E",
"55	c #0D3044",
"65	c #06293D",
"75	c #0A2433",
"85	c #0F2836",
"95	c #17262C",
"05	c #295768",
"a5	c #275565",
"b5	c #295565",
"c5	c #29596A",
"d5	c #285A6B",
"e5	c #28586B",
"f5	c #224958",
"g5	c #17282F",
"h5	c #234A59",
"i5	c #285767",
"j5	c #28596B",
"k5	c #27596B",
"l5	c #275A6D",
"m5	c #285C6F",
"n5	c #255566",
"o5	c #131A20",
"p5	c #233744",
"q5	c #1E3544",
"r5	c #121F29",
"s5	c #0C1821",
"t5	c #07131C",
"u5	c #07131B",
"v5	c #102C3D",
"w5	c #0A2D42",
"x5	c #063048",
"y5	c #0C344A",
"z5	c #0D334A",
"A5	c #0B3852",
"B5	c #0B3F5B",
"C5	c #0A4260",
"D5	c #084767",
"E5	c #064A6E",
"F5	c #054B6F",
"G5	c #064A6F",
"H5	c #074667",
"I5	c #084667",
"J5	c #0A4465",
"K5	c #0B3F5C",
"L5	c #0B3B57",
"M5	c #0E3852",
"N5	c #0E364C",
"O5	c #103347",
"P5	c #092C40",
"Q5	c #05253A",
"R5	c #0B2431",
"S5	c #285363",
"T5	c #295869",
"U5	c #2A596A",
"V5	c #295667",
"W5	c #275667",
"X5	c #29586B",
"Y5	c #22495A",
"Z5	c #1F404C",
"`5	c #275767",
" 6	c #285C6D",
".6	c #265A6C",
"+6	c #275A6C",
"@6	c #28596A",
"#6	c #265160",
"$6	c #19242D",
"%6	c #1E313E",
"&6	c #0E141A",
"*6	c #141B20",
"=6	c #1F2F3B",
"-6	c #213340",
";6	c #162632",
">6	c #1B2E3B",
",6	c #111F28",
"'6	c #13232D",
")6	c #0E222E",
"!6	c #0D293B",
"~6	c #092A3E",
"{6	c #062D44",
"]6	c #0B2F44",
"^6	c #0D3348",
"/6	c #0D354D",
"(6	c #0C354D",
"_6	c #0B3B56",
":6	c #084160",
"<6	c #07405E",
"[6	c #083D5A",
"}6	c #093C59",
"|6	c #0A3955",
"16	c #0B3751",
"26	c #0C3852",
"36	c #0E344B",
"46	c #0E3146",
"56	c #0D2C3D",
"66	c #082739",
"76	c #052337",
"86	c #0D2737",
"96	c #1B353F",
"06	c #285A6C",
"a6	c #275364",
"b6	c #244A59",
"c6	c #255162",
"d6	c #25596B",
"e6	c #245667",
"f6	c #233945",
"g6	c #151C22",
"h6	c #243643",
"i6	c #081216",
"j6	c #1D3746",
"k6	c #09141D",
"l6	c #060C12",
"m6	c #121F28",
"n6	c #14242F",
"o6	c #08141C",
"p6	c #09293C",
"q6	c #062E45",
"r6	c #0B2E41",
"s6	c #0C3044",
"t6	c #0C3147",
"u6	c #0D3248",
"v6	c #093952",
"w6	c #073954",
"x6	c #073953",
"y6	c #07354E",
"z6	c #06364F",
"A6	c #073650",
"B6	c #083149",
"C6	c #0A334B",
"D6	c #0C334A",
"E6	c #0C293A",
"F6	c #052135",
"G6	c #0A212F",
"H6	c #0F1B21",
"I6	c #1A2D35",
"J6	c #224959",
"K6	c #29586A",
"L6	c #2A5666",
"M6	c #255869",
"N6	c #1F3E4A",
"O6	c #253D48",
"P6	c #081116",
"Q6	c #0E1F29",
"R6	c #0F2939",
"S6	c #102431",
"T6	c #0A283A",
"U6	c #072F46",
"V6	c #0B2C40",
"W6	c #0D2E43",
"X6	c #0E3145",
"Y6	c #0C3247",
"Z6	c #0B394F",
"`6	c #08455E",
" 7	c #064660",
".7	c #064864",
"+7	c #064C69",
"@7	c #064B68",
"#7	c #084763",
"$7	c #0C2E43",
"%7	c #0D2D3F",
"&7	c #0D2B3B",
"*7	c #0B2738",
"=7	c #08283A",
"-7	c #042133",
";7	c #09202E",
">7	c #0C2635",
",7	c #132026",
"'7	c #172A33",
")7	c #1A2E37",
"!7	c #1A2F38",
"~7	c #182B33",
"{7	c #182C34",
"]7	c #22333F",
"^7	c #273A47",
"/7	c #141F28",
"(7	c #1C3442",
"_7	c #0B141D",
":7	c #142630",
"<7	c #0F212C",
"[7	c #071016",
"}7	c #082334",
"|7	c #082F45",
"17	c #0B2A3B",
"27	c #0D2C3E",
"37	c #0E435B",
"47	c #07759A",
"57	c #037296",
"67	c #05789E",
"77	c #0379A0",
"87	c #026F94",
"97	c #056184",
"07	c #0B2C41",
"a7	c #0C2A3C",
"b7	c #0C2837",
"c7	c #0D2838",
"d7	c #0B293A",
"e7	c #051B2A",
"f7	c #0A1D29",
"g7	c #0D2534",
"h7	c #18252F",
"i7	c #12191E",
"j7	c #21313D",
"k7	c #1C303D",
"l7	c #0A141C",
"m7	c #0B151A",
"n7	c #12222B",
"o7	c #0E1D27",
"p7	c #102B3D",
"q7	c #072B40",
"r7	c #0B2434",
"s7	c #0B2A3C",
"t7	c #0A2F43",
"u7	c #075D7E",
"v7	c #026C92",
"w7	c #056C92",
"x7	c #036E95",
"y7	c #046B91",
"z7	c #08354B",
"A7	c #0C2737",
"B7	c #0C2636",
"C7	c #0D2636",
"D7	c #0D2535",
"E7	c #092330",
"F7	c #061B28",
"G7	c #0B1C26",
"H7	c #152835",
"I7	c #19303F",
"J7	c #152731",
"K7	c #0A141B",
"L7	c #071116",
"M7	c #0B1E29",
"N7	c #06263A",
"O7	c #0A2434",
"P7	c #0B2332",
"Q7	c #0C283A",
"R7	c #0C364B",
"S7	c #05698F",
"T7	c #036A91",
"U7	c #046E95",
"V7	c #0B5F82",
"W7	c #0C2B3E",
"X7	c #0C2331",
"Y7	c #0B212D",
"Z7	c #071926",
"`7	c #0D1E27",
" 8	c #0D1E28",
".8	c #1C2E3A",
"+8	c #243745",
"@8	c #070A0F",
"#8	c #1B3443",
"$8	c #12222C",
"%8	c #071117",
"&8	c #0E1E27",
"*8	c #0D202A",
"=8	c #062538",
"-8	c #0D2635",
";8	c #0E2736",
">8	c #0B2737",
",8	c #0A516F",
"'8	c #04648A",
")8	c #086F95",
"!8	c #0C2F44",
"~8	c #0C2535",
"{8	c #0B222F",
"]8	c #0D2230",
"^8	c #0C222F",
"/8	c #0A1F2C",
"(8	c #091A27",
"_8	c #0D1C25",
":8	c #20485A",
"<8	c #1D3A47",
"[8	c #1B313B",
"}8	c #1E3743",
"|8	c #234A5A",
"18	c #244B5B",
"28	c #1E4351",
"38	c #234B5D",
"48	c #254F5F",
"58	c #255061",
"68	c #244F61",
"78	c #264F61",
"88	c #1D3541",
"98	c #254959",
"08	c #254B5A",
"a8	c #274D5D",
"b8	c #254756",
"c8	c #253744",
"d8	c #1C3646",
"e8	c #0B151D",
"f8	c #0F1F28",
"g8	c #071015",
"h8	c #0F2837",
"i8	c #0E1F2A",
"j8	c #0A1E2B",
"k8	c #0C1F2A",
"l8	c #0D212D",
"m8	c #0D222E",
"n8	c #0D2331",
"o8	c #0C425C",
"p8	c #086085",
"q8	c #0D5977",
"r8	c #0C1E2A",
"s8	c #0A1A25",
"t8	c #0D1C24",
"u8	c #0D1B23",
"v8	c #204351",
"w8	c #1C3540",
"x8	c #1E3B48",
"y8	c #21414F",
"z8	c #244E5F",
"A8	c #214B5B",
"B8	c #224F5F",
"C8	c #192E37",
"D8	c #244F5E",
"E8	c #235060",
"F8	c #265465",
"G8	c #275362",
"H8	c #203741",
"I8	c #264F60",
"J8	c #254C5D",
"K8	c #264E5F",
"L8	c #264B58",
"M8	c #203E4C",
"N8	c #1C2C38",
"O8	c #1B3342",
"P8	c #071C29",
"Q8	c #0B1D28",
"R8	c #0E212F",
"S8	c #0D202C",
"T8	c #064A69",
"U8	c #092D40",
"V8	c #0D2431",
"W8	c #0D1E29",
"X8	c #0B1B26",
"Y8	c #0A1924",
"Z8	c #0D1D25",
"`8	c #1A333E",
" 9	c #1D3844",
".9	c #1F3B47",
"+9	c #274F5F",
"@9	c #255264",
"#9	c #224C5D",
"$9	c #235061",
"%9	c #245061",
"&9	c #265161",
"*9	c #265061",
"=9	c #1F353E",
"-9	c #264D5C",
";9	c #244D5E",
">9	c #244A5B",
",9	c #254857",
"'9	c #142430",
")9	c #0F1921",
"!9	c #13242D",
"~9	c #091219",
"{9	c #0F1D26",
"]9	c #0E2432",
"^9	c #091E2B",
"/9	c #0C1D27",
"(9	c #0F202B",
"_9	c #0D1F2C",
":9	c #0E202B",
"<9	c #0B1B24",
"[9	c #0C1E29",
"}9	c #0C1C26",
"|9	c #0D1C27",
"19	c #0A1B25",
"29	c #1B3542",
"39	c #234857",
"49	c #204859",
"59	c #224653",
"69	c #1B3038",
"79	c #1B323C",
"89	c #244D5F",
"99	c #255364",
"09	c #265566",
"a9	c #234958",
"b9	c #1C3642",
"c9	c #1D313A",
"d9	c #284D5B",
"e9	c #254A59",
"f9	c #1D3642",
"g9	c #204C5E",
"h9	c #1E2F3B",
"i9	c #203541",
"j9	c #091319",
"k9	c #0E2431",
"l9	c #0D1C26",
"m9	c #0B1921",
"n9	c #0D1D27",
"o9	c #07161F",
"p9	c #1C3541",
"q9	c #224A5A",
"r9	c #234F61",
"s9	c #1B2F37",
"t9	c #1B303A",
"u9	c #234B5A",
"v9	c #244F60",
"w9	c #275365",
"x9	c #265466",
"y9	c #1C3744",
"z9	c #1E333C",
"A9	c #2A5263",
"B9	c #275060",
"C9	c #203B47",
"D9	c #254E60",
"E9	c #1F4656",
"F9	c #111F29",
"G9	c #0E1D26",
"H9	c #0A1820",
"I9	c #0E1D28",
"J9	c #0C1923",
"K9	c #0C1B25",
"L9	c #0C1B23",
"M9	c #224555",
"N9	c #224757",
"O9	c #224655",
"P9	c #214B5D",
"Q9	c #234D5E",
"R9	c #172B34",
"S9	c #192D35",
"T9	c #254D5C",
"U9	c #244E5E",
"V9	c #264E5E",
"W9	c #284D5D",
"X9	c #265062",
"Y9	c #254F60",
"Z9	c #1A313D",
"`9	c #1A2D37",
" 0	c #1D3846",
".0	c #244B5D",
"+0	c #244F62",
"@0	c #1F4555",
"#0	c #141E27",
"$0	c #23333F",
"%0	c #050A0E",
"&0	c #0C1D29",
"*0	c #0E1C25",
"=0	c #0B1822",
"-0	c #09151D",
";0	c #0C1B24",
">0	c #0E1C26",
",0	c #0B1A22",
"'0	c #0D1A23",
")0	c #0A171E",
"!0	c #0E1921",
"~0	c #172429",
"{0	c #20404F",
"]0	c #224554",
"^0	c #234858",
"/0	c #1A2F3A",
"(0	c #1B333F",
"_0	c #234C5D",
":0	c #275263",
"<0	c #254F61",
"[0	c #1D343F",
"}0	c #1F3B48",
"|0	c #234A5C",
"10	c #234B5C",
"20	c #254D5F",
"30	c #254A5A",
"40	c #203A46",
"50	c #255164",
"60	c #224E61",
"70	c #204353",
"80	c #22313D",
"90	c #0B131A",
"00	c #101F28",
"a0	c #0F1C25",
"b0	c #0D1F29",
"c0	c #0C1921",
"d0	c #08151D",
"e0	c #0D1B24",
"f0	c #182D38",
"g0	c #0B181F",
"h0	c #060F17",
"i0	c #0F1B24",
"j0	c #192B33",
"k0	c #1A313B",
"l0	c #192F39",
"m0	c #1A313C",
"n0	c #1C343E",
"o0	c #1B2F38",
"p0	c #1B333D",
"q0	c #192D36",
"r0	c #1B323D",
"s0	c #080C11",
"t0	c #09131C",
"u0	c #14232A",
"v0	c #212F39",
"w0	c #2C3B46",
"x0	c #070F15",
"y0	c #050E12",
"z0	c #081318",
"A0	c #081319",
"B0	c #061218",
"C0	c #071218",
"D0	c #06131A",
"E0	c #061219",
"F0	c #06141B",
"G0	c #071319",
"H0	c #061015",
"I0	c #0D1821",
"J0	c #0D1417",
"K0	c #1C2A35",
"L0	c #243440",
"M0	c #05080D",
"N0	c #101B23",
"O0	c #0E1B24",
"P0	c #102534",
"Q0	c #0F222F",
"R0	c #0F232F",
"S0	c #0D2634",
"T0	c #0A293E",
"U0	c #092639",
"V0	c #0B293C",
"W0	c #0A283B",
"X0	c #0C202D",
"Y0	c #0E151C",
"Z0	c #141E26",
"`0	c #1A252C",
" a	c #212F36",
".a	c #13202A",
"+a	c #121E27",
"@a	c #0C1C28",
"#a	c #0B161E",
"$a	c #0A1720",
"%a	c #0A1921",
"&a	c #091923",
"*a	c #09151F",
"=a	c #090F11",
"-a	c #1D2B36",
";a	c #223341",
">a	c #071017",
",a	c #0A161F",
"'a	c #091821",
")a	c #071A28",
"!a	c #082335",
"~a	c #072539",
"{a	c #052438",
"]a	c #042B46",
"^a	c #04243D",
"/a	c #061E30",
"(a	c #071B2A",
"_a	c #081823",
":a	c #07151F",
"<a	c #061118",
"[a	c #121A21",
"}a	c #020407",
"|a	c #010305",
"1a	c #020508",
"2a	c #020509",
"3a	c #02060B",
"4a	c #01050B",
"5a	c #01060D",
"6a	c #01070E",
"7a	c #010811",
"8a	c #01060E",
"9a	c #01050A",
"0a	c #02070B",
"aa	c #020204",
"ba	c #131D25",
"ca	c #324B5D",
"da	c #2F4B5E",
"ea	c #2B4857",
"fa	c #111C25",
"ga	c #040A10",
"ha	c #03090F",
"ia	c #041017",
"ja	c #04090E",
"ka	c #101A22",
"la	c #233C4A",
"ma	c #28465A",
"na	c #334C59",
"oa	c #0B0F14",
"pa	c #10181F",
"qa	c #041C29",
"ra	c #041C2B",
"sa	c #061520",
"ta	c #060F16",
"ua	c #16232D",
"va	c #243F50",
"wa	c #25485D",
"xa	c #213844",
"ya	c #06131B",
"za	c #081922",
"Aa	c #023042",
"Ba	c #022F42",
"Ca	c #081925",
"Da	c #051019",
"Ea	c #050C12",
"Fa	c #0F151B",
"Ga	c #233F4F",
"Ha	c #1B2D38",
"Ia	c #0A161D",
"Ja	c #0A151B",
"Ka	c #091D29",
"La	c #0B2B3B",
"Ma	c #0192B1",
"Na	c #017F9D",
"Oa	c #04101A",
"Pa	c #030A0F",
"Qa	c #244052",
"Ra	c #374F5D",
"Sa	c #37515D",
"Ta	c #162530",
"Ua	c #182935",
"Va	c #162833",
"Wa	c #152934",
"Xa	c #142733",
"Ya	c #142734",
"Za	c #0E2836",
"`a	c #0B384C",
" b	c #02A4BC",
".b	c #018DA4",
"+b	c #082432",
"@b	c #06121A",
"#b	c #192D3B",
"$b	c #050B0E",
"%b	c #141F24",
"&b	c #0C171C",
"*b	c #111B23",
"=b	c #253C4A",
"-b	c #040508",
";b	c #324A56",
">b	c #3E6174",
",b	c #2E4D60",
"'b	c #3D5F73",
")b	c #314753",
"!b	c #335365",
"~b	c #305062",
"{b	c #345566",
"]b	c #315668",
"^b	c #315567",
"/b	c #294B5E",
"(b	c #2B4E62",
"_b	c #2B4B5E",
":b	c #315569",
"<b	c #355C70",
"[b	c #28495C",
"}b	c #284F65",
"|b	c #265065",
"1b	c #23485D",
"2b	c #1C3F54",
"3b	c #203E4E",
"4b	c #143545",
"5b	c #0E4153",
"6b	c #06A4B9",
"7b	c #028EA4",
"8b	c #103040",
"9b	c #051722",
"0b	c #081720",
"ab	c #1A2D3A",
"bb	c #182026",
"cb	c #161F26",
"db	c #18232C",
"eb	c #17242F",
"fb	c #15202A",
"gb	c #1B2730",
"hb	c #1A2630",
"ib	c #172028",
"jb	c #151E26",
"kb	c #1C2831",
"lb	c #172631",
"mb	c #223846",
"nb	c #1A2833",
"ob	c #162531",
"pb	c #142633",
"qb	c #172834",
"rb	c #132530",
"sb	c #142632",
"tb	c #122734",
"ub	c #10222F",
"vb	c #0E202C",
"wb	c #093040",
"xb	c #06A6BA",
"yb	c #028EA3",
"zb	c #0D2F3E",
"Ab	c #041A25",
"Bb	c #182A36",
"Cb	c #12202A",
"Db	c #030709",
"Eb	c #0D1218",
"Fb	c #0E171F",
"Gb	c #0E1820",
"Hb	c #0C141C",
"Ib	c #038BA7",
"Jb	c #017791",
"Kb	c #0F2D3C",
"Lb	c #051A24",
"Mb	c #2A3B45",
"Nb	c #050608",
"Ob	c #070D13",
"Pb	c #014460",
"Qb	c #023952",
"Rb	c #0A1C26",
"Sb	c #04111A",
"Tb	c #1D2F3B",
"Ub	c #1D2E3B",
"Vb	c #040809",
"Wb	c #12191F",
"Xb	c #030509",
"Yb	c #15232D",
"Zb	c #030405",
"`b	c #060D13",
" c	c #0B1D27",
".c	c #0B242F",
"+c	c #0A1E29",
"@c	c #040C11",
"#c	c #04090F",
"$c	c #1C2E3B",
"%c	c #1D313E",
"&c	c #1F3341",
"*c	c #203340",
"=c	c #253946",
"-c	c #050B10",
";c	c #263E4C",
">c	c #203544",
",c	c #213543",
"'c	c #233847",
")c	c #233845",
"!c	c #203642",
"~c	c #091318",
"{c	c #27373E",
"]c	c #06080C",
"^c	c #243F4F",
"/c	c #233A49",
"(c	c #284252",
"_c	c #253E4D",
":c	c #243A48",
"<c	c #243C4A",
"[c	c #2A4251",
"}c	c #253B4A",
"|c	c #273F4D",
"1c	c #243B4A",
"2c	c #233948",
"3c	c #263E4E",
"4c	c #243E4D",
"5c	c #253E4E",
"6c	c #264252",
"7c	c #294656",
"8c	c #274454",
"9c	c #264251",
"0c	c #254050",
"ac	c #263F4F",
"bc	c #294454",
"cc	c #284251",
"dc	c #2E5164",
"ec	c #263C4A",
"fc	c #243845",
"gc	c #2B4758",
"hc	c #2E4B5D",
"ic	c #27404F",
"jc	c #253641",
"kc	c #212F3A",
"lc	c #283A45",
"mc	c #2C3D48",
"nc	c #273945",
"oc	c #263742",
"pc	c #26363F",
"qc	c #273E4B",
"rc	c #1F303C",
"sc	c #213542",
"tc	c #223844",
"uc	c #1E3C4A",
"vc	c #214250",
"wc	c #22404E",
"xc	c #2D5264",
"yc	c #223843",
"zc	c #254659",
"Ac	c #244152",
"Bc	c #1D2A32",
"Cc	c #19242A",
"Dc	c #161F27",
"Ec	c #111A22",
"Fc	c #1C2933",
"Gc	c #0A1418",
"Hc	c #101E26",
"Ic	c #112129",
"Jc	c #0F1D23",
"Kc	c #0F1D24",
"Lc	c #0D191F",
"Mc	c #1D303E",
"Nc	c #243846",
"Oc	c #223645",
"Pc	c #213645",
"Qc	c #223746",
"Rc	c #213544",
"Sc	c #243A4A",
"Tc	c #203341",
"Uc	c #213848",
"Vc	c #213746",
"Wc	c #1F3544",
"Xc	c #1E3443",
"Yc	c #1E3342",
"Zc	c #1F3646",
"`c	c #1E3645",
" d	c #1F3442",
".d	c #1D3342",
"+d	c #1F3645",
"@d	c #223949",
"#d	c #1F3545",
"$d	c #1C3241",
"%d	c #1D3341",
"&d	c #192D3A",
"*d	c #172733",
"=d	c #1C3343",
"-d	c #172C3A",
";d	c #192E3C",
">d	c #172C39",
",d	c #1C323E",
"'d	c #182C38",
")d	c #182C39",
"!d	c #192A36",
"~d	c #1A2E3A",
"{d	c #1B2D39",
"]d	c #0C1316",
"^d	c #1E3341",
"/d	c #1D3241",
"(d	c #223847",
"_d	c #1F3748",
":d	c #203949",
"<d	c #1F3747",
"[d	c #1A2F3E",
"}d	c #1B3241",
"|d	c #1E3546",
"1d	c #1B313E",
"2d	c #1A303E",
"3d	c #19313F",
"4d	c #192F3E",
"5d	c #1A3141",
"6d	c #182E3C",
"7d	c #182D3B",
"8d	c #182D3A",
"9d	c #192C3A",
"0d	c #1A2F3D",
"ad	c #1A3140",
"bd	c #12212C",
"cd	c #193141",
"dd	c #172F3C",
"ed	c #122630",
"fd	c #162C39",
"gd	c #152531",
"hd	c #172732",
"id	c #16242F",
"jd	c #182732",
"kd	c #14232E",
"ld	c #28404F",
"md	c #223745",
"nd	c #1F3443",
"od	c #203747",
"pd	c #233A4A",
"qd	c #1F394A",
"rd	c #203848",
"sd	c #1C3242",
"td	c #1E3444",
"ud	c #1C3240",
"vd	c #1D3442",
"wd	c #1C3341",
"xd	c #1A313F",
"yd	c #1B3341",
"zd	c #1B3242",
"Ad	c #1B3140",
"Bd	c #1C3140",
"Cd	c #182B38",
"Dd	c #1A3342",
"Ed	c #172D3A",
"Fd	c #192E3A",
"Gd	c #172B37",
"Hd	c #131C24",
"Id	c #2A4355",
"Jd	c #253D4E",
"Kd	c #264050",
"Ld	c #2A4455",
"Md	c #213948",
"Nd	c #243E4E",
"Od	c #284355",
"Pd	c #294557",
"Qd	c #253F50",
"Rd	c #2A495D",
"Sd	c #203A4B",
"Td	c #244355",
"Ud	c #244356",
"Vd	c #213C4E",
"Wd	c #243F52",
"Xd	c #213E51",
"Yd	c #27495F",
"Zd	c #234053",
"`d	c #203B4D",
" e	c #203D50",
".e	c #213E52",
"+e	c #1F3849",
"@e	c #1D3444",
"#e	c #1B313F",
"$e	c #1D3546",
"%e	c #182F3E",
"&e	c #1B3546",
"*e	c #1B3444",
"=e	c #1D3646",
"-e	c #1C3444",
";e	c #1C313F",
">e	c #1B303E",
",e	c #1A2E3B",
"'e	c #192B37",
")e	c #192C39",
"!e	c #070F14",
"~e	c #294050",
"{e	c #213B4C",
"]e	c #1E3849",
"^e	c #1C3847",
"/e	c #1C3949",
"(e	c #203C4E",
"_e	c #1D3A4B",
":e	c #1C394B",
"<e	c #213F53",
"[e	c #1D3B4E",
"}e	c #1E3749",
"|e	c #1D3749",
"1e	c #1B3547",
"2e	c #1A3040",
"3e	c #193040",
"4e	c #182C3A",
"5e	c #152A35",
"6e	c #162A38",
"7e	c #1B3243",
"8e	c #192F3F",
"9e	c #172936",
"0e	c #172A36",
"ae	c #152734",
"be	c #152632",
"ce	c #0D1F2B",
"de	c #0F202C",
"ee	c #050B0D",
"fe	c #1C282E",
"ge	c #04141E",
"he	c #031520",
"ie	c #021827",
"je	c #021929",
"ke	c #041A29",
"le	c #061C29",
"me	c #06141E",
"ne	c #0D1921",
"oe	c #1D2932",
"pe	c #131E27",
"qe	c #0B0F13",
"re	c #0E1319",
"se	c #091F2D",
"te	c #03131C",
"ue	c #02131D",
"ve	c #022133",
"we	c #03293E",
"xe	c #021C2C",
"ye	c #041621",
"ze	c #052335",
"Ae	c #03111D",
"Be	c #051F2E",
"Ce	c #021825",
"De	c #02283B",
"Ee	c #022D43",
"Fe	c #032A3F",
"Ge	c #031420",
"He	c #040507",
"Ie	c #042538",
"Je	c #02111E",
"Ke	c #043046",
"Le	c #01253A",
"Me	c #016E8F",
"Ne	c #056B8A",
"Oe	c #012A45",
"Pe	c #01314B",
"Qe	c #021B2A",
"Re	c #06293C",
"Se	c #0D1923",
"Te	c #03283E",
"Ue	c #021421",
"Ve	c #025270",
"We	c #00314B",
"Xe	c #03B2D1",
"Ye	c #1DAAC3",
"Ze	c #003458",
"`e	c #015073",
" f	c #012031",
".f	c #063850",
"+f	c #1E2B35",
"@f	c #1E2C36",
"#f	c #040A0E",
"$f	c #023853",
"%f	c #02192A",
"&f	c #015270",
"*f	c #003551",
"=f	c #08B4D1",
"-f	c #2EB0C6",
";f	c #003D67",
">f	c #015A80",
",f	c #022333",
"'f	c #03364F",
")f	c #0B1924",
"!f	c #101D27",
"~f	c #030505",
"{f	c #013B58",
"]f	c #021D2E",
"^f	c #015B7D",
"/f	c #013955",
"(f	c #0DB1CE",
"_f	c #40B3C5",
":f	c #01416D",
"<f	c #015F84",
"[f	c #022739",
"}f	c #023C58",
"|f	c #04090D",
"1f	c #11171B",
"2f	c #0F1419",
"3f	c #0C1014",
"4f	c #023F5C",
"5f	c #031E30",
"6f	c #003B59",
"7f	c #11ADCA",
"8f	c #4EB1C1",
"9f	c #013F69",
"0f	c #016086",
"af	c #03283A",
"bf	c #023B56",
"cf	c #0C1720",
"df	c #111E28",
"ef	c #101E29",
"ff	c #152430",
"gf	c #131A1F",
"hf	c #05060A",
"if	c #10191D",
"jf	c #02405B",
"kf	c #021D2F",
"lf	c #015B81",
"mf	c #003B5A",
"nf	c #11ABCA",
"of	c #55B1BF",
"pf	c #013D66",
"qf	c #015D85",
"rf	c #033851",
"sf	c #0E202A",
"tf	c #01415D",
"uf	c #011C2E",
"vf	c #005C80",
"wf	c #013A59",
"xf	c #12ADCA",
"yf	c #50B1C0",
"zf	c #013C65",
"Af	c #02283A",
"Bf	c #033953",
"Cf	c #101B24",
"Df	c #111B24",
"Ef	c #040506",
"Ff	c #02415D",
"Gf	c #011B2E",
"Hf	c #015E80",
"If	c #013956",
"Jf	c #11ADC9",
"Kf	c #47B3C3",
"Lf	c #013D64",
"Mf	c #015C83",
"Nf	c #022738",
"Of	c #03384F",
"Pf	c #0C1C27",
"Qf	c #023D58",
"Rf	c #011B2B",
"Sf	c #015D80",
"Tf	c #003857",
"Uf	c #45B4C3",
"Vf	c #013A61",
"Wf	c #01597E",
"Xf	c #032534",
"Yf	c #05374D",
"Zf	c #141C23",
"`f	c #090C10",
" g	c #080B0E",
".g	c #063A51",
"+g	c #021928",
"@g	c #01567B",
"#g	c #003756",
"$g	c #11ADC8",
"%g	c #45B1C0",
"&g	c #00365B",
"*g	c #015578",
"=g	c #031F2D",
"-g	c #053449",
";g	c #0A2E3F",
">g	c #011421",
",g	c #014F71",
"'g	c #002C46",
")g	c #0AA5BE",
"!g	c #39ADB9",
"~g	c #013052",
"{g	c #014868",
"]g	c #031C29",
"^g	c #052B3D",
"/g	c #1B272C",
"(g	c #0B1316",
"_g	c #0D1115",
":g	c #062637",
"<g	c #021420",
"[g	c #034766",
"}g	c #022033",
"|g	c #006884",
"1g	c #056D84",
"2g	c #012640",
"3g	c #033E5A",
"4g	c #051B28",
"5g	c #062A3C",
"6g	c #05090E",
"7g	c #090E10",
"8g	c #0F161D",
"9g	c #030305",
"0g	c #010204",
"ag	c #020404",
"bg	c #03111A",
"cg	c #031A28",
"dg	c #021F31",
"eg	c #00263B",
"fg	c #01263C",
"gg	c #021B2B",
"hg	c #032537",
"ig	c #05151E",
"jg	c #061D2A",
"kg	c #131B22",
"lg	c #121B23",
"mg	c #131B23",
"ng	c #141D25",
"og	c #101921",
"pg	c #071018",
"qg	c #091C28",
"rg	c #072436",
"sg	c #052C41",
"tg	c #04334C",
"ug	c #07354C",
"vg	c #06212F",
"wg	c #071720",
"xg	c #132834",
"yg	c #06080A",
"zg	c #09141A",
"Ag	c #0B1A23",
"Bg	c #0B202D",
"Cg	c #0B2534",
"Dg	c #0A2B3E",
"Eg	c #070D0F",
"Fg	c #040708",
"Gg	c #0C232D",
"Hg	c #0A1E28",
"Ig	c #0B202B",
"Jg	c #0F141A",
"Kg	c #09161E",
"Lg	c #091B25",
"Mg	c #10161B",
"Ng	c #050A0C",
"Og	c #080B0F",
"Pg	c #1D2930",
"Qg	c #071F2A",
"Rg	c #012E43",
"Sg	c #00405D",
"Tg	c #04283B",
"Ug	c #050E13",
"Vg	c #263D46",
"Wg	c #11181F",
"Xg	c #151D23",
"Yg	c #172026",
"Zg	c #0C232F",
"`g	c #035167",
" h	c #03B0D0",
".h	c #0DC5DD",
"+h	c #006E96",
"@h	c #051E2C",
"#h	c #050609",
"$h	c #182A35",
"%h	c #152A38",
"&h	c #23313B",
"*h	c #213943",
"=h	c #1D323B",
"-h	c #2D4555",
";h	c #2E4757",
">h	c #2E4655",
",h	c #2D4554",
"'h	c #2D4656",
")h	c #304A5B",
"!h	c #324C5D",
"~h	c #2F4A5C",
"{h	c #324E61",
"]h	c #2A4658",
"^h	c #2B485A",
"/h	c #355668",
"(h	c #25414F",
"_h	c #355D73",
":h	c #264353",
"<h	c #2F556A",
"[h	c #284657",
"}h	c #2A4759",
"|h	c #2D4858",
"1h	c #334F5F",
"2h	c #274050",
"3h	c #233B4B",
"4h	c #294556",
"5h	c #345060",
"6h	c #28404E",
"7h	c #324856",
"8h	c #0A2331",
"9h	c #035A71",
"0h	c #04BBDB",
"ah	c #06C7E2",
"bh	c #00769F",
"ch	c #072432",
"dh	c #0A0E13",
"eh	c #0C2230",
"fh	c #031E2E",
"gh	c #006587",
"hh	c #00789D",
"ih	c #003148",
"jh	c #072635",
"kh	c #10252F",
"lh	c #0C1417",
"mh	c #0A2737",
"nh	c #103547",
"oh	c #10171A",
"ph	c #020506",
"qh	c #010304",
"rh	c #010202",
"sh	c #020203",
"th	c #010303",
"uh	c #112635",
"vh	c #132C3C",
"wh	c #10161A",
"xh	c #11191C",
"yh	c #151D22",
"zh	c #080F16",
"Ah	c #101A23",
"Bh	c #0F1820",
"Ch	c #0E141B",
"Dh	c #0E1318",
"Eh	c #161E25",
"Fh	c #04090B",
"  . + @ # $ % & * = = - ; > , ' ) ! ~ { ] ^ / / ( _ : < [ } | } 1 2 3 4 5 6 7 8 9 0 3 a 9 b c c d e f g h i j k l m n o p q r s t u v w x y z A B C D E F G H I J K L M N O P Q Q R r S T T U V U W X Y Z `  ...+.@.#.$.%.&.*.=.-.-.#.&.;.>.. ,.'.).).!.~.{.{.].^./.(._.",
":.<.[.}.|.1.2.3.4.5.3.6.7.8.9.0.a.b.c.d.e.f.g.h.i.j.k.l.m.n.o.p.q.r.s.t.m.u.v.w.x.y.z.A.B.C.D.E.F.E.G.H.I.J.K.L.M.N.O.P.Q.R.S.T.U...V.W.X.Y.Z.'.W.`..  +.+++@+#+$+%+&+*+=+-+;+J >+>+-+,+>+J '+)+!+~+{+]+^+{+/+(+^+_+~+:+<.<+[+_+(+}+|+1+^+/+2+(+3+4+5+6+7+8+7+9+5+0+a+0+",
"b+}.c+<.d+e+f+g+h+$+i+j+k+l+m+n+o+p+q+r+s+t+u+A.v+w+x+y+z+A+B+C+D+E+F+G+H+I+J+K+L+M+N+O+P+Q+R+S+S+T+U+V+W+X+Y+Z+`+ @.@+@@@#@$@%@&@*@=@-@;@-@>.=@>@,@'@Z..+)@!@~@{@]@^@/@/@(@_@:@)@<@[@]@}@7+9+}+|@1@~@2@3@{@4@5@2@6@1@4+~@6+7@7+7@6@8@4@9@9@0@9+a@}@b@[@c@_@d@_@c@e@f@g@",
"_+h@i@#+j@k@$+$+h+l@m@n@o@p@q@r@J.s@t@u@v@w@x@y@z@A@B@C@D@E@F@G@H@H@I@J@K@L@M@L@N@O@P@Q@P@R@S@T@U@V@W@X@Y@Z@T+`@ #.#+#@###$#%#&#*#..=#-#W.-@;#>#'.,#'#)#!#~#{#]#^#/#(#_#:#<#[#}#|#1#2#1#1#1#3#4#5#5#6#1#1#7#7#8#7#1#8#1#9#0#7#_#4#6#a#b#c#0#:#:#6#:#a#6#_#a#5#d#e#f#6#g#",
"(+h#G i#j#k#l#l#m#n#o#p#q#r#s#t#u#v#w#x#y#z#A#B#C#D#E#F#G#H#I#J#K#L#M#N#O#P#Q#R#S#T#R#U#V#W#X#Y#Z#F#`# $.$+$@$#$$$%$&$*$=$-$;$>$,$-.-@'$W.)$)$!$~${${$]$c@^$/$($_$}@:$7#d#<$[$}$|$1$:#2$3$4$4$5$6$6$~#[#7$7$7$7$4$4$8$9$0$4$9$c#a$a$4#b$c$d$e$0#f$(#c#4$c#g$h$i$j$k$e$:#",
"2+^+<.c+l$m$n$o$i+p$q$r$s$t$u$v$w$x$y$z$A$B$C$C$D$E$F$G$H$I$J$K$L$M$N$O$P$Q$R$S$T$U$V$W$X$Y$Z$`$ %.%+%@%#%$%%%&%*%=%-%;%>%,%'%)%!%~%{%)$'.{$@.)$Z.Z.]%C .+^%/$b$/%(%_%7#0$:%<%[%}%|%1%a$2%4$3%4%5%d$4$4%4%5%j$6%7%8%8%5%5%5%9%d$7$0%1#a%b%c%d%e#f$e%f%g%h%1#a$a@6+h%a$6#",
"/+_+;+[.i%G [.!+j%k%l%p#m%n%o%p%q%r%s%t%u%v%w%x%y%z%A%B%C%D%E%E%F%G%H%I%J%K%L%M%N%O%P%Q%R%S%T%U%V%W%X%Y%Z%`% &.&+&@&#&$&%&&&'%*&=&-&%@;&&@)$W.>&'.'.,&'&d@~.)&!&l#~& .{&]&^&/&(&_&7+8#c#:&e%<&6$[&6$d%5$4$4$[#}&[#7$0$0$0$~#e%f$d%<&f%|&]%9+1&2&8$]#4$3&5%d%4%!+'.4&<&6#",
"^+<.3.5&>+>+q$6&n 7&8&9&9&0&a&b&c&d&e&f&g&h&i&j&k&l&m&n&o&p&q&r&s&t&u&v&w&x&y&z&A&B&C&D&E&F&G&H&I&J&K&L&M&N&O&P&Q&R&S&T&U&V&'%W&X&, Y&Z&)$'.'&`&'.,# *-#.*+*@*#*$*%*+.&***=*>$-*;*>*f%|%,*|%'*c$<@}@)*!*/%~*|$c@<@{*]*^*/*a@($,*(*7$g%_*:*k@<*d%[*}*.+|*d$4$4%1*-#d$7$6#",
"2*<.3*4*_+5*6*7*8*9*0*a*b*c*d*e*f*g*h*i*j*k*l*m*n*o*p*q*r*s*t*u*v*w*x*y*z*A*B*C*D*E*F*G*H*I*J*K*L*L*M*N*O*P*Q*R*S*T*U*V*W*X*Y*Z*`*%@$.#... ='.@.)$;&;&.=d@+=Y.'.@=#= .6$$=%=&=*==={@-=;=>=,='=)=!=~={=]=^=/=(=_=:=<=[=}=|=1=^=2=3=4=5=6=7=8=1$<&c@)*F 9=3%0=a=)+*+b=]#3#",
"~+c=~+d=+=|+e=f==*g=h=i=9&j=k=l=m=n=o=p=q=r=s=t=t=u=v=w=x=y=z=A=B=C=D=E=F=G=H=I=J=K=L=M=N=O=P=Q=x*R=S=T=U=V=W=X=Y=Z=`= -.-+-@-#-$-%@#.#.&@'$>#{$%-,.%-,.($&- *-@.=-@-.<#&**-=---;-}*6$a@>-=+J ,-'-)-!-3.~-7.{-]-)-^-'+/-}%(-# + 0+0+_-:-c@g%<-d$|$[-/$%*[#h%[#>-}-/@7$1#",
"[.<.|-~+1-2-3-6+/+4-5-8&6-7-8-9-0-a-b-c-d-e-f-g-h-i-j-k-l-m-n-o-p-q-r-s-t-u-v-w-x-y-z-A-B-C-D-E-F-G-H-I-J-K-L-M-N-O-P-Q-R-S-T-U-V-!&W-X.&.X->#%-&-l@~-Y-m$ *$+{$=@-@]$Z-`-l% ;.;'-+;@;#;0=$;%;[*0=0=9$0=4%]#9$8$&;*;=;#;-;;;>;#;8%,;[*';2$);5$(@<$}*c@!;[#~;{;<+,..*]#b#",
"];5*c=^+!@^;n@J &@/;(;_;:;<;[;};|;1;2;3;4;5;6;7;8;9;0;0;a;b;c;I@d;e;f;g;h;i;j;k;l;k;m;n;o;p;B@q;r;s;t;u;v;w;v+x;y;z;A;};B;C;D;E;F;' G;!&H;I;&-*.J;K;/+Y-c%l@Z&{$L;'.M;6#N;O;P;Q;}+]@R;3#7#c#d%d%2&0#9#9#7#0#e#S;2&c#d%e#d#0#3#6#c#T;9$e%1#U;f$V;~#T;f#<@b#0#W;>--@'*b=(#",
"X;/+k%Y;}$^;6.n$F;Z;`; >.>+>@>#>$>%>&>*>=>->;>>>,>'>)>!>~>{>]>^>/>(>_>:>_>(><>[>}>|>_>1>(>2>3>'>4>5>6>7>8>9>0>a>b>u#Q-c>d>e>f>g>h>i>G;j>p k>l>;&m>n>o>p>6@&-q>&@'.g++.{;6$_+r>s>}%(@(#b=/$t>u>v>w>x>!#y>z>c@/*/*/*$;c$c$<@.+,;2$d$d@%;d$%;F A>0@[@c@B>)+4%4$C>D>E>,*d$c#",
"[-F>6@{+G>H>I>5*5-q#J>=*K>L>M>N>O>N>P>Q>R>S>T>U>V>W>X>Y>Z>`>Z> ,.,+,@,#,$,%,&,*,=,-,;,>,,,,,',),!,~,{,],^,/,(,_,:,<,[,},|,1,2,3,4,5,6,6&7,n>d=j%8,!-9,0,}*l@,#-.(+7=a,<*<*8,b,c,}%$=9$~*d,1*e,f,l$g,h,i,0+>*d,j,k,~*>*x>l,1.b@3%m,a%u>~*9+~*b@($c$4%{&~+h%a$(%n,'&}*C>0#",
"]#a=B>W;o,p,q,r,s,s,t,u,v,w,x,y,z,A,B,C,D,E,C,F,G,H,4 I,b 9 b c J,K,K,H,L,9 9 M,N,2 3 a O,P,Q,a R,N,c 0 8 d S,T,_ U,V,W,W,h j X,Y,Z,`,`, '.'+'@'[-#'$'%'8$&'=.*'p &.=']&-'5*;'>'1-}&]#,'^-j@5&i%'')'!'_@.*.*6%]&/@b=1$3$0$~']#f%{;a=1$(%1$7$]#8$3$3$|%l,c@[#6%{']'j$3$d#",
"S;c#^'Z-<#/'('_'{&:'/#<'['}'|'1'2'3'4'5'6'5'7'8'9'9'9'0'a'b'b'c'd'c'9'c'e'0'f'g'f'h'i'j'k'l'm'm'l'n'o'p'm'f'h'q'r's't'u'v'w'x'y'z'x'A'B'{;C'D'E'{&F't,t,2$G'/+2+1@_%!+&*H'k%I'J'K'`-4%i,L'^-f,M'N'!+<.O'8,P'=+&+Q'R'S'^@T'!-U'l$:+d+d,)-e,d+}+5+c+d@>*x>k@d+f%t>^-7$3$5#",
"5$]#S;6$[&N;]#V'<*<*j$6%]#[&6$7$[#E'W;W'X'W'Y'Z'`'`' ).)+)@)#)$)%)%)x,&)*)z,z,z,=)-);)>)h ,)')))@)%)Y'!)Z'~){)])C'^)^)W;5$7$[#C'0#7$(%2&0$~#2&7$<*_%}@c$G {-/)3.{.()(+/@[&_):)<)5*[)&;x>^.})M'b+g+|)1)2)3)4)5)6)Q;7)8)9)0)a)b)c)d)e)f)g)h)i)j)k)l)m)b)n)o)p):%)+q)B><*3#",
"}*7%r)s)1$f$+;.*6%/@d@<$t)[#]&-=t,u)v)w)x)y)z)A)B)C)D)E)F)F)G)H)I)J)K)L)M)N)O)P)Q)R)S)T)Q)U)G)V)P)W)X)Y)B)Z)y)`)`) ' !m,F><$s)^)b#d@8+(#.!6$U;9$**}++!>*Q'o @!%+~-%@#!^$H'$!:)%!&!*!5%=!-!u><.%-;!>!,!'!V-)!!!~!{!]!^!/!(!*'|=_!q :!<!r Z p>[!}!|!U.1!|%7*2!3!,-4!^$]#1#",
"_%F 6%5!9+4%6!)+(+<+'-e,9+k$';7!]&1$(%6%8!9!}&0!a!F'p,p,3@4@s,b!b!c!p,7&2@$'d!@'4@2@r,e!@'3@[-4@F>v)**9!/@}*f!^$F>/@B>:$5$$;i$0$:&k@{.g!V;]&d%b=6@)+G k@>-!+>*h![.7=!+/@&*i!j!k!<.6%[&)'a+/+I;l!m!n!!&l#o!&!2*<+,-p!|+h@q!r!~+h@G>h@s!t!u!K'v!:+h@}*K''*w!'*/#/@<+2$6$6#",
"7+/%/@A>d+c%-+>+j%-+3.>+x!6%/*7+}+_$s!2*/+k%2+y!5*c=^&z!$!A!i!]-7*i!B!6&A!A!A!C!z!D!K'E!F!C!G!H!,+$!I!3*,+&+_+(+>-G t>k@0+_-A>.+<&J!K!**J ^$4$y>L!M!N!O!P!Q!R!O!S!T!U!7$1$6&V!=-)-}*6$c@_@n,W!X!h+/+G>[-Y!/@Z!}*'* ![-]&v)]&7%-=6%^@.+d@i$d@`!%;d@6$<$]&(%b=1#[-`.[&5$5#",
"c%8+:@a@]+c+-+*+ +$*&+ +2.b$i@5+i@c+2*Y;8,&!|-i!z!$!$!d=i!/),+/) ~B!.~7,C!+~p k>Y-o>7,@~+~#~$~n>n>Q'%~&+}%&~G !+{'_-k@*~p!{'s!}*Y!Y-=~(%n@-~'*i,;~>~,~.='~+.@. .+==.)=6$1$)~!~~~!+|$7$[*|%'-{~U.c+}@g%[#d#Y!/#9$7$h$3$e%8$c#(#d%/#[#2$]~~#6$2$<&2$e%^$(%3%<&^~/~% f!f%7#",
"5$j$.*l,]++!2-j% +{-(~+*7=b$h@i@}$h#5*K'z!F!E!B!3*n#{-n>p$ ~n@n>_~n@i+r$q$:~5,7*<~<~[~q$}~[~|~n@H!1~7=<.<+G k@G t>i@9+5+V;7+c@]#f%I;2~B>R 3~c$w>4~5~6~]$7~8~.=K![+9~0~0%.* ~a~b~'-|$<&g%i$c~d~[~}+e~d%(#2&f~g~c#T;e%d%d%e%T;9#d#8#h~T;c#S;c#e#c#d%N;6$5%(#c#`-i~j~^$<&b#",
"k@d+-~7@k~i@<.2-j%,+,+'+$*-=V;~*a@/+l~m~n~y!s!-+y!}~}~o#n@o)o~p~q~r~s~t~u~v~w~E;r~/;/;o~_~x~<~[~3*3*Q'd!y~y!z~K'h@d++!9+u>u>A~]#c#R'B~i$C~D~|%A>E~F~#=G~}=7~ .}=B H~I~3%b=J~K~L~G ^@(#M~0%H!N~_~@'7$O~,;)@}*.+}*_@|%|$<$/@'*/#%;8$+;g%+;d@6%6%6%i$b=(#0@~#d%(%1*P~-=6$d#",
"G ($]@[$]+Z!2+Y;8,Q~R~8,S~[#V'b$6%v)p,9!c!s, 'T~U~V~z!W~z!]-7*X~Y~Z~A)`~X)A) {.{+{l+@{#{^&C!6,${H>f=:%~@%{&{&{X;*{i@G>={_%b@}@4%d%$+-{+;;{,*5!w>Y&M 3=}=7~>{H~K! .7~,{4%1$'{){!{5+]&:&+;3%3*~{#{ !f%b=)'($5+6!G a@t>5+5+6!k@1${{]{[@+!A~($b@)'b@c$/$Y!{$5$9$j$D>^{(%2$b#",
"+!/{:@({_{(@:{@*<{{.-+c~_+c!@>[{}{|{1{2{3{4{5{6{7{8{9{0{a{6@_{#'b{Z!b{p,c{7&7&d{e{e{f{g{h{:%i{i{J>$#j{k{l{m{n{o{p{q{r{s{k>U.~->*6$%-t{6%*']@_$a+u{v{'~n)7~w{}=}= .0~W a=1$h=x{y{<.z{g~.+(%@*A{e=1$(#%'G + !&X-$+2*/)g+/)~&{.'*B{c+3*9,|-C{T',-|-e,k@D{E{(%d$d$&~F{i$f$:&",
"9+9+Z!7@f=:+<. +@!U.-+)&6.j+G{H{I{J{K{L{M{N{O{P{Q{R{S{T{T{U{V{W{X{Y{Z{`{ ].]+]@]#]$]%]&]*]=]-];]>],]'])]!]~]{]]]^]2~/](]` }='~_][#q$:]u)<]'*[]}]|]5~]$1]2]3]4]5=5]|!='a=&*g=6]7])+F>:&w!%'8]9]0][-f%6+/)n$/),+ ~>+-+l# ~P'&+[-~.)-/~&!&!Y;H!&!|-G /+**a]b=b]4$c]=+.+/#d]",
"+!}+6+[$e]++1-_&3.l#g+$+2-f]g]]-h]@-O.i]j]j]k]k]7-l]! m]n]o]p]q]r]s]t]u]v]w]x]y]z]A]B]C]D]E]F]G]H]I]J]K]L]M]N]O]W&P]Q]R]2-J~, +!a=g]S]9!T](@U]/-V]W]}=X]7~K!; 0~E~-&Y]<*d$6,Z]`]+ <$b#.+ ^j>.^(+-=f%+^@^&-@!R'>+j%%+9,/)n##^b@l$:+c+1*$^)+I!!-p!t>d+_%#.[&4%[#t>%^&^<&:#",
"i@={8+d,*^2-n$=^-+$*h+6.-^i=;^>^,^'^I{<%i]j]<%)^!^~^{^]^^^/^u](^_^_^B]`+:^<^[^}^|^1^D]2^3^4^n]5^6^7^'!8^N]!!W&9^P]O P *'s{3*= 3&3%#.0^}*a^-~t>b^c^d^}=5=7~7~>{` e^S.H c#<-b{[~q~]@/@r)f^$=C{g^2@6$(#}*$+()&-h^/)+ h!i@i@]+[.6%k@(@(%|$/$1.)*<$f!({^@[)i^2%);|#-=/++;2$d]",
"i@:-b@u>:{j%d=$*g+-+l#@+!-l~/;j^i+;^k^@-l^m^'%n^o^p^q^r^s^t^u^v^v^w^x^x^y]t#}^y^X*z^A^B^C^D^D^E^F^7^G^H^I^J^K^L^P]|!M^|!#.; W.3&1$'$z e~7~3@k@}]N^O^X]7~ .w{n) .-.|!(]/#g%P^Q^R^Y&/~4@/@>*S^T^n$~+v)3$c+~-/)n$n$I>U^p  =X.-#V^:+W^q~X^P.Y^E;Z^ =`^6.&{ /f%[#6*./:!$*'*+/",
"G>i@7@0@1-;+-+n$h+,+n#/)@/6*Z^Z^Z^k^@-k^#/$/%/&/*/T-=/B;+-r^+--/;/>/r]B]C](^,/t#'/;/)/!/~/{/]/^/5^^///(/H^~!K^:!_/S.:/]!</'$</[/]&}/|/}*1/f!_-2/}=3/K!7~.=I ` n)..-.I {;b@/+4/5/(*h#4@{;$;6/Q]7/Q'$'4$}*G $+n${-8/t~<$h+~+8,2-u)Y;R~3-6&9/]-5*8,e]k%0/Y*a//#b/c/d/0@e~{;",
"d+t>+!/*X;e/f+$*3.g+$+$+W.e=f/G{i+g/h/I{i/k^Y*%/E^j/k/r^l/r^!/r]B^m/>/'/'/(^;/n/o/^^p/D^N.q/r/) s/K]t/u/v/*']!|!N , W-l> .&@#.6!]&I;w/6%u ,*e,x/8~<!y/&@ .7~ .5= .z/C~A/={~+B/U-a%^+C/^)D/o)E/$= ~r!i$}@/*3.C{Q'F/F;%@y/G/Q~h#}&e=H/@+7*I/i^7*${7,z!J/K/[#/#(+L/' c+}*|#",
"G c+t>/*c+(-$*3.3.g+,&l@M/f=f/m@N/;^r$k^k^k^<%O/%/P/B;l/Q/q^R/S/G]T/k/r^)/p/G]~^+-k/U/r/r/R-V/V/W/V/X/%#%#S.Y/L^|!p)Z/#.*@&@X.c%&*~-`/j$ (b{.(/-'~+( .-...;  .I &.X.@(6$_$i!#(- @*/~[-D{>*o $(+^Q~_%4&F>8+@^j%3*%(V-&(*(.~6&Q~9!=(]-J~#~6*${J~${6&^&@'@~6$h$b@i#j%/$<*e$",
"G 6!>*i,+ :+j%Q' +{.&-7=|.-(j+o$$-U-r$;(Z^>(;^,('()()^!(~({(](^(k//(B;((P/_(+@l/_(R-j/*/Y*) :(P.O.Z;u/%#<(L^,$, , $@..&@y/Z&y/1.W;n$[(_@}(/%.(|(5]*#1(....0~ .-...-.]$0#~#2()*6@z{c#d#8#~#f!}@5$2$]#4&'*b@Q~C{Q'J/Z*^;@+3*$!i!F>H/3(Y~9/4(G/5(${6&6(7(,-7$0#A/(@_%5$e$(#",
")-k@t>5![.<.8(5.3.g+ +@!9(H>0(p$P^$-a(b(h/i]Y*#/d/l^c(((d(+@e(f(q^G]=/+@*/C;U/R-j/r/P/g(e>r/E^h(i(j(Y^%#<(R], k>z/z/X.y/)$k(&@j,5$U.M l(m(n(}]o(K |/'$-.-.#.-.</'$-.n)/#(#m~p(q(/+W;:#d#|%r(s(X~g%h%.*}*i@{-E!n>t(u(.~C!E!C{J~<$.~v(w(9/I/i^${6,7*6(7/#.b$4%x(&!y(z(|#S;",
")-p!/+($}.7=1-Q'A( +3./)>&H/6.m@N/o H;B(Z^C(i]D;O.k]R-!(D(n+E(+@F(^^G(H(C;I(J(P/r/E^) ) i/) ) Y*e>V/`*;(-&K($@k>Z/%@&@X.Z&l@;&9+]#q>H _@L()*a+v>{%B~..z/Z/</-.I *# .M(-'6$N(O(P(k%^#1#e%^%Q(R(Y~i$e%}*1@c+l#^;E!F/u(S(^;E!n>^;B>I>T(!@&{U(=*V(:;K>W(X(Y(.*]&D{~+()6%6$0#",
"c+)-/+/%5+;+$* +j%$* +*+,&e=@+o$}/o)p N/i+Z(`(f> _._+_@_#_$_%_&_*_=_-_P/;_>_,_'_)_!_~_{_]_^_O.,(V/X&/_%#k>Z/..U.'${%&.U.{%L; =9+]#'$(_|$5]]@a+i#%-_/8~=@#.z/Z/#.#.U.;#D{a=&{__:_2*3%<_<&v)%#[_7*e~d%8+|+]+n@C!#~}_6/o@^;C{H!3***|_1_2_3_4_5_6_7_8_`,9_r$/@-=`-T'I;)@5$1#",
"c+/+{@b@!'k#*($*-+ + + +*^0_@+n$G{i+N/o)o)X&a_`(b_c_d_C;e_f_g_h_i_j_k_l_m_n_o_p_q_r_s_t_u_v_Y^Z*%#,$w_/_%@%@%@#.Y&'$U.&@#* =%-6+a=r(x_^$y_/$A>4+@!, ..` |!Z/;&{$%@k>E{&*b={+z_A_b@3%B_5$^$I!C_9+]@5$5%c+2*}/&(D_}_g/o@:~3*$!w>4%b/E_F_G_H_I_J_k K_L_M_N_O_^)q,T'P_Z!<*2&",
"/~6+4&6!6!/%Q_-+-+ +-+3.. {+.~6.m#l#N/2!}/X&#-R_m^S_T_U_V_W_X_Y_Z_`_ :.:+:@:#:$:%:N{&:*:'%V-X&X^B(K(/_w_m>G;$.k>&@q>q>;&,#2!>#n(]#$@=:c$-:<$c+h@>#^! .>{M^;:$.&@#.$.w >:[&,:>+P_}*/'h$8!/#{$Y&={6%[&g%':{+m@Q~P'F/m%):5(C!C!7@!:~:{:]:^:/:/:(:_:::<:[:}:Z,`,`'i!j(<$<*Z-",
"X;0{{@<*|::{1-j%$*j%(~Q'$+2+d=$*l#1:o)}/$-#->($/m%2:3:4:5:6:7:8:9:0:a:b:c:d:e:f:a:g:h:i:Z(I{#-' ' 7.7.w_N/j:Y-Y-Y&#*&@ =,#!&>#5+a=l@_!~*k: !}+c%/)l:Z/ .-.Z/j>&@Z/z/}=$=<*1*m:n:h@>:f^>:-'&(o:j%/$a$.+>*H/p:0(}/0]*-c/q:5(4-r:s:N_t:u:v:w:x:y:z:~,A:T>B:C:D:Z'6,j('*1$S;",
"e]:%9+c%c%g+E:J @*$*&+Q'F:G:.~6.l#H:}/f/[~' h/g/m%I:J:K:L:M:N:*:K^O:P:Q:R:S:T:U:V:`(W:X:V-Z*V-g/P^=&G;w_' H;!&`^`^ = =~- =~-;&d+a=q>r ]{Y:_$}+/*D_R -&I Z/$.Z/$.</Y-7~>:^)8,n:Z:)+-=Z-0!-'U-`:m~m,[#c$(${+o#o@ ~F/ <q:q:4-.<g{}_+<@<#<$<%<&<*<=<=<-<;<><,<Q.z, {'<}*a=2&",
"X;X;9+)</$1-/+Q~;+-+g+&+(~e]C{l#n#A(!<G{o$}/H;a(~<{<]<^</<(<_<:<<<[<}<@_|<1<2<3<4<`(5<6<u(7<g/' u($-Y&p j:2!o }/i+j:!&#*D_!&%-5+<*()C_[*3.}@>*l,P'_/z/z/$@Z/$.Z/'$G; .>:8<8,9<0<a<u)<_]&D{V-b<5*^$6$c@.~Y;h]o@E!e{c<d<e<4-f<i{g<h<i<j<k<l<m<n<o<p<q<r<s<t<u<v<M)w<i{x</'",
":%X;v>/%9@6*R~2-2-2-j%c~:-|_Q~h+J;A(j+l#D_i+G{r$p#h/p#g]y<c<g]c/q$o#$/,(>(G{n u(~<V-u(n Z^Z^a(6/a(2!H;m# =I;`^G;}/P'()~-~-D_;&5+a=&.z<)@3.'*>*A>@^A<=.z/#.r($.=.k>`^w{>:W;(+='B<2*6%2&]&$=Y^,$~+'*[#8+6&6*h/:~C{v(s$q:e<g=v~C<D)D<E<F<G<H<I<J<K<L<M<N<O<P<Q<R<S<T<v(`-:'",
"X;X;>*u>U<_+1+J 1-Q_j%J V<1+W<J;3.6.{-H:l#o$o#m@m@Z^o$m@p#7<7<p:o#X<u(Y<>(Z^Z^Z^Z^/;u(a(o i+G{}/}/Z<`^}/2!2!#*I; ~~-~-@!l@@!l@9+a=y(B ,*_)[-a@/*D_l:k>z/, $.z/j:z/U.*@&*7(9/L `<Q_u)Z-u)`-V- [|-'*[#Z!J~Y;p##~&(`,e<5(.[5-+[@[#[$[%[&[*[=[-[;[>[,['[)[![~[{[][^[/[v,E_:'",
"1@+^t>([($^+c=<.j%_[-+;+'@^+.~l#{-A(/)o$h+j+p$q$m@o#p$f/m@Z^6/Z^p#p#Z^$-j^:[Z^m@Z^Z^a(/;}/i+Z^}/D_~-!&=^!&}/2!'$2!!&l@~- =l@ =}+^#n$'~,*9,4@}@c$|-k>k>$.$.$.k>j>%@I;}=]&7(<[!![[1--=}[f!$=|[1[d='*H'{@2[l~h/q$i+#'3[%{4[5[6[7[Q)8[C,9[0[a[b[c[d[e[f[g[h[i[j[k[l[m[Z'E'n[",
"{++^5+z>U<(+1+_+!-!-;+|-/+}$Q~$*l#n$n${-n#&(j+6.6.j+o#j+p$o$i+o$p$1:m#P'o$P'n@G{p:f/f/p$o#o$~&2!o$D_l@o[~-@!p[#*~-l@o[q>!&~-2![$^#%+;@}*.(4@c$~*^+B(Y&T.Y&k>k>%@k>Y&*@3%3$q[r[s[<./@/'/$F';(w_$!F>[#.'6*1@q$q$m@t[u[<[v[4_w[x[y[z[A[B[C[D[E[F[G[H[I[J[K[L[M[>%N[O[P[u<Q[",
"0]1@}+)')*(+_+|-J Q_8,$!R[H>@+h+J;n$/)/)A(.~j+1:p$o#S[T[j]H{m@G{G{i+p$p$l@D_6/o)U[V[U[W[i+o$m#i+i+$+~-()~-(~q>#*q>q>=^Y.=^l@Z&6+[&X['&Y[c]v)>:|$(+p r(%@7.K(Z[%@Y&`[-.3%W;]-/] }|-b$f%-=x<z/&.|-.}5${@6&q!h/q$^;y)+}@}#}$}%}&}*}=}T>-};}>},}'})}!}~}{}]}^}/}(}_}%}:}<}[}",
":%]+6+c@(@1-O'O'R~8,<+v!2+/+1-@+d=$*{-{-d=n#6.6.l#J;}}|}1}2}P'D_n#6.D_D_o$l#o)}/3}4}5}6}m@p$D_o$i+@!@^@^~-l@l@U.Z&q>l@,.@!=^)$7}/#9+8}~# !z{e#e~|$n$R]G;7.9}G;0}j>p I a}]#!@<(b}3*(%f%$'7/i!R |+[-H'4@i!4[+[+~4-Y,c}v(d}e}*>f}g}h}i}j}k}l}m}n}o}p}q}r}s}t}u}!,_:v}w}x}y}",
"I>G>G>c@/%<.1-1-|-1-c=2*5+[.j%$*{-j%J;@+@+l#o$1:o$l#z}A}B}C}/)l#!<L!D}E}r$p$G{p$F}G}H}I}r$j+o$n#l#h+3.)&@!@!l@q>J}~-@!=^$+$+K}<$i,L}M}Q'c@)+:-^#D>,+b(G;p K(G;j>G;Y-N}a=W;k%O}P}J -=<&u)x(W~Q}}$4@a/$'A!q!o$o@.<))R}1_S}T}U}V}W}X}Y}Z}`} |.|+|@|#|$|%|&|*|=|-|;|>|,|'|)|",
"I>={>*c@9@(+Y;8,<.8,2-;+++e]2-|-@+d={-&+$*$*J;J;+~J;!|~|{|]|^|1:^|/|(|_|:|j+m@6.<|[|}|||+[6.A(l#n$l#n#l@n#$+h+l@@!&-&-=^)&)&@.1|F #^L^2*i$k@^$W;6*,$$-p 7.G;G;%@G;k>=.a=]#^&*'S c~6%f%8!2|O;3|V~c{[#.'W~F/n@6&6,4|R}5|6|7|8|9|0|a|b|c|d|e|$|f|g|h|i|j|k|l|m|n|o|p|9 q|r|",
":%7+b@/%9@(+k%~+8,5*1-2-k~{+6*-^j%j%$*d=$*A(3.d=6.s|t|~|u|v|!<1:h+w|x|y|z|m@h]p$A|B|C|D|@+&(@+l#l#l#h+m#l@@!@!!&@!/)=^$+h+l@#*)*(#V'g!c#E|f~~#F|Q~7.G|Y&k>Y&U.~-2!m#=.a}5$|_H|I|Q'/@f%t,2|}~J|I>K|A/r,<[4[}~+[4-L|M|+)N|O|P|Q|R|S|T|U|V|#|W|X|Y|Z|`| 1.1+1@1#1$1%1&1*1=$",
"1@~@_%c@/%(+=1|-6*5*<+~+1+H/-^3*,--+{-$*d=j%$*@+$*@*-1(|;1>1@!1:@+,1'1)1!1h/q$o$~1{1]1^1l#@+3./)/)/)/)n#o$m#)&f+$+$+$+)&,+-+-+7@E'/1/)N;d<<*<&.+C!(1U.H;j:j:!&U.%@..8+^)^#}$;:_1>+-=f%`-x(+~&#&{:1{;<1[1J/5,F!i^}1|1116|2131J,41516171819101a1b1c1d1e1f1g1h1i1j1k1>|*1l1",
"7+7@_%c$7+/+^+_+^+3-k%~+{+e]8,1-m1Q~$*d=j%3*d=d=$*s|n1o1A}p11:p$+~q1r1s1t1u1h]m@v1w1x1y16.A(3.l#/)@!l@@!z1/)n#h+@!(~@!=^-+,&+=9@}#5*D_7$! B>B>a%C!R]U.j:`^U.@!#*I;U.W.^$H'q!H|P j%t,/#B>A1:~Y B1C1]~p,V(m~[~4-c/D1|1+)U&E1v:F1S|G1H1I1J1K1L1M1N1O1P1Q1R1S1T1U1V1W1X1Y1Z1",
"6+7+{@)<h!)-S~)-(+^+|-k%k~|_-^Q_R~-^$!j%j%d=Q~d=Q~_[n1`1 2.2A(@+@++2@2#2$2H:X<W<%2&2*2=2W<.~J;l#{-1:l#6.l#n$J;/)g+(~(~$+3./)$+}@h$-2P_5$;2g!t,_$Q~K(H;H;Y-I;I;Y-I;!&k>a=W;^&>2,2C{t,Y!`->:^;=''2)2{;!2z!t('<l%g=j ~2v,{2]2^2/2(2_2:2<2[2}2|212223242526272829202a2b2c2d2",
"6+o!/@m,8+S~^+^+<.~+|-_+R[:%'{5*c=-^d=2-Q~d=Q~@+e2R~f2g2h2i2@+j2k2l2m2m2n2o2S(C!p2q2'1r2d=@+$*d=$*$*{-A({-6.6.n$,+/)n#{-3.g+s2/%7$,-B{3$q{Y[6%':Q~B(I;Y-2!~-I;Y-`^}/G;W;a=7@J!t2+!A/c#u)>:7,='u2v2{;!22[}_.<+>l+w2x2y2z2A2B2C2D2E2F2G2H2I2J2K2L2M2N2O2P2Q2R2S2T2U2V2]}W2",
":-^$h$.+<$^+^+^+_+~+<.h@(+/+6*6*8,8,Q~_[8,$!_[-^-^3-X2l2Y2Z2`2 3.3+3+3L:q2@3#3d=$3%3&3*3{-{-A(3.A(1: ~6.C{o$+~J;{-{-{-/)$*{-$+m,A/!-()3$=3$=e~A> +, H;o I;~-}%$+j:D_$.D{<*e=-3;3z!`-7(v)t,.<-&>3,3'3v){-J/3,l+)3Q<=}v,!3~3{3]3^3d1/3(3_3:3<3[3}3|313233343536373839303a3",
"7+/+^@_@/*b=<.<.=1)-~+c+d+e]c=Y;R~2-2-6*E:8,j%2-8,c=b3I}c3d3e3f3r1g3h3i3j3k3l3j+m3n3#2o3A(A(7=g+A(h+{-p$6.l#H:{-6.{-n${-n$n$J;c@A/&!P'3$p3]&d@A>&+K(j:j>H;,+)&Y&2!~-&@}&&*0]o h>s!])7('*9!q3H~r3=${;t,i^s3t3u3~ v3w3x,x3y3z3A3B3C3D3E3F3G3H3I3J3K3L3M3N3O3P3Q3R3S3,}T3U3",
"/$r!(@!'1./{[+^+(+(+|+|+[.k~5*5*8,2-1-Q~d=_[m18,-^1-V3W3X3Y3r$Z3`3m2{| 4.4#2+4@+@4#4$4Y3$*A(&+3.&+3.n$6.$*{-&(C{6.$*3.$*3.{-/)c@A/c~~-[&'!d$%4a%-+w_2!P^P^H;l@2!&42!,#W;~'Y;S *4<+`-{&'*t,=4-4;4v3('c{>4,4'4t3+>z,)4%)!4V}~4{4]4^4/4(4_4:4<4[4}4|414243444546474849404a4",
"G> !/%b4c4^+e]^+(+|_^+^++^k~f=3-c=R~8,d=_[2-Q_2-2-Q_>1d4e4f4g4h4i4j4k4l4@2m4n4o4p4l2q4'_Q'$*$*3.$*3.A(3.{-{-n${-@+{-n$n$n$$*$*/%6$,-#^H'}{';|$/*R~=&2!N/6/i+()o P_}/Z/W;<*3~j%@^Z!f%Y!'*6$,4r4s4x'<'-=@}t4=*u4v4v<P>F_w4a4x4y4z4A4B4C4D4E463F4G4H4I4J4K4L4M4N4O4P4Q4R4S4",
"G>_%b@/$]+h@}$k%_+(+_+'-5&7@H>1+'{k%!-c=2-Q~R~j%Q~_[T4U4V4X3W4+2X4Y4Z4`4 5.5+5@5#5+36}$5-+d=3.3.$*g+{-@+#~&(C{C!C!&(C{n$Q'3*$*<$6$8,,+W;@>4%w!/*c=N/@!p$o i+}/~-o>}/w_^#W;6@Z/n:e]$=Y!<$B>%5&5*5w,{&!2=5Z,U(-5q#;5>5,5'5)5!5~5{5]5.|^5/5(5_5:5<5[5}5|51525354555!}657585",
"n(A~c%|%Z!{@|_|_|+^+(+c+)-7@h=|_1+Y;8,8,2-j%2-&!8,R~9505a5b5c5d5e5f5g5Q~h5i5j5k5l5m5n5;+m1$*d=3.$*3*A(C{@+C{d=C!.~3*3*d=C{j%C{<$/#K'9,5$R]j$w!o56.p)m#}/P'n@D_~-P'o j:&*a=e=$-p5t!]&d%]&7/.{q5h=o,{&!2r5s5K>=5=5t5U}u5'5v5w5x5y5z5A5B5C5D5E5F5G5H5I5J5K5L5M5N5O5P5Q5R5U3",
"r!8+9@|%Z!2@e]h#k%(+|+h#{+7@{+2+}.2+~+2-|-!-~+8,8,2-_[S5T5U5V5W5X5Y5_[:+Z5`5 6.6+6@6#6j%j%m1$*d=-+Q'-+C{C{C{Q~C{Q~$!C!3*3*$!C![-<&y!$65$%66%&6*6&+%@o$@!i+}/}/D_o)Z^p a=&*+^=6-6k%.!r)3%O_;6>6]-.){&-~,6Z,-5=5'6u5)6%)!6/}~6{6]6^6/6(6_6V|:6<6-%[6}6|616263646566676,386",
"8+8+_%^@)*~@h#|_k~h#)-e]d+6@{+e]|+/+y!3-k%~+5*5*5*1-Q_9606y1T5a6b6k#'+:+1-c6d6d6e6a51+>+j%d=d=d=j%j%3*j%d=d=.~$!C{d=$!Q~3*2-Q~m,6$ ~*+H'f66%.}g67@p$!&o#}/o)i+N/i+P'U.C'^)~@Y-h6{+&*(#&*i6e<j6%{k6l6c!m6Z,n6 {v4o6y}#)W}8|p6q6r6s6t6u6(6v6w6x6y6z6A6B6C6D655]}E694F6G6R5",
"7+A~_%.*[$H6!@I>/+k~p!)-0@6@e]2+^+/+(+^+k%^+c=5*<.1-1-I6J6h4K6L6f3)+<.Q_Q~(<k4e6M6N6-^2-;+j%m1j%j%Q'd=C!C!d=C!C!C{3*j%2-2-Q_Q'}*/#Y(@^5$O6z{A~*6 ~,$m#i+i+o)o)i+i+$~`^A/7(0]G;:/{+a=e%&*P6.<d(&{w,{&F>F/r:@{5-'6o6Q6E_R6S6T6U6V6Q|W6X6Y6Z6`6 7.7+7@7#7t6$7%7&7*7=7-7;7>7",
"[$b@_%b=/%~@G:/~h#/+[.(+}%n(e],7/+h#h#Y;/+|_K'c=(+3-2-G/'7[{)7!7-^<.!+2--^8,~7{7!7&(Q~2-!-2-m1j%m1j%j%Q~2-j%$!C!$!2-3*J j%2-j%}*~#7,P'5$u(b$}@z>J }/i+i+$~D_P'D_o$n N/6$7(U~]7^7/7a=(#<*$=8.(70*_77(v)t(1_:7'6<[7[<7[7v5l[}7|7*717'527s63747576777879707a7b7c7c2d7e7f7g7",
"A~_$}@1$9@d!X;X;e]/+2+h@S~n(e]k~(+h#^+!@h#k%^+&!1+5*k%8,'{1+c=|-8,|-c=c=8,c=1-R~Q~E:j%2-2-d=Q~m1j%m1Q_$!8,j%2-8,$!-^-^C!A!h7$!|$f%3*$+7(=&Y[[-i7j%j:}/n@P'P'D_i+P'n@'$A/H'*{j7m:h@&*e%]#]&k7C;5-l7[#m7W(1_u4<[n7.)o7E_p7=$,|q7r7:}s7%7Q|t7u7v7w7x7y7z7E6A7B7C7D7E7F7G7Y1",
"r!:-{@b=($r!X;{+|+,7(+c+(+6@X;2+|+2+|+2+/+k%3-8,_+|-5*5*c=1+c=1-1-8,d=Q_|-6*-^2-Q~;+Q_2-1-2-m1j%j%2-m1Q~5*8,$!i!6&$!i!$!-^i!C!.+f%I>&+[#P^Y[/@|%2-}/n@p$n@$~i+m#o$n@I;5$H'*{`[*'h@3%);0%]&H7I7J7K7[#v)Z~1_:;w(w(Z'r3L7/}M70 N7O7P7Q7:}>|Q|R7S7T7U7V7W7Q7B7v2X7Y7;|Z7`7 8",
"_%_%_%d$c%d!{+h@/+h@s!{+}.1@{+/+|_/+/+e]]+k@<.J S~_+^+^+f='{R~O'<.1-_[|-Y;Y;2-2-!-|-J ;+<.1-J '+>+Q_j%8,1+8,-^8,X~-^-^i!&!8,B!}*^~K' ~Y!#--'}*.+k%o)2!i+P'~&i+l#i+_~/;^#[#0].8+8h#&*@8a=]&*5#8$8l7A/p,J/1_:7w(&{%8&8L7d2*8G6=8r7-8;8>7>8:}:},8'8)8!8L[~8{8]8^8*1/8(8_8o7",
")*$'4@[*i,={6+i@h#/+{+/~_+3@{+{+}$h#2+k%V(:8<8[8}8+4Y3|81828385*2-8,h]4858686878;+d=j%88189808a8Z3b8-+2-8,8,i!8,i!i!i!6&z!$!k%&6^~_)&+/#+~B><*c@K'6/&+D_D_D_l#P'P'o#n ^#[#}_o)c8t!]&/#a=.!N[d8'6e87(p,}_1_:;6(n7 )f8g8h8i8j80 k8l8m8=$>5n8n8o8p8q8E6~8:1l8r8k8m[s8^ t8u8",
"]@]@]@4%/*8++^6+|_c+/+i@z!2@:%X;]+}$2+|_${v8w8x8y8c668z8A8B8C8j%2-`2D8E8c6F8G8c/8,Q~H8I8J8K8L8l%@-M8$!5*$!8,2-5*|-X~X~6*1+5*/1d@/#|-o>/#Q~]&^#b@5*o>n@@^P'$~o>_~n@6.o ^#6$}_N8+8h@&*~#a=3%6_O8-5w,H'4@0]1_:;`;w(W'`~7/>%;4r8P8Q8r|:1m8R8)6)|S8T8U8^8V8=$)|W8m[X8Q<Y8Y,Z8",
"]@{@]@4%($8++^G>i@]+(+{+I!F>1@i@,7h@/+,7~+`8 9.9+9@9#9k_@5`2:+m1[8c6$9%9&9*9'^Q'2-=9-9;9>9,9Z<6.n@0(d=2-z!5*8,2-i!i!6&K'5*~+z!b=f%|+E!/#o#>:^)[@!-i+ ~n@n# ~ ~+~+~+~o)^#{&4[p~W-}$]#f%]#]&'9#/m6s,Y!F>)9s4!9w(n7~9{9-']9o7W,^9/9i8(9i8_9k8:9_}<9[9_}}9S8i8;4|9u<G719Y,_8",
"{@]@{@<*9@[$X;5+{+4+c+|+k~F>b/i@={G>/+{+z!29.939|849k_5969'+:+79899909%9a9b9&(-+c9d9T4I8e9c/#~&+f9g9d=5*8,|-|-&!8,2-<+_+~+8,z!b=f%h@H!/#i+z{]#|%_+n n@n@+~+~P'P'P'+~h97({;F/o)0}t!W;d%4$}&Y~i9.[r,+/v)~@`,=5%{w(j9{9x<k9o7v3*1l9;4Q6`~_}W8Q6(9u<_}Q6m9}9n9n9o7_8w2o9Y,Q.",
"]@4@)*]#/%[]+^G>H/*{}$X;H>F>6+7@={1@}+X;l~p9$5b6q9r9-9s9|-!-t9u9v9w9x9*9y9Q~|-z9A9B9J8b8H{l%&(C9D9E98,!-~+|-<.2-~+|-~+<+~+^+z!(%+/p!#^f%p[}&H'c@k%$~+~@~@~H!l#n@n@-^U.h$|#8/o 0}_)^)e$5$]&X~Y<l~t4/#t,@'J>!9`;m~~9F9-'m8G9T)H9G9_8l9;4U)n9n9o7}1_8M_Y,Y,I9J9K9L9u8%)J>i{",
"c@[-Z!8$7}^$_{6+G>G>6+I>H/[-7@7+:-G>1@I>Y~M9N9O9P9Q9R9Y;6*S9T9U9&9U9V9b9C{j%p9W9X9Y9|8Z9p:`9 0.0+0@0R~2-~+!-)-I!K'&!8,|-~+~+K'(%f%#0a<);C{&*7(|%_)_~n>@~n@n$n@S'#~n$J;A/~#8/o $06@7(f%]#-'.[p l~r,%0F>@}q,F9r5m6~9C<-'&0*0|9y,=0-0;0_8l9;4G9>0,04|'0'0M_s3J9L9)04|#)7&!0",
"[-[-^$V'~06@4+G>G>5+k@a</~<$={G>8+]+{+]+f]39{0]0^0/0k%,-(0|8_0:0<0e9[0'+>+}0|0102030(<q$&(4050608970c=1-_+k%2*|+2+|+)-2*Y;2*5*d@<&i@c~/#3*3%6$.+G>E!{- ~n@Y(~&@~^;o)Y;^#[#m680:/8+^#|#7${)#{r(]+90{;}*r!9!00Z~F/X'a0^)b0c0M_d0@)Q64|G9M_o7G9*0L9'0e0'0e0s3M_5|f0g0h0b!i0",
"/$]@v))@[${@d!1@i@{+k@)+H/3@6+7+a@+^e]e]k%u1f/h]f/(+)-)+j0k0l0m0n0o01-<.1-9*p0[879q0-^C!|-d/r0(<W[l%_+k%c=^+~+|+|+|+^+|+|+|+3*(@6$={&~h$$!3%a=c$K'i+n>~&P'~&2*+~z!i+Z!/#2$l~n>D_:-^#g~s0}&Y~p 0]8!6$/@1@r,%{8/0/{)x)x<>5s5e0j W)i >0_8>0_8>0o7_8>0o7*0e0e0e0g0c0j t0T~v(",
"}@m,p,)@)*n(G>8+n(r!k@h@/+F>7@7+7++^/+i@/+2+^+(+(+c+}.2*2-1+c=^+c=c=|-c=<.5*'{k%f=u01+c=1+~+5*Y;~+c=^+k@_+)-|+(+h@2*|_(+h@)-|-d@A/G>1*7$}~]&W;6%8,G{{-+~n@Y(j%+~~+ ~;.A/7$I>v0w0={[#g~]#C'y!G;F/u)f%/@[-i{V~Z~a0x0a0'3[9J9s5n[y0E'z0A0,5B0C0D0E0F0F0G0L_L_H0A0D'A'u,Z,I0",
"c@[-!2J0/$6+c+{+_)b@}+s!1@b{:-h!={9+5+{++^i@]+(+2+k~,7e]k%h#2*^+~+1+c=<+_+k%^+H>|_f=e]5*1+|_1+c=~+^+h#|+d+h#h@/+c+k@2+1+(+|+|-%47$6+>+6$&!>:7(]&^+P'6.+~ ~_~1~n@I!S''$7(5$I>K0L07+D{M07$7(!@`^I>B>f%g%.+7&e=0/a0x0N0W;:1y)O0v(P0t:Q0R0k9S0Q7T0U0V0W0~[X0y}Q6U)n94|{9~@t,",
"Y0d@4$!#A>%'9@}+5+[$}+b@1@b{7@:-={i@i@i@i@]+5+c+i@]+i@/+/+}$h#|+^+|+Y;Y;<+|+h#H/H/h#2+~+~+k%f=k%|+|+(+(+s!/+Z0i@h@2+)-/+~+(+~+i$]#`0 a/@B>B>^#(%z!Z^6.H!+~S'n@n>%+C{i+7(6$N0P'-67@1$g~7$W;.aH;8@6%f%6%|$v)+aF/W(x0@}<*@ao,D:[7v,b!b!#a)0$ah h %a,0H_&a')-0;)=)*aY'W'v)0!",
"d@}*]&4&=a]@_{}@9+7@={1./+6%1@7@_%G>c+}+G>/+6+d+G>i@i@{+e]{+/+h#h#h#Y;Y;k%|+5+{+}$}$/+^+k%|_|_(+|+h@k@s!{+/+c+/~{+c+(+)+)-|+~+W;b]/7-aB>9{F>/#]&|_+~C{G!S'1~1~1~B!%+D_/#d%~@_~;a7@<*b#r)&*.[o)4[-=B_6%&^p,:%m~F/H'+^H'@)9_s5>a,a5|'a)a][F,c !a~a{a]a^a/a(aF,_a:a<a11K7`'",
"[aw!7$|$/%e~_%_%1@_%i@>*c%}*6@:-b@b@7+6+8+9+={+^G>}+/~X;{+c+/~{+h#i@c+i@c+d+9+i@{+h#h#2+k%|+|+h#h#h@h@*~k@s!]++^}./+s!(+(+h@h@7$:&d$(%b#^'c#7$d$/1_~B!C{i!$!1~E!$!H!n$7#~#{@n>o)8+1$}a/#<*G>8,Z!]#c#]#i$4@m~n~I>B>f!C'1#5#|a5#5#}ad]1a2a1a3a4a5a6a7a8a9a9a0a7#1a1a1#aa_#",
"!#c@6%.+[-/@_%}@:-,*i@7+}@(@r!~@_%8+7+}+7+}+}+6+i@i@{+5+G>c+i@i@i@6+/+i@}+i@c+i@i@c+/+/+h#h@|+/+/+c+/+i@+!i@}+i@6+ba/+c+/~h@h@i$Z-e!i!6$0#(@_%c$q!S'E!F!G!8,_~G!B!$!~&Y!v)6&cadaB!<${;{;s!F;ea5(({H'A/z(^%l~m6n~]@h#fa}&f%c#0$0$g~[#[#[#^#{;}[gahaia5't'hax0E'-=7/{;(#3#",
"[*c@6%}*[-%48+8+:-}@6+9+/$^$_%@'r!A~_$_$}+_$={6+6+9+i@i@G>i@i@i@5+6+i@i@i@i@i@baZ0bah@}$(+/~}$h@{+/~X;}+5+i@={}+={i@}+8+7+}+p!i$jakak%[#g~!+/%4@z!n>A!7,C!$!G!$!z!A!n@{;B>A!lamak%^$Y!H']@y<na|_]&a=f%oapa~+={7@.+}@:- !F|g~5%3%2$&*7$7$4$h$Z-^'E0qarasagataz'K|e8~#2&9#",
"s)w!i$[*{@^$8+8+8+r!:-b@}@f!$'[-4@_%7+7+={7+7@}+={5+5+}+G>5+i@}+={i@c+7+}+i@i@*{X;G>c+]+h@{+{+{+X;:%X;G>6+={={={7+={={}+:-{@>*d$2&={  5$f~1-9+[-*{7,X~i!!-i!6&D!ua^&E!{;^$c/vawaz!!27(E'!0)3xa):'*4%0#4$1$f!b=~'(#^)x<X(Y!5#T;g~8#S;8#7#2&n[|ayazaAaBaCaDaEa9!4[U~b=[#5#",
"5!Fa+;[*:@f!|$7@8+7@:-r! !1$6@}*pa]@%'7+a@_$={={9+7@={6+}+7+i@}+G>c+={={i@G>={ba*{i@i@{+i@i@/~i@G>1@={:-8+}+1@1@:-o!o!p!}@}+{'4%(#bak@^#5$Q'bar!b/K'z!{+E!2*i!$!z!G>7,{;m,U(Gay]z!3@{&E'}_6-_/r J~r!F>X;A~/;Ha^)k%N00/faN(r5~@F>!0s,K7IaJaY,7[KaLaMaNaF1OaPa`,6(N0$=5$d#",
"d@w!7%)@(@`-}*_%:-8+[-$''*3~F>(%Z!]@_%_$_$b@:-={_$:-G>={i@_$}+9+}+1@={={7@]@1@={1@G>i@X;G>G>X;G>1@~@:-:-:-~@:-1@:-:-_$5!c@i@7+]#|#1@)+&*A/<+={r!}_z!%'6*G!A!8,K'z!q!+~/#8! {7^Qa0]u)Y!%0]#}$K(RaSa'<v~}~N05/h(1_i+C!i^Tai^Uag=Va2,WaXaYat3>3>3Za`a b.b+b0'@bL|#bB1}&$b7#",
"%4j$f%%4Z!/#)@(@_%c@7+c{]&~#u)u)u)6%/$/%]@}*m,'*b@'*^$[-^$[-m,V;_%4@[-}@}@m,v)b{[-%br!6@{@:-&b(@(@c!s,r,(@F>b{Z!b{|$/@g%3%8!W;d%(#:-<+&*/#>-={}+u)d!b/:%:-$'~@*b.'U~I>|#^$7*t/=b8@^$/#-b3%9!q!`[;b>b,b'b)b!b~bq {b]b^b/b(b_b:b<b[bwa}b|b1b2b3b4b5b6b7b8b9b0bm9ab$8]#]#b#",
"c$_@0$.+]@/#^@V;7+A~/%bb5!(%V;[@b@[a+!_-c]t>U]t>(+cbdb_)_)#!<.x!#!,-,-<+T'T'&!h7D!h7D!ebfb_)#!n,n,a<n,,-gb%~c~9,J hbibt>jbi~[]%'|#*{kb3%6$~@ba{@/@/${@6@2@]@4@2@$'>:V;/'u)lbmb*/}$}*5$e%a$]&}*banbUaUaob!0pbqb0!G! {u4@{n6e<-5rb5_N[O>sbtbubvbf7wbxbybzbAb0bv,BbCb3%0%Db",
"i$]#3#3%1$]~,*6%d@|$6%.+B>]#(%b=b=d$6%|$|$)@+;f@f@%;d@b$-=f!(@(@b{F>F>-~4@)<m,'*'*<$|$^$B>8!/@i$Ebg%b=d$.*6%g%[*$;|%_@6%'*^%.}i$(#~@c]j$|#]@_%ka !={1@1@:%1@G>U~o!A~%'b#,;O;Z*J(k%|$0%h%@;0%1$}*%'N0$'%'E'Fb~@h$'*!2 'r,!2r! '!2t4,4I0GbZ,Hbt0I_17IbJbKbLb<aq,e<0/<*^#n[",
"[*.*f#c#e#]~Z!5+7@3+n(6+7+[$}$@'b/1@~''-6!5+}.(+/{j,5+:-7+7@G>}${+7@}$h#5*i!X~6&C!Y;|_$!-^i!8,$!~+C!1@6*]+s!5*|_5*2+/+~+g@m,V;+;e%A~+!3%:#A/7$0%A/<*a=a=]&1$d$d$6%(%a=8#F|=5Mb9(}@}*6$Nb0$e#7$]#]&]&]#5$/'^)7/+/7(]&&*&*a=3%^)^)8<{)[7{&Ob7(X(E0S0PbQbRbSb['11d<4[a=5$^'",
"i@($d,*~8+_%Y;d=@+6.^+G/6*.~r$^;~-}@g!Z&8}Q~o#i+o>[~o)/;p~TbUbg].8.8.8E;o~'<Y</;[~.8' E;#-h>h>P^E/Y^~<`(u(Q'n>C{6/+~+~~-Vb_@|$4%0#g%Wb5%g$7#<&r)<&5%]#C>4%5%4%d$4%d$8$Xbi$YbM^` m~b=f%6$}*4$2$Zb0#b#d#g$S;d%/#5#1#1#1#1#5#6#3#3#5#^'b#8#1#1ad]`b c.c+c*)@c#cx(&{~@6$5$^'",
"9+2*_)2*_%!@2[d=n#D_3-:~l%#~l%'<o>}@e]a_~<j+j+/;x~n>E;E;E;F;$cF;%c$/O.g>f>s~O.X&m^f>m^&cb_D;E;D;D;D;' %cm^B(*cE/V-Z*=c={2&9$5%[&5#j$/*<*g$5#|#|#8#6$6$7$7$a$[&[&2$2%c#Z-i$K'j>n#1@B>f%|#6%8%s)<&f%-ba$<&g~:&f~g~~#9$7$a$<&~#f%0$a$<&6$/#A/6$2&%0`bEa`b-c|'{&`-~+'*~#5$7#",
":{k%p!!-c=^; ~n@m#n#/;HaHan [~n |-|$%=;c>(&(,$$-N/P^Y<Y<Z*#-h>R_f>O.&cO.i(V/h(b_i(i(i]%/&/>cj(,c'c'cr>_/D;j()c!cU.K p>%'(#/@b@^$t)k$[&[&(%f!-~P67/~c**B>B>t,/@/@]&/@|#g~i$Y;&4z/c+(%f%|#<*d${c(@7$]ca$4$a$5$7$5$c#4$7$a$<&<&f%b=(%b=(%$=&*]&[#Z-2&S;('%0%02|V~i!@'1$7$2&",
"&!i!!+d=h/6/}/n D_P'E;u(F;Z^o ` 4@1$^cl^;$/c _(c_c:c<c[c~!}c|c=bH^1c2c'!3c3c4c5c6c7c8c9c0cacbcccdc /ecfcgchcO:ic/c:_jc[-6$[]9,Y(kc80N}lcmc=#@(ncoc)-d+>*8+k@}+2*6%s!*b0#(%m~~&n$c$d@d%S;8!e~9+o@.+h%4%u)]@{@/$]@d%$'4@'*.*[-6%_%[-<&B>[-^$<$i$^#^#^#%0&*^#0%(%F>/@4$7$1#",
"(+|+<.G>Q'Q~-+-+,+m$$!-+$*j%-+pc}*3$qcE;rcY<sc;'8^Y^tc(/X&Z*=bH^*&F;u(Z*#-#-j])^ucvcwcN{%: :c(_(xcyc'<n>zcAck^i/%6Z[].:${;={W~(+c+h#/+h#m~q!|+H!#*;.]%Bc)+{.{.X-#+c+/~8#j$I>E!n$b@.*f%g~~#5$|$.}<&d%4%j$e~r!={_%0%^$'*'*c$_@j$'*f!(@u)f!.*d@6%1$$=(%:&a$f$f%4$.*i$0=f$c#",
"|$c@c@{@c{[-{@/$}@%'7@{@{@)@]@1@.*<&X;={d@6@6@={={+^i@:-1@={:-={:-:-6@_%={7@i@7@*b7@:-={:-6@}+7+9++!.(Ccd+>*A>_-[@s!Dc|$<&/@}*5!0+d+c+X;9{U~G>1@A~={{+*{a@pa={Ec}@6+3%M0j$G>FcD!Ec%4A/|#^#5$^#4%1$a}&*(%}*]@)*F>d@.+,*<$c@m,(@({^@]&F'9!f!**0!GcO_z{^)[#[#c#0#d#d%d%r)r)",
"c@|$/@3@F>[-[-{@{@]@8+{@/$5+m,8@b=~#K'6@u>7@_%:-:-:-G>9+5+_$:-:-_$7+8+8+b@8+}+7+7+r!:-_%r!={9+:-={m$c+5+5+9+7+1+_@)-jbd@2$]#B>b$'*b{(@**f![-)*]@}@d!<$]@]&[-v)f!^$<1.'@}C'g!3@v)$=7/N0Hc.[V~F/}$k%7*6*Yb.[m6e=HcI>^&H>Ic%{%{HcJci{f{Kcf{b/:%t(I>9{b/t(4@.'3@(@m7v)Lc(%**",
"d@}*6%d$(%1$b=b=+;'*}*<$]@'*c{1@5%|#|_r!{+5+_%7+1@G>={={={7+1@:-_$:-A~8+G>b@={9+7+:-8+6+={_$6+6+}+m$9+}+[]}+>*k@.(h@m$i$}&7,McY<Ncr~OcPcQcRci()c}cScX&Tcw~UcVcWcXcXcYcZc`c d#/Vcm^g>.d+d@d#d$dXct~`c%dg(f>&dg=#b*d=dc>#b-d;d>d,dt~*-'d)d4,!d~d*-{d8*ab]-YbYb6&J~}$Va:-Y;",
"~'6$[#]#Y[7!`!]d]db=8$f$<*V'3%<*k$1#l~6@:-_%6+7+7+7+7+6+}+>*}+9+5!7+7+A>5+7+9+={7+7+={A>7++^9+}++!+!A>U][]>*>*>*+!G b@j$7(t/&cP.P.D;b_^d/dXc%dWch((de>_dab:dWc<d`cq5Xc[d=d}d|d(71d2d2d3d4d5d6d4d7d8-8d)3[;9d0dadbdcddded{:;dfd>d8d<;+>u3=4U(e<e<.<Tagde<;6hd/1F!K'V~|_'+",
"h@h#V~&!id7,jdq3>4kdidF!7,3*%+-+^@f%0]8+:-ba}+9+_$={a@6+ba+!9+}+m$7+m$m$}+m$5+}+5+}+}+9+c+i@+!}+c+i@>*+!}+>*9+0+t>1**~(%`-ldQcmd%5%c>cndWcod@d@dUcpd&/qd9&+drd:dp^U/`cq5sdtdudvdwd$dvdxdydzdwdAdBd[;t~'d&d)3Cd+}u3DdEdu[Fd[;u[)d)dCd+>'dGd5,g=Ualbc/i^lb.<UaC!6&C{h#A!#+",
"/@(@c{]@A~A~:-r!|$[-{@]@<$(@+!|-<*|#l~:-}+i@9+x>_$9+1.[]}+i@m$9+9+A>A>_$9+}+}+9++!+!+!+!Hdc+5+={G>+!>*>*[][]9+>*5+i@[@`!0]IdJdKdLdMdNdOdPdPdQdp3vaH]H]RdSdt^o]TdUdVdWdo]Xdm/p/YdZd`dt^]^H( e.e+eSd*/@ed.#e$e4dcd%e+}&e*ed(=e-e;e>eud#e&d)3,e~dFd.<%='e<~g=)eQ~+~E!)+B!d!",
"(#%0{;}#{;7(D'!eH'{;}#[&[#.'4@k@1$|#k%7@={7+a@a@a@9+9+}+A>7+9+>*x>}+}+G>}+}+t>Z0c+}+={}+ba={i@={+!}+ba9+5!u>x>}+i@{+':,;%'~e+dR-^/*/Md! _c3cT/R-j/n^l/!/{e]ej6^e/e/^p](e_e:em/<e[e}e|e=/c>i.1e2eBd&d3e[d)d4e%=>e,e5e-e6e7e8ed.9e)e)3)3Ua0ed<I>aen6.{be.{q3.<&!$!/)d@/~ '",
"V~V~V~V~.[e=6(&{!@q!I>i@}@W;@'i@1$(#V~6+={={={6+8+}+[]9+>*9+m$}+}+m$}+i@}+c+c+*~c+c+k@i@G>G>_$o!_$={m$a@m$[]m$9+7+o!]@6%7$2.9+X;G>h@c+}$/+s!)+p!{+c++^I>-^^+k%|_}$V~l~m~m~h=V~q!!@^&|_h#}$h@{+n~n~h#l~}$h#(+={/+e]a@t>d+d+Z0c+G>/~{+G>G>G>G>7@I>~@8+~@7@_%:-a@7+_$c$F>$=",
"C{[-*0n9ce]9q|[9deV)e05!V;W;{@*~4%(#q!_$:-6+_$7+7+9+c]5+y>0$2$[&H'k$~#~#~#{#e$ee{#(#<'{&-c-c-c('('('/#/#%0]#0+}+_$7+m,j$0$2.fe9+G>h@c+k@/+2*(+(+h@Z0a@|+~+1*y!t!m~}$m~m~m~m~m6l~H/|_|_*{}$I>/~I>I>}$n~}$h#u!s!}$<$e,9++!i@i@h@/+{+i@i@G>i@i@5+{+={1@G>b@8+7+_$A~5!c@6%3$",
"i$M_A,geheiejekeleme'|neFb/#{@:-4%(#n~7@:-7+_$={m$={5++!/#j@'-,-2*X[=+~&Y(-ao)+~#~R'@^X-h^c~R'~&+*oef,k@;*(@}+c+8++!}@j$/#'+(+G i@/~+!k@*~k@c+(+6!<+i~{+2+c+s!ba/~}$}$}$I>I>+apen~}$t!h#}${+*{X;*{}$I>h@/+{+i@j$|*#+~*i$M~+;+;%;$;%;d$5%5%5%;;8$4$8$3$7$0$2%5%qere%4&^u>",
"]@sed'teuevewexeyep'k O0 ']~4@={d$d%N(8+8+7@={9+1.c%7+h@6$_@c@Y0[-.} ! !{@{@.'3@@'.'@} ' '1_ 't4i{7&q,v)6%.*:-c+8+c+m,+;%0D>}+i@}+i@/+h@c+s!/+s!h@|+k%G>/+{+($%45%4%2$8$3$]#]#0%a=<*4%1$<*z{&*]&&*]&]&-=+!c+i@%4+!'*3%/$<$/$|$|$c@|$d@|$)@d@}*<$m,%;s)^@.+j$+;0=3$6%6%+;",
"w!zeAeBeCeDeEeveFeGeF,O0z)~#$'ba5%T;r57@_%a@7+6+7+={G>{+|#V;(%_#3#3#He1#4#3#3#0#1#f#4#5#5#5#3#1#1#3#3#:#7+d@_$i@={i@b@d@{&J +!c+i@c+[]p!s!h@|+h@h#h@|+G>{+:%4@e#e$6$/#f%c#f%d%c#e$f%e$(#(#|#7#b#0#7#1#4#6%>+{+-=+!4%/*#+:-+!={A>U]0+e,}+:-r!]@ !Ecc$!#]*)'|%.+i$%;6$|%6%",
")9IeJeKeLeMeNeOePeQeRe|9See$$'*{3%k$K|/%b@8+7+7+={={G>+!c#%4+;7#7#c#c#c#b#|#d#(#(#1#7#:&2&g~2&S;8#1#c#3#a@e~*bG>i@+!b@.+/#J i@}+i@5+a@i@/+k@2*}+|+c++!X;|+U~f!4$b{%']@c{.}]@':c@@'U~N0}+$'F>[-$'}*m,&*2$C'|_H//@t>^)]@[&!'w!V;[-m,m,/$b]5%]#]#4%'*'*m,[*.+|$<-0@j$]~'*d@",
"t4TeUeVeWeXeYeZe`e f.fv3=0|#b/}$4$]~g<)*_%8+7+={7+a@[]>*g~&^,;':T',-X[,++fv0@f{.{.J!].{.o>D_{.{.&+j%G>]&8+(%r!5+h!t>[a`!/#D>i@i@/~}+i@}$7+c+~+{+(+*~h#~@h#:%F>6$]@d#S;S;('#f{;{&E'E'{&{;{&{;{;/#%07#.!^)X'6&ba.*c+<*[-7+g%d,pa]@c$4$3#:#3#7$Zb_#Zb2$!#z>_@.+^*4&u)+/6%^@",
"c0$f%f&f*f=f-f;f>f,f'fv3)f/'*{0*3%$b!f_%A~a@_$a@/*7+A>0+(#c@i$T;f~2&(#<&(#T;T;d#f~^'c#2&e%e#h%2$2$(#2&g$:-j$}*A>>*U]':&6A/2-k@c+i@ba}+}$/~2+|+c+i@G>X;~@2+i@7&s0}@N;a@={D!V~W~.[lb#{#{#{Yb6(6(0/r5q,|$W;g8]-i@6%*~a=/$&^($c@[@<@:#7#T;d%0$($f~0#0#~f:#-;)'g%|%.+,;/#(@.*",
"Y,{f]f^f/f(f_f:f<f[f}fv3I_|f}_.[~'(#b/}@}@b@A~b@b@A>7+w>e%c@(%:#h%5%4$C>i$6%]#8$3%a=7$4%4%4%0$4%0$7$6$3#9++;m$x>A>}+V;.*6$3*i@i@5+{+7@G>h#7@k@c+{+{+h#U~2+*{3@a$V;e%v)!2]~f%^)~#7(e%~#~#T;2$~#H'O_e$c$b=~9K'6+g%e,a=/$V;|&[a1f9$Hef%0%8%2fx!1$3f8%9$c#0#8%D/,;s)d@2$w!6%",
"z)4f5f<f6f7f8f9f0fafbf/9O)%0I>|_5$|#+a}@9@}@}@b@($a@7+0+|#w!m,^)<*Y[`-/@9!9!v)F>3@b{v)3@F>f!*!v)v)(%<*6$+!g%^$_%9+={%4.+7$>-}+{+{+h@2*6+/+8+c+}$h#={+!8+h#:%9!7$/$:&$=11cfi0dfef'9@{be {ff.{Tam6r59!|%.*7/|+G>+;p!7([@'*&^gfhf|&A>g~8#4#f$c+f%U;d#~;ifV'6#1$&^g%w!/#'*8!",
"4|jfkflfmfnfofpfqf[frfsf19('@'y!1$/'h=[@c%{@/%($($}@8+9+|#.+|%Z0}+c+i~'-+ 1*>-,-T'J I!T'|-|-$^$^I!p!'-#+;;7%[-8+7+[]paj$5$!+i@6+c+i@h#2+d+(+i@G>={i@G>_$G>:-u)<&d@]@(%_%]@6%f!!2}&$=&*^)W;[#/#]~5$]dd@d${)l~6+d$V;2$c@e~V;0=1#:&($j,e#e%f$(+f%(#e#9+y>S;Z-b#|$i$|%~#'*B>",
";0tfufvfwfxfyfzfqfAfBf[9}9('~@U~]#|#G>_%{@$'9@}@_$b@b@u>N;]d/@B>]#b$/@6%d@b=d@d@e~/@u)/@.*}*d@7!/@}*^@^@1$0% !b@b@9+}@i$A/)+G>i@6+{+h#i@s!t!c+/~6+i@o!:-:%+!u)h$d$w!6%4@r,$'!0!0C<CfDfd!ka]@c{F>ka/@.*h%X'~+7+1$':/#F>F>b{He{;Efe%a@:-1#(#)@e$9#c%m,c#1#c#1#4$|$%4f%/@^$",
"w2FfGfHfIfJfKfLfMfNfOf*8PfY!e!0]1$|#i@b@}@c{]@b@/$}@b@[/d+b$F>Z![-<$4@]@Z!v)<$3!4@)*[-4@9@6%Z!d!{@3@3@v)9!|$8}7+b@[]5!j$A/<.G>G>6+i@c+s!(+h@h#{+:%/~o![-:%G>/@^'N;f$c#f%(#f%(#g~%0(#/'~#T;N;2&(#T;e#e#2&{)h#A>7%5!f%b{]@<*:&);O~4$e%7@={E:+ D>u>%4e%f%7$a$O~@;|$d@|#%4b$",
"m[QfRfSfTfxfUfVfWfXfYf*84|-cGb}$4%|#/+}@V;}@}@}@c$[@b@5!>*>*/+k@s!e,p!/+(+i@/+/+|+p!(+G i~#+p!s!|+K'h#i@i@_$7+A~b@={A~.*A/_)Z0G>G>bac+c+(++!c+b@X;8+%'F>:-Z0/@7$<$4+~@U~@'/~e]N(df4[J/~@n~X;={~@_$Z0j$4$x0|_8+b=Zff%3!]@2&d%0#`f6$(#8+Q_8+/%}@c$[*Nbe%);e% gf#/%,;|#d@/@",
"4|.g+g@g#g$g%g&g*g=g-g*8Y,%0 'ba4&g~~@}@.*c$8+/%/%c$/%}@_%_%)*r!:-r!N0d!r!%'$'r!={8+}@}@7+A~8+':}@:-{@_%{@_%}@%'(%b@[aj${&2*c@c%}@={c+8+7+[$+!/$G>Z!o!F>r!={v)7$@ 2*/+6&7,_~_~s$bekd>4W~A!z!y!h#<+H!&*6$P6q!={6%[@6$3!(@g~7+e,!+/+c@c+8+/%c@b$'*]@[-b@($~*$;d#V;i$c#m,-=",
"O0;g>g,g'g)g!g~g{g]g^g`7s3|fc{|$4%2&$'g%_+|$_%]@m, ![@b@b@{@}@:-%'kaN0~@~@r!$'A~|$8+]@b@b@b@}@:-_%8+:-7+{@_% !]@/g'*w!3%/#s!~& +b{A~={7+i@8+={8+={{@$'$=G>]@f!]#A>(g<@/%V;V;c$<$7@(@<$<$]@]@c$&;^@{@~#0%{)l~m$j$a@2$3@'*e$g%[*F ,;_g.+c@-;|$3$&^/$[#6%b=b=4$f~c$b=g~/@d$",
"!0:g<g[g}g|g1g2g3g4g5gn9e06g.'/~0$g~]#8%/#[#5$<*W;<*7g5%]#4%3$V']#~'8<^)<*4%7!';f$:-pa!#d@%4}*'*'*.}[-'*8g'*|$.+|$d@i$]#A/s!{@[-}+p!+!G>/~}+7+}+6+Hdm,1$|_}*(%5$m$}*+ /%d@i$_@6%**$=Y[}*}*}*i$b@($}@<&d$C'9{c$8%[]6$3!)*(#7#4#3#0#9g|$m,!#g%a+V;/%4#3#3#0g1#agi7j$g~%4]#",
"1_< bgcgdgegfggghgigjg}9cf^'**.'5%T;B>|$}*%4|$'*m,b@b@m$[@Z0/~G>*{G>r!8+%':-G>o!}*K'bakg[]Hd_$_$:-:-A~A~lg}+mg5!ng_$Y07$6$*~%'%'%'={:-U~N0kalg_$:-lgog'*)</$a=7(7+]@7+,*+;b=%;}&X,-0pg5$6%m,2%_%/$b@<&5%7/l~8+`!z>6$d!|$6$g~]c0#d%U;4%(%|$d@^%)'0=f#@;T;6#d%d%z>i$c#.+3%",
"#'n9qgrgsgtgugRevgwgxg#a0!Db]~7(e%6#T;T;[&]~~#e$6$|#f$3$~#]~{&<#<&[&[#6$c#c#]~f%8#{;S;1#Z-g~(#T;f%(#(#(#(#|#c#d%S;2$e%:#~f2$6$6$h$5$6$~#[#{;]~6$A/6$6$<&7$[&Zb7$_$}@c@^$.*]#{+a(ababgdFb(%a=0%]@^%)*2$6%5$X;={8%l,3$a!}*.*2&9$_#7$g%|%:#2$5%+;yg7$^@e#:&e%<&4%d@(%h~'*5$",
"$=zgAgBgCgDgs7r7=$'0@[^#9!S;3%F>a$4#c#T;c#~;~;T;c#O~f$f$~#2$7$[&[&2$a$:&4$d$e#4#~#)@C>d#EfO~d%O~d%f$0$2$0$Egh%h%0$h%f$U;c#6$d%O~d%d%~#U;7#S;(#Fg0$d#<&h%~#c#g$a=9+{@]@d@2$V;l%GgHgIg>5`~s,<'<*{@'*_%~#+;D{*{($3f[]A/v)6%/%He2%Nb7!/%f~4#9#8<0#4#@;(@&6N;7$T;Jgd@:$c#|$5$",
"v)X'+)KgzaLgJ_I_}1s4F'v)<*(#4$4$8$2&f%3$d$j$5%d$7%4%5%d$d$d$C>]#3%4%5%h~/{:.~#c#Mgf,Wb5%Efe#e#d%O~e%f$:&(#Ng~;<-d%f$f$f#3#f%f$Og0$<&N;3#3#d#c#O~d%9#(#1&:&R;a#j$U] !m,^@3%PgQ8QgRgSgTgY7J>%02&<$(@'*~#5%a=o!':qecb2$3!d@|&d@<-}*)<7$6#2&T;<$6$]cyg~;]@i$N;+;!#,;(%S;|$^)",
"_'[#]~E'D'D'Ug2(D'('(#e#6$:-%'}*7$1#g$4#b#0#7#1#1#1#0#f#1#8#7#7#7#8#1#^~VgG|a/(#Wg/)M;h#%'|_{+c+p!p!i@+!+^i@5+5+5++!/*d+$!Z!)-2*2*k@i@G>Z0Z0|%+!Xgd$Yg>*d@j$<&3%w>}@c@[*8<s,Zg`g h.h+h@hsf0!}a'*^$/$]~4$&*N0%'3%U]2$**d@.+c@';5$[&2&(#1#f$7+(#4##he#d%z(M')'d@b]i$c#d@W;",
"!@K'uaVa$hGd%hxgU(q!a<D>!+!+&h|$2$a$9$,;i$.*d$d$.+/$c@'*'*c@,;%;b]4&4$3%*h=hW;g~.+]+P^-hM ;hU^>h>h,h'h;h)h!h~h{h]h^h/h(h_h:h<h[h}h|h1h2h3h5^4h5h6h()7h$@/12+8!&*t>]@c@_@^)[)8h9h0hahbhchsf0!5#m,%4c@2$3%7(@'_%V'A>dh$=(%d@,;D/3%d#r)g~f~f$0@T;e%d%N;4#4&)'d@g%+;i$c#|$t)",
"<$^@(@}*(@(@)*|$<$/$}*c$F $;m$6%f$d@a@d+i%PgB{<{Bc;=-!_&_&q) *,.$+_&Z07+n#^+W;7$7$f! !U~-=r!7@8+={o!_$b@}+ng={={={lgm,G>I>.+~@A~}@_$8+_%8+8+w!d@]@i$ka*!/@3%h$a}}*&^/%|%7(r,ehfhghhhihjhkh7/}aV;<$}@6$dha=h@)*(%($[&F'd@d@d@,;!#d@f%b#0#h~7!d#4#Fgb#d@gf,;,;%;7%6%S;6%2$",
"/%lh}*.*)@_@}*Z!)*]@_%|%|%a%9+B>0#0$5%e~}*)@}*/@d@.+.+.+.+^$'*m,|$c@|$d@c+A~}#5$e#f%5$[#(#0%7$a=h$a=4$4$]#4$a=4$2%5%<&5%C>h%0$a$<&7$0$7$a$5$e%2&7$<&4$f$d%f%d#h$/%[@c@|$A/x0U)Q>[ 9|mhnh9!}#6$a@m,m,f%]#/#{@{@9$':[#F'^*+;i$d@d@.+/%<$5$]#<*6$]#c$x>($6%+;.*<-ohC>c#d@]#",
"g%)@|$)@.+|$)<]@c@c$V;%;c@[*a%1$1#:&e%e%c#~;c#c#@;e#O~e%]cc#N;N;d%T;d#/#A>m,6$ZbS;ph6#8#qh1#d#0#7#4#6#:#_#_#g$:#Zb3#:#6#b#6#rh:#g#g#a#_#rhshrh:#a#g$g$0gth:#a#6$V;w!d@.+3%{;{)>0uhvh))q,]&^#);b@&^m,A/0%7(~@ !]#':6$1$whM'.*6%d@^@i$)*{@8+c%8+>*_@^@.*,;i$(%s0xh4$c#.+]#",
")@g%[*+;^$<$|$.+m,c@c$d@'*.+yhj$/#4#:#h~:&:#1#b#1#d#d#^'d#b#0#1#1#1#4#2&}*}*^@3%C>b=4%[#7$0$7$[&7$[#3$4$8$7$~#7$8$0%^#e#c#d%~;T;e#e%e%c#c#b#-b6$9#1#<&(#f~(#4#5$m,.+d@/@7%d@/#-'~9x(zh7(7$]&);]@m,c$f%7${&AhBh]#[aB>c#4$4%b=';4%3$]#<*<*<*V'a=]#V'';d$]#8$f$^#7(7$2$,;V'",
"}*}*.+[*|$|$<@|$_@|$|$}*g%%;)'d$A/1%c#2$a$(#6$7$U;f$h%h%h%a$9$4$4$2$(#b#8$2%4%d@d$.*g%d$]#]#]#<*5$^#1$b=1$j$,;d$j$:$i$b]z(Ch&6.+d$Dhd@g%.+&6w!Eh%;0#d$$;T;d%1#5$g%g%b=b^d$';.+}*(@<$'*.+}*^@^%/$M'':(#6${;c{]@5$w!r!4$f%|#c#NgFhc#d#e#d#f~T;c#e#e#(#e#e%d%e#e%e%e%}*7%]#",
"~'}*d@|$|$.+|%|%)@d@d@|$d$|%gf`!c#7#|#7$9$d%5%m,h%4%]#2%7$5%5%4%8%d$a$2&7#^'5#6#8#}a}a^'S;n[Db8#8#(#S;c#S;1#^'2&7#:&2&d#b#8#1#1#1#1#S;c#h~g~g~{{e$b#l(D/f$h%1#7$g%^@v>c$.+.+]@3@[-<$.}^$^$(@/$)@+;|$2&/#{;/~}*~#d$c@>*/$}*d@|$|$|$|$,*&^c@d@b=_@.+e~d@|$.+)@s)7%M~b=c@Ng",
"{;<*4%b=+;b=j$1$';V'3$~'1$j$%;h%6$d#|#7$2%f%dh#;O~2$0%C>C>5%5%8%b]M'`!9%]c5$7$7$8$]#]#5$4%4%d$4%5%0%4$7$[#6$0%a=h$0$2$7({;d%/#|#<#e$[&6$[#6$2&^#S;-b2%j$r)^~8#A/4$Fa$;s)[*,;/@d@)@d@e~/@}*|%&6d@/@(%b#f%[&'*}*3$[-|$c@,;|$&6s)w!)@,;d@&6&6.+c@<@|%d@|$|$|$e~)@)@d@4%%;/#",
"6%}*|$]@~*1.b@[@V;[-}*<$)*}*V;6%/#c#2&f$e%e%@;e%]~2$2$2$]~2$6$3$5$3$8$3$<&[#[&2$6$7$5$6$0$3$7$[&<&2$2$<&1&<&6$[&e#h$6$d%2$/#6$f%~#%0A/<&<&~#2$0$1&]~6$7$6$/#~#1#3#He1#-b1#1#4#1#1#Nbf#:&d#d#d#2&f#d#f~e#N;e#e%c#d%e#f~c#d#d#d#(#c#(#2&:&:&U;U;b#b#d#0#8#d#U;d#:&d#e#d#0#"};
